P3
255 255
255
208 234 233 208 234 233 208 234 233 208 234 233 208 234 233 208 234 233 208 234 233 208 234 233 208 234 233 208 234 233 208 234 233 208 234 233 208 234 233 208 234 233 208 234 233 208 234 233 208 234 233 208 234 233 208 234 233 208 234 233 208 234 233 208 234 233 208 234 233 208 234 233 208 234 233 208 234 233 208 234 233 208 234 233 208 234 233 208 234 233 208 234 233 208 234 233 208 234 233 208 234 233 208 234 233 208 234 233 208 234 233 208 234 233 208 234 233 208 234 233 208 234 233 208 234 233 208 234 233 208 234 233 208 234 233 208 234 233 208 234 233 208 234 233 208 234 233 208 234 233 208 234 233 208 234 233 208 234 233 208 234 233 208 234 233 208 234 233 208 234 233 208 234 233 208 234 233 208 234 233 208 234 233 208 234 233 208 234 233 208 234 233 208 234 233 208 234 233 208 234 233 208 234 233 208 234 233 208 234 233 208 234 233 208 234 233 208 234 233 208 234 233 208 234 233 208 234 233 208 234 233 208 234 233 208 234 233 208 234 233 208 234 233 208 234 233 208 234 233 208 234 233 208 234 233 208 234 233 208 234 233 208 234 233 208 234 233 208 234 233 208 234 233 208 234 233 208 234 233 208 234 233 208 234 233 208 234 233 208 234 233 208 234 233 208 234 233 208 234 233 208 234 233 208 234 233 208 234 233 208 234 233 208 234 233 208 234 233 208 234 233 208 234 233 208 234 233 208 234 233 208 234 233 208 234 233 208 234 233 208 234 233 208 234 233 208 234 233 208 234 233 208 234 233 208 234 233 208 234 233 208 234 233 208 234 233 208 234 233 208 234 233 208 234 233 208 234 233 208 234 233 208 234 233 208 234 233 208 234 233 208 234 233 208 234 233 208 234 233 208 234 233 208 234 233 208 234 233 208 234 233 208 234 233 208 234 233 208 234 233 208 234 233 208 234 233 208 234 233 208 234 233 208 234 233 208 234 233 208 234 233 208 234 233 208 234 233 208 234 233 208 234 233 208 234 233 208 234 233 208 234 233 208 234 233 208 234 233 208 234 233 208 234 233 208 234 233 208 234 233 208 234 233 208 234 233 208 234 233 208 234 233 208 234 233 208 234 233 208 234 233 208 234 233 208 234 233 208 234 233 208 234 233 208 234 233 208 234 233 208 234 233 208 234 233 208 234 233 208 234 233 208 234 233 208 234 233 208 234 233 208 234 233 208 234 233 208 234 233 208 234 233 208 234 233 208 234 233 208 234 233 208 234 233 208 234 233 208 234 233 208 234 233 208 234 233 208 234 233 208 234 233 208 234 233 208 234 233 208 234 233 208 234 233 208 234 233 208 234 233 208 234 233 208 234 233 208 234 233 208 234 233 208 234 233 208 234 233 208 234 233 208 234 233 208 234 233 208 234 233 208 234 233 208 234 233 208 234 233 208 234 233 208 234 233 208 234 233 208 234 233 208 234 233 208 234 233 208 234 233 208 234 233 208 234 233 208 234 233 208 234 233 208 234 233 208 234 233 208 234 233 208 234 233 208 234 233 208 234 233 208 234 233 208 234 233 208 234 233 208 234 233 208 234 233 208 234 233 208 234 233 208 234 233 208 234 233 168 208 217 168 208 217 168 208 217 168 208 217 168 208 217 168 208 217 168 208 217 168 208 217 168 208 217 168 208 217 168 208 217 168 208 217 168 208 217 168 208 217 168 208 217 168 208 217 208 234 233 208 234 233 208 234 233 208 234 233 208 234 233 208 234 233 208 234 233 208 234 233 208 234 233 208 234 233 208 234 233 208 234 233 208 234 233 208 234 233 208 234 233 208 234 233 208 234 233 208 234 233 208 234 233 208 234 233 208 234 233 208 234 233 208 234 233 208 234 233 208 234 233 208 234 233 208 234 233 208 234 233 208 234 233 208 234 233 208 234 233 208 234 233 208 234 233 208 234 233 208 234 233 208 234 233 208 234 233 208 234 233 208 234 233 208 234 233 208 234 233 208 234 233 208 234 233 208 234 233 208 234 233 208 234 233 208 234 233 208 234 233 208 234 233 208 234 233 208 234 233 208 234 233 208 234 233 208 234 233 208 234 233 208 234 233 208 234 233 208 234 233 208 234 233 208 234 233 208 234 233 208 234 233 208 234 233 208 234 233 208 234 233 208 234 233 208 234 233 208 234 233 208 234 233 208 234 233 208 234 233 208 234 233 208 234 233 208 234 233 208 234 233 208 234 233 208 234 233 208 234 233 208 234 233 208 234 233 208 234 233 208 234 233 208 234 233 208 234 233 208 234 233 208 234 233 208 234 233 208 234 233 208 234 233 208 234 233 208 234 233 208 234 233 208 234 233 208 234 233 208 234 233 208 234 233 208 234 233 208 234 233 208 234 233 208 234 233 208 234 233 208 234 233 208 234 233 208 234 233 208 234 233 208 234 233 208 234 233 208 234 233 208 234 233 208 234 233 208 234 233 208 234 233 208 234 233 208 234 233 208 234 233 208 234 233 208 234 233 208 234 233 208 234 233 208 234 233 208 234 233 208 234 233 208 234 233 208 234 233 208 234 233 208 234 233 208 234 233 208 234 233 208 234 233 208 234 233 208 234 233 208 234 233 208 234 233 208 234 233 208 234 233 208 234 233 208 234 233 208 234 233 208 234 233 208 234 233 208 234 233 208 234 233 208 234 233 208 234 233 208 234 233 208 234 233 208 234 233 208 234 233 208 234 233 208 234 233 208 234 233 208 234 233 208 234 233 208 234 233 208 234 233 208 234 233 208 234 233 208 234 233 208 234 233 208 234 233 208 234 233 208 234 233 208 234 233 208 234 233 208 234 233 208 234 233 208 234 233 208 234 233 208 234 233 208 234 233 208 234 233 208 234 233 208 234 233 208 234 233 208 234 233 208 234 233 208 234 233 208 234 233 208 234 233 208 234 233 208 234 233 208 234 233 208 234 233 208 234 233 208 234 233 208 234 233 208 234 233 208 234 233 208 234 233 208 234 233 208 234 233 208 234 233 208 234 233 208 234 233 208 234 233 208 234 233 208 234 233 208 234 233 208 234 233 208 234 233 208 234 233 208 234 233 208 234 233 208 234 233 208 234 233 208 234 233 208 234 233 208 234 233 208 234 233 208 234 233 208 234 233 208 234 233 208 234 233 208 234 233 208 234 233 208 234 233 208 234 233 208 234 233 208 234 233 208 234 233 208 234 233 208 234 233 208 234 233 208 234 233 208 234 233 208 234 233 208 234 233 208 234 233 208 234 233 208 234 233 208 234 233 208 234 233 208 234 233 208 234 233 208 234 233 208 234 233 208 234 233 208 234 233 208 234 233 168 208 217 168 208 217 168 208 217 168 208 217 168 208 217 168 208 217 168 208 217 168 208 217 168 208 217 168 208 217 168 208 217 168 208 217 168 208 217 168 208 217 168 208 217 168 208 217 208 234 233 208 234 233 208 234 233 208 234 233 208 234 233 208 234 233 208 234 233 208 234 233 208 234 233 208 234 233 208 234 233 208 234 233 208 234 233 208 234 233 208 234 233 208 234 233 208 234 233 208 234 233 208 234 233 208 234 233 208 234 233 208 234 233 208 234 233 208 234 233 208 234 233 208 234 233 208 234 233 208 234 233 208 234 233 208 234 233 208 234 233 208 234 233 208 234 233 208 234 233 208 234 233 208 234 233 208 234 233 208 234 233 208 234 233 208 234 233 208 234 233 208 234 233 208 234 233 208 234 233 208 234 233 208 234 233 208 234 233 208 234 233 208 234 233 208 234 233 208 234 233 208 234 233 208 234 233 208 234 233 208 234 233 208 234 233 208 234 233 208 234 233 208 234 233 208 234 233 208 234 233 208 234 233 208 234 233 208 234 233 208 234 233 208 234 233 208 234 233 208 234 233 208 234 233 208 234 233 208 234 233 208 234 233 208 234 233 208 234 233 208 234 233 208 234 233 208 234 233 208 234 233 208 234 233 208 234 233 208 234 233 208 234 233 208 234 233 208 234 233 208 234 233 208 234 233 208 234 233 208 234 233 208 234 233 208 234 233 208 234 233 208 234 233 208 234 233 208 234 233 208 234 233 208 234 233 208 234 233 208 234 233 208 234 233 208 234 233 208 234 233 208 234 233 208 234 233 208 234 233 208 234 233 208 234 233 208 234 233 208 234 233 208 234 233 208 234 233 208 234 233 208 234 233 208 234 233 208 234 233 208 234 233 208 234 233 208 234 233 208 234 233 208 234 233 208 234 233 208 234 233 208 234 233 208 234 233 208 234 233 208 234 233 208 234 233 208 234 233 208 234 233 208 234 233 208 234 233 208 234 233 208 234 233 208 234 233 208 234 233 208 234 233 208 234 233 208 234 233 208 234 233 208 234 233 208 234 233 208 234 233 208 234 233 208 234 233 208 234 233 208 234 233 208 234 233 208 234 233 208 234 233 208 234 233 208 234 233 208 234 233 208 234 233 208 234 233 208 234 233 208 234 233 208 234 233 208 234 233 208 234 233 208 234 233 208 234 233 208 234 233 208 234 233 208 234 233 208 234 233 208 234 233 208 234 233 208 234 233 208 234 233 208 234 233 208 234 233 208 234 233 208 234 233 208 234 233 208 234 233 208 234 233 208 234 233 208 234 233 208 234 233 208 234 233 208 234 233 208 234 233 208 234 233 208 234 233 208 234 233 208 234 233 208 234 233 208 234 233 208 234 233 208 234 233 208 234 233 208 234 233 208 234 233 208 234 233 208 234 233 208 234 233 208 234 233 208 234 233 208 234 233 208 234 233 208 234 233 208 234 233 208 234 233 208 234 233 208 234 233 208 234 233 208 234 233 208 234 233 208 234 233 208 234 233 208 234 233 208 234 233 208 234 233 208 234 233 208 234 233 208 234 233 208 234 233 208 234 233 208 234 233 208 234 233 208 234 233 208 234 233 208 234 233 208 234 233 208 234 233 208 234 233 208 234 233 208 234 233 208 234 233 208 234 233 208 234 233 208 234 233 208 234 233 208 234 233 208 234 233 208 234 233 208 234 233 208 234 233 208 234 233 208 234 233 168 208 217 168 208 217 168 208 217 168 208 217 168 208 217 168 208 217 168 208 217 168 208 217 168 208 217 168 208 217 168 208 217 168 208 217 168 208 217 168 208 217 168 208 217 168 208 217 208 234 233 208 234 233 208 234 233 208 234 233 208 234 233 208 234 233 208 234 233 208 234 233 208 234 233 208 234 233 208 234 233 208 234 233 208 234 233 208 234 233 208 234 233 208 234 233 208 234 233 208 234 233 208 234 233 208 234 233 208 234 233 208 234 233 208 234 233 208 234 233 208 234 233 208 234 233 208 234 233 208 234 233 208 234 233 208 234 233 208 234 233 208 234 233 208 234 233 208 234 233 208 234 233 208 234 233 208 234 233 208 234 233 208 234 233 208 234 233 208 234 233 208 234 233 208 234 233 208 234 233 208 234 233 208 234 233 208 234 233 208 234 233 208 234 233 208 234 233 208 234 233 208 234 233 208 234 233 208 234 233 208 234 233 208 234 233 208 234 233 208 234 233 208 234 233 208 234 233 208 234 233 208 234 233 208 234 233 208 234 233 208 234 233 208 234 233 208 234 233 208 234 233 208 234 233 208 234 233 208 234 233 208 234 233 208 234 233 208 234 233 208 234 233 208 234 233 208 234 233 208 234 233 208 234 233 208 234 233 208 234 233 208 234 233 208 234 233 208 234 233 208 234 233 208 234 233 208 234 233 208 234 233 208 234 233 208 234 233 208 234 233 208 234 233 208 234 233 208 234 233 208 234 233 208 234 233 208 234 233 208 234 233 208 234 233 208 234 233 208 234 233 208 234 233 208 234 233 208 234 233 208 234 233 208 234 233 208 234 233 208 234 233 208 234 233 208 234 233 208 234 233 208 234 233 208 234 233 208 234 233 208 234 233 208 234 233 208 234 233 208 234 233 208 234 233 208 234 233 208 234 233 208 234 233 208 234 233 208 234 233 208 234 233 208 234 233 208 234 233 208 234 233 208 234 233 208 234 233 208 234 233 208 234 233 208 234 233 208 234 233 208 234 233 208 234 233 208 234 233 208 234 233 208 234 233 208 234 233 208 234 233 208 234 233 208 234 233 208 234 233 208 234 233 208 234 233 208 234 233 208 234 233 208 234 233 208 234 233 208 234 233 208 234 233 208 234 233 208 234 233 208 234 233 208 234 233 208 234 233 208 234 233 208 234 233 208 234 233 208 234 233 208 234 233 208 234 233 208 234 233 208 234 233 208 234 233 208 234 233 208 234 233 208 234 233 208 234 233 208 234 233 208 234 233 208 234 233 208 234 233 208 234 233 208 234 233 208 234 233 208 234 233 208 234 233 208 234 233 208 234 233 208 234 233 208 234 233 208 234 233 208 234 233 208 234 233 208 234 233 208 234 233 208 234 233 208 234 233 208 234 233 208 234 233 208 234 233 208 234 233 208 234 233 208 234 233 208 234 233 208 234 233 208 234 233 208 234 233 208 234 233 208 234 233 208 234 233 208 234 233 208 234 233 208 234 233 208 234 233 208 234 233 208 234 233 208 234 233 208 234 233 208 234 233 208 234 233 208 234 233 208 234 233 208 234 233 208 234 233 208 234 233 208 234 233 208 234 233 208 234 233 208 234 233 208 234 233 208 234 233 208 234 233 208 234 233 208 234 233 208 234 233 208 234 233 208 234 233 208 234 233 208 234 233 208 234 233 208 234 233 208 234 233 208 234 233 208 234 233 208 234 233 208 234 233 168 208 217 168 208 217 168 208 217 168 208 217 168 208 217 168 208 217 168 208 217 168 208 217 168 208 217 168 208 217 168 208 217 168 208 217 168 208 217 168 208 217 168 208 217 168 208 217 208 234 233 208 234 233 208 234 233 208 234 233 208 234 233 208 234 233 208 234 233 208 234 233 208 234 233 208 234 233 208 234 233 208 234 233 208 234 233 208 234 233 208 234 233 208 234 233 208 234 233 208 234 233 208 234 233 208 234 233 208 234 233 208 234 233 208 234 233 208 234 233 208 234 233 208 234 233 208 234 233 208 234 233 208 234 233 208 234 233 208 234 233 208 234 233 208 234 233 208 234 233 208 234 233 208 234 233 208 234 233 208 234 233 208 234 233 208 234 233 208 234 233 208 234 233 208 234 233 208 234 233 208 234 233 208 234 233 208 234 233 208 234 233 208 234 233 208 234 233 208 234 233 208 234 233 208 234 233 208 234 233 208 234 233 208 234 233 208 234 233 208 234 233 208 234 233 208 234 233 208 234 233 208 234 233 208 234 233 208 234 233 208 234 233 208 234 233 208 234 233 208 234 233 208 234 233 208 234 233 208 234 233 208 234 233 208 234 233 208 234 233 208 234 233 208 234 233 208 234 233 208 234 233 208 234 233 208 234 233 208 234 233 208 234 233 208 234 233 208 234 233 208 234 233 208 234 233 208 234 233 208 234 233 208 234 233 208 234 233 208 234 233 208 234 233 208 234 233 208 234 233 208 234 233 208 234 233 208 234 233 208 234 233 208 234 233 208 234 233 208 234 233 208 234 233 208 234 233 208 234 233 208 234 233 208 234 233 208 234 233 208 234 233 208 234 233 208 234 233 208 234 233 208 234 233 208 234 233 208 234 233 208 234 233 208 234 233 208 234 233 208 234 233 208 234 233 208 234 233 208 234 233 208 234 233 208 234 233 208 234 233 208 234 233 208 234 233 208 234 233 208 234 233 208 234 233 208 234 233 208 234 233 208 234 233 208 234 233 208 234 233 208 234 233 208 234 233 208 234 233 208 234 233 208 234 233 208 234 233 208 234 233 208 234 233 208 234 233 208 234 233 208 234 233 208 234 233 208 234 233 208 234 233 208 234 233 208 234 233 208 234 233 208 234 233 208 234 233 208 234 233 208 234 233 208 234 233 208 234 233 208 234 233 208 234 233 208 234 233 208 234 233 208 234 233 208 234 233 208 234 233 208 234 233 208 234 233 208 234 233 208 234 233 208 234 233 208 234 233 208 234 233 208 234 233 208 234 233 208 234 233 208 234 233 208 234 233 208 234 233 208 234 233 208 234 233 208 234 233 208 234 233 208 234 233 208 234 233 208 234 233 208 234 233 208 234 233 208 234 233 208 234 233 208 234 233 208 234 233 208 234 233 208 234 233 208 234 233 208 234 233 208 234 233 208 234 233 208 234 233 208 234 233 208 234 233 208 234 233 208 234 233 208 234 233 208 234 233 208 234 233 208 234 233 208 234 233 208 234 233 208 234 233 208 234 233 208 234 233 208 234 233 208 234 233 208 234 233 208 234 233 208 234 233 208 234 233 208 234 233 208 234 233 208 234 233 208 234 233 208 234 233 208 234 233 208 234 233 208 234 233 208 234 233 208 234 233 208 234 233 208 234 233 208 234 233 208 234 233 208 234 233 208 234 233 208 234 233 208 234 233 208 234 233 208 234 233 208 234 233 208 234 233 208 234 233 168 208 217 168 208 217 168 208 217 168 208 217 168 208 217 168 208 217 168 208 217 168 208 217 168 208 217 168 208 217 168 208 217 168 208 217 168 208 217 168 208 217 168 208 217 168 208 217 208 234 233 208 234 233 208 234 233 208 234 233 208 234 233 208 234 233 208 234 233 208 234 233 208 234 233 208 234 233 208 234 233 208 234 233 208 234 233 208 234 233 208 234 233 208 234 233 208 234 233 208 234 233 208 234 233 208 234 233 208 234 233 208 234 233 208 234 233 208 234 233 208 234 233 208 234 233 208 234 233 208 234 233 208 234 233 208 234 233 208 234 233 208 234 233 208 234 233 208 234 233 208 234 233 208 234 233 208 234 233 208 234 233 208 234 233 208 234 233 208 234 233 208 234 233 208 234 233 208 234 233 208 234 233 208 234 233 208 234 233 208 234 233 208 234 233 208 234 233 208 234 233 208 234 233 208 234 233 208 234 233 208 234 233 208 234 233 208 234 233 208 234 233 208 234 233 208 234 233 208 234 233 208 234 233 208 234 233 208 234 233 208 234 233 208 234 233 208 234 233 208 234 233 208 234 233 208 234 233 208 234 233 208 234 233 208 234 233 208 234 233 208 234 233 208 234 233 208 234 233 208 234 233 208 234 233 208 234 233 208 234 233 208 234 233 208 234 233 208 234 233 208 234 233 208 234 233 208 234 233 208 234 233 208 234 233 208 234 233 208 234 233 208 234 233 208 234 233 208 234 233 208 234 233 208 234 233 208 234 233 208 234 233 208 234 233 208 234 233 208 234 233 208 234 233 208 234 233 208 234 233 208 234 233 208 234 233 208 234 233 208 234 233 208 234 233 208 234 233 208 234 233 208 234 233 208 234 233 208 234 233 208 234 233 208 234 233 208 234 233 208 234 233 208 234 233 208 234 233 208 234 233 208 234 233 208 234 233 208 234 233 208 234 233 208 234 233 208 234 233 208 234 233 208 234 233 208 234 233 208 234 233 208 234 233 208 234 233 208 234 233 208 234 233 208 234 233 208 234 233 208 234 233 208 234 233 208 234 233 208 234 233 208 234 233 208 234 233 208 234 233 208 234 233 208 234 233 208 234 233 208 234 233 208 234 233 208 234 233 208 234 233 208 234 233 208 234 233 208 234 233 208 234 233 208 234 233 208 234 233 208 234 233 208 234 233 208 234 233 208 234 233 208 234 233 208 234 233 208 234 233 208 234 233 208 234 233 208 234 233 208 234 233 208 234 233 208 234 233 208 234 233 208 234 233 208 234 233 208 234 233 208 234 233 208 234 233 208 234 233 208 234 233 208 234 233 208 234 233 208 234 233 208 234 233 208 234 233 208 234 233 208 234 233 208 234 233 208 234 233 208 234 233 208 234 233 208 234 233 208 234 233 208 234 233 208 234 233 208 234 233 208 234 233 208 234 233 208 234 233 208 234 233 208 234 233 208 234 233 208 234 233 208 234 233 208 234 233 208 234 233 208 234 233 208 234 233 208 234 233 208 234 233 208 234 233 208 234 233 208 234 233 208 234 233 208 234 233 208 234 233 208 234 233 208 234 233 208 234 233 208 234 233 208 234 233 208 234 233 208 234 233 208 234 233 208 234 233 208 234 233 208 234 233 208 234 233 208 234 233 208 234 233 208 234 233 208 234 233 208 234 233 208 234 233 208 234 233 208 234 233 208 234 233 208 234 233 208 234 233 208 234 233 208 234 233 168 208 217 168 208 217 168 208 217 168 208 217 168 208 217 168 208 217 168 208 217 168 208 217 168 208 217 168 208 217 168 208 217 168 208 217 168 208 217 168 208 217 168 208 217 168 208 217 208 234 233 208 234 233 208 234 233 208 234 233 208 234 233 208 234 233 208 234 233 208 234 233 208 234 233 208 234 233 208 234 233 208 234 233 208 234 233 208 234 233 208 234 233 208 234 233 208 234 233 208 234 233 208 234 233 208 234 233 208 234 233 208 234 233 208 234 233 208 234 233 208 234 233 208 234 233 208 234 233 208 234 233 208 234 233 208 234 233 208 234 233 208 234 233 208 234 233 208 234 233 208 234 233 208 234 233 208 234 233 208 234 233 208 234 233 208 234 233 208 234 233 208 234 233 208 234 233 208 234 233 208 234 233 208 234 233 208 234 233 208 234 233 208 234 233 208 234 233 208 234 233 208 234 233 208 234 233 208 234 233 208 234 233 208 234 233 208 234 233 208 234 233 208 234 233 208 234 233 208 234 233 208 234 233 208 234 233 208 234 233 208 234 233 208 234 233 208 234 233 208 234 233 208 234 233 208 234 233 208 234 233 208 234 233 208 234 233 208 234 233 208 234 233 208 234 233 208 234 233 208 234 233 208 234 233 208 234 233 208 234 233 208 234 233 208 234 233 208 234 233 208 234 233 208 234 233 208 234 233 208 234 233 208 234 233 208 234 233 208 234 233 208 234 233 208 234 233 208 234 233 208 234 233 208 234 233 208 234 233 208 234 233 208 234 233 208 234 233 208 234 233 208 234 233 208 234 233 208 234 233 208 234 233 208 234 233 208 234 233 208 234 233 208 234 233 208 234 233 208 234 233 208 234 233 208 234 233 208 234 233 208 234 233 208 234 233 208 234 233 208 234 233 208 234 233 208 234 233 208 234 233 208 234 233 208 234 233 208 234 233 208 234 233 208 234 233 208 234 233 208 234 233 208 234 233 208 234 233 208 234 233 208 234 233 208 234 233 208 234 233 208 234 233 208 234 233 208 234 233 208 234 233 208 234 233 208 234 233 208 234 233 208 234 233 208 234 233 208 234 233 208 234 233 208 234 233 208 234 233 208 234 233 208 234 233 208 234 233 208 234 233 208 234 233 208 234 233 208 234 233 208 234 233 208 234 233 208 234 233 208 234 233 208 234 233 208 234 233 208 234 233 208 234 233 208 234 233 208 234 233 208 234 233 208 234 233 208 234 233 208 234 233 208 234 233 208 234 233 208 234 233 208 234 233 208 234 233 208 234 233 208 234 233 208 234 233 208 234 233 208 234 233 208 234 233 208 234 233 208 234 233 208 234 233 208 234 233 208 234 233 208 234 233 208 234 233 208 234 233 208 234 233 208 234 233 208 234 233 208 234 233 208 234 233 208 234 233 208 234 233 208 234 233 208 234 233 208 234 233 208 234 233 208 234 233 208 234 233 208 234 233 208 234 233 208 234 233 208 234 233 208 234 233 208 234 233 208 234 233 208 234 233 208 234 233 208 234 233 208 234 233 208 234 233 208 234 233 208 234 233 208 234 233 208 234 233 208 234 233 208 234 233 208 234 233 208 234 233 208 234 233 208 234 233 208 234 233 208 234 233 208 234 233 208 234 233 208 234 233 208 234 233 208 234 233 208 234 233 208 234 233 208 234 233 208 234 233 208 234 233 208 234 233 208 234 233 208 234 233 208 234 233 208 234 233 168 208 217 168 208 217 168 208 217 168 208 217 168 208 217 168 208 217 168 208 217 168 208 217 168 208 217 168 208 217 168 208 217 168 208 217 168 208 217 168 208 217 168 208 217 168 208 217 208 234 233 208 234 233 208 234 233 208 234 233 208 234 233 208 234 233 208 234 233 208 234 233 208 234 233 208 234 233 208 234 233 208 234 233 208 234 233 208 234 233 208 234 233 208 234 233 208 234 233 208 234 233 208 234 233 208 234 233 208 234 233 208 234 233 208 234 233 208 234 233 208 234 233 208 234 233 208 234 233 208 234 233 208 234 233 208 234 233 208 234 233 208 234 233 208 234 233 208 234 233 208 234 233 208 234 233 208 234 233 208 234 233 208 234 233 208 234 233 208 234 233 208 234 233 208 234 233 208 234 233 208 234 233 208 234 233 208 234 233 208 234 233 208 234 233 208 234 233 208 234 233 208 234 233 208 234 233 208 234 233 208 234 233 208 234 233 208 234 233 208 234 233 208 234 233 208 234 233 208 234 233 208 234 233 208 234 233 208 234 233 208 234 233 208 234 233 208 234 233 208 234 233 208 234 233 208 234 233 208 234 233 208 234 233 208 234 233 208 234 233 208 234 233 208 234 233 208 234 233 208 234 233 208 234 233 208 234 233 208 234 233 208 234 233 208 234 233 208 234 233 208 234 233 208 234 233 208 234 233 208 234 233 208 234 233 208 234 233 208 234 233 208 234 233 208 234 233 208 234 233 208 234 233 208 234 233 208 234 233 208 234 233 208 234 233 208 234 233 208 234 233 208 234 233 208 234 233 208 234 233 208 234 233 208 234 233 208 234 233 208 234 233 208 234 233 208 234 233 208 234 233 208 234 233 208 234 233 208 234 233 208 234 233 208 234 233 208 234 233 208 234 233 208 234 233 208 234 233 208 234 233 208 234 233 208 234 233 208 234 233 208 234 233 208 234 233 208 234 233 208 234 233 208 234 233 208 234 233 208 234 233 208 234 233 208 234 233 208 234 233 208 234 233 208 234 233 208 234 233 208 234 233 208 234 233 208 234 233 208 234 233 208 234 233 208 234 233 208 234 233 208 234 233 208 234 233 208 234 233 208 234 233 208 234 233 208 234 233 208 234 233 208 234 233 208 234 233 208 234 233 208 234 233 208 234 233 208 234 233 208 234 233 208 234 233 208 234 233 208 234 233 208 234 233 208 234 233 208 234 233 208 234 233 208 234 233 208 234 233 208 234 233 208 234 233 208 234 233 208 234 233 208 234 233 208 234 233 208 234 233 208 234 233 208 234 233 208 234 233 208 234 233 208 234 233 208 234 233 208 234 233 208 234 233 208 234 233 208 234 233 208 234 233 208 234 233 208 234 233 208 234 233 208 234 233 208 234 233 208 234 233 208 234 233 208 234 233 208 234 233 208 234 233 208 234 233 208 234 233 208 234 233 208 234 233 208 234 233 208 234 233 208 234 233 208 234 233 208 234 233 208 234 233 208 234 233 208 234 233 208 234 233 208 234 233 208 234 233 208 234 233 208 234 233 208 234 233 208 234 233 208 234 233 208 234 233 208 234 233 208 234 233 208 234 233 208 234 233 208 234 233 208 234 233 208 234 233 208 234 233 208 234 233 208 234 233 208 234 233 208 234 233 208 234 233 208 234 233 208 234 233 208 234 233 208 234 233 208 234 233 208 234 233 208 234 233 208 234 233 208 234 233 208 234 233 168 208 217 168 208 217 168 208 217 168 208 217 168 208 217 168 208 217 168 208 217 168 208 217 168 208 217 168 208 217 168 208 217 168 208 217 168 208 217 168 208 217 168 208 217 168 208 217 208 234 233 208 234 233 208 234 233 208 234 233 208 234 233 208 234 233 208 234 233 208 234 233 208 234 233 208 234 233 208 234 233 208 234 233 208 234 233 208 234 233 208 234 233 208 234 233 208 234 233 208 234 233 208 234 233 208 234 233 208 234 233 208 234 233 208 234 233 208 234 233 208 234 233 208 234 233 208 234 233 208 234 233 208 234 233 208 234 233 208 234 233 208 234 233 208 234 233 208 234 233 208 234 233 208 234 233 208 234 233 208 234 233 208 234 233 208 234 233 208 234 233 208 234 233 208 234 233 208 234 233 208 234 233 208 234 233 208 234 233 208 234 233 208 234 233 208 234 233 208 234 233 208 234 233 208 234 233 208 234 233 208 234 233 208 234 233 208 234 233 208 234 233 208 234 233 208 234 233 208 234 233 208 234 233 208 234 233 208 234 233 208 234 233 208 234 233 208 234 233 208 234 233 208 234 233 208 234 233 208 234 233 208 234 233 208 234 233 208 234 233 208 234 233 208 234 233 208 234 233 208 234 233 208 234 233 208 234 233 208 234 233 208 234 233 208 234 233 208 234 233 208 234 233 208 234 233 208 234 233 208 234 233 208 234 233 208 234 233 208 234 233 208 234 233 208 234 233 208 234 233 208 234 233 208 234 233 208 234 233 208 234 233 208 234 233 208 234 233 208 234 233 208 234 233 208 234 233 208 234 233 208 234 233 208 234 233 208 234 233 208 234 233 208 234 233 208 234 233 208 234 233 208 234 233 208 234 233 208 234 233 208 234 233 208 234 233 208 234 233 208 234 233 208 234 233 208 234 233 208 234 233 208 234 233 208 234 233 208 234 233 208 234 233 208 234 233 208 234 233 208 234 233 208 234 233 208 234 233 208 234 233 208 234 233 208 234 233 208 234 233 208 234 233 208 234 233 208 234 233 208 234 233 208 234 233 208 234 233 208 234 233 208 234 233 208 234 233 208 234 233 208 234 233 208 234 233 208 234 233 208 234 233 208 234 233 208 234 233 208 234 233 208 234 233 208 234 233 208 234 233 208 234 233 208 234 233 208 234 233 208 234 233 208 234 233 208 234 233 208 234 233 208 234 233 208 234 233 208 234 233 208 234 233 208 234 233 208 234 233 208 234 233 208 234 233 208 234 233 208 234 233 208 234 233 208 234 233 208 234 233 208 234 233 208 234 233 208 234 233 208 234 233 208 234 233 208 234 233 208 234 233 208 234 233 208 234 233 208 234 233 208 234 233 208 234 233 208 234 233 208 234 233 208 234 233 208 234 233 208 234 233 208 234 233 208 234 233 208 234 233 208 234 233 208 234 233 208 234 233 208 234 233 208 234 233 208 234 233 208 234 233 208 234 233 208 234 233 208 234 233 208 234 233 208 234 233 208 234 233 208 234 233 208 234 233 208 234 233 208 234 233 208 234 233 208 234 233 208 234 233 208 234 233 208 234 233 208 234 233 208 234 233 208 234 233 208 234 233 208 234 233 208 234 233 208 234 233 208 234 233 208 234 233 208 234 233 208 234 233 208 234 233 208 234 233 208 234 233 208 234 233 208 234 233 208 234 233 208 234 233 208 234 233 208 234 233 208 234 233 208 234 233 208 234 233 168 208 217 168 208 217 168 208 217 168 208 217 168 208 217 168 208 217 168 208 217 168 208 217 168 208 217 168 208 217 168 208 217 168 208 217 168 208 217 168 208 217 168 208 217 168 208 217 208 234 233 208 234 233 208 234 233 208 234 233 208 234 233 208 234 233 208 234 233 208 234 233 208 234 233 208 234 233 208 234 233 208 234 233 208 234 233 208 234 233 208 234 233 208 234 233 208 234 233 208 234 233 208 234 233 208 234 233 208 234 233 208 234 233 208 234 233 208 234 233 208 234 233 208 234 233 208 234 233 208 234 233 208 234 233 208 234 233 208 234 233 208 234 233 208 234 233 208 234 233 208 234 233 208 234 233 208 234 233 208 234 233 208 234 233 208 234 233 208 234 233 208 234 233 208 234 233 208 234 233 208 234 233 208 234 233 208 234 233 208 234 233 208 234 233 208 234 233 208 234 233 208 234 233 208 234 233 208 234 233 208 234 233 208 234 233 208 234 233 208 234 233 208 234 233 208 234 233 208 234 233 208 234 233 208 234 233 208 234 233 208 234 233 208 234 233 208 234 233 208 234 233 208 234 233 208 234 233 208 234 233 208 234 233 208 234 233 208 234 233 208 234 233 208 234 233 208 234 233 208 234 233 208 234 233 208 234 233 208 234 233 208 234 233 208 234 233 208 234 233 208 234 233 208 234 233 208 234 233 208 234 233 208 234 233 208 234 233 208 234 233 208 234 233 208 234 233 208 234 233 208 234 233 208 234 233 208 234 233 208 234 233 208 234 233 208 234 233 208 234 233 208 234 233 208 234 233 208 234 233 208 234 233 208 234 233 208 234 233 208 234 233 208 234 233 208 234 233 208 234 233 208 234 233 208 234 233 208 234 233 208 234 233 208 234 233 208 234 233 208 234 233 208 234 233 208 234 233 208 234 233 208 234 233 208 234 233 208 234 233 208 234 233 208 234 233 208 234 233 208 234 233 208 234 233 208 234 233 208 234 233 208 234 233 208 234 233 208 234 233 208 234 233 208 234 233 208 234 233 208 234 233 208 234 233 208 234 233 208 234 233 208 234 233 208 234 233 208 234 233 208 234 233 208 234 233 208 234 233 208 234 233 208 234 233 208 234 233 208 234 233 208 234 233 208 234 233 208 234 233 208 234 233 208 234 233 208 234 233 208 234 233 208 234 233 208 234 233 208 234 233 208 234 233 208 234 233 208 234 233 208 234 233 208 234 233 208 234 233 208 234 233 208 234 233 208 234 233 208 234 233 208 234 233 208 234 233 208 234 233 208 234 233 208 234 233 208 234 233 208 234 233 208 234 233 208 234 233 208 234 233 208 234 233 208 234 233 208 234 233 208 234 233 208 234 233 208 234 233 208 234 233 208 234 233 208 234 233 208 234 233 208 234 233 208 234 233 208 234 233 208 234 233 208 234 233 208 234 233 208 234 233 208 234 233 208 234 233 208 234 233 208 234 233 208 234 233 208 234 233 208 234 233 208 234 233 208 234 233 208 234 233 208 234 233 208 234 233 208 234 233 208 234 233 208 234 233 208 234 233 208 234 233 208 234 233 208 234 233 208 234 233 208 234 233 208 234 233 208 234 233 208 234 233 208 234 233 208 234 233 208 234 233 208 234 233 208 234 233 208 234 233 208 234 233 208 234 233 208 234 233 208 234 233 208 234 233 208 234 233 208 234 233 208 234 233 208 234 233 208 234 233 208 234 233 168 208 217 168 208 217 168 208 217 168 208 217 168 208 217 168 208 217 168 208 217 168 208 217 168 208 217 168 208 217 168 208 217 168 208 217 168 208 217 168 208 217 168 208 217 168 208 217 208 234 233 208 234 233 208 234 233 208 234 233 208 234 233 208 234 233 208 234 233 208 234 233 208 234 233 208 234 233 208 234 233 208 234 233 208 234 233 208 234 233 208 234 233 208 234 233 208 234 233 208 234 233 208 234 233 208 234 233 208 234 233 208 234 233 208 234 233 208 234 233 208 234 233 208 234 233 208 234 233 208 234 233 208 234 233 208 234 233 208 234 233 208 234 233 208 234 233 208 234 233 208 234 233 208 234 233 208 234 233 208 234 233 208 234 233 208 234 233 208 234 233 208 234 233 208 234 233 208 234 233 208 234 233 208 234 233 208 234 233 208 234 233 208 234 233 208 234 233 208 234 233 208 234 233 208 234 233 208 234 233 208 234 233 208 234 233 208 234 233 208 234 233 208 234 233 208 234 233 208 234 233 208 234 233 208 234 233 208 234 233 208 234 233 208 234 233 208 234 233 208 234 233 208 234 233 208 234 233 208 234 233 208 234 233 208 234 233 208 234 233 208 234 233 208 234 233 208 234 233 208 234 233 208 234 233 208 234 233 208 234 233 208 234 233 208 234 233 208 234 233 208 234 233 208 234 233 208 234 233 208 234 233 208 234 233 208 234 233 208 234 233 208 234 233 208 234 233 208 234 233 208 234 233 208 234 233 208 234 233 208 234 233 208 234 233 208 234 233 208 234 233 208 234 233 208 234 233 208 234 233 208 234 233 208 234 233 208 234 233 208 234 233 208 234 233 208 234 233 208 234 233 208 234 233 208 234 233 208 234 233 208 234 233 208 234 233 208 234 233 208 234 233 208 234 233 208 234 233 208 234 233 208 234 233 208 234 233 208 234 233 208 234 233 208 234 233 208 234 233 208 234 233 208 234 233 208 234 233 208 234 233 208 234 233 208 234 233 208 234 233 208 234 233 208 234 233 208 234 233 208 234 233 208 234 233 208 234 233 208 234 233 208 234 233 208 234 233 208 234 233 208 234 233 208 234 233 208 234 233 208 234 233 208 234 233 208 234 233 208 234 233 208 234 233 208 234 233 208 234 233 208 234 233 208 234 233 208 234 233 208 234 233 208 234 233 208 234 233 208 234 233 208 234 233 208 234 233 208 234 233 208 234 233 208 234 233 208 234 233 208 234 233 208 234 233 208 234 233 208 234 233 208 234 233 208 234 233 208 234 233 208 234 233 208 234 233 208 234 233 208 234 233 208 234 233 208 234 233 208 234 233 208 234 233 208 234 233 208 234 233 208 234 233 208 234 233 208 234 233 208 234 233 208 234 233 208 234 233 208 234 233 208 234 233 208 234 233 208 234 233 208 234 233 208 234 233 208 234 233 208 234 233 208 234 233 208 234 233 208 234 233 208 234 233 208 234 233 208 234 233 208 234 233 208 234 233 208 234 233 208 234 233 208 234 233 208 234 233 208 234 233 208 234 233 208 234 233 208 234 233 208 234 233 208 234 233 208 234 233 208 234 233 208 234 233 208 234 233 208 234 233 208 234 233 208 234 233 208 234 233 208 234 233 208 234 233 208 234 233 208 234 233 208 234 233 208 234 233 208 234 233 208 234 233 208 234 233 208 234 233 208 234 233 208 234 233 208 234 233 208 234 233 208 234 233 168 208 217 168 208 217 168 208 217 168 208 217 168 208 217 168 208 217 168 208 217 168 208 217 168 208 217 168 208 217 168 208 217 168 208 217 168 208 217 168 208 217 168 208 217 168 208 217 208 234 233 208 234 233 208 234 233 208 234 233 208 234 233 208 234 233 208 234 233 208 234 233 208 234 233 208 234 233 208 234 233 208 234 233 208 234 233 208 234 233 208 234 233 208 234 233 208 234 233 208 234 233 208 234 233 208 234 233 208 234 233 208 234 233 208 234 233 208 234 233 208 234 233 208 234 233 208 234 233 208 234 233 208 234 233 208 234 233 208 234 233 208 234 233 208 234 233 208 234 233 208 234 233 208 234 233 208 234 233 208 234 233 208 234 233 208 234 233 208 234 233 208 234 233 208 234 233 208 234 233 208 234 233 208 234 233 208 234 233 208 234 233 208 234 233 208 234 233 208 234 233 208 234 233 208 234 233 208 234 233 208 234 233 208 234 233 208 234 233 208 234 233 208 234 233 208 234 233 208 234 233 208 234 233 208 234 233 208 234 233 208 234 233 208 234 233 208 234 233 208 234 233 208 234 233 208 234 233 208 234 233 208 234 233 208 234 233 208 234 233 208 234 233 208 234 233 208 234 233 208 234 233 208 234 233 208 234 233 208 234 233 208 234 233 208 234 233 208 234 233 208 234 233 208 234 233 208 234 233 208 234 233 208 234 233 208 234 233 208 234 233 208 234 233 208 234 233 208 234 233 208 234 233 208 234 233 208 234 233 208 234 233 208 234 233 208 234 233 208 234 233 208 234 233 208 234 233 208 234 233 208 234 233 208 234 233 208 234 233 208 234 233 208 234 233 208 234 233 208 234 233 208 234 233 208 234 233 208 234 233 208 234 233 208 234 233 208 234 233 208 234 233 208 234 233 208 234 233 208 234 233 208 234 233 208 234 233 208 234 233 208 234 233 208 234 233 208 234 233 208 234 233 208 234 233 208 234 233 208 234 233 208 234 233 208 234 233 208 234 233 208 234 233 208 234 233 208 234 233 208 234 233 208 234 233 208 234 233 208 234 233 208 234 233 208 234 233 208 234 233 208 234 233 208 234 233 208 234 233 208 234 233 208 234 233 208 234 233 208 234 233 208 234 233 208 234 233 208 234 233 208 234 233 208 234 233 208 234 233 208 234 233 208 234 233 208 234 233 208 234 233 208 234 233 208 234 233 208 234 233 208 234 233 208 234 233 208 234 233 208 234 233 208 234 233 208 234 233 208 234 233 208 234 233 208 234 233 208 234 233 208 234 233 208 234 233 208 234 233 208 234 233 208 234 233 208 234 233 208 234 233 208 234 233 208 234 233 208 234 233 208 234 233 208 234 233 208 234 233 208 234 233 208 234 233 208 234 233 208 234 233 208 234 233 208 234 233 208 234 233 208 234 233 208 234 233 208 234 233 208 234 233 208 234 233 208 234 233 208 234 233 208 234 233 208 234 233 208 234 233 208 234 233 208 234 233 208 234 233 208 234 233 208 234 233 208 234 233 208 234 233 208 234 233 208 234 233 208 234 233 208 234 233 208 234 233 208 234 233 208 234 233 208 234 233 208 234 233 208 234 233 208 234 233 208 234 233 208 234 233 208 234 233 208 234 233 208 234 233 208 234 233 208 234 233 208 234 233 208 234 233 208 234 233 208 234 233 208 234 233 208 234 233 208 234 233 208 234 233 208 234 233 208 234 233 168 208 217 168 208 217 168 208 217 168 208 217 168 208 217 168 208 217 168 208 217 168 208 217 168 208 217 168 208 217 168 208 217 168 208 217 168 208 217 168 208 217 168 208 217 168 208 217 208 234 233 208 234 233 208 234 233 208 234 233 208 234 233 208 234 233 208 234 233 208 234 233 208 234 233 208 234 233 208 234 233 208 234 233 208 234 233 208 234 233 208 234 233 208 234 233 208 234 233 208 234 233 208 234 233 208 234 233 208 234 233 208 234 233 208 234 233 208 234 233 208 234 233 208 234 233 208 234 233 208 234 233 208 234 233 208 234 233 208 234 233 208 234 233 208 234 233 208 234 233 208 234 233 208 234 233 208 234 233 208 234 233 208 234 233 208 234 233 208 234 233 208 234 233 208 234 233 208 234 233 208 234 233 208 234 233 208 234 233 208 234 233 208 234 233 208 234 233 208 234 233 208 234 233 208 234 233 208 234 233 208 234 233 208 234 233 208 234 233 208 234 233 208 234 233 208 234 233 208 234 233 208 234 233 208 234 233 208 234 233 208 234 233 208 234 233 208 234 233 208 234 233 208 234 233 208 234 233 208 234 233 208 234 233 208 234 233 208 234 233 208 234 233 208 234 233 208 234 233 208 234 233 208 234 233 208 234 233 208 234 233 208 234 233 208 234 233 208 234 233 208 234 233 208 234 233 208 234 233 208 234 233 208 234 233 208 234 233 208 234 233 208 234 233 208 234 233 208 234 233 208 234 233 208 234 233 208 234 233 208 234 233 208 234 233 208 234 233 208 234 233 208 234 233 208 234 233 208 234 233 208 234 233 208 234 233 208 234 233 208 234 233 208 234 233 208 234 233 208 234 233 208 234 233 208 234 233 208 234 233 208 234 233 208 234 233 208 234 233 208 234 233 208 234 233 208 234 233 208 234 233 208 234 233 208 234 233 208 234 233 208 234 233 208 234 233 208 234 233 208 234 233 208 234 233 208 234 233 208 234 233 208 234 233 208 234 233 208 234 233 208 234 233 208 234 233 208 234 233 208 234 233 208 234 233 208 234 233 208 234 233 208 234 233 208 234 233 208 234 233 208 234 233 208 234 233 208 234 233 208 234 233 208 234 233 208 234 233 208 234 233 208 234 233 208 234 233 208 234 233 208 234 233 208 234 233 208 234 233 208 234 233 208 234 233 208 234 233 208 234 233 208 234 233 208 234 233 208 234 233 208 234 233 208 234 233 208 234 233 208 234 233 208 234 233 208 234 233 208 234 233 208 234 233 208 234 233 208 234 233 208 234 233 208 234 233 208 234 233 208 234 233 208 234 233 208 234 233 208 234 233 208 234 233 208 234 233 208 234 233 208 234 233 208 234 233 208 234 233 208 234 233 208 234 233 208 234 233 208 234 233 208 234 233 208 234 233 208 234 233 208 234 233 208 234 233 208 234 233 208 234 233 208 234 233 208 234 233 208 234 233 208 234 233 208 234 233 208 234 233 208 234 233 208 234 233 208 234 233 208 234 233 208 234 233 208 234 233 208 234 233 208 234 233 208 234 233 208 234 233 208 234 233 208 234 233 208 234 233 208 234 233 208 234 233 208 234 233 208 234 233 208 234 233 208 234 233 208 234 233 208 234 233 208 234 233 208 234 233 208 234 233 208 234 233 208 234 233 208 234 233 208 234 233 208 234 233 208 234 233 208 234 233 208 234 233 208 234 233 208 234 233 208 234 233 168 208 217 168 208 217 168 208 217 168 208 217 168 208 217 168 208 217 168 208 217 168 208 217 168 208 217 168 208 217 168 208 217 168 208 217 168 208 217 168 208 217 168 208 217 168 208 217 208 234 233 208 234 233 208 234 233 208 234 233 208 234 233 208 234 233 208 234 233 208 234 233 208 234 233 208 234 233 208 234 233 208 234 233 208 234 233 208 234 233 208 234 233 208 234 233 208 234 233 208 234 233 208 234 233 208 234 233 208 234 233 208 234 233 208 234 233 208 234 233 208 234 233 208 234 233 208 234 233 208 234 233 208 234 233 208 234 233 208 234 233 208 234 233 208 234 233 208 234 233 208 234 233 208 234 233 208 234 233 208 234 233 208 234 233 208 234 233 208 234 233 208 234 233 208 234 233 208 234 233 208 234 233 208 234 233 208 234 233 208 234 233 208 234 233 208 234 233 208 234 233 208 234 233 208 234 233 208 234 233 208 234 233 208 234 233 208 234 233 208 234 233 208 234 233 208 234 233 208 234 233 208 234 233 208 234 233 208 234 233 208 234 233 208 234 233 208 234 233 208 234 233 208 234 233 208 234 233 208 234 233 208 234 233 208 234 233 208 234 233 208 234 233 208 234 233 208 234 233 208 234 233 208 234 233 208 234 233 208 234 233 208 234 233 208 234 233 208 234 233 208 234 233 208 234 233 208 234 233 208 234 233 208 234 233 208 234 233 208 234 233 208 234 233 208 234 233 208 234 233 208 234 233 208 234 233 208 234 233 208 234 233 208 234 233 208 234 233 208 234 233 208 234 233 208 234 233 208 234 233 208 234 233 208 234 233 208 234 233 208 234 233 208 234 233 208 234 233 208 234 233 208 234 233 208 234 233 208 234 233 208 234 233 208 234 233 208 234 233 208 234 233 208 234 233 208 234 233 208 234 233 208 234 233 208 234 233 208 234 233 208 234 233 208 234 233 208 234 233 208 234 233 208 234 233 208 234 233 208 234 233 208 234 233 208 234 233 208 234 233 208 234 233 208 234 233 208 234 233 208 234 233 208 234 233 208 234 233 208 234 233 208 234 233 208 234 233 208 234 233 208 234 233 208 234 233 208 234 233 208 234 233 208 234 233 208 234 233 208 234 233 208 234 233 208 234 233 208 234 233 208 234 233 208 234 233 208 234 233 208 234 233 208 234 233 208 234 233 208 234 233 208 234 233 208 234 233 208 234 233 208 234 233 208 234 233 208 234 233 208 234 233 208 234 233 208 234 233 208 234 233 208 234 233 208 234 233 208 234 233 208 234 233 208 234 233 208 234 233 208 234 233 208 234 233 208 234 233 208 234 233 208 234 233 208 234 233 208 234 233 208 234 233 208 234 233 208 234 233 208 234 233 208 234 233 208 234 233 208 234 233 208 234 233 208 234 233 208 234 233 208 234 233 208 234 233 208 234 233 208 234 233 208 234 233 208 234 233 208 234 233 208 234 233 208 234 233 208 234 233 208 234 233 208 234 233 208 234 233 208 234 233 208 234 233 208 234 233 208 234 233 208 234 233 208 234 233 208 234 233 208 234 233 208 234 233 208 234 233 208 234 233 208 234 233 208 234 233 208 234 233 208 234 233 208 234 233 208 234 233 208 234 233 208 234 233 208 234 233 208 234 233 208 234 233 208 234 233 208 234 233 208 234 233 208 234 233 208 234 233 208 234 233 208 234 233 208 234 233 208 234 233 208 234 233 168 208 217 168 208 217 168 208 217 168 208 217 168 208 217 168 208 217 168 208 217 168 208 217 168 208 217 168 208 217 168 208 217 168 208 217 168 208 217 168 208 217 168 208 217 168 208 217 208 234 233 208 234 233 208 234 233 208 234 233 208 234 233 208 234 233 208 234 233 208 234 233 208 234 233 208 234 233 208 234 233 208 234 233 208 234 233 208 234 233 208 234 233 208 234 233 208 234 233 208 234 233 208 234 233 208 234 233 208 234 233 208 234 233 208 234 233 208 234 233 208 234 233 208 234 233 208 234 233 208 234 233 208 234 233 208 234 233 208 234 233 208 234 233 208 234 233 208 234 233 208 234 233 208 234 233 208 234 233 208 234 233 208 234 233 208 234 233 208 234 233 208 234 233 208 234 233 208 234 233 208 234 233 208 234 233 208 234 233 208 234 233 208 234 233 208 234 233 208 234 233 208 234 233 208 234 233 208 234 233 208 234 233 208 234 233 208 234 233 208 234 233 208 234 233 208 234 233 208 234 233 208 234 233 208 234 233 208 234 233 208 234 233 208 234 233 208 234 233 208 234 233 208 234 233 208 234 233 208 234 233 208 234 233 208 234 233 208 234 233 208 234 233 208 234 233 208 234 233 208 234 233 208 234 233 208 234 233 208 234 233 208 234 233 208 234 233 208 234 233 208 234 233 208 234 233 208 234 233 208 234 233 208 234 233 208 234 233 208 234 233 208 234 233 208 234 233 208 234 233 208 234 233 208 234 233 208 234 233 208 234 233 208 234 233 208 234 233 208 234 233 208 234 233 208 234 233 208 234 233 208 234 233 208 234 233 208 234 233 208 234 233 208 234 233 208 234 233 208 234 233 208 234 233 208 234 233 208 234 233 208 234 233 208 234 233 208 234 233 208 234 233 208 234 233 208 234 233 208 234 233 208 234 233 208 234 233 208 234 233 208 234 233 208 234 233 208 234 233 208 234 233 208 234 233 208 234 233 208 234 233 208 234 233 208 234 233 208 234 233 208 234 233 208 234 233 208 234 233 208 234 233 208 234 233 208 234 233 208 234 233 208 234 233 208 234 233 208 234 233 208 234 233 208 234 233 208 234 233 208 234 233 208 234 233 208 234 233 208 234 233 208 234 233 208 234 233 208 234 233 208 234 233 208 234 233 208 234 233 208 234 233 208 234 233 208 234 233 208 234 233 208 234 233 208 234 233 208 234 233 208 234 233 208 234 233 208 234 233 208 234 233 208 234 233 208 234 233 208 234 233 208 234 233 208 234 233 208 234 233 208 234 233 208 234 233 208 234 233 208 234 233 208 234 233 208 234 233 208 234 233 208 234 233 208 234 233 208 234 233 208 234 233 208 234 233 208 234 233 208 234 233 208 234 233 208 234 233 208 234 233 208 234 233 208 234 233 208 234 233 208 234 233 208 234 233 208 234 233 208 234 233 208 234 233 208 234 233 208 234 233 208 234 233 208 234 233 208 234 233 208 234 233 208 234 233 208 234 233 208 234 233 208 234 233 208 234 233 208 234 233 208 234 233 208 234 233 208 234 233 208 234 233 208 234 233 208 234 233 208 234 233 208 234 233 208 234 233 208 234 233 208 234 233 208 234 233 208 234 233 208 234 233 208 234 233 208 234 233 208 234 233 208 234 233 208 234 233 208 234 233 208 234 233 208 234 233 208 234 233 208 234 233 208 234 233 208 234 233 208 234 233 208 234 233 168 208 217 168 208 217 168 208 217 168 208 217 168 208 217 168 208 217 168 208 217 168 208 217 168 208 217 168 208 217 168 208 217 168 208 217 168 208 217 168 208 217 168 208 217 168 208 217 208 234 233 208 234 233 208 234 233 208 234 233 208 234 233 208 234 233 208 234 233 208 234 233 208 234 233 208 234 233 208 234 233 208 234 233 208 234 233 208 234 233 208 234 233 117 91 51 110 86 44 110 86 44 110 86 44 110 86 44 110 86 44 110 86 44 110 86 44 110 86 44 110 86 44 110 86 44 110 86 44 110 86 44 110 86 44 110 86 44 110 86 44 110 86 44 117 91 51 117 91 51 117 91 51 117 91 51 117 91 51 117 91 51 117 91 51 117 91 51 117 91 51 117 91 51 117 91 51 117 91 51 117 91 51 117 91 51 117 91 51 117 91 51 125 98 53 125 98 53 125 98 53 125 98 53 125 98 53 125 98 53 125 98 53 125 98 53 125 98 53 125 98 53 125 98 53 125 98 53 125 98 53 125 98 53 125 98 53 125 98 53 125 98 53 125 98 53 125 98 53 125 98 53 125 98 53 125 98 53 125 98 53 125 98 53 125 98 53 125 98 53 125 98 53 125 98 53 125 98 53 125 98 53 125 98 53 125 98 53 125 98 53 125 98 53 125 98 53 125 98 53 125 98 53 125 98 53 125 98 53 125 98 53 125 98 53 125 98 53 125 98 53 125 98 53 125 98 53 125 98 53 125 98 53 125 98 53 125 98 53 125 98 53 125 98 53 125 98 53 125 98 53 125 98 53 125 98 53 125 98 53 125 98 53 125 98 53 125 98 53 125 98 53 125 98 53 125 98 53 125 98 53 125 98 53 125 98 53 125 98 53 125 98 53 125 98 53 125 98 53 125 98 53 125 98 53 125 98 53 125 98 53 125 98 53 125 98 53 125 98 53 125 98 53 125 98 53 125 98 53 125 98 53 117 91 51 117 91 51 117 91 51 117 91 51 117 91 51 117 91 51 117 91 51 117 91 51 117 91 51 117 91 51 117 91 51 117 91 51 117 91 51 117 91 51 117 91 51 125 98 53 125 98 53 125 98 53 125 98 53 125 98 53 125 98 53 125 98 53 125 98 53 125 98 53 125 98 53 125 98 53 125 98 53 125 98 53 125 98 53 125 98 53 125 98 53 125 98 53 125 98 53 125 98 53 125 98 53 125 98 53 125 98 53 125 98 53 125 98 53 125 98 53 125 98 53 125 98 53 125 98 53 125 98 53 125 98 53 125 98 53 125 98 53 125 98 53 125 98 53 125 98 53 125 98 53 125 98 53 125 98 53 125 98 53 125 98 53 125 98 53 125 98 53 125 98 53 125 98 53 125 98 53 125 98 53 125 98 53 125 98 53 125 98 53 125 98 53 125 98 53 125 98 53 125 98 53 125 98 53 125 98 53 125 98 53 125 98 53 125 98 53 125 98 53 125 98 53 125 98 53 125 98 53 125 98 53 125 98 53 125 98 53 125 98 53 125 98 53 125 98 53 125 98 53 125 98 53 125 98 53 125 98 53 125 98 53 125 98 53 125 98 53 125 98 53 125 98 53 125 98 53 125 98 53 125 98 53 117 91 51 117 91 51 117 91 51 117 91 51 117 91 51 117 91 51 117 91 51 117 91 51 117 91 51 117 91 51 117 91 51 117 91 51 117 91 51 117 91 51 117 91 51 117 91 51 168 208 217 168 208 217 168 208 217 168 208 217 168 208 217 168 208 217 168 208 217 168 208 217 168 208 217 168 208 217 168 208 217 168 208 217 168 208 217 168 208 217 168 208 217 168 208 217 208 234 233 208 234 233 208 234 233 208 234 233 208 234 233 208 234 233 208 234 233 208 234 233 208 234 233 208 234 233 208 234 233 208 234 233 208 234 233 208 234 233 208 234 233 117 91 51 117 91 51 117 91 51 117 91 51 117 91 51 117 91 51 117 91 51 117 91 51 117 91 51 117 91 51 117 91 51 117 91 51 117 91 51 117 91 51 117 91 51 117 91 51 117 91 51 110 86 44 110 86 44 110 86 44 110 86 44 110 86 44 110 86 44 110 86 44 110 86 44 110 86 44 110 86 44 110 86 44 110 86 44 110 86 44 110 86 44 110 86 44 110 86 44 110 86 44 110 86 44 110 86 44 110 86 44 110 86 44 110 86 44 110 86 44 110 86 44 110 86 44 110 86 44 110 86 44 110 86 44 110 86 44 110 86 44 110 86 44 110 86 44 92 67 29 92 67 29 92 67 29 92 67 29 92 67 29 92 67 29 92 67 29 92 67 29 92 67 29 92 67 29 92 67 29 92 67 29 92 67 29 92 67 29 92 67 29 92 67 29 99 78 38 99 78 38 99 78 38 99 78 38 99 78 38 99 78 38 99 78 38 99 78 38 99 78 38 99 78 38 99 78 38 99 78 38 99 78 38 99 78 38 99 78 38 99 78 38 110 86 44 110 86 44 110 86 44 110 86 44 110 86 44 110 86 44 110 86 44 110 86 44 110 86 44 110 86 44 110 86 44 110 86 44 110 86 44 110 86 44 110 86 44 110 86 44 117 91 51 117 91 51 117 91 51 117 91 51 117 91 51 117 91 51 117 91 51 117 91 51 117 91 51 117 91 51 117 91 51 117 91 51 117 91 51 117 91 51 117 91 51 117 91 51 117 91 51 117 91 51 117 91 51 117 91 51 117 91 51 117 91 51 117 91 51 117 91 51 117 91 51 117 91 51 117 91 51 117 91 51 117 91 51 117 91 51 117 91 51 117 91 51 117 91 51 117 91 51 117 91 51 117 91 51 117 91 51 117 91 51 117 91 51 117 91 51 117 91 51 117 91 51 117 91 51 117 91 51 117 91 51 117 91 51 117 91 51 110 86 44 110 86 44 110 86 44 110 86 44 110 86 44 110 86 44 110 86 44 110 86 44 110 86 44 110 86 44 110 86 44 110 86 44 110 86 44 110 86 44 110 86 44 110 86 44 110 86 44 110 86 44 110 86 44 110 86 44 110 86 44 110 86 44 110 86 44 110 86 44 110 86 44 110 86 44 110 86 44 110 86 44 110 86 44 110 86 44 110 86 44 110 86 44 117 91 51 117 91 51 117 91 51 117 91 51 117 91 51 117 91 51 117 91 51 117 91 51 117 91 51 117 91 51 117 91 51 117 91 51 117 91 51 117 91 51 117 91 51 117 91 51 117 91 51 117 91 51 117 91 51 117 91 51 117 91 51 117 91 51 117 91 51 117 91 51 117 91 51 117 91 51 117 91 51 117 91 51 117 91 51 117 91 51 117 91 51 117 91 51 99 78 38 99 78 38 99 78 38 99 78 38 99 78 38 99 78 38 99 78 38 99 78 38 99 78 38 99 78 38 99 78 38 99 78 38 99 78 38 99 78 38 99 78 38 99 78 38 168 208 217 168 208 217 168 208 217 168 208 217 168 208 217 168 208 217 168 208 217 168 208 217 168 208 217 168 208 217 168 208 217 168 208 217 168 208 217 168 208 217 168 208 217 168 208 217 208 234 233 208 234 233 208 234 233 208 234 233 208 234 233 208 234 233 208 234 233 208 234 233 208 234 233 208 234 233 208 234 233 208 234 233 208 234 233 208 234 233 208 234 233 117 91 51 117 91 51 117 91 51 117 91 51 117 91 51 117 91 51 117 91 51 117 91 51 117 91 51 117 91 51 117 91 51 117 91 51 117 91 51 117 91 51 117 91 51 117 91 51 117 91 51 110 86 44 110 86 44 110 86 44 110 86 44 110 86 44 110 86 44 110 86 44 110 86 44 110 86 44 110 86 44 110 86 44 110 86 44 110 86 44 110 86 44 110 86 44 110 86 44 110 86 44 110 86 44 110 86 44 110 86 44 110 86 44 110 86 44 110 86 44 110 86 44 110 86 44 110 86 44 110 86 44 110 86 44 110 86 44 110 86 44 110 86 44 110 86 44 92 67 29 92 67 29 92 67 29 92 67 29 92 67 29 92 67 29 92 67 29 92 67 29 92 67 29 92 67 29 92 67 29 92 67 29 92 67 29 92 67 29 92 67 29 92 67 29 99 78 38 99 78 38 99 78 38 99 78 38 99 78 38 99 78 38 99 78 38 99 78 38 99 78 38 99 78 38 99 78 38 99 78 38 99 78 38 99 78 38 99 78 38 99 78 38 110 86 44 110 86 44 110 86 44 110 86 44 110 86 44 110 86 44 110 86 44 110 86 44 110 86 44 110 86 44 110 86 44 110 86 44 110 86 44 110 86 44 110 86 44 110 86 44 117 91 51 117 91 51 117 91 51 117 91 51 117 91 51 117 91 51 117 91 51 117 91 51 117 91 51 117 91 51 117 91 51 117 91 51 117 91 51 117 91 51 117 91 51 117 91 51 117 91 51 117 91 51 117 91 51 117 91 51 117 91 51 117 91 51 117 91 51 117 91 51 117 91 51 117 91 51 117 91 51 117 91 51 117 91 51 117 91 51 117 91 51 117 91 51 117 91 51 117 91 51 117 91 51 117 91 51 117 91 51 117 91 51 117 91 51 117 91 51 117 91 51 117 91 51 117 91 51 117 91 51 117 91 51 117 91 51 117 91 51 110 86 44 110 86 44 110 86 44 110 86 44 110 86 44 110 86 44 110 86 44 110 86 44 110 86 44 110 86 44 110 86 44 110 86 44 110 86 44 110 86 44 110 86 44 110 86 44 110 86 44 110 86 44 110 86 44 110 86 44 110 86 44 110 86 44 110 86 44 110 86 44 110 86 44 110 86 44 110 86 44 110 86 44 110 86 44 110 86 44 110 86 44 110 86 44 117 91 51 117 91 51 117 91 51 117 91 51 117 91 51 117 91 51 117 91 51 117 91 51 117 91 51 117 91 51 117 91 51 117 91 51 117 91 51 117 91 51 117 91 51 117 91 51 117 91 51 117 91 51 117 91 51 117 91 51 117 91 51 117 91 51 117 91 51 117 91 51 117 91 51 117 91 51 117 91 51 117 91 51 117 91 51 117 91 51 117 91 51 117 91 51 99 78 38 99 78 38 99 78 38 99 78 38 99 78 38 99 78 38 99 78 38 99 78 38 99 78 38 99 78 38 99 78 38 99 78 38 99 78 38 99 78 38 99 78 38 99 78 38 168 208 217 168 208 217 168 208 217 168 208 217 168 208 217 168 208 217 168 208 217 168 208 217 168 208 217 168 208 217 168 208 217 168 208 217 168 208 217 168 208 217 168 208 217 168 208 217 208 234 233 208 234 233 208 234 233 208 234 233 208 234 233 208 234 233 208 234 233 208 234 233 208 234 233 208 234 233 208 234 233 208 234 233 208 234 233 208 234 233 208 234 233 117 91 51 117 91 51 117 91 51 117 91 51 117 91 51 117 91 51 117 91 51 117 91 51 117 91 51 117 91 51 117 91 51 117 91 51 117 91 51 117 91 51 117 91 51 117 91 51 117 91 51 110 86 44 110 86 44 110 86 44 110 86 44 110 86 44 110 86 44 110 86 44 110 86 44 110 86 44 110 86 44 110 86 44 110 86 44 110 86 44 110 86 44 110 86 44 110 86 44 110 86 44 110 86 44 110 86 44 110 86 44 110 86 44 110 86 44 110 86 44 110 86 44 110 86 44 110 86 44 110 86 44 110 86 44 110 86 44 110 86 44 110 86 44 110 86 44 92 67 29 92 67 29 92 67 29 92 67 29 92 67 29 92 67 29 92 67 29 92 67 29 92 67 29 92 67 29 92 67 29 92 67 29 92 67 29 92 67 29 92 67 29 92 67 29 99 78 38 99 78 38 99 78 38 99 78 38 99 78 38 99 78 38 99 78 38 99 78 38 99 78 38 99 78 38 99 78 38 99 78 38 99 78 38 99 78 38 99 78 38 99 78 38 110 86 44 110 86 44 110 86 44 110 86 44 110 86 44 110 86 44 110 86 44 110 86 44 110 86 44 110 86 44 110 86 44 110 86 44 110 86 44 110 86 44 110 86 44 110 86 44 117 91 51 117 91 51 117 91 51 117 91 51 117 91 51 117 91 51 117 91 51 117 91 51 117 91 51 117 91 51 117 91 51 117 91 51 117 91 51 117 91 51 117 91 51 117 91 51 117 91 51 117 91 51 117 91 51 117 91 51 117 91 51 117 91 51 117 91 51 117 91 51 117 91 51 117 91 51 117 91 51 117 91 51 117 91 51 117 91 51 117 91 51 117 91 51 117 91 51 117 91 51 117 91 51 117 91 51 117 91 51 117 91 51 117 91 51 117 91 51 117 91 51 117 91 51 117 91 51 117 91 51 117 91 51 117 91 51 117 91 51 110 86 44 110 86 44 110 86 44 110 86 44 110 86 44 110 86 44 110 86 44 110 86 44 110 86 44 110 86 44 110 86 44 110 86 44 110 86 44 110 86 44 110 86 44 110 86 44 110 86 44 110 86 44 110 86 44 110 86 44 110 86 44 110 86 44 110 86 44 110 86 44 110 86 44 110 86 44 110 86 44 110 86 44 110 86 44 110 86 44 110 86 44 110 86 44 117 91 51 117 91 51 117 91 51 117 91 51 117 91 51 117 91 51 117 91 51 117 91 51 117 91 51 117 91 51 117 91 51 117 91 51 117 91 51 117 91 51 117 91 51 117 91 51 117 91 51 117 91 51 117 91 51 117 91 51 117 91 51 117 91 51 117 91 51 117 91 51 117 91 51 117 91 51 117 91 51 117 91 51 117 91 51 117 91 51 117 91 51 117 91 51 99 78 38 99 78 38 99 78 38 99 78 38 99 78 38 99 78 38 99 78 38 99 78 38 99 78 38 99 78 38 99 78 38 99 78 38 99 78 38 99 78 38 99 78 38 99 78 38 168 208 217 168 208 217 168 208 217 168 208 217 168 208 217 168 208 217 168 208 217 168 208 217 168 208 217 168 208 217 168 208 217 168 208 217 168 208 217 168 208 217 168 208 217 168 208 217 208 234 233 208 234 233 208 234 233 208 234 233 208 234 233 208 234 233 208 234 233 208 234 233 208 234 233 208 234 233 208 234 233 208 234 233 208 234 233 208 234 233 208 234 233 117 91 51 117 91 51 117 91 51 117 91 51 117 91 51 117 91 51 117 91 51 117 91 51 117 91 51 117 91 51 117 91 51 117 91 51 117 91 51 117 91 51 117 91 51 117 91 51 117 91 51 110 86 44 110 86 44 110 86 44 110 86 44 110 86 44 110 86 44 110 86 44 110 86 44 110 86 44 110 86 44 110 86 44 110 86 44 110 86 44 110 86 44 110 86 44 110 86 44 110 86 44 110 86 44 110 86 44 110 86 44 110 86 44 110 86 44 110 86 44 110 86 44 110 86 44 110 86 44 110 86 44 110 86 44 110 86 44 110 86 44 110 86 44 110 86 44 92 67 29 92 67 29 92 67 29 92 67 29 92 67 29 92 67 29 92 67 29 92 67 29 92 67 29 92 67 29 92 67 29 92 67 29 92 67 29 92 67 29 92 67 29 92 67 29 99 78 38 99 78 38 99 78 38 99 78 38 99 78 38 99 78 38 99 78 38 99 78 38 99 78 38 99 78 38 99 78 38 99 78 38 99 78 38 99 78 38 99 78 38 99 78 38 110 86 44 110 86 44 110 86 44 110 86 44 110 86 44 110 86 44 110 86 44 110 86 44 110 86 44 110 86 44 110 86 44 110 86 44 110 86 44 110 86 44 110 86 44 110 86 44 117 91 51 117 91 51 117 91 51 117 91 51 117 91 51 117 91 51 117 91 51 117 91 51 117 91 51 117 91 51 117 91 51 117 91 51 117 91 51 117 91 51 117 91 51 117 91 51 117 91 51 117 91 51 117 91 51 117 91 51 117 91 51 117 91 51 117 91 51 117 91 51 117 91 51 117 91 51 117 91 51 117 91 51 117 91 51 117 91 51 117 91 51 117 91 51 117 91 51 117 91 51 117 91 51 117 91 51 117 91 51 117 91 51 117 91 51 117 91 51 117 91 51 117 91 51 117 91 51 117 91 51 117 91 51 117 91 51 117 91 51 110 86 44 110 86 44 110 86 44 110 86 44 110 86 44 110 86 44 110 86 44 110 86 44 110 86 44 110 86 44 110 86 44 110 86 44 110 86 44 110 86 44 110 86 44 110 86 44 110 86 44 110 86 44 110 86 44 110 86 44 110 86 44 110 86 44 110 86 44 110 86 44 110 86 44 110 86 44 110 86 44 110 86 44 110 86 44 110 86 44 110 86 44 110 86 44 117 91 51 117 91 51 117 91 51 117 91 51 117 91 51 117 91 51 117 91 51 117 91 51 117 91 51 117 91 51 117 91 51 117 91 51 117 91 51 117 91 51 117 91 51 117 91 51 117 91 51 117 91 51 117 91 51 117 91 51 117 91 51 117 91 51 117 91 51 117 91 51 117 91 51 117 91 51 117 91 51 117 91 51 117 91 51 117 91 51 117 91 51 117 91 51 99 78 38 99 78 38 99 78 38 99 78 38 99 78 38 99 78 38 99 78 38 99 78 38 99 78 38 99 78 38 99 78 38 99 78 38 99 78 38 99 78 38 99 78 38 99 78 38 168 208 217 168 208 217 168 208 217 168 208 217 168 208 217 168 208 217 168 208 217 168 208 217 168 208 217 168 208 217 168 208 217 168 208 217 168 208 217 168 208 217 168 208 217 168 208 217 208 234 233 208 234 233 208 234 233 208 234 233 208 234 233 208 234 233 208 234 233 208 234 233 208 234 233 208 234 233 208 234 233 208 234 233 208 234 233 208 234 233 208 234 233 117 91 51 117 91 51 117 91 51 117 91 51 117 91 51 117 91 51 117 91 51 117 91 51 117 91 51 117 91 51 117 91 51 117 91 51 117 91 51 117 91 51 117 91 51 117 91 51 117 91 51 110 86 44 110 86 44 110 86 44 110 86 44 110 86 44 110 86 44 110 86 44 110 86 44 110 86 44 110 86 44 110 86 44 110 86 44 110 86 44 110 86 44 110 86 44 110 86 44 110 86 44 110 86 44 110 86 44 110 86 44 110 86 44 110 86 44 110 86 44 110 86 44 110 86 44 110 86 44 110 86 44 110 86 44 110 86 44 110 86 44 110 86 44 110 86 44 92 67 29 92 67 29 92 67 29 92 67 29 92 67 29 92 67 29 92 67 29 92 67 29 92 67 29 92 67 29 92 67 29 92 67 29 92 67 29 92 67 29 92 67 29 92 67 29 99 78 38 99 78 38 99 78 38 99 78 38 99 78 38 99 78 38 99 78 38 99 78 38 99 78 38 99 78 38 99 78 38 99 78 38 99 78 38 99 78 38 99 78 38 99 78 38 110 86 44 110 86 44 110 86 44 110 86 44 110 86 44 110 86 44 110 86 44 110 86 44 110 86 44 110 86 44 110 86 44 110 86 44 110 86 44 110 86 44 110 86 44 110 86 44 117 91 51 117 91 51 117 91 51 117 91 51 117 91 51 117 91 51 117 91 51 117 91 51 117 91 51 117 91 51 117 91 51 117 91 51 117 91 51 117 91 51 117 91 51 117 91 51 117 91 51 117 91 51 117 91 51 117 91 51 117 91 51 117 91 51 117 91 51 117 91 51 117 91 51 117 91 51 117 91 51 117 91 51 117 91 51 117 91 51 117 91 51 117 91 51 117 91 51 117 91 51 117 91 51 117 91 51 117 91 51 117 91 51 117 91 51 117 91 51 117 91 51 117 91 51 117 91 51 117 91 51 117 91 51 117 91 51 117 91 51 110 86 44 110 86 44 110 86 44 110 86 44 110 86 44 110 86 44 110 86 44 110 86 44 110 86 44 110 86 44 110 86 44 110 86 44 110 86 44 110 86 44 110 86 44 110 86 44 110 86 44 110 86 44 110 86 44 110 86 44 110 86 44 110 86 44 110 86 44 110 86 44 110 86 44 110 86 44 110 86 44 110 86 44 110 86 44 110 86 44 110 86 44 110 86 44 117 91 51 117 91 51 117 91 51 117 91 51 117 91 51 117 91 51 117 91 51 117 91 51 117 91 51 117 91 51 117 91 51 117 91 51 117 91 51 117 91 51 117 91 51 117 91 51 117 91 51 117 91 51 117 91 51 117 91 51 117 91 51 117 91 51 117 91 51 117 91 51 117 91 51 117 91 51 117 91 51 117 91 51 117 91 51 117 91 51 117 91 51 117 91 51 99 78 38 99 78 38 99 78 38 99 78 38 99 78 38 99 78 38 99 78 38 99 78 38 99 78 38 99 78 38 99 78 38 99 78 38 99 78 38 99 78 38 99 78 38 99 78 38 168 208 217 168 208 217 168 208 217 168 208 217 168 208 217 168 208 217 168 208 217 168 208 217 168 208 217 168 208 217 168 208 217 168 208 217 168 208 217 168 208 217 168 208 217 168 208 217 208 234 233 208 234 233 208 234 233 208 234 233 208 234 233 208 234 233 208 234 233 208 234 233 208 234 233 208 234 233 208 234 233 208 234 233 208 234 233 208 234 233 208 234 233 117 91 51 117 91 51 117 91 51 117 91 51 117 91 51 117 91 51 117 91 51 117 91 51 117 91 51 117 91 51 117 91 51 117 91 51 117 91 51 117 91 51 117 91 51 117 91 51 117 91 51 110 86 44 110 86 44 110 86 44 110 86 44 110 86 44 110 86 44 110 86 44 110 86 44 110 86 44 110 86 44 110 86 44 110 86 44 110 86 44 110 86 44 110 86 44 110 86 44 110 86 44 110 86 44 110 86 44 110 86 44 110 86 44 110 86 44 110 86 44 110 86 44 110 86 44 110 86 44 110 86 44 110 86 44 110 86 44 110 86 44 110 86 44 110 86 44 92 67 29 92 67 29 92 67 29 92 67 29 92 67 29 92 67 29 92 67 29 92 67 29 92 67 29 92 67 29 92 67 29 92 67 29 92 67 29 92 67 29 92 67 29 92 67 29 99 78 38 99 78 38 99 78 38 99 78 38 99 78 38 99 78 38 99 78 38 99 78 38 99 78 38 99 78 38 99 78 38 99 78 38 99 78 38 99 78 38 99 78 38 99 78 38 110 86 44 110 86 44 110 86 44 110 86 44 110 86 44 110 86 44 110 86 44 110 86 44 110 86 44 110 86 44 110 86 44 110 86 44 110 86 44 110 86 44 110 86 44 110 86 44 117 91 51 117 91 51 117 91 51 117 91 51 117 91 51 117 91 51 117 91 51 117 91 51 117 91 51 117 91 51 117 91 51 117 91 51 117 91 51 117 91 51 117 91 51 117 91 51 117 91 51 117 91 51 117 91 51 117 91 51 117 91 51 117 91 51 117 91 51 117 91 51 117 91 51 117 91 51 117 91 51 117 91 51 117 91 51 117 91 51 117 91 51 117 91 51 117 91 51 117 91 51 117 91 51 117 91 51 117 91 51 117 91 51 117 91 51 117 91 51 117 91 51 117 91 51 117 91 51 117 91 51 117 91 51 117 91 51 117 91 51 110 86 44 110 86 44 110 86 44 110 86 44 110 86 44 110 86 44 110 86 44 110 86 44 110 86 44 110 86 44 110 86 44 110 86 44 110 86 44 110 86 44 110 86 44 110 86 44 110 86 44 110 86 44 110 86 44 110 86 44 110 86 44 110 86 44 110 86 44 110 86 44 110 86 44 110 86 44 110 86 44 110 86 44 110 86 44 110 86 44 110 86 44 110 86 44 117 91 51 117 91 51 117 91 51 117 91 51 117 91 51 117 91 51 117 91 51 117 91 51 117 91 51 117 91 51 117 91 51 117 91 51 117 91 51 117 91 51 117 91 51 117 91 51 117 91 51 117 91 51 117 91 51 117 91 51 117 91 51 117 91 51 117 91 51 117 91 51 117 91 51 117 91 51 117 91 51 117 91 51 117 91 51 117 91 51 117 91 51 117 91 51 99 78 38 99 78 38 99 78 38 99 78 38 99 78 38 99 78 38 99 78 38 99 78 38 99 78 38 99 78 38 99 78 38 99 78 38 99 78 38 99 78 38 99 78 38 99 78 38 168 208 217 168 208 217 168 208 217 168 208 217 168 208 217 168 208 217 168 208 217 168 208 217 168 208 217 168 208 217 168 208 217 168 208 217 168 208 217 168 208 217 168 208 217 168 208 217 208 234 233 208 234 233 208 234 233 208 234 233 208 234 233 208 234 233 208 234 233 208 234 233 208 234 233 208 234 233 208 234 233 208 234 233 208 234 233 208 234 233 208 234 233 117 91 51 117 91 51 117 91 51 117 91 51 117 91 51 117 91 51 117 91 51 117 91 51 117 91 51 117 91 51 117 91 51 117 91 51 117 91 51 117 91 51 117 91 51 117 91 51 117 91 51 110 86 44 110 86 44 110 86 44 110 86 44 110 86 44 110 86 44 110 86 44 110 86 44 110 86 44 110 86 44 110 86 44 110 86 44 110 86 44 110 86 44 110 86 44 110 86 44 110 86 44 110 86 44 110 86 44 110 86 44 110 86 44 110 86 44 110 86 44 110 86 44 110 86 44 110 86 44 110 86 44 110 86 44 110 86 44 110 86 44 110 86 44 110 86 44 92 67 29 92 67 29 92 67 29 92 67 29 92 67 29 92 67 29 92 67 29 92 67 29 92 67 29 92 67 29 92 67 29 92 67 29 92 67 29 92 67 29 92 67 29 92 67 29 99 78 38 99 78 38 99 78 38 99 78 38 99 78 38 99 78 38 99 78 38 99 78 38 99 78 38 99 78 38 99 78 38 99 78 38 99 78 38 99 78 38 99 78 38 99 78 38 110 86 44 110 86 44 110 86 44 110 86 44 110 86 44 110 86 44 110 86 44 110 86 44 110 86 44 110 86 44 110 86 44 110 86 44 110 86 44 110 86 44 110 86 44 110 86 44 117 91 51 117 91 51 117 91 51 117 91 51 117 91 51 117 91 51 117 91 51 117 91 51 117 91 51 117 91 51 117 91 51 117 91 51 117 91 51 117 91 51 117 91 51 117 91 51 117 91 51 117 91 51 117 91 51 117 91 51 117 91 51 117 91 51 117 91 51 117 91 51 117 91 51 117 91 51 117 91 51 117 91 51 117 91 51 117 91 51 117 91 51 117 91 51 117 91 51 117 91 51 117 91 51 117 91 51 117 91 51 117 91 51 117 91 51 117 91 51 117 91 51 117 91 51 117 91 51 117 91 51 117 91 51 117 91 51 117 91 51 110 86 44 110 86 44 110 86 44 110 86 44 110 86 44 110 86 44 110 86 44 110 86 44 110 86 44 110 86 44 110 86 44 110 86 44 110 86 44 110 86 44 110 86 44 110 86 44 110 86 44 110 86 44 110 86 44 110 86 44 110 86 44 110 86 44 110 86 44 110 86 44 110 86 44 110 86 44 110 86 44 110 86 44 110 86 44 110 86 44 110 86 44 110 86 44 117 91 51 117 91 51 117 91 51 117 91 51 117 91 51 117 91 51 117 91 51 117 91 51 117 91 51 117 91 51 117 91 51 117 91 51 117 91 51 117 91 51 117 91 51 117 91 51 117 91 51 117 91 51 117 91 51 117 91 51 117 91 51 117 91 51 117 91 51 117 91 51 117 91 51 117 91 51 117 91 51 117 91 51 117 91 51 117 91 51 117 91 51 117 91 51 99 78 38 99 78 38 99 78 38 99 78 38 99 78 38 99 78 38 99 78 38 99 78 38 99 78 38 99 78 38 99 78 38 99 78 38 99 78 38 99 78 38 99 78 38 99 78 38 168 208 217 168 208 217 168 208 217 168 208 217 168 208 217 168 208 217 168 208 217 168 208 217 168 208 217 168 208 217 168 208 217 168 208 217 168 208 217 168 208 217 168 208 217 168 208 217 208 234 233 208 234 233 208 234 233 208 234 233 208 234 233 208 234 233 208 234 233 208 234 233 208 234 233 208 234 233 208 234 233 208 234 233 208 234 233 208 234 233 208 234 233 117 91 51 117 91 51 117 91 51 117 91 51 117 91 51 117 91 51 117 91 51 117 91 51 117 91 51 117 91 51 117 91 51 117 91 51 117 91 51 117 91 51 117 91 51 117 91 51 117 91 51 110 86 44 110 86 44 110 86 44 110 86 44 110 86 44 110 86 44 110 86 44 110 86 44 110 86 44 110 86 44 110 86 44 110 86 44 110 86 44 110 86 44 110 86 44 110 86 44 110 86 44 110 86 44 110 86 44 110 86 44 110 86 44 110 86 44 110 86 44 110 86 44 110 86 44 110 86 44 110 86 44 110 86 44 110 86 44 110 86 44 110 86 44 110 86 44 92 67 29 92 67 29 92 67 29 92 67 29 92 67 29 92 67 29 92 67 29 92 67 29 92 67 29 92 67 29 92 67 29 92 67 29 92 67 29 92 67 29 92 67 29 92 67 29 99 78 38 99 78 38 99 78 38 99 78 38 99 78 38 99 78 38 99 78 38 99 78 38 99 78 38 99 78 38 99 78 38 99 78 38 99 78 38 99 78 38 99 78 38 99 78 38 110 86 44 110 86 44 110 86 44 110 86 44 110 86 44 110 86 44 110 86 44 110 86 44 110 86 44 110 86 44 110 86 44 110 86 44 110 86 44 110 86 44 110 86 44 110 86 44 117 91 51 117 91 51 117 91 51 117 91 51 117 91 51 117 91 51 117 91 51 117 91 51 117 91 51 117 91 51 117 91 51 117 91 51 117 91 51 117 91 51 117 91 51 117 91 51 117 91 51 117 91 51 117 91 51 117 91 51 117 91 51 117 91 51 117 91 51 117 91 51 117 91 51 117 91 51 117 91 51 117 91 51 117 91 51 117 91 51 117 91 51 117 91 51 117 91 51 117 91 51 117 91 51 117 91 51 117 91 51 117 91 51 117 91 51 117 91 51 117 91 51 117 91 51 117 91 51 117 91 51 117 91 51 117 91 51 117 91 51 110 86 44 110 86 44 110 86 44 110 86 44 110 86 44 110 86 44 110 86 44 110 86 44 110 86 44 110 86 44 110 86 44 110 86 44 110 86 44 110 86 44 110 86 44 110 86 44 110 86 44 110 86 44 110 86 44 110 86 44 110 86 44 110 86 44 110 86 44 110 86 44 110 86 44 110 86 44 110 86 44 110 86 44 110 86 44 110 86 44 110 86 44 110 86 44 117 91 51 117 91 51 117 91 51 117 91 51 117 91 51 117 91 51 117 91 51 117 91 51 117 91 51 117 91 51 117 91 51 117 91 51 117 91 51 117 91 51 117 91 51 117 91 51 117 91 51 117 91 51 117 91 51 117 91 51 117 91 51 117 91 51 117 91 51 117 91 51 117 91 51 117 91 51 117 91 51 117 91 51 117 91 51 117 91 51 117 91 51 117 91 51 99 78 38 99 78 38 99 78 38 99 78 38 99 78 38 99 78 38 99 78 38 99 78 38 99 78 38 99 78 38 99 78 38 99 78 38 99 78 38 99 78 38 99 78 38 99 78 38 168 208 217 168 208 217 168 208 217 168 208 217 168 208 217 168 208 217 168 208 217 168 208 217 168 208 217 168 208 217 168 208 217 168 208 217 168 208 217 168 208 217 168 208 217 168 208 217 208 234 233 208 234 233 208 234 233 208 234 233 208 234 233 208 234 233 208 234 233 208 234 233 208 234 233 208 234 233 208 234 233 208 234 233 208 234 233 208 234 233 208 234 233 117 91 51 117 91 51 117 91 51 117 91 51 117 91 51 117 91 51 117 91 51 117 91 51 117 91 51 117 91 51 117 91 51 117 91 51 117 91 51 117 91 51 117 91 51 117 91 51 117 91 51 110 86 44 110 86 44 110 86 44 110 86 44 110 86 44 110 86 44 110 86 44 110 86 44 110 86 44 110 86 44 110 86 44 110 86 44 110 86 44 110 86 44 110 86 44 110 86 44 110 86 44 110 86 44 110 86 44 110 86 44 110 86 44 110 86 44 110 86 44 110 86 44 110 86 44 110 86 44 110 86 44 110 86 44 110 86 44 110 86 44 110 86 44 110 86 44 92 67 29 92 67 29 92 67 29 92 67 29 92 67 29 92 67 29 92 67 29 92 67 29 92 67 29 92 67 29 92 67 29 92 67 29 92 67 29 92 67 29 92 67 29 92 67 29 99 78 38 99 78 38 99 78 38 99 78 38 99 78 38 99 78 38 99 78 38 99 78 38 99 78 38 99 78 38 99 78 38 99 78 38 99 78 38 99 78 38 99 78 38 99 78 38 110 86 44 110 86 44 110 86 44 110 86 44 110 86 44 110 86 44 110 86 44 110 86 44 110 86 44 110 86 44 110 86 44 110 86 44 110 86 44 110 86 44 110 86 44 110 86 44 117 91 51 117 91 51 117 91 51 117 91 51 117 91 51 117 91 51 117 91 51 117 91 51 117 91 51 117 91 51 117 91 51 117 91 51 117 91 51 117 91 51 117 91 51 117 91 51 117 91 51 117 91 51 117 91 51 117 91 51 117 91 51 117 91 51 117 91 51 117 91 51 117 91 51 117 91 51 117 91 51 117 91 51 117 91 51 117 91 51 117 91 51 117 91 51 117 91 51 117 91 51 117 91 51 117 91 51 117 91 51 117 91 51 117 91 51 117 91 51 117 91 51 117 91 51 117 91 51 117 91 51 117 91 51 117 91 51 117 91 51 110 86 44 110 86 44 110 86 44 110 86 44 110 86 44 110 86 44 110 86 44 110 86 44 110 86 44 110 86 44 110 86 44 110 86 44 110 86 44 110 86 44 110 86 44 110 86 44 110 86 44 110 86 44 110 86 44 110 86 44 110 86 44 110 86 44 110 86 44 110 86 44 110 86 44 110 86 44 110 86 44 110 86 44 110 86 44 110 86 44 110 86 44 110 86 44 117 91 51 117 91 51 117 91 51 117 91 51 117 91 51 117 91 51 117 91 51 117 91 51 117 91 51 117 91 51 117 91 51 117 91 51 117 91 51 117 91 51 117 91 51 117 91 51 117 91 51 117 91 51 117 91 51 117 91 51 117 91 51 117 91 51 117 91 51 117 91 51 117 91 51 117 91 51 117 91 51 117 91 51 117 91 51 117 91 51 117 91 51 117 91 51 99 78 38 99 78 38 99 78 38 99 78 38 99 78 38 99 78 38 99 78 38 99 78 38 99 78 38 99 78 38 99 78 38 99 78 38 99 78 38 99 78 38 99 78 38 99 78 38 168 208 217 168 208 217 168 208 217 168 208 217 168 208 217 168 208 217 168 208 217 168 208 217 168 208 217 168 208 217 168 208 217 168 208 217 168 208 217 168 208 217 168 208 217 168 208 217 208 234 233 208 234 233 208 234 233 208 234 233 208 234 233 208 234 233 208 234 233 208 234 233 208 234 233 208 234 233 208 234 233 208 234 233 208 234 233 208 234 233 208 234 233 117 91 51 117 91 51 117 91 51 117 91 51 117 91 51 117 91 51 117 91 51 117 91 51 117 91 51 117 91 51 117 91 51 117 91 51 117 91 51 117 91 51 117 91 51 117 91 51 117 91 51 110 86 44 110 86 44 110 86 44 110 86 44 110 86 44 110 86 44 110 86 44 110 86 44 110 86 44 110 86 44 110 86 44 110 86 44 110 86 44 110 86 44 110 86 44 110 86 44 110 86 44 110 86 44 110 86 44 110 86 44 110 86 44 110 86 44 110 86 44 110 86 44 110 86 44 110 86 44 110 86 44 110 86 44 110 86 44 110 86 44 110 86 44 110 86 44 92 67 29 92 67 29 92 67 29 92 67 29 92 67 29 92 67 29 92 67 29 92 67 29 92 67 29 92 67 29 92 67 29 92 67 29 92 67 29 92 67 29 92 67 29 92 67 29 99 78 38 99 78 38 99 78 38 99 78 38 99 78 38 99 78 38 99 78 38 99 78 38 99 78 38 99 78 38 99 78 38 99 78 38 99 78 38 99 78 38 99 78 38 99 78 38 110 86 44 110 86 44 110 86 44 110 86 44 110 86 44 110 86 44 110 86 44 110 86 44 110 86 44 110 86 44 110 86 44 110 86 44 110 86 44 110 86 44 110 86 44 110 86 44 117 91 51 117 91 51 117 91 51 117 91 51 117 91 51 117 91 51 117 91 51 117 91 51 117 91 51 117 91 51 117 91 51 117 91 51 117 91 51 117 91 51 117 91 51 117 91 51 117 91 51 117 91 51 117 91 51 117 91 51 117 91 51 117 91 51 117 91 51 117 91 51 117 91 51 117 91 51 117 91 51 117 91 51 117 91 51 117 91 51 117 91 51 117 91 51 117 91 51 117 91 51 117 91 51 117 91 51 117 91 51 117 91 51 117 91 51 117 91 51 117 91 51 117 91 51 117 91 51 117 91 51 117 91 51 117 91 51 117 91 51 110 86 44 110 86 44 110 86 44 110 86 44 110 86 44 110 86 44 110 86 44 110 86 44 110 86 44 110 86 44 110 86 44 110 86 44 110 86 44 110 86 44 110 86 44 110 86 44 110 86 44 110 86 44 110 86 44 110 86 44 110 86 44 110 86 44 110 86 44 110 86 44 110 86 44 110 86 44 110 86 44 110 86 44 110 86 44 110 86 44 110 86 44 110 86 44 117 91 51 117 91 51 117 91 51 117 91 51 117 91 51 117 91 51 117 91 51 117 91 51 117 91 51 117 91 51 117 91 51 117 91 51 117 91 51 117 91 51 117 91 51 117 91 51 117 91 51 117 91 51 117 91 51 117 91 51 117 91 51 117 91 51 117 91 51 117 91 51 117 91 51 117 91 51 117 91 51 117 91 51 117 91 51 117 91 51 117 91 51 117 91 51 99 78 38 99 78 38 99 78 38 99 78 38 99 78 38 99 78 38 99 78 38 99 78 38 99 78 38 99 78 38 99 78 38 99 78 38 99 78 38 99 78 38 99 78 38 99 78 38 168 208 217 168 208 217 168 208 217 168 208 217 168 208 217 168 208 217 168 208 217 168 208 217 168 208 217 168 208 217 168 208 217 168 208 217 168 208 217 168 208 217 168 208 217 168 208 217 208 234 233 208 234 233 208 234 233 208 234 233 208 234 233 208 234 233 208 234 233 208 234 233 208 234 233 208 234 233 208 234 233 208 234 233 208 234 233 208 234 233 208 234 233 117 91 51 117 91 51 117 91 51 117 91 51 117 91 51 117 91 51 117 91 51 117 91 51 117 91 51 117 91 51 117 91 51 117 91 51 117 91 51 117 91 51 117 91 51 117 91 51 117 91 51 110 86 44 110 86 44 110 86 44 110 86 44 110 86 44 110 86 44 110 86 44 110 86 44 110 86 44 110 86 44 110 86 44 110 86 44 110 86 44 110 86 44 110 86 44 110 86 44 110 86 44 110 86 44 110 86 44 110 86 44 110 86 44 110 86 44 110 86 44 110 86 44 110 86 44 110 86 44 110 86 44 110 86 44 110 86 44 110 86 44 110 86 44 110 86 44 92 67 29 92 67 29 92 67 29 92 67 29 92 67 29 92 67 29 92 67 29 92 67 29 92 67 29 92 67 29 92 67 29 92 67 29 92 67 29 92 67 29 92 67 29 92 67 29 99 78 38 99 78 38 99 78 38 99 78 38 99 78 38 99 78 38 99 78 38 99 78 38 99 78 38 99 78 38 99 78 38 99 78 38 99 78 38 99 78 38 99 78 38 99 78 38 110 86 44 110 86 44 110 86 44 110 86 44 110 86 44 110 86 44 110 86 44 110 86 44 110 86 44 110 86 44 110 86 44 110 86 44 110 86 44 110 86 44 110 86 44 110 86 44 117 91 51 117 91 51 117 91 51 117 91 51 117 91 51 117 91 51 117 91 51 117 91 51 117 91 51 117 91 51 117 91 51 117 91 51 117 91 51 117 91 51 117 91 51 117 91 51 117 91 51 117 91 51 117 91 51 117 91 51 117 91 51 117 91 51 117 91 51 117 91 51 117 91 51 117 91 51 117 91 51 117 91 51 117 91 51 117 91 51 117 91 51 117 91 51 117 91 51 117 91 51 117 91 51 117 91 51 117 91 51 117 91 51 117 91 51 117 91 51 117 91 51 117 91 51 117 91 51 117 91 51 117 91 51 117 91 51 117 91 51 110 86 44 110 86 44 110 86 44 110 86 44 110 86 44 110 86 44 110 86 44 110 86 44 110 86 44 110 86 44 110 86 44 110 86 44 110 86 44 110 86 44 110 86 44 110 86 44 110 86 44 110 86 44 110 86 44 110 86 44 110 86 44 110 86 44 110 86 44 110 86 44 110 86 44 110 86 44 110 86 44 110 86 44 110 86 44 110 86 44 110 86 44 110 86 44 117 91 51 117 91 51 117 91 51 117 91 51 117 91 51 117 91 51 117 91 51 117 91 51 117 91 51 117 91 51 117 91 51 117 91 51 117 91 51 117 91 51 117 91 51 117 91 51 117 91 51 117 91 51 117 91 51 117 91 51 117 91 51 117 91 51 117 91 51 117 91 51 117 91 51 117 91 51 117 91 51 117 91 51 117 91 51 117 91 51 117 91 51 117 91 51 99 78 38 99 78 38 99 78 38 99 78 38 99 78 38 99 78 38 99 78 38 99 78 38 99 78 38 99 78 38 99 78 38 99 78 38 99 78 38 99 78 38 99 78 38 99 78 38 168 208 217 168 208 217 168 208 217 168 208 217 168 208 217 168 208 217 168 208 217 168 208 217 168 208 217 168 208 217 168 208 217 168 208 217 168 208 217 168 208 217 168 208 217 168 208 217 208 234 233 208 234 233 208 234 233 208 234 233 208 234 233 208 234 233 208 234 233 208 234 233 208 234 233 208 234 233 208 234 233 208 234 233 208 234 233 208 234 233 208 234 233 117 91 51 117 91 51 117 91 51 117 91 51 117 91 51 117 91 51 117 91 51 117 91 51 117 91 51 117 91 51 117 91 51 117 91 51 117 91 51 117 91 51 117 91 51 117 91 51 117 91 51 110 86 44 110 86 44 110 86 44 110 86 44 110 86 44 110 86 44 110 86 44 110 86 44 110 86 44 110 86 44 110 86 44 110 86 44 110 86 44 110 86 44 110 86 44 110 86 44 110 86 44 110 86 44 110 86 44 110 86 44 110 86 44 110 86 44 110 86 44 110 86 44 110 86 44 110 86 44 110 86 44 110 86 44 110 86 44 110 86 44 110 86 44 110 86 44 92 67 29 92 67 29 92 67 29 92 67 29 92 67 29 92 67 29 92 67 29 92 67 29 92 67 29 92 67 29 92 67 29 92 67 29 92 67 29 92 67 29 92 67 29 92 67 29 99 78 38 99 78 38 99 78 38 99 78 38 99 78 38 99 78 38 99 78 38 99 78 38 99 78 38 99 78 38 99 78 38 99 78 38 99 78 38 99 78 38 99 78 38 99 78 38 110 86 44 110 86 44 110 86 44 110 86 44 110 86 44 110 86 44 110 86 44 110 86 44 110 86 44 110 86 44 110 86 44 110 86 44 110 86 44 110 86 44 110 86 44 110 86 44 117 91 51 117 91 51 117 91 51 117 91 51 117 91 51 117 91 51 117 91 51 117 91 51 117 91 51 117 91 51 117 91 51 117 91 51 117 91 51 117 91 51 117 91 51 117 91 51 117 91 51 117 91 51 117 91 51 117 91 51 117 91 51 117 91 51 117 91 51 117 91 51 117 91 51 117 91 51 117 91 51 117 91 51 117 91 51 117 91 51 117 91 51 117 91 51 117 91 51 117 91 51 117 91 51 117 91 51 117 91 51 117 91 51 117 91 51 117 91 51 117 91 51 117 91 51 117 91 51 117 91 51 117 91 51 117 91 51 117 91 51 110 86 44 110 86 44 110 86 44 110 86 44 110 86 44 110 86 44 110 86 44 110 86 44 110 86 44 110 86 44 110 86 44 110 86 44 110 86 44 110 86 44 110 86 44 110 86 44 110 86 44 110 86 44 110 86 44 110 86 44 110 86 44 110 86 44 110 86 44 110 86 44 110 86 44 110 86 44 110 86 44 110 86 44 110 86 44 110 86 44 110 86 44 110 86 44 117 91 51 117 91 51 117 91 51 117 91 51 117 91 51 117 91 51 117 91 51 117 91 51 117 91 51 117 91 51 117 91 51 117 91 51 117 91 51 117 91 51 117 91 51 117 91 51 117 91 51 117 91 51 117 91 51 117 91 51 117 91 51 117 91 51 117 91 51 117 91 51 117 91 51 117 91 51 117 91 51 117 91 51 117 91 51 117 91 51 117 91 51 117 91 51 99 78 38 99 78 38 99 78 38 99 78 38 99 78 38 99 78 38 99 78 38 99 78 38 99 78 38 99 78 38 99 78 38 99 78 38 99 78 38 99 78 38 99 78 38 99 78 38 168 208 217 168 208 217 168 208 217 168 208 217 168 208 217 168 208 217 168 208 217 168 208 217 168 208 217 168 208 217 168 208 217 168 208 217 168 208 217 168 208 217 168 208 217 168 208 217 208 234 233 208 234 233 208 234 233 208 234 233 208 234 233 208 234 233 208 234 233 208 234 233 208 234 233 208 234 233 208 234 233 208 234 233 208 234 233 208 234 233 208 234 233 117 91 51 117 91 51 117 91 51 117 91 51 117 91 51 117 91 51 117 91 51 117 91 51 117 91 51 117 91 51 117 91 51 117 91 51 117 91 51 117 91 51 117 91 51 117 91 51 117 91 51 110 86 44 110 86 44 110 86 44 110 86 44 110 86 44 110 86 44 110 86 44 110 86 44 110 86 44 110 86 44 110 86 44 110 86 44 110 86 44 110 86 44 110 86 44 110 86 44 110 86 44 110 86 44 110 86 44 110 86 44 110 86 44 110 86 44 110 86 44 110 86 44 110 86 44 110 86 44 110 86 44 110 86 44 110 86 44 110 86 44 110 86 44 110 86 44 92 67 29 92 67 29 92 67 29 92 67 29 92 67 29 92 67 29 92 67 29 92 67 29 92 67 29 92 67 29 92 67 29 92 67 29 92 67 29 92 67 29 92 67 29 92 67 29 99 78 38 99 78 38 99 78 38 99 78 38 99 78 38 99 78 38 99 78 38 99 78 38 99 78 38 99 78 38 99 78 38 99 78 38 99 78 38 99 78 38 99 78 38 99 78 38 110 86 44 110 86 44 110 86 44 110 86 44 110 86 44 110 86 44 110 86 44 110 86 44 110 86 44 110 86 44 110 86 44 110 86 44 110 86 44 110 86 44 110 86 44 110 86 44 117 91 51 117 91 51 117 91 51 117 91 51 117 91 51 117 91 51 117 91 51 117 91 51 117 91 51 117 91 51 117 91 51 117 91 51 117 91 51 117 91 51 117 91 51 117 91 51 117 91 51 117 91 51 117 91 51 117 91 51 117 91 51 117 91 51 117 91 51 117 91 51 117 91 51 117 91 51 117 91 51 117 91 51 117 91 51 117 91 51 117 91 51 117 91 51 117 91 51 117 91 51 117 91 51 117 91 51 117 91 51 117 91 51 117 91 51 117 91 51 117 91 51 117 91 51 117 91 51 117 91 51 117 91 51 117 91 51 117 91 51 110 86 44 110 86 44 110 86 44 110 86 44 110 86 44 110 86 44 110 86 44 110 86 44 110 86 44 110 86 44 110 86 44 110 86 44 110 86 44 110 86 44 110 86 44 110 86 44 110 86 44 110 86 44 110 86 44 110 86 44 110 86 44 110 86 44 110 86 44 110 86 44 110 86 44 110 86 44 110 86 44 110 86 44 110 86 44 110 86 44 110 86 44 110 86 44 117 91 51 117 91 51 117 91 51 117 91 51 117 91 51 117 91 51 117 91 51 117 91 51 117 91 51 117 91 51 117 91 51 117 91 51 117 91 51 117 91 51 117 91 51 117 91 51 117 91 51 117 91 51 117 91 51 117 91 51 117 91 51 117 91 51 117 91 51 117 91 51 117 91 51 117 91 51 117 91 51 117 91 51 117 91 51 117 91 51 117 91 51 117 91 51 99 78 38 99 78 38 99 78 38 99 78 38 99 78 38 99 78 38 99 78 38 99 78 38 99 78 38 99 78 38 99 78 38 99 78 38 99 78 38 99 78 38 99 78 38 99 78 38 168 208 217 168 208 217 168 208 217 168 208 217 168 208 217 168 208 217 168 208 217 168 208 217 168 208 217 168 208 217 168 208 217 168 208 217 168 208 217 168 208 217 168 208 217 168 208 217 208 234 233 208 234 233 208 234 233 208 234 233 208 234 233 208 234 233 208 234 233 208 234 233 208 234 233 208 234 233 208 234 233 208 234 233 208 234 233 208 234 233 208 234 233 117 91 51 117 91 51 117 91 51 117 91 51 117 91 51 117 91 51 117 91 51 117 91 51 117 91 51 117 91 51 117 91 51 117 91 51 117 91 51 117 91 51 117 91 51 117 91 51 117 91 51 110 86 44 110 86 44 110 86 44 110 86 44 110 86 44 110 86 44 110 86 44 110 86 44 110 86 44 110 86 44 110 86 44 110 86 44 110 86 44 110 86 44 110 86 44 110 86 44 110 86 44 110 86 44 110 86 44 110 86 44 110 86 44 110 86 44 110 86 44 110 86 44 110 86 44 110 86 44 110 86 44 110 86 44 110 86 44 110 86 44 110 86 44 110 86 44 92 67 29 92 67 29 92 67 29 92 67 29 92 67 29 92 67 29 92 67 29 92 67 29 92 67 29 92 67 29 92 67 29 92 67 29 92 67 29 92 67 29 92 67 29 92 67 29 99 78 38 99 78 38 99 78 38 99 78 38 99 78 38 99 78 38 99 78 38 99 78 38 99 78 38 99 78 38 99 78 38 99 78 38 99 78 38 99 78 38 99 78 38 99 78 38 110 86 44 110 86 44 110 86 44 110 86 44 110 86 44 110 86 44 110 86 44 110 86 44 110 86 44 110 86 44 110 86 44 110 86 44 110 86 44 110 86 44 110 86 44 110 86 44 117 91 51 117 91 51 117 91 51 117 91 51 117 91 51 117 91 51 117 91 51 117 91 51 117 91 51 117 91 51 117 91 51 117 91 51 117 91 51 117 91 51 117 91 51 117 91 51 117 91 51 117 91 51 117 91 51 117 91 51 117 91 51 117 91 51 117 91 51 117 91 51 117 91 51 117 91 51 117 91 51 117 91 51 117 91 51 117 91 51 117 91 51 117 91 51 117 91 51 117 91 51 117 91 51 117 91 51 117 91 51 117 91 51 117 91 51 117 91 51 117 91 51 117 91 51 117 91 51 117 91 51 117 91 51 117 91 51 117 91 51 110 86 44 110 86 44 110 86 44 110 86 44 110 86 44 110 86 44 110 86 44 110 86 44 110 86 44 110 86 44 110 86 44 110 86 44 110 86 44 110 86 44 110 86 44 110 86 44 110 86 44 110 86 44 110 86 44 110 86 44 110 86 44 110 86 44 110 86 44 110 86 44 110 86 44 110 86 44 110 86 44 110 86 44 110 86 44 110 86 44 110 86 44 110 86 44 117 91 51 117 91 51 117 91 51 117 91 51 117 91 51 117 91 51 117 91 51 117 91 51 117 91 51 117 91 51 117 91 51 117 91 51 117 91 51 117 91 51 117 91 51 117 91 51 117 91 51 117 91 51 117 91 51 117 91 51 117 91 51 117 91 51 117 91 51 117 91 51 117 91 51 117 91 51 117 91 51 117 91 51 117 91 51 117 91 51 117 91 51 117 91 51 99 78 38 99 78 38 99 78 38 99 78 38 99 78 38 99 78 38 99 78 38 99 78 38 99 78 38 99 78 38 99 78 38 99 78 38 99 78 38 99 78 38 99 78 38 99 78 38 168 208 217 168 208 217 168 208 217 168 208 217 168 208 217 168 208 217 168 208 217 168 208 217 168 208 217 168 208 217 168 208 217 168 208 217 168 208 217 168 208 217 168 208 217 168 208 217 208 234 233 208 234 233 208 234 233 208 234 233 208 234 233 208 234 233 208 234 233 208 234 233 208 234 233 208 234 233 208 234 233 208 234 233 208 234 233 208 234 233 208 234 233 117 91 51 117 91 51 117 91 51 117 91 51 117 91 51 117 91 51 117 91 51 117 91 51 117 91 51 117 91 51 117 91 51 117 91 51 117 91 51 117 91 51 117 91 51 117 91 51 117 91 51 110 86 44 110 86 44 110 86 44 110 86 44 110 86 44 110 86 44 110 86 44 110 86 44 110 86 44 110 86 44 110 86 44 110 86 44 110 86 44 110 86 44 110 86 44 110 86 44 110 86 44 110 86 44 110 86 44 110 86 44 110 86 44 110 86 44 110 86 44 110 86 44 110 86 44 110 86 44 110 86 44 110 86 44 110 86 44 110 86 44 110 86 44 110 86 44 92 67 29 92 67 29 92 67 29 92 67 29 92 67 29 92 67 29 92 67 29 92 67 29 92 67 29 92 67 29 92 67 29 92 67 29 92 67 29 92 67 29 92 67 29 92 67 29 99 78 38 99 78 38 99 78 38 99 78 38 99 78 38 99 78 38 99 78 38 99 78 38 99 78 38 99 78 38 99 78 38 99 78 38 99 78 38 99 78 38 99 78 38 99 78 38 110 86 44 110 86 44 110 86 44 110 86 44 110 86 44 110 86 44 110 86 44 110 86 44 110 86 44 110 86 44 110 86 44 110 86 44 110 86 44 110 86 44 110 86 44 110 86 44 117 91 51 117 91 51 117 91 51 117 91 51 117 91 51 117 91 51 117 91 51 117 91 51 117 91 51 117 91 51 117 91 51 117 91 51 117 91 51 117 91 51 117 91 51 117 91 51 117 91 51 117 91 51 117 91 51 117 91 51 117 91 51 117 91 51 117 91 51 117 91 51 117 91 51 117 91 51 117 91 51 117 91 51 117 91 51 117 91 51 117 91 51 117 91 51 117 91 51 117 91 51 117 91 51 117 91 51 117 91 51 117 91 51 117 91 51 117 91 51 117 91 51 117 91 51 117 91 51 117 91 51 117 91 51 117 91 51 117 91 51 110 86 44 110 86 44 110 86 44 110 86 44 110 86 44 110 86 44 110 86 44 110 86 44 110 86 44 110 86 44 110 86 44 110 86 44 110 86 44 110 86 44 110 86 44 110 86 44 110 86 44 110 86 44 110 86 44 110 86 44 110 86 44 110 86 44 110 86 44 110 86 44 110 86 44 110 86 44 110 86 44 110 86 44 110 86 44 110 86 44 110 86 44 110 86 44 117 91 51 117 91 51 117 91 51 117 91 51 117 91 51 117 91 51 117 91 51 117 91 51 117 91 51 117 91 51 117 91 51 117 91 51 117 91 51 117 91 51 117 91 51 117 91 51 117 91 51 117 91 51 117 91 51 117 91 51 117 91 51 117 91 51 117 91 51 117 91 51 117 91 51 117 91 51 117 91 51 117 91 51 117 91 51 117 91 51 117 91 51 117 91 51 99 78 38 99 78 38 99 78 38 99 78 38 99 78 38 99 78 38 99 78 38 99 78 38 99 78 38 99 78 38 99 78 38 99 78 38 99 78 38 99 78 38 99 78 38 99 78 38 168 208 217 168 208 217 168 208 217 168 208 217 168 208 217 168 208 217 168 208 217 168 208 217 168 208 217 168 208 217 168 208 217 168 208 217 168 208 217 168 208 217 168 208 217 168 208 217 208 234 233 208 234 233 208 234 233 208 234 233 208 234 233 208 234 233 208 234 233 208 234 233 208 234 233 208 234 233 208 234 233 208 234 233 208 234 233 208 234 233 208 234 233 117 91 51 117 91 51 117 91 51 117 91 51 117 91 51 117 91 51 117 91 51 117 91 51 117 91 51 117 91 51 117 91 51 117 91 51 117 91 51 117 91 51 117 91 51 117 91 51 117 91 51 110 86 44 110 86 44 110 86 44 110 86 44 110 86 44 110 86 44 110 86 44 110 86 44 110 86 44 110 86 44 110 86 44 110 86 44 110 86 44 110 86 44 110 86 44 110 86 44 110 86 44 110 86 44 110 86 44 110 86 44 110 86 44 110 86 44 110 86 44 110 86 44 110 86 44 110 86 44 110 86 44 110 86 44 110 86 44 110 86 44 110 86 44 208 234 233 208 234 233 208 234 233 208 234 233 208 234 233 208 234 233 208 234 233 208 234 233 208 234 233 208 234 233 208 234 233 208 234 233 208 234 233 208 234 233 208 234 233 208 234 233 92 67 29 99 78 38 99 78 38 99 78 38 99 78 38 99 78 38 99 78 38 99 78 38 99 78 38 99 78 38 99 78 38 99 78 38 99 78 38 99 78 38 99 78 38 99 78 38 99 78 38 110 86 44 110 86 44 110 86 44 110 86 44 110 86 44 110 86 44 110 86 44 110 86 44 110 86 44 110 86 44 110 86 44 110 86 44 110 86 44 110 86 44 110 86 44 110 86 44 117 91 51 117 91 51 117 91 51 117 91 51 117 91 51 117 91 51 117 91 51 117 91 51 117 91 51 117 91 51 117 91 51 117 91 51 117 91 51 117 91 51 117 91 51 117 91 51 117 91 51 117 91 51 117 91 51 117 91 51 117 91 51 117 91 51 117 91 51 117 91 51 117 91 51 117 91 51 117 91 51 117 91 51 117 91 51 117 91 51 117 91 51 117 91 51 117 91 51 117 91 51 117 91 51 117 91 51 117 91 51 117 91 51 117 91 51 117 91 51 117 91 51 117 91 51 117 91 51 117 91 51 117 91 51 117 91 51 117 91 51 110 86 44 110 86 44 110 86 44 110 86 44 110 86 44 110 86 44 110 86 44 110 86 44 110 86 44 110 86 44 110 86 44 110 86 44 110 86 44 110 86 44 110 86 44 110 86 44 110 86 44 110 86 44 110 86 44 110 86 44 110 86 44 110 86 44 110 86 44 110 86 44 110 86 44 110 86 44 110 86 44 110 86 44 110 86 44 110 86 44 110 86 44 110 86 44 117 91 51 117 91 51 117 91 51 117 91 51 117 91 51 117 91 51 117 91 51 117 91 51 117 91 51 117 91 51 117 91 51 117 91 51 117 91 51 117 91 51 117 91 51 117 91 51 117 91 51 117 91 51 117 91 51 117 91 51 117 91 51 117 91 51 117 91 51 117 91 51 117 91 51 117 91 51 117 91 51 117 91 51 117 91 51 117 91 51 117 91 51 117 91 51 99 78 38 99 78 38 99 78 38 99 78 38 99 78 38 99 78 38 99 78 38 99 78 38 99 78 38 99 78 38 99 78 38 99 78 38 99 78 38 99 78 38 99 78 38 99 78 38 123 174 183 123 174 183 123 174 183 123 174 183 123 174 183 123 174 183 123 174 183 123 174 183 123 174 183 123 174 183 123 174 183 123 174 183 123 174 183 123 174 183 123 174 183 123 174 183 208 234 233 208 234 233 208 234 233 208 234 233 208 234 233 208 234 233 208 234 233 208 234 233 208 234 233 208 234 233 208 234 233 208 234 233 208 234 233 208 234 233 208 234 233 110 86 44 117 91 51 117 91 51 117 91 51 117 91 51 117 91 51 117 91 51 117 91 51 117 91 51 117 91 51 117 91 51 117 91 51 117 91 51 117 91 51 117 91 51 117 91 51 117 91 51 117 91 51 117 91 51 117 91 51 117 91 51 117 91 51 117 91 51 117 91 51 117 91 51 117 91 51 117 91 51 117 91 51 117 91 51 117 91 51 117 91 51 117 91 51 117 91 51 117 91 51 117 91 51 117 91 51 117 91 51 117 91 51 117 91 51 117 91 51 117 91 51 117 91 51 117 91 51 117 91 51 117 91 51 117 91 51 117 91 51 117 91 51 208 234 233 208 234 233 208 234 233 208 234 233 208 234 233 208 234 233 208 234 233 208 234 233 208 234 233 208 234 233 208 234 233 208 234 233 208 234 233 208 234 233 208 234 233 208 234 233 110 86 44 117 91 51 117 91 51 117 91 51 117 91 51 117 91 51 117 91 51 117 91 51 117 91 51 117 91 51 117 91 51 117 91 51 117 91 51 117 91 51 117 91 51 117 91 51 117 91 51 110 86 44 110 86 44 110 86 44 110 86 44 110 86 44 110 86 44 110 86 44 110 86 44 110 86 44 110 86 44 110 86 44 110 86 44 110 86 44 110 86 44 110 86 44 110 86 44 99 78 38 99 78 38 99 78 38 99 78 38 99 78 38 99 78 38 99 78 38 99 78 38 99 78 38 99 78 38 99 78 38 99 78 38 99 78 38 99 78 38 99 78 38 99 78 38 99 78 38 99 78 38 99 78 38 99 78 38 99 78 38 99 78 38 99 78 38 99 78 38 99 78 38 99 78 38 99 78 38 99 78 38 99 78 38 99 78 38 99 78 38 99 78 38 99 78 38 99 78 38 99 78 38 99 78 38 99 78 38 99 78 38 99 78 38 99 78 38 99 78 38 99 78 38 99 78 38 99 78 38 99 78 38 99 78 38 99 78 38 99 78 38 99 78 38 99 78 38 99 78 38 99 78 38 99 78 38 99 78 38 99 78 38 99 78 38 99 78 38 99 78 38 99 78 38 99 78 38 99 78 38 99 78 38 99 78 38 110 86 44 110 86 44 110 86 44 110 86 44 110 86 44 110 86 44 110 86 44 110 86 44 110 86 44 110 86 44 110 86 44 110 86 44 110 86 44 110 86 44 110 86 44 110 86 44 110 86 44 110 86 44 110 86 44 110 86 44 110 86 44 110 86 44 110 86 44 110 86 44 110 86 44 110 86 44 110 86 44 110 86 44 110 86 44 110 86 44 110 86 44 110 86 44 117 91 51 117 91 51 117 91 51 117 91 51 117 91 51 117 91 51 117 91 51 117 91 51 117 91 51 117 91 51 117 91 51 117 91 51 117 91 51 117 91 51 117 91 51 117 91 51 117 91 51 117 91 51 117 91 51 117 91 51 117 91 51 117 91 51 117 91 51 117 91 51 117 91 51 117 91 51 117 91 51 117 91 51 117 91 51 117 91 51 117 91 51 117 91 51 123 174 183 123 174 183 123 174 183 123 174 183 123 174 183 123 174 183 123 174 183 123 174 183 123 174 183 123 174 183 123 174 183 123 174 183 123 174 183 123 174 183 123 174 183 123 174 183 208 234 233 208 234 233 208 234 233 208 234 233 208 234 233 208 234 233 208 234 233 208 234 233 208 234 233 208 234 233 208 234 233 208 234 233 208 234 233 208 234 233 208 234 233 110 86 44 117 91 51 117 91 51 117 91 51 117 91 51 117 91 51 117 91 51 117 91 51 117 91 51 117 91 51 117 91 51 117 91 51 117 91 51 117 91 51 117 91 51 117 91 51 117 91 51 117 91 51 117 91 51 117 91 51 117 91 51 117 91 51 117 91 51 117 91 51 117 91 51 117 91 51 117 91 51 117 91 51 117 91 51 117 91 51 117 91 51 117 91 51 117 91 51 117 91 51 117 91 51 117 91 51 117 91 51 117 91 51 117 91 51 117 91 51 117 91 51 117 91 51 117 91 51 117 91 51 117 91 51 117 91 51 117 91 51 117 91 51 208 234 233 208 234 233 208 234 233 208 234 233 208 234 233 208 234 233 208 234 233 208 234 233 208 234 233 208 234 233 208 234 233 208 234 233 208 234 233 208 234 233 208 234 233 208 234 233 110 86 44 117 91 51 117 91 51 117 91 51 117 91 51 117 91 51 117 91 51 117 91 51 117 91 51 117 91 51 117 91 51 117 91 51 117 91 51 117 91 51 117 91 51 117 91 51 117 91 51 110 86 44 110 86 44 110 86 44 110 86 44 110 86 44 110 86 44 110 86 44 110 86 44 110 86 44 110 86 44 110 86 44 110 86 44 110 86 44 110 86 44 110 86 44 110 86 44 99 78 38 99 78 38 99 78 38 99 78 38 99 78 38 99 78 38 99 78 38 99 78 38 99 78 38 99 78 38 99 78 38 99 78 38 99 78 38 99 78 38 99 78 38 99 78 38 99 78 38 99 78 38 99 78 38 99 78 38 99 78 38 99 78 38 99 78 38 99 78 38 99 78 38 99 78 38 99 78 38 99 78 38 99 78 38 99 78 38 99 78 38 99 78 38 99 78 38 99 78 38 99 78 38 99 78 38 99 78 38 99 78 38 99 78 38 99 78 38 99 78 38 99 78 38 99 78 38 99 78 38 99 78 38 99 78 38 99 78 38 99 78 38 99 78 38 99 78 38 99 78 38 99 78 38 99 78 38 99 78 38 99 78 38 99 78 38 99 78 38 99 78 38 99 78 38 99 78 38 99 78 38 99 78 38 99 78 38 110 86 44 110 86 44 110 86 44 110 86 44 110 86 44 110 86 44 110 86 44 110 86 44 110 86 44 110 86 44 110 86 44 110 86 44 110 86 44 110 86 44 110 86 44 110 86 44 110 86 44 110 86 44 110 86 44 110 86 44 110 86 44 110 86 44 110 86 44 110 86 44 110 86 44 110 86 44 110 86 44 110 86 44 110 86 44 110 86 44 110 86 44 110 86 44 117 91 51 117 91 51 117 91 51 117 91 51 117 91 51 117 91 51 117 91 51 117 91 51 117 91 51 117 91 51 117 91 51 117 91 51 117 91 51 117 91 51 117 91 51 117 91 51 117 91 51 117 91 51 117 91 51 117 91 51 117 91 51 117 91 51 117 91 51 117 91 51 117 91 51 117 91 51 117 91 51 117 91 51 117 91 51 117 91 51 117 91 51 117 91 51 123 174 183 123 174 183 123 174 183 123 174 183 123 174 183 123 174 183 123 174 183 123 174 183 123 174 183 123 174 183 123 174 183 123 174 183 123 174 183 123 174 183 123 174 183 123 174 183 208 234 233 208 234 233 208 234 233 208 234 233 208 234 233 208 234 233 208 234 233 208 234 233 208 234 233 208 234 233 208 234 233 208 234 233 208 234 233 208 234 233 208 234 233 110 86 44 117 91 51 117 91 51 117 91 51 117 91 51 117 91 51 117 91 51 117 91 51 117 91 51 117 91 51 117 91 51 117 91 51 117 91 51 117 91 51 117 91 51 117 91 51 117 91 51 117 91 51 117 91 51 117 91 51 117 91 51 117 91 51 117 91 51 117 91 51 117 91 51 117 91 51 117 91 51 117 91 51 117 91 51 117 91 51 117 91 51 117 91 51 117 91 51 117 91 51 117 91 51 117 91 51 117 91 51 117 91 51 117 91 51 117 91 51 117 91 51 117 91 51 117 91 51 117 91 51 117 91 51 117 91 51 117 91 51 117 91 51 208 234 233 208 234 233 208 234 233 208 234 233 208 234 233 208 234 233 208 234 233 208 234 233 208 234 233 208 234 233 208 234 233 208 234 233 208 234 233 208 234 233 208 234 233 208 234 233 110 86 44 117 91 51 117 91 51 117 91 51 117 91 51 117 91 51 117 91 51 117 91 51 117 91 51 117 91 51 117 91 51 117 91 51 117 91 51 117 91 51 117 91 51 117 91 51 117 91 51 110 86 44 110 86 44 110 86 44 110 86 44 110 86 44 110 86 44 110 86 44 110 86 44 110 86 44 110 86 44 110 86 44 110 86 44 110 86 44 110 86 44 110 86 44 110 86 44 99 78 38 99 78 38 99 78 38 99 78 38 99 78 38 99 78 38 99 78 38 99 78 38 99 78 38 99 78 38 99 78 38 99 78 38 99 78 38 99 78 38 99 78 38 99 78 38 99 78 38 99 78 38 99 78 38 99 78 38 99 78 38 99 78 38 99 78 38 99 78 38 99 78 38 99 78 38 99 78 38 99 78 38 99 78 38 99 78 38 99 78 38 99 78 38 99 78 38 99 78 38 99 78 38 99 78 38 99 78 38 99 78 38 99 78 38 99 78 38 99 78 38 99 78 38 99 78 38 99 78 38 99 78 38 99 78 38 99 78 38 99 78 38 99 78 38 99 78 38 99 78 38 99 78 38 99 78 38 99 78 38 99 78 38 99 78 38 99 78 38 99 78 38 99 78 38 99 78 38 99 78 38 99 78 38 99 78 38 110 86 44 110 86 44 110 86 44 110 86 44 110 86 44 110 86 44 110 86 44 110 86 44 110 86 44 110 86 44 110 86 44 110 86 44 110 86 44 110 86 44 110 86 44 110 86 44 110 86 44 110 86 44 110 86 44 110 86 44 110 86 44 110 86 44 110 86 44 110 86 44 110 86 44 110 86 44 110 86 44 110 86 44 110 86 44 110 86 44 110 86 44 110 86 44 117 91 51 117 91 51 117 91 51 117 91 51 117 91 51 117 91 51 117 91 51 117 91 51 117 91 51 117 91 51 117 91 51 117 91 51 117 91 51 117 91 51 117 91 51 117 91 51 117 91 51 117 91 51 117 91 51 117 91 51 117 91 51 117 91 51 117 91 51 117 91 51 117 91 51 117 91 51 117 91 51 117 91 51 117 91 51 117 91 51 117 91 51 117 91 51 123 174 183 123 174 183 123 174 183 123 174 183 123 174 183 123 174 183 123 174 183 123 174 183 123 174 183 123 174 183 123 174 183 123 174 183 123 174 183 123 174 183 123 174 183 123 174 183 208 234 233 208 234 233 208 234 233 208 234 233 208 234 233 208 234 233 208 234 233 208 234 233 208 234 233 208 234 233 208 234 233 208 234 233 208 234 233 208 234 233 208 234 233 110 86 44 117 91 51 117 91 51 117 91 51 117 91 51 117 91 51 117 91 51 117 91 51 117 91 51 117 91 51 117 91 51 117 91 51 117 91 51 117 91 51 117 91 51 117 91 51 117 91 51 117 91 51 117 91 51 117 91 51 117 91 51 117 91 51 117 91 51 117 91 51 117 91 51 117 91 51 117 91 51 117 91 51 117 91 51 117 91 51 117 91 51 117 91 51 117 91 51 117 91 51 117 91 51 117 91 51 117 91 51 117 91 51 117 91 51 117 91 51 117 91 51 117 91 51 117 91 51 117 91 51 117 91 51 117 91 51 117 91 51 117 91 51 208 234 233 208 234 233 208 234 233 208 234 233 208 234 233 208 234 233 208 234 233 208 234 233 208 234 233 208 234 233 208 234 233 208 234 233 208 234 233 208 234 233 208 234 233 208 234 233 110 86 44 117 91 51 117 91 51 117 91 51 117 91 51 117 91 51 117 91 51 117 91 51 117 91 51 117 91 51 117 91 51 117 91 51 117 91 51 117 91 51 117 91 51 117 91 51 117 91 51 110 86 44 110 86 44 110 86 44 110 86 44 110 86 44 110 86 44 110 86 44 110 86 44 110 86 44 110 86 44 110 86 44 110 86 44 110 86 44 110 86 44 110 86 44 110 86 44 99 78 38 99 78 38 99 78 38 99 78 38 99 78 38 99 78 38 99 78 38 99 78 38 99 78 38 99 78 38 99 78 38 99 78 38 99 78 38 99 78 38 99 78 38 99 78 38 99 78 38 99 78 38 99 78 38 99 78 38 99 78 38 99 78 38 99 78 38 99 78 38 99 78 38 99 78 38 99 78 38 99 78 38 99 78 38 99 78 38 99 78 38 99 78 38 99 78 38 99 78 38 99 78 38 99 78 38 99 78 38 99 78 38 99 78 38 99 78 38 99 78 38 99 78 38 99 78 38 99 78 38 99 78 38 99 78 38 99 78 38 99 78 38 99 78 38 99 78 38 99 78 38 99 78 38 99 78 38 99 78 38 99 78 38 99 78 38 99 78 38 99 78 38 99 78 38 99 78 38 99 78 38 99 78 38 99 78 38 110 86 44 110 86 44 110 86 44 110 86 44 110 86 44 110 86 44 110 86 44 110 86 44 110 86 44 110 86 44 110 86 44 110 86 44 110 86 44 110 86 44 110 86 44 110 86 44 110 86 44 110 86 44 110 86 44 110 86 44 110 86 44 110 86 44 110 86 44 110 86 44 110 86 44 110 86 44 110 86 44 110 86 44 110 86 44 110 86 44 110 86 44 110 86 44 117 91 51 117 91 51 117 91 51 117 91 51 117 91 51 117 91 51 117 91 51 117 91 51 117 91 51 117 91 51 117 91 51 117 91 51 117 91 51 117 91 51 117 91 51 117 91 51 117 91 51 117 91 51 117 91 51 117 91 51 117 91 51 117 91 51 117 91 51 117 91 51 117 91 51 117 91 51 117 91 51 117 91 51 117 91 51 117 91 51 117 91 51 117 91 51 123 174 183 123 174 183 123 174 183 123 174 183 123 174 183 123 174 183 123 174 183 123 174 183 123 174 183 123 174 183 123 174 183 123 174 183 123 174 183 123 174 183 123 174 183 123 174 183 208 234 233 208 234 233 208 234 233 208 234 233 208 234 233 208 234 233 208 234 233 208 234 233 208 234 233 208 234 233 208 234 233 208 234 233 208 234 233 208 234 233 208 234 233 110 86 44 117 91 51 117 91 51 117 91 51 117 91 51 117 91 51 117 91 51 117 91 51 117 91 51 117 91 51 117 91 51 117 91 51 117 91 51 117 91 51 117 91 51 117 91 51 117 91 51 117 91 51 117 91 51 117 91 51 117 91 51 117 91 51 117 91 51 117 91 51 117 91 51 117 91 51 117 91 51 117 91 51 117 91 51 117 91 51 117 91 51 117 91 51 117 91 51 117 91 51 117 91 51 117 91 51 117 91 51 117 91 51 117 91 51 117 91 51 117 91 51 117 91 51 117 91 51 117 91 51 117 91 51 117 91 51 117 91 51 117 91 51 208 234 233 208 234 233 208 234 233 208 234 233 208 234 233 208 234 233 208 234 233 208 234 233 208 234 233 208 234 233 208 234 233 208 234 233 208 234 233 208 234 233 208 234 233 208 234 233 110 86 44 117 91 51 117 91 51 117 91 51 117 91 51 117 91 51 117 91 51 117 91 51 117 91 51 117 91 51 117 91 51 117 91 51 117 91 51 117 91 51 117 91 51 117 91 51 117 91 51 110 86 44 110 86 44 110 86 44 110 86 44 110 86 44 110 86 44 110 86 44 110 86 44 110 86 44 110 86 44 110 86 44 110 86 44 110 86 44 110 86 44 110 86 44 110 86 44 99 78 38 99 78 38 99 78 38 99 78 38 99 78 38 99 78 38 99 78 38 99 78 38 99 78 38 99 78 38 99 78 38 99 78 38 99 78 38 99 78 38 99 78 38 99 78 38 99 78 38 99 78 38 99 78 38 99 78 38 99 78 38 99 78 38 99 78 38 99 78 38 99 78 38 99 78 38 99 78 38 99 78 38 99 78 38 99 78 38 99 78 38 99 78 38 99 78 38 99 78 38 99 78 38 99 78 38 99 78 38 99 78 38 99 78 38 99 78 38 99 78 38 99 78 38 99 78 38 99 78 38 99 78 38 99 78 38 99 78 38 99 78 38 99 78 38 99 78 38 99 78 38 99 78 38 99 78 38 99 78 38 99 78 38 99 78 38 99 78 38 99 78 38 99 78 38 99 78 38 99 78 38 99 78 38 99 78 38 110 86 44 110 86 44 110 86 44 110 86 44 110 86 44 110 86 44 110 86 44 110 86 44 110 86 44 110 86 44 110 86 44 110 86 44 110 86 44 110 86 44 110 86 44 110 86 44 110 86 44 110 86 44 110 86 44 110 86 44 110 86 44 110 86 44 110 86 44 110 86 44 110 86 44 110 86 44 110 86 44 110 86 44 110 86 44 110 86 44 110 86 44 110 86 44 117 91 51 117 91 51 117 91 51 117 91 51 117 91 51 117 91 51 117 91 51 117 91 51 117 91 51 117 91 51 117 91 51 117 91 51 117 91 51 117 91 51 117 91 51 117 91 51 117 91 51 117 91 51 117 91 51 117 91 51 117 91 51 117 91 51 117 91 51 117 91 51 117 91 51 117 91 51 117 91 51 117 91 51 117 91 51 117 91 51 117 91 51 117 91 51 123 174 183 123 174 183 123 174 183 123 174 183 123 174 183 123 174 183 123 174 183 123 174 183 123 174 183 123 174 183 123 174 183 123 174 183 123 174 183 123 174 183 123 174 183 123 174 183 208 234 233 208 234 233 208 234 233 208 234 233 208 234 233 208 234 233 208 234 233 208 234 233 208 234 233 208 234 233 208 234 233 208 234 233 208 234 233 208 234 233 208 234 233 110 86 44 117 91 51 117 91 51 117 91 51 117 91 51 117 91 51 117 91 51 117 91 51 117 91 51 117 91 51 117 91 51 117 91 51 117 91 51 117 91 51 117 91 51 117 91 51 117 91 51 117 91 51 117 91 51 117 91 51 117 91 51 117 91 51 117 91 51 117 91 51 117 91 51 117 91 51 117 91 51 117 91 51 117 91 51 117 91 51 117 91 51 117 91 51 117 91 51 117 91 51 117 91 51 117 91 51 117 91 51 117 91 51 117 91 51 117 91 51 117 91 51 117 91 51 117 91 51 117 91 51 117 91 51 117 91 51 117 91 51 117 91 51 208 234 233 208 234 233 208 234 233 208 234 233 208 234 233 208 234 233 208 234 233 208 234 233 208 234 233 208 234 233 208 234 233 208 234 233 208 234 233 208 234 233 208 234 233 208 234 233 110 86 44 117 91 51 117 91 51 117 91 51 117 91 51 117 91 51 117 91 51 117 91 51 117 91 51 117 91 51 117 91 51 117 91 51 117 91 51 117 91 51 117 91 51 117 91 51 117 91 51 110 86 44 110 86 44 110 86 44 110 86 44 110 86 44 110 86 44 110 86 44 110 86 44 110 86 44 110 86 44 110 86 44 110 86 44 110 86 44 110 86 44 110 86 44 110 86 44 99 78 38 99 78 38 99 78 38 99 78 38 99 78 38 99 78 38 99 78 38 99 78 38 99 78 38 99 78 38 99 78 38 99 78 38 99 78 38 99 78 38 99 78 38 99 78 38 99 78 38 99 78 38 99 78 38 99 78 38 99 78 38 99 78 38 99 78 38 99 78 38 99 78 38 99 78 38 99 78 38 99 78 38 99 78 38 99 78 38 99 78 38 99 78 38 99 78 38 99 78 38 99 78 38 99 78 38 99 78 38 99 78 38 99 78 38 99 78 38 99 78 38 99 78 38 99 78 38 99 78 38 99 78 38 99 78 38 99 78 38 99 78 38 99 78 38 99 78 38 99 78 38 99 78 38 99 78 38 99 78 38 99 78 38 99 78 38 99 78 38 99 78 38 99 78 38 99 78 38 99 78 38 99 78 38 99 78 38 110 86 44 110 86 44 110 86 44 110 86 44 110 86 44 110 86 44 110 86 44 110 86 44 110 86 44 110 86 44 110 86 44 110 86 44 110 86 44 110 86 44 110 86 44 110 86 44 110 86 44 110 86 44 110 86 44 110 86 44 110 86 44 110 86 44 110 86 44 110 86 44 110 86 44 110 86 44 110 86 44 110 86 44 110 86 44 110 86 44 110 86 44 110 86 44 117 91 51 117 91 51 117 91 51 117 91 51 117 91 51 117 91 51 117 91 51 117 91 51 117 91 51 117 91 51 117 91 51 117 91 51 117 91 51 117 91 51 117 91 51 117 91 51 117 91 51 117 91 51 117 91 51 117 91 51 117 91 51 117 91 51 117 91 51 117 91 51 117 91 51 117 91 51 117 91 51 117 91 51 117 91 51 117 91 51 117 91 51 117 91 51 123 174 183 123 174 183 123 174 183 123 174 183 123 174 183 123 174 183 123 174 183 123 174 183 123 174 183 123 174 183 123 174 183 123 174 183 123 174 183 123 174 183 123 174 183 123 174 183 208 234 233 208 234 233 208 234 233 208 234 233 208 234 233 208 234 233 208 234 233 208 234 233 208 234 233 208 234 233 208 234 233 208 234 233 208 234 233 208 234 233 208 234 233 110 86 44 117 91 51 117 91 51 117 91 51 117 91 51 117 91 51 117 91 51 117 91 51 117 91 51 117 91 51 117 91 51 117 91 51 117 91 51 117 91 51 117 91 51 117 91 51 117 91 51 117 91 51 117 91 51 117 91 51 117 91 51 117 91 51 117 91 51 117 91 51 117 91 51 117 91 51 117 91 51 117 91 51 117 91 51 117 91 51 117 91 51 117 91 51 117 91 51 117 91 51 117 91 51 117 91 51 117 91 51 117 91 51 117 91 51 117 91 51 117 91 51 117 91 51 117 91 51 117 91 51 117 91 51 117 91 51 117 91 51 117 91 51 208 234 233 208 234 233 208 234 233 208 234 233 208 234 233 208 234 233 208 234 233 208 234 233 208 234 233 208 234 233 208 234 233 208 234 233 208 234 233 208 234 233 208 234 233 208 234 233 110 86 44 117 91 51 117 91 51 117 91 51 117 91 51 117 91 51 117 91 51 117 91 51 117 91 51 117 91 51 117 91 51 117 91 51 117 91 51 117 91 51 117 91 51 117 91 51 117 91 51 110 86 44 110 86 44 110 86 44 110 86 44 110 86 44 110 86 44 110 86 44 110 86 44 110 86 44 110 86 44 110 86 44 110 86 44 110 86 44 110 86 44 110 86 44 110 86 44 99 78 38 99 78 38 99 78 38 99 78 38 99 78 38 99 78 38 99 78 38 99 78 38 99 78 38 99 78 38 99 78 38 99 78 38 99 78 38 99 78 38 99 78 38 99 78 38 99 78 38 99 78 38 99 78 38 99 78 38 99 78 38 99 78 38 99 78 38 99 78 38 99 78 38 99 78 38 99 78 38 99 78 38 99 78 38 99 78 38 99 78 38 99 78 38 99 78 38 99 78 38 99 78 38 99 78 38 99 78 38 99 78 38 99 78 38 99 78 38 99 78 38 99 78 38 99 78 38 99 78 38 99 78 38 99 78 38 99 78 38 99 78 38 99 78 38 99 78 38 99 78 38 99 78 38 99 78 38 99 78 38 99 78 38 99 78 38 99 78 38 99 78 38 99 78 38 99 78 38 99 78 38 99 78 38 99 78 38 110 86 44 110 86 44 110 86 44 110 86 44 110 86 44 110 86 44 110 86 44 110 86 44 110 86 44 110 86 44 110 86 44 110 86 44 110 86 44 110 86 44 110 86 44 110 86 44 110 86 44 110 86 44 110 86 44 110 86 44 110 86 44 110 86 44 110 86 44 110 86 44 110 86 44 110 86 44 110 86 44 110 86 44 110 86 44 110 86 44 110 86 44 110 86 44 117 91 51 117 91 51 117 91 51 117 91 51 117 91 51 117 91 51 117 91 51 117 91 51 117 91 51 117 91 51 117 91 51 117 91 51 117 91 51 117 91 51 117 91 51 117 91 51 117 91 51 117 91 51 117 91 51 117 91 51 117 91 51 117 91 51 117 91 51 117 91 51 117 91 51 117 91 51 117 91 51 117 91 51 117 91 51 117 91 51 117 91 51 117 91 51 123 174 183 123 174 183 123 174 183 123 174 183 123 174 183 123 174 183 123 174 183 123 174 183 123 174 183 123 174 183 123 174 183 123 174 183 123 174 183 123 174 183 123 174 183 123 174 183 208 234 233 208 234 233 208 234 233 208 234 233 208 234 233 208 234 233 208 234 233 208 234 233 208 234 233 208 234 233 208 234 233 208 234 233 208 234 233 208 234 233 208 234 233 110 86 44 117 91 51 117 91 51 117 91 51 117 91 51 117 91 51 117 91 51 117 91 51 117 91 51 117 91 51 117 91 51 117 91 51 117 91 51 117 91 51 117 91 51 117 91 51 117 91 51 117 91 51 117 91 51 117 91 51 117 91 51 117 91 51 117 91 51 117 91 51 117 91 51 117 91 51 117 91 51 117 91 51 117 91 51 117 91 51 117 91 51 117 91 51 117 91 51 117 91 51 117 91 51 117 91 51 117 91 51 117 91 51 117 91 51 117 91 51 117 91 51 117 91 51 117 91 51 117 91 51 117 91 51 117 91 51 117 91 51 117 91 51 208 234 233 208 234 233 208 234 233 208 234 233 208 234 233 208 234 233 208 234 233 208 234 233 208 234 233 208 234 233 208 234 233 208 234 233 208 234 233 208 234 233 208 234 233 208 234 233 110 86 44 117 91 51 117 91 51 117 91 51 117 91 51 117 91 51 117 91 51 117 91 51 117 91 51 117 91 51 117 91 51 117 91 51 117 91 51 117 91 51 117 91 51 117 91 51 117 91 51 110 86 44 110 86 44 110 86 44 110 86 44 110 86 44 110 86 44 110 86 44 110 86 44 110 86 44 110 86 44 110 86 44 110 86 44 110 86 44 110 86 44 110 86 44 110 86 44 99 78 38 99 78 38 99 78 38 99 78 38 99 78 38 99 78 38 99 78 38 99 78 38 99 78 38 99 78 38 99 78 38 99 78 38 99 78 38 99 78 38 99 78 38 99 78 38 99 78 38 99 78 38 99 78 38 99 78 38 99 78 38 99 78 38 99 78 38 99 78 38 99 78 38 99 78 38 99 78 38 99 78 38 99 78 38 99 78 38 99 78 38 99 78 38 99 78 38 99 78 38 99 78 38 99 78 38 99 78 38 99 78 38 99 78 38 99 78 38 99 78 38 99 78 38 99 78 38 99 78 38 99 78 38 99 78 38 99 78 38 99 78 38 99 78 38 99 78 38 99 78 38 99 78 38 99 78 38 99 78 38 99 78 38 99 78 38 99 78 38 99 78 38 99 78 38 99 78 38 99 78 38 99 78 38 99 78 38 110 86 44 110 86 44 110 86 44 110 86 44 110 86 44 110 86 44 110 86 44 110 86 44 110 86 44 110 86 44 110 86 44 110 86 44 110 86 44 110 86 44 110 86 44 110 86 44 110 86 44 110 86 44 110 86 44 110 86 44 110 86 44 110 86 44 110 86 44 110 86 44 110 86 44 110 86 44 110 86 44 110 86 44 110 86 44 110 86 44 110 86 44 110 86 44 117 91 51 117 91 51 117 91 51 117 91 51 117 91 51 117 91 51 117 91 51 117 91 51 117 91 51 117 91 51 117 91 51 117 91 51 117 91 51 117 91 51 117 91 51 117 91 51 117 91 51 117 91 51 117 91 51 117 91 51 117 91 51 117 91 51 117 91 51 117 91 51 117 91 51 117 91 51 117 91 51 117 91 51 117 91 51 117 91 51 117 91 51 117 91 51 123 174 183 123 174 183 123 174 183 123 174 183 123 174 183 123 174 183 123 174 183 123 174 183 123 174 183 123 174 183 123 174 183 123 174 183 123 174 183 123 174 183 123 174 183 123 174 183 208 234 233 208 234 233 208 234 233 208 234 233 208 234 233 208 234 233 208 234 233 208 234 233 208 234 233 208 234 233 208 234 233 208 234 233 208 234 233 208 234 233 208 234 233 110 86 44 117 91 51 117 91 51 117 91 51 117 91 51 117 91 51 117 91 51 117 91 51 117 91 51 117 91 51 117 91 51 117 91 51 117 91 51 117 91 51 117 91 51 117 91 51 117 91 51 117 91 51 117 91 51 117 91 51 117 91 51 117 91 51 117 91 51 117 91 51 117 91 51 117 91 51 117 91 51 117 91 51 117 91 51 117 91 51 117 91 51 117 91 51 117 91 51 117 91 51 117 91 51 117 91 51 117 91 51 117 91 51 117 91 51 117 91 51 117 91 51 117 91 51 117 91 51 117 91 51 117 91 51 117 91 51 117 91 51 117 91 51 208 234 233 208 234 233 208 234 233 208 234 233 208 234 233 208 234 233 208 234 233 208 234 233 208 234 233 208 234 233 208 234 233 208 234 233 208 234 233 208 234 233 208 234 233 208 234 233 110 86 44 117 91 51 117 91 51 117 91 51 117 91 51 117 91 51 117 91 51 117 91 51 117 91 51 117 91 51 117 91 51 117 91 51 117 91 51 117 91 51 117 91 51 117 91 51 117 91 51 110 86 44 110 86 44 110 86 44 110 86 44 110 86 44 110 86 44 110 86 44 110 86 44 110 86 44 110 86 44 110 86 44 110 86 44 110 86 44 110 86 44 110 86 44 110 86 44 99 78 38 99 78 38 99 78 38 99 78 38 99 78 38 99 78 38 99 78 38 99 78 38 99 78 38 99 78 38 99 78 38 99 78 38 99 78 38 99 78 38 99 78 38 99 78 38 99 78 38 99 78 38 99 78 38 99 78 38 99 78 38 99 78 38 99 78 38 99 78 38 99 78 38 99 78 38 99 78 38 99 78 38 99 78 38 99 78 38 99 78 38 99 78 38 99 78 38 99 78 38 99 78 38 99 78 38 99 78 38 99 78 38 99 78 38 99 78 38 99 78 38 99 78 38 99 78 38 99 78 38 99 78 38 99 78 38 99 78 38 99 78 38 99 78 38 99 78 38 99 78 38 99 78 38 99 78 38 99 78 38 99 78 38 99 78 38 99 78 38 99 78 38 99 78 38 99 78 38 99 78 38 99 78 38 99 78 38 110 86 44 110 86 44 110 86 44 110 86 44 110 86 44 110 86 44 110 86 44 110 86 44 110 86 44 110 86 44 110 86 44 110 86 44 110 86 44 110 86 44 110 86 44 110 86 44 110 86 44 110 86 44 110 86 44 110 86 44 110 86 44 110 86 44 110 86 44 110 86 44 110 86 44 110 86 44 110 86 44 110 86 44 110 86 44 110 86 44 110 86 44 110 86 44 117 91 51 117 91 51 117 91 51 117 91 51 117 91 51 117 91 51 117 91 51 117 91 51 117 91 51 117 91 51 117 91 51 117 91 51 117 91 51 117 91 51 117 91 51 117 91 51 117 91 51 117 91 51 117 91 51 117 91 51 117 91 51 117 91 51 117 91 51 117 91 51 117 91 51 117 91 51 117 91 51 117 91 51 117 91 51 117 91 51 117 91 51 117 91 51 123 174 183 123 174 183 123 174 183 123 174 183 123 174 183 123 174 183 123 174 183 123 174 183 123 174 183 123 174 183 123 174 183 123 174 183 123 174 183 123 174 183 123 174 183 123 174 183 208 234 233 208 234 233 208 234 233 208 234 233 208 234 233 208 234 233 208 234 233 208 234 233 208 234 233 208 234 233 208 234 233 208 234 233 208 234 233 208 234 233 208 234 233 110 86 44 117 91 51 117 91 51 117 91 51 117 91 51 117 91 51 117 91 51 117 91 51 117 91 51 117 91 51 117 91 51 117 91 51 117 91 51 117 91 51 117 91 51 117 91 51 117 91 51 117 91 51 117 91 51 117 91 51 117 91 51 117 91 51 117 91 51 117 91 51 117 91 51 117 91 51 117 91 51 117 91 51 117 91 51 117 91 51 117 91 51 117 91 51 117 91 51 117 91 51 117 91 51 117 91 51 117 91 51 117 91 51 117 91 51 117 91 51 117 91 51 117 91 51 117 91 51 117 91 51 117 91 51 117 91 51 117 91 51 117 91 51 208 234 233 208 234 233 208 234 233 208 234 233 208 234 233 208 234 233 208 234 233 208 234 233 208 234 233 208 234 233 208 234 233 208 234 233 208 234 233 208 234 233 208 234 233 208 234 233 110 86 44 117 91 51 117 91 51 117 91 51 117 91 51 117 91 51 117 91 51 117 91 51 117 91 51 117 91 51 117 91 51 117 91 51 117 91 51 117 91 51 117 91 51 117 91 51 117 91 51 110 86 44 110 86 44 110 86 44 110 86 44 110 86 44 110 86 44 110 86 44 110 86 44 110 86 44 110 86 44 110 86 44 110 86 44 110 86 44 110 86 44 110 86 44 110 86 44 99 78 38 99 78 38 99 78 38 99 78 38 99 78 38 99 78 38 99 78 38 99 78 38 99 78 38 99 78 38 99 78 38 99 78 38 99 78 38 99 78 38 99 78 38 99 78 38 99 78 38 99 78 38 99 78 38 99 78 38 99 78 38 99 78 38 99 78 38 99 78 38 99 78 38 99 78 38 99 78 38 99 78 38 99 78 38 99 78 38 99 78 38 99 78 38 99 78 38 99 78 38 99 78 38 99 78 38 99 78 38 99 78 38 99 78 38 99 78 38 99 78 38 99 78 38 99 78 38 99 78 38 99 78 38 99 78 38 99 78 38 99 78 38 99 78 38 99 78 38 99 78 38 99 78 38 99 78 38 99 78 38 99 78 38 99 78 38 99 78 38 99 78 38 99 78 38 99 78 38 99 78 38 99 78 38 99 78 38 110 86 44 110 86 44 110 86 44 110 86 44 110 86 44 110 86 44 110 86 44 110 86 44 110 86 44 110 86 44 110 86 44 110 86 44 110 86 44 110 86 44 110 86 44 110 86 44 110 86 44 110 86 44 110 86 44 110 86 44 110 86 44 110 86 44 110 86 44 110 86 44 110 86 44 110 86 44 110 86 44 110 86 44 110 86 44 110 86 44 110 86 44 110 86 44 117 91 51 117 91 51 117 91 51 117 91 51 117 91 51 117 91 51 117 91 51 117 91 51 117 91 51 117 91 51 117 91 51 117 91 51 117 91 51 117 91 51 117 91 51 117 91 51 117 91 51 117 91 51 117 91 51 117 91 51 117 91 51 117 91 51 117 91 51 117 91 51 117 91 51 117 91 51 117 91 51 117 91 51 117 91 51 117 91 51 117 91 51 117 91 51 123 174 183 123 174 183 123 174 183 123 174 183 123 174 183 123 174 183 123 174 183 123 174 183 123 174 183 123 174 183 123 174 183 123 174 183 123 174 183 123 174 183 123 174 183 123 174 183 208 234 233 208 234 233 208 234 233 208 234 233 208 234 233 208 234 233 208 234 233 208 234 233 208 234 233 208 234 233 208 234 233 208 234 233 208 234 233 208 234 233 208 234 233 110 86 44 117 91 51 117 91 51 117 91 51 117 91 51 117 91 51 117 91 51 117 91 51 117 91 51 117 91 51 117 91 51 117 91 51 117 91 51 117 91 51 117 91 51 117 91 51 117 91 51 117 91 51 117 91 51 117 91 51 117 91 51 117 91 51 117 91 51 117 91 51 117 91 51 117 91 51 117 91 51 117 91 51 117 91 51 117 91 51 117 91 51 117 91 51 117 91 51 117 91 51 117 91 51 117 91 51 117 91 51 117 91 51 117 91 51 117 91 51 117 91 51 117 91 51 117 91 51 117 91 51 117 91 51 117 91 51 117 91 51 117 91 51 208 234 233 208 234 233 208 234 233 208 234 233 208 234 233 208 234 233 208 234 233 208 234 233 208 234 233 208 234 233 208 234 233 208 234 233 208 234 233 208 234 233 208 234 233 208 234 233 110 86 44 117 91 51 117 91 51 117 91 51 117 91 51 117 91 51 117 91 51 117 91 51 117 91 51 117 91 51 117 91 51 117 91 51 117 91 51 117 91 51 117 91 51 117 91 51 117 91 51 110 86 44 110 86 44 110 86 44 110 86 44 110 86 44 110 86 44 110 86 44 110 86 44 110 86 44 110 86 44 110 86 44 110 86 44 110 86 44 110 86 44 110 86 44 110 86 44 99 78 38 99 78 38 99 78 38 99 78 38 99 78 38 99 78 38 99 78 38 99 78 38 99 78 38 99 78 38 99 78 38 99 78 38 99 78 38 99 78 38 99 78 38 99 78 38 99 78 38 99 78 38 99 78 38 99 78 38 99 78 38 99 78 38 99 78 38 99 78 38 99 78 38 99 78 38 99 78 38 99 78 38 99 78 38 99 78 38 99 78 38 99 78 38 99 78 38 99 78 38 99 78 38 99 78 38 99 78 38 99 78 38 99 78 38 99 78 38 99 78 38 99 78 38 99 78 38 99 78 38 99 78 38 99 78 38 99 78 38 99 78 38 99 78 38 99 78 38 99 78 38 99 78 38 99 78 38 99 78 38 99 78 38 99 78 38 99 78 38 99 78 38 99 78 38 99 78 38 99 78 38 99 78 38 99 78 38 110 86 44 110 86 44 110 86 44 110 86 44 110 86 44 110 86 44 110 86 44 110 86 44 110 86 44 110 86 44 110 86 44 110 86 44 110 86 44 110 86 44 110 86 44 110 86 44 110 86 44 110 86 44 110 86 44 110 86 44 110 86 44 110 86 44 110 86 44 110 86 44 110 86 44 110 86 44 110 86 44 110 86 44 110 86 44 110 86 44 110 86 44 110 86 44 117 91 51 117 91 51 117 91 51 117 91 51 117 91 51 117 91 51 117 91 51 117 91 51 117 91 51 117 91 51 117 91 51 117 91 51 117 91 51 117 91 51 117 91 51 117 91 51 117 91 51 117 91 51 117 91 51 117 91 51 117 91 51 117 91 51 117 91 51 117 91 51 117 91 51 117 91 51 117 91 51 117 91 51 117 91 51 117 91 51 117 91 51 117 91 51 123 174 183 123 174 183 123 174 183 123 174 183 123 174 183 123 174 183 123 174 183 123 174 183 123 174 183 123 174 183 123 174 183 123 174 183 123 174 183 123 174 183 123 174 183 123 174 183 208 234 233 208 234 233 208 234 233 208 234 233 208 234 233 208 234 233 208 234 233 208 234 233 208 234 233 208 234 233 208 234 233 208 234 233 208 234 233 208 234 233 208 234 233 110 86 44 117 91 51 117 91 51 117 91 51 117 91 51 117 91 51 117 91 51 117 91 51 117 91 51 117 91 51 117 91 51 117 91 51 117 91 51 117 91 51 117 91 51 117 91 51 117 91 51 117 91 51 117 91 51 117 91 51 117 91 51 117 91 51 117 91 51 117 91 51 117 91 51 117 91 51 117 91 51 117 91 51 117 91 51 117 91 51 117 91 51 117 91 51 117 91 51 117 91 51 117 91 51 117 91 51 117 91 51 117 91 51 117 91 51 117 91 51 117 91 51 117 91 51 117 91 51 117 91 51 117 91 51 117 91 51 117 91 51 117 91 51 208 234 233 208 234 233 208 234 233 208 234 233 208 234 233 208 234 233 208 234 233 208 234 233 208 234 233 208 234 233 208 234 233 208 234 233 208 234 233 208 234 233 208 234 233 208 234 233 110 86 44 117 91 51 117 91 51 117 91 51 117 91 51 117 91 51 117 91 51 117 91 51 117 91 51 117 91 51 117 91 51 117 91 51 117 91 51 117 91 51 117 91 51 117 91 51 117 91 51 110 86 44 110 86 44 110 86 44 110 86 44 110 86 44 110 86 44 110 86 44 110 86 44 110 86 44 110 86 44 110 86 44 110 86 44 110 86 44 110 86 44 110 86 44 110 86 44 99 78 38 99 78 38 99 78 38 99 78 38 99 78 38 99 78 38 99 78 38 99 78 38 99 78 38 99 78 38 99 78 38 99 78 38 99 78 38 99 78 38 99 78 38 99 78 38 99 78 38 99 78 38 99 78 38 99 78 38 99 78 38 99 78 38 99 78 38 99 78 38 99 78 38 99 78 38 99 78 38 99 78 38 99 78 38 99 78 38 99 78 38 99 78 38 99 78 38 99 78 38 99 78 38 99 78 38 99 78 38 99 78 38 99 78 38 99 78 38 99 78 38 99 78 38 99 78 38 99 78 38 99 78 38 99 78 38 99 78 38 99 78 38 99 78 38 99 78 38 99 78 38 99 78 38 99 78 38 99 78 38 99 78 38 99 78 38 99 78 38 99 78 38 99 78 38 99 78 38 99 78 38 99 78 38 99 78 38 110 86 44 110 86 44 110 86 44 110 86 44 110 86 44 110 86 44 110 86 44 110 86 44 110 86 44 110 86 44 110 86 44 110 86 44 110 86 44 110 86 44 110 86 44 110 86 44 110 86 44 110 86 44 110 86 44 110 86 44 110 86 44 110 86 44 110 86 44 110 86 44 110 86 44 110 86 44 110 86 44 110 86 44 110 86 44 110 86 44 110 86 44 110 86 44 117 91 51 117 91 51 117 91 51 117 91 51 117 91 51 117 91 51 117 91 51 117 91 51 117 91 51 117 91 51 117 91 51 117 91 51 117 91 51 117 91 51 117 91 51 117 91 51 117 91 51 117 91 51 117 91 51 117 91 51 117 91 51 117 91 51 117 91 51 117 91 51 117 91 51 117 91 51 117 91 51 117 91 51 117 91 51 117 91 51 117 91 51 117 91 51 123 174 183 123 174 183 123 174 183 123 174 183 123 174 183 123 174 183 123 174 183 123 174 183 123 174 183 123 174 183 123 174 183 123 174 183 123 174 183 123 174 183 123 174 183 123 174 183 208 234 233 208 234 233 208 234 233 208 234 233 208 234 233 208 234 233 208 234 233 208 234 233 208 234 233 208 234 233 208 234 233 208 234 233 208 234 233 208 234 233 208 234 233 110 86 44 117 91 51 117 91 51 117 91 51 117 91 51 117 91 51 117 91 51 117 91 51 117 91 51 117 91 51 117 91 51 117 91 51 117 91 51 117 91 51 117 91 51 117 91 51 117 91 51 117 91 51 117 91 51 117 91 51 117 91 51 117 91 51 117 91 51 117 91 51 117 91 51 117 91 51 117 91 51 117 91 51 117 91 51 117 91 51 117 91 51 117 91 51 117 91 51 117 91 51 117 91 51 117 91 51 117 91 51 117 91 51 117 91 51 117 91 51 117 91 51 117 91 51 117 91 51 117 91 51 117 91 51 117 91 51 117 91 51 117 91 51 208 234 233 208 234 233 208 234 233 208 234 233 208 234 233 208 234 233 208 234 233 208 234 233 208 234 233 208 234 233 208 234 233 208 234 233 208 234 233 208 234 233 208 234 233 208 234 233 110 86 44 117 91 51 117 91 51 117 91 51 117 91 51 117 91 51 117 91 51 117 91 51 117 91 51 117 91 51 117 91 51 117 91 51 117 91 51 117 91 51 117 91 51 117 91 51 117 91 51 110 86 44 110 86 44 110 86 44 110 86 44 110 86 44 110 86 44 110 86 44 110 86 44 110 86 44 110 86 44 110 86 44 110 86 44 110 86 44 110 86 44 110 86 44 110 86 44 99 78 38 99 78 38 99 78 38 99 78 38 99 78 38 99 78 38 99 78 38 99 78 38 99 78 38 99 78 38 99 78 38 99 78 38 99 78 38 99 78 38 99 78 38 99 78 38 99 78 38 99 78 38 99 78 38 99 78 38 99 78 38 99 78 38 99 78 38 99 78 38 99 78 38 99 78 38 99 78 38 99 78 38 99 78 38 99 78 38 99 78 38 99 78 38 99 78 38 99 78 38 99 78 38 99 78 38 99 78 38 99 78 38 99 78 38 99 78 38 99 78 38 99 78 38 99 78 38 99 78 38 99 78 38 99 78 38 99 78 38 99 78 38 99 78 38 99 78 38 99 78 38 99 78 38 99 78 38 99 78 38 99 78 38 99 78 38 99 78 38 99 78 38 99 78 38 99 78 38 99 78 38 99 78 38 99 78 38 110 86 44 110 86 44 110 86 44 110 86 44 110 86 44 110 86 44 110 86 44 110 86 44 110 86 44 110 86 44 110 86 44 110 86 44 110 86 44 110 86 44 110 86 44 110 86 44 110 86 44 110 86 44 110 86 44 110 86 44 110 86 44 110 86 44 110 86 44 110 86 44 110 86 44 110 86 44 110 86 44 110 86 44 110 86 44 110 86 44 110 86 44 110 86 44 117 91 51 117 91 51 117 91 51 117 91 51 117 91 51 117 91 51 117 91 51 117 91 51 117 91 51 117 91 51 117 91 51 117 91 51 117 91 51 117 91 51 117 91 51 117 91 51 117 91 51 117 91 51 117 91 51 117 91 51 117 91 51 117 91 51 117 91 51 117 91 51 117 91 51 117 91 51 117 91 51 117 91 51 117 91 51 117 91 51 117 91 51 117 91 51 123 174 183 123 174 183 123 174 183 123 174 183 123 174 183 123 174 183 123 174 183 123 174 183 123 174 183 123 174 183 123 174 183 123 174 183 123 174 183 123 174 183 123 174 183 123 174 183 208 234 233 208 234 233 208 234 233 208 234 233 208 234 233 208 234 233 208 234 233 208 234 233 208 234 233 208 234 233 208 234 233 208 234 233 208 234 233 208 234 233 208 234 233 110 86 44 117 91 51 117 91 51 117 91 51 117 91 51 117 91 51 117 91 51 117 91 51 117 91 51 117 91 51 117 91 51 117 91 51 117 91 51 117 91 51 117 91 51 117 91 51 117 91 51 117 91 51 117 91 51 117 91 51 117 91 51 117 91 51 117 91 51 117 91 51 117 91 51 117 91 51 117 91 51 117 91 51 117 91 51 117 91 51 117 91 51 117 91 51 117 91 51 117 91 51 117 91 51 117 91 51 117 91 51 117 91 51 117 91 51 117 91 51 117 91 51 117 91 51 117 91 51 117 91 51 117 91 51 117 91 51 117 91 51 117 91 51 208 234 233 208 234 233 208 234 233 208 234 233 208 234 233 208 234 233 208 234 233 208 234 233 208 234 233 208 234 233 208 234 233 208 234 233 208 234 233 208 234 233 208 234 233 208 234 233 110 86 44 117 91 51 117 91 51 117 91 51 117 91 51 117 91 51 117 91 51 117 91 51 117 91 51 117 91 51 117 91 51 117 91 51 117 91 51 117 91 51 117 91 51 117 91 51 117 91 51 110 86 44 110 86 44 110 86 44 110 86 44 110 86 44 110 86 44 110 86 44 110 86 44 110 86 44 110 86 44 110 86 44 110 86 44 110 86 44 110 86 44 110 86 44 110 86 44 99 78 38 99 78 38 99 78 38 99 78 38 99 78 38 99 78 38 99 78 38 99 78 38 99 78 38 99 78 38 99 78 38 99 78 38 99 78 38 99 78 38 99 78 38 99 78 38 99 78 38 99 78 38 99 78 38 99 78 38 99 78 38 99 78 38 99 78 38 99 78 38 99 78 38 99 78 38 99 78 38 99 78 38 99 78 38 99 78 38 99 78 38 99 78 38 99 78 38 99 78 38 99 78 38 99 78 38 99 78 38 99 78 38 99 78 38 99 78 38 99 78 38 99 78 38 99 78 38 99 78 38 99 78 38 99 78 38 99 78 38 99 78 38 99 78 38 99 78 38 99 78 38 99 78 38 99 78 38 99 78 38 99 78 38 99 78 38 99 78 38 99 78 38 99 78 38 99 78 38 99 78 38 99 78 38 99 78 38 110 86 44 110 86 44 110 86 44 110 86 44 110 86 44 110 86 44 110 86 44 110 86 44 110 86 44 110 86 44 110 86 44 110 86 44 110 86 44 110 86 44 110 86 44 110 86 44 110 86 44 110 86 44 110 86 44 110 86 44 110 86 44 110 86 44 110 86 44 110 86 44 110 86 44 110 86 44 110 86 44 110 86 44 110 86 44 110 86 44 110 86 44 110 86 44 117 91 51 117 91 51 117 91 51 117 91 51 117 91 51 117 91 51 117 91 51 117 91 51 117 91 51 117 91 51 117 91 51 117 91 51 117 91 51 117 91 51 117 91 51 117 91 51 117 91 51 117 91 51 117 91 51 117 91 51 117 91 51 117 91 51 117 91 51 117 91 51 117 91 51 117 91 51 117 91 51 117 91 51 117 91 51 117 91 51 117 91 51 117 91 51 123 174 183 123 174 183 123 174 183 123 174 183 123 174 183 123 174 183 123 174 183 123 174 183 123 174 183 123 174 183 123 174 183 123 174 183 123 174 183 123 174 183 123 174 183 123 174 183 208 234 233 208 234 233 208 234 233 208 234 233 208 234 233 208 234 233 208 234 233 208 234 233 208 234 233 208 234 233 208 234 233 208 234 233 208 234 233 208 234 233 208 234 233 110 86 44 117 91 51 117 91 51 117 91 51 117 91 51 117 91 51 117 91 51 117 91 51 117 91 51 117 91 51 117 91 51 117 91 51 117 91 51 117 91 51 117 91 51 117 91 51 117 91 51 117 91 51 117 91 51 117 91 51 117 91 51 117 91 51 117 91 51 117 91 51 117 91 51 117 91 51 117 91 51 117 91 51 117 91 51 117 91 51 117 91 51 117 91 51 117 91 51 117 91 51 117 91 51 117 91 51 117 91 51 117 91 51 117 91 51 117 91 51 117 91 51 117 91 51 117 91 51 117 91 51 117 91 51 117 91 51 117 91 51 117 91 51 208 234 233 208 234 233 208 234 233 208 234 233 208 234 233 208 234 233 208 234 233 208 234 233 208 234 233 208 234 233 208 234 233 208 234 233 208 234 233 208 234 233 208 234 233 208 234 233 110 86 44 117 91 51 117 91 51 117 91 51 117 91 51 117 91 51 117 91 51 117 91 51 117 91 51 117 91 51 117 91 51 117 91 51 117 91 51 117 91 51 117 91 51 117 91 51 117 91 51 110 86 44 110 86 44 110 86 44 110 86 44 110 86 44 110 86 44 110 86 44 110 86 44 110 86 44 110 86 44 110 86 44 110 86 44 110 86 44 110 86 44 110 86 44 110 86 44 99 78 38 99 78 38 99 78 38 99 78 38 99 78 38 99 78 38 99 78 38 99 78 38 99 78 38 99 78 38 99 78 38 99 78 38 99 78 38 99 78 38 99 78 38 99 78 38 99 78 38 99 78 38 99 78 38 99 78 38 99 78 38 99 78 38 99 78 38 99 78 38 99 78 38 99 78 38 99 78 38 99 78 38 99 78 38 99 78 38 99 78 38 99 78 38 99 78 38 99 78 38 99 78 38 99 78 38 99 78 38 99 78 38 99 78 38 99 78 38 99 78 38 99 78 38 99 78 38 99 78 38 99 78 38 99 78 38 99 78 38 99 78 38 99 78 38 99 78 38 99 78 38 99 78 38 99 78 38 99 78 38 99 78 38 99 78 38 99 78 38 99 78 38 99 78 38 99 78 38 99 78 38 99 78 38 99 78 38 110 86 44 110 86 44 110 86 44 110 86 44 110 86 44 110 86 44 110 86 44 110 86 44 110 86 44 110 86 44 110 86 44 110 86 44 110 86 44 110 86 44 110 86 44 110 86 44 110 86 44 110 86 44 110 86 44 110 86 44 110 86 44 110 86 44 110 86 44 110 86 44 110 86 44 110 86 44 110 86 44 110 86 44 110 86 44 110 86 44 110 86 44 110 86 44 117 91 51 117 91 51 117 91 51 117 91 51 117 91 51 117 91 51 117 91 51 117 91 51 117 91 51 117 91 51 117 91 51 117 91 51 117 91 51 117 91 51 117 91 51 117 91 51 117 91 51 117 91 51 117 91 51 117 91 51 117 91 51 117 91 51 117 91 51 117 91 51 117 91 51 117 91 51 117 91 51 117 91 51 117 91 51 117 91 51 117 91 51 117 91 51 123 174 183 123 174 183 123 174 183 123 174 183 123 174 183 123 174 183 123 174 183 123 174 183 123 174 183 123 174 183 123 174 183 123 174 183 123 174 183 123 174 183 123 174 183 123 174 183 208 234 233 208 234 233 208 234 233 208 234 233 208 234 233 208 234 233 208 234 233 208 234 233 208 234 233 208 234 233 208 234 233 208 234 233 208 234 233 208 234 233 208 234 233 110 86 44 117 91 51 117 91 51 117 91 51 117 91 51 117 91 51 117 91 51 117 91 51 117 91 51 117 91 51 117 91 51 117 91 51 117 91 51 117 91 51 117 91 51 117 91 51 117 91 51 117 91 51 117 91 51 117 91 51 117 91 51 117 91 51 117 91 51 117 91 51 117 91 51 117 91 51 117 91 51 117 91 51 117 91 51 117 91 51 117 91 51 117 91 51 208 234 233 208 234 233 208 234 233 208 234 233 208 234 233 208 234 233 208 234 233 208 234 233 208 234 233 208 234 233 208 234 233 208 234 233 208 234 233 208 234 233 208 234 233 208 234 233 117 91 51 110 86 44 110 86 44 110 86 44 110 86 44 110 86 44 110 86 44 110 86 44 110 86 44 110 86 44 110 86 44 110 86 44 110 86 44 110 86 44 110 86 44 110 86 44 110 86 44 117 91 51 117 91 51 117 91 51 117 91 51 117 91 51 117 91 51 117 91 51 117 91 51 117 91 51 117 91 51 117 91 51 117 91 51 117 91 51 117 91 51 117 91 51 117 91 51 110 86 44 110 86 44 110 86 44 110 86 44 110 86 44 110 86 44 110 86 44 110 86 44 110 86 44 110 86 44 110 86 44 110 86 44 110 86 44 110 86 44 110 86 44 110 86 44 99 78 38 99 78 38 99 78 38 99 78 38 99 78 38 99 78 38 99 78 38 99 78 38 99 78 38 99 78 38 99 78 38 99 78 38 99 78 38 99 78 38 99 78 38 99 78 38 99 78 38 99 78 38 99 78 38 99 78 38 99 78 38 99 78 38 99 78 38 99 78 38 99 78 38 99 78 38 99 78 38 99 78 38 99 78 38 99 78 38 99 78 38 99 78 38 99 78 38 99 78 38 99 78 38 99 78 38 99 78 38 99 78 38 99 78 38 99 78 38 99 78 38 99 78 38 99 78 38 99 78 38 99 78 38 99 78 38 99 78 38 99 78 38 99 78 38 99 78 38 99 78 38 99 78 38 99 78 38 99 78 38 99 78 38 99 78 38 99 78 38 99 78 38 99 78 38 99 78 38 99 78 38 99 78 38 99 78 38 110 86 44 110 86 44 110 86 44 110 86 44 110 86 44 110 86 44 110 86 44 110 86 44 110 86 44 110 86 44 110 86 44 110 86 44 110 86 44 110 86 44 110 86 44 110 86 44 110 86 44 110 86 44 110 86 44 110 86 44 110 86 44 110 86 44 110 86 44 110 86 44 110 86 44 110 86 44 110 86 44 110 86 44 110 86 44 110 86 44 110 86 44 110 86 44 117 91 51 117 91 51 117 91 51 117 91 51 117 91 51 117 91 51 117 91 51 117 91 51 117 91 51 117 91 51 117 91 51 117 91 51 117 91 51 117 91 51 117 91 51 117 91 51 117 91 51 117 91 51 117 91 51 117 91 51 117 91 51 117 91 51 117 91 51 117 91 51 117 91 51 117 91 51 117 91 51 117 91 51 117 91 51 117 91 51 117 91 51 117 91 51 123 174 183 123 174 183 123 174 183 123 174 183 123 174 183 123 174 183 123 174 183 123 174 183 123 174 183 123 174 183 123 174 183 123 174 183 123 174 183 123 174 183 123 174 183 123 174 183 208 234 233 208 234 233 208 234 233 208 234 233 208 234 233 208 234 233 208 234 233 208 234 233 208 234 233 208 234 233 208 234 233 208 234 233 208 234 233 208 234 233 208 234 233 92 67 29 74 53 21 74 53 21 74 53 21 74 53 21 74 53 21 74 53 21 74 53 21 74 53 21 74 53 21 74 53 21 74 53 21 74 53 21 74 53 21 74 53 21 74 53 21 74 53 21 74 53 21 74 53 21 74 53 21 74 53 21 74 53 21 74 53 21 74 53 21 74 53 21 74 53 21 74 53 21 74 53 21 74 53 21 74 53 21 74 53 21 74 53 21 208 234 233 208 234 233 208 234 233 208 234 233 208 234 233 208 234 233 208 234 233 208 234 233 208 234 233 208 234 233 208 234 233 208 234 233 208 234 233 208 234 233 208 234 233 208 234 233 92 67 29 92 67 29 92 67 29 92 67 29 92 67 29 92 67 29 92 67 29 92 67 29 92 67 29 92 67 29 92 67 29 92 67 29 92 67 29 92 67 29 92 67 29 92 67 29 92 67 29 74 53 21 74 53 21 74 53 21 74 53 21 74 53 21 74 53 21 74 53 21 74 53 21 74 53 21 74 53 21 74 53 21 74 53 21 74 53 21 74 53 21 74 53 21 74 53 21 56 40 13 56 40 13 56 40 13 56 40 13 56 40 13 56 40 13 56 40 13 56 40 13 56 40 13 56 40 13 56 40 13 56 40 13 56 40 13 56 40 13 56 40 13 56 40 13 56 40 13 56 40 13 56 40 13 56 40 13 56 40 13 56 40 13 56 40 13 56 40 13 56 40 13 56 40 13 56 40 13 56 40 13 56 40 13 56 40 13 56 40 13 56 40 13 74 53 21 74 53 21 74 53 21 74 53 21 74 53 21 74 53 21 74 53 21 74 53 21 74 53 21 74 53 21 74 53 21 74 53 21 74 53 21 74 53 21 74 53 21 74 53 21 74 53 21 74 53 21 74 53 21 74 53 21 74 53 21 74 53 21 74 53 21 74 53 21 74 53 21 74 53 21 74 53 21 74 53 21 74 53 21 74 53 21 74 53 21 56 40 13 56 40 13 56 40 13 56 40 13 56 40 13 56 40 13 56 40 13 56 40 13 56 40 13 56 40 13 56 40 13 56 40 13 56 40 13 56 40 13 56 40 13 56 40 13 74 53 21 74 53 21 74 53 21 74 53 21 74 53 21 74 53 21 74 53 21 74 53 21 74 53 21 74 53 21 74 53 21 74 53 21 74 53 21 74 53 21 74 53 21 74 53 21 56 40 13 56 40 13 56 40 13 56 40 13 56 40 13 56 40 13 56 40 13 56 40 13 56 40 13 56 40 13 56 40 13 56 40 13 56 40 13 56 40 13 56 40 13 56 40 13 56 40 13 56 40 13 56 40 13 56 40 13 56 40 13 56 40 13 56 40 13 56 40 13 56 40 13 56 40 13 56 40 13 56 40 13 56 40 13 56 40 13 56 40 13 56 40 13 74 53 21 74 53 21 74 53 21 74 53 21 74 53 21 74 53 21 74 53 21 74 53 21 74 53 21 74 53 21 74 53 21 74 53 21 74 53 21 74 53 21 74 53 21 74 53 21 123 174 183 123 174 183 123 174 183 123 174 183 123 174 183 123 174 183 123 174 183 123 174 183 123 174 183 123 174 183 123 174 183 123 174 183 123 174 183 123 174 183 123 174 183 123 174 183 208 234 233 208 234 233 208 234 233 208 234 233 208 234 233 208 234 233 208 234 233 208 234 233 208 234 233 208 234 233 208 234 233 208 234 233 208 234 233 208 234 233 208 234 233 92 67 29 74 53 21 74 53 21 74 53 21 74 53 21 74 53 21 74 53 21 74 53 21 74 53 21 74 53 21 74 53 21 74 53 21 74 53 21 74 53 21 74 53 21 74 53 21 74 53 21 74 53 21 74 53 21 74 53 21 74 53 21 74 53 21 74 53 21 74 53 21 74 53 21 74 53 21 74 53 21 74 53 21 74 53 21 74 53 21 74 53 21 74 53 21 208 234 233 208 234 233 208 234 233 208 234 233 208 234 233 208 234 233 208 234 233 208 234 233 208 234 233 208 234 233 208 234 233 208 234 233 208 234 233 208 234 233 208 234 233 208 234 233 92 67 29 92 67 29 92 67 29 92 67 29 92 67 29 92 67 29 92 67 29 92 67 29 92 67 29 92 67 29 92 67 29 92 67 29 92 67 29 92 67 29 92 67 29 92 67 29 92 67 29 74 53 21 74 53 21 74 53 21 74 53 21 74 53 21 74 53 21 74 53 21 74 53 21 74 53 21 74 53 21 74 53 21 74 53 21 74 53 21 74 53 21 74 53 21 74 53 21 56 40 13 56 40 13 56 40 13 56 40 13 56 40 13 56 40 13 56 40 13 56 40 13 56 40 13 56 40 13 56 40 13 56 40 13 56 40 13 56 40 13 56 40 13 56 40 13 56 40 13 56 40 13 56 40 13 56 40 13 56 40 13 56 40 13 56 40 13 56 40 13 56 40 13 56 40 13 56 40 13 56 40 13 56 40 13 56 40 13 56 40 13 56 40 13 74 53 21 74 53 21 74 53 21 74 53 21 74 53 21 74 53 21 74 53 21 74 53 21 74 53 21 74 53 21 74 53 21 74 53 21 74 53 21 74 53 21 74 53 21 74 53 21 74 53 21 74 53 21 74 53 21 74 53 21 74 53 21 74 53 21 74 53 21 74 53 21 74 53 21 74 53 21 74 53 21 74 53 21 74 53 21 74 53 21 74 53 21 56 40 13 56 40 13 56 40 13 56 40 13 56 40 13 56 40 13 56 40 13 56 40 13 56 40 13 56 40 13 56 40 13 56 40 13 56 40 13 56 40 13 56 40 13 56 40 13 74 53 21 74 53 21 74 53 21 74 53 21 74 53 21 74 53 21 74 53 21 74 53 21 74 53 21 74 53 21 74 53 21 74 53 21 74 53 21 74 53 21 74 53 21 74 53 21 56 40 13 56 40 13 56 40 13 56 40 13 56 40 13 56 40 13 56 40 13 56 40 13 56 40 13 56 40 13 56 40 13 56 40 13 56 40 13 56 40 13 56 40 13 56 40 13 56 40 13 56 40 13 56 40 13 56 40 13 56 40 13 56 40 13 56 40 13 56 40 13 56 40 13 56 40 13 56 40 13 56 40 13 56 40 13 56 40 13 56 40 13 56 40 13 74 53 21 74 53 21 74 53 21 74 53 21 74 53 21 74 53 21 74 53 21 74 53 21 74 53 21 74 53 21 74 53 21 74 53 21 74 53 21 74 53 21 74 53 21 74 53 21 123 174 183 123 174 183 123 174 183 123 174 183 123 174 183 123 174 183 123 174 183 123 174 183 123 174 183 123 174 183 123 174 183 123 174 183 123 174 183 123 174 183 123 174 183 123 174 183 208 234 233 208 234 233 208 234 233 208 234 233 208 234 233 208 234 233 208 234 233 208 234 233 208 234 233 208 234 233 208 234 233 208 234 233 208 234 233 208 234 233 208 234 233 92 67 29 74 53 21 74 53 21 74 53 21 74 53 21 74 53 21 74 53 21 74 53 21 74 53 21 74 53 21 74 53 21 74 53 21 74 53 21 74 53 21 74 53 21 74 53 21 74 53 21 74 53 21 74 53 21 74 53 21 74 53 21 74 53 21 74 53 21 74 53 21 74 53 21 74 53 21 74 53 21 74 53 21 74 53 21 74 53 21 74 53 21 74 53 21 208 234 233 208 234 233 208 234 233 208 234 233 208 234 233 208 234 233 208 234 233 208 234 233 208 234 233 208 234 233 208 234 233 208 234 233 208 234 233 208 234 233 208 234 233 208 234 233 92 67 29 92 67 29 92 67 29 92 67 29 92 67 29 92 67 29 92 67 29 92 67 29 92 67 29 92 67 29 92 67 29 92 67 29 92 67 29 92 67 29 92 67 29 92 67 29 92 67 29 74 53 21 74 53 21 74 53 21 74 53 21 74 53 21 74 53 21 74 53 21 74 53 21 74 53 21 74 53 21 74 53 21 74 53 21 74 53 21 74 53 21 74 53 21 74 53 21 56 40 13 56 40 13 56 40 13 56 40 13 56 40 13 56 40 13 56 40 13 56 40 13 56 40 13 56 40 13 56 40 13 56 40 13 56 40 13 56 40 13 56 40 13 56 40 13 56 40 13 56 40 13 56 40 13 56 40 13 56 40 13 56 40 13 56 40 13 56 40 13 56 40 13 56 40 13 56 40 13 56 40 13 56 40 13 56 40 13 56 40 13 56 40 13 74 53 21 74 53 21 74 53 21 74 53 21 74 53 21 74 53 21 74 53 21 74 53 21 74 53 21 74 53 21 74 53 21 74 53 21 74 53 21 74 53 21 74 53 21 74 53 21 74 53 21 74 53 21 74 53 21 74 53 21 74 53 21 74 53 21 74 53 21 74 53 21 74 53 21 74 53 21 74 53 21 74 53 21 74 53 21 74 53 21 74 53 21 56 40 13 56 40 13 56 40 13 56 40 13 56 40 13 56 40 13 56 40 13 56 40 13 56 40 13 56 40 13 56 40 13 56 40 13 56 40 13 56 40 13 56 40 13 56 40 13 74 53 21 74 53 21 74 53 21 74 53 21 74 53 21 74 53 21 74 53 21 74 53 21 74 53 21 74 53 21 74 53 21 74 53 21 74 53 21 74 53 21 74 53 21 74 53 21 56 40 13 56 40 13 56 40 13 56 40 13 56 40 13 56 40 13 56 40 13 56 40 13 56 40 13 56 40 13 56 40 13 56 40 13 56 40 13 56 40 13 56 40 13 56 40 13 56 40 13 56 40 13 56 40 13 56 40 13 56 40 13 56 40 13 56 40 13 56 40 13 56 40 13 56 40 13 56 40 13 56 40 13 56 40 13 56 40 13 56 40 13 56 40 13 74 53 21 74 53 21 74 53 21 74 53 21 74 53 21 74 53 21 74 53 21 74 53 21 74 53 21 74 53 21 74 53 21 74 53 21 74 53 21 74 53 21 74 53 21 74 53 21 123 174 183 123 174 183 123 174 183 123 174 183 123 174 183 123 174 183 123 174 183 123 174 183 123 174 183 123 174 183 123 174 183 123 174 183 123 174 183 123 174 183 123 174 183 123 174 183 208 234 233 208 234 233 208 234 233 208 234 233 208 234 233 208 234 233 208 234 233 208 234 233 208 234 233 208 234 233 208 234 233 208 234 233 208 234 233 208 234 233 208 234 233 92 67 29 74 53 21 74 53 21 74 53 21 74 53 21 74 53 21 74 53 21 74 53 21 74 53 21 74 53 21 74 53 21 74 53 21 74 53 21 74 53 21 74 53 21 74 53 21 74 53 21 74 53 21 74 53 21 74 53 21 74 53 21 74 53 21 74 53 21 74 53 21 74 53 21 74 53 21 74 53 21 74 53 21 74 53 21 74 53 21 74 53 21 74 53 21 208 234 233 208 234 233 208 234 233 208 234 233 208 234 233 208 234 233 208 234 233 208 234 233 208 234 233 208 234 233 208 234 233 208 234 233 208 234 233 208 234 233 208 234 233 208 234 233 92 67 29 92 67 29 92 67 29 92 67 29 92 67 29 92 67 29 92 67 29 92 67 29 92 67 29 92 67 29 92 67 29 92 67 29 92 67 29 92 67 29 92 67 29 92 67 29 92 67 29 74 53 21 74 53 21 74 53 21 74 53 21 74 53 21 74 53 21 74 53 21 74 53 21 74 53 21 74 53 21 74 53 21 74 53 21 74 53 21 74 53 21 74 53 21 74 53 21 56 40 13 56 40 13 56 40 13 56 40 13 56 40 13 56 40 13 56 40 13 56 40 13 56 40 13 56 40 13 56 40 13 56 40 13 56 40 13 56 40 13 56 40 13 56 40 13 56 40 13 56 40 13 56 40 13 56 40 13 56 40 13 56 40 13 56 40 13 56 40 13 56 40 13 56 40 13 56 40 13 56 40 13 56 40 13 56 40 13 56 40 13 56 40 13 74 53 21 74 53 21 74 53 21 74 53 21 74 53 21 74 53 21 74 53 21 74 53 21 74 53 21 74 53 21 74 53 21 74 53 21 74 53 21 74 53 21 74 53 21 74 53 21 74 53 21 74 53 21 74 53 21 74 53 21 74 53 21 74 53 21 74 53 21 74 53 21 74 53 21 74 53 21 74 53 21 74 53 21 74 53 21 74 53 21 74 53 21 56 40 13 56 40 13 56 40 13 56 40 13 56 40 13 56 40 13 56 40 13 56 40 13 56 40 13 56 40 13 56 40 13 56 40 13 56 40 13 56 40 13 56 40 13 56 40 13 74 53 21 74 53 21 74 53 21 74 53 21 74 53 21 74 53 21 74 53 21 74 53 21 74 53 21 74 53 21 74 53 21 74 53 21 74 53 21 74 53 21 74 53 21 74 53 21 56 40 13 56 40 13 56 40 13 56 40 13 56 40 13 56 40 13 56 40 13 56 40 13 56 40 13 56 40 13 56 40 13 56 40 13 56 40 13 56 40 13 56 40 13 56 40 13 56 40 13 56 40 13 56 40 13 56 40 13 56 40 13 56 40 13 56 40 13 56 40 13 56 40 13 56 40 13 56 40 13 56 40 13 56 40 13 56 40 13 56 40 13 56 40 13 74 53 21 74 53 21 74 53 21 74 53 21 74 53 21 74 53 21 74 53 21 74 53 21 74 53 21 74 53 21 74 53 21 74 53 21 74 53 21 74 53 21 74 53 21 74 53 21 123 174 183 123 174 183 123 174 183 123 174 183 123 174 183 123 174 183 123 174 183 123 174 183 123 174 183 123 174 183 123 174 183 123 174 183 123 174 183 123 174 183 123 174 183 123 174 183 208 234 233 208 234 233 208 234 233 208 234 233 208 234 233 208 234 233 208 234 233 208 234 233 208 234 233 208 234 233 208 234 233 208 234 233 208 234 233 208 234 233 208 234 233 92 67 29 74 53 21 74 53 21 74 53 21 74 53 21 74 53 21 74 53 21 74 53 21 74 53 21 74 53 21 74 53 21 74 53 21 74 53 21 74 53 21 74 53 21 74 53 21 74 53 21 74 53 21 74 53 21 74 53 21 74 53 21 74 53 21 74 53 21 74 53 21 74 53 21 74 53 21 74 53 21 74 53 21 74 53 21 74 53 21 74 53 21 74 53 21 208 234 233 208 234 233 208 234 233 208 234 233 208 234 233 208 234 233 208 234 233 208 234 233 208 234 233 208 234 233 208 234 233 208 234 233 208 234 233 208 234 233 208 234 233 208 234 233 92 67 29 92 67 29 92 67 29 92 67 29 92 67 29 92 67 29 92 67 29 92 67 29 92 67 29 92 67 29 92 67 29 92 67 29 92 67 29 92 67 29 92 67 29 92 67 29 92 67 29 74 53 21 74 53 21 74 53 21 74 53 21 74 53 21 74 53 21 74 53 21 74 53 21 74 53 21 74 53 21 74 53 21 74 53 21 74 53 21 74 53 21 74 53 21 74 53 21 56 40 13 56 40 13 56 40 13 56 40 13 56 40 13 56 40 13 56 40 13 56 40 13 56 40 13 56 40 13 56 40 13 56 40 13 56 40 13 56 40 13 56 40 13 56 40 13 56 40 13 56 40 13 56 40 13 56 40 13 56 40 13 56 40 13 56 40 13 56 40 13 56 40 13 56 40 13 56 40 13 56 40 13 56 40 13 56 40 13 56 40 13 56 40 13 74 53 21 74 53 21 74 53 21 74 53 21 74 53 21 74 53 21 74 53 21 74 53 21 74 53 21 74 53 21 74 53 21 74 53 21 74 53 21 74 53 21 74 53 21 74 53 21 74 53 21 74 53 21 74 53 21 74 53 21 74 53 21 74 53 21 74 53 21 74 53 21 74 53 21 74 53 21 74 53 21 74 53 21 74 53 21 74 53 21 74 53 21 56 40 13 56 40 13 56 40 13 56 40 13 56 40 13 56 40 13 56 40 13 56 40 13 56 40 13 56 40 13 56 40 13 56 40 13 56 40 13 56 40 13 56 40 13 56 40 13 74 53 21 74 53 21 74 53 21 74 53 21 74 53 21 74 53 21 74 53 21 74 53 21 74 53 21 74 53 21 74 53 21 74 53 21 74 53 21 74 53 21 74 53 21 74 53 21 56 40 13 56 40 13 56 40 13 56 40 13 56 40 13 56 40 13 56 40 13 56 40 13 56 40 13 56 40 13 56 40 13 56 40 13 56 40 13 56 40 13 56 40 13 56 40 13 56 40 13 56 40 13 56 40 13 56 40 13 56 40 13 56 40 13 56 40 13 56 40 13 56 40 13 56 40 13 56 40 13 56 40 13 56 40 13 56 40 13 56 40 13 56 40 13 74 53 21 74 53 21 74 53 21 74 53 21 74 53 21 74 53 21 74 53 21 74 53 21 74 53 21 74 53 21 74 53 21 74 53 21 74 53 21 74 53 21 74 53 21 74 53 21 123 174 183 123 174 183 123 174 183 123 174 183 123 174 183 123 174 183 123 174 183 123 174 183 123 174 183 123 174 183 123 174 183 123 174 183 123 174 183 123 174 183 123 174 183 123 174 183 208 234 233 208 234 233 208 234 233 208 234 233 208 234 233 208 234 233 208 234 233 208 234 233 208 234 233 208 234 233 208 234 233 208 234 233 208 234 233 208 234 233 208 234 233 92 67 29 74 53 21 74 53 21 74 53 21 74 53 21 74 53 21 74 53 21 74 53 21 74 53 21 74 53 21 74 53 21 74 53 21 74 53 21 74 53 21 74 53 21 74 53 21 74 53 21 74 53 21 74 53 21 74 53 21 74 53 21 74 53 21 74 53 21 74 53 21 74 53 21 74 53 21 74 53 21 74 53 21 74 53 21 74 53 21 74 53 21 74 53 21 208 234 233 208 234 233 208 234 233 208 234 233 208 234 233 208 234 233 208 234 233 208 234 233 208 234 233 208 234 233 208 234 233 208 234 233 208 234 233 208 234 233 208 234 233 208 234 233 92 67 29 92 67 29 92 67 29 92 67 29 92 67 29 92 67 29 92 67 29 92 67 29 92 67 29 92 67 29 92 67 29 92 67 29 92 67 29 92 67 29 92 67 29 92 67 29 92 67 29 74 53 21 74 53 21 74 53 21 74 53 21 74 53 21 74 53 21 74 53 21 74 53 21 74 53 21 74 53 21 74 53 21 74 53 21 74 53 21 74 53 21 74 53 21 74 53 21 56 40 13 56 40 13 56 40 13 56 40 13 56 40 13 56 40 13 56 40 13 56 40 13 56 40 13 56 40 13 56 40 13 56 40 13 56 40 13 56 40 13 56 40 13 56 40 13 56 40 13 56 40 13 56 40 13 56 40 13 56 40 13 56 40 13 56 40 13 56 40 13 56 40 13 56 40 13 56 40 13 56 40 13 56 40 13 56 40 13 56 40 13 56 40 13 74 53 21 74 53 21 74 53 21 74 53 21 74 53 21 74 53 21 74 53 21 74 53 21 74 53 21 74 53 21 74 53 21 74 53 21 74 53 21 74 53 21 74 53 21 74 53 21 74 53 21 74 53 21 74 53 21 74 53 21 74 53 21 74 53 21 74 53 21 74 53 21 74 53 21 74 53 21 74 53 21 74 53 21 74 53 21 74 53 21 74 53 21 56 40 13 56 40 13 56 40 13 56 40 13 56 40 13 56 40 13 56 40 13 56 40 13 56 40 13 56 40 13 56 40 13 56 40 13 56 40 13 56 40 13 56 40 13 56 40 13 74 53 21 74 53 21 74 53 21 74 53 21 74 53 21 74 53 21 74 53 21 74 53 21 74 53 21 74 53 21 74 53 21 74 53 21 74 53 21 74 53 21 74 53 21 74 53 21 56 40 13 56 40 13 56 40 13 56 40 13 56 40 13 56 40 13 56 40 13 56 40 13 56 40 13 56 40 13 56 40 13 56 40 13 56 40 13 56 40 13 56 40 13 56 40 13 56 40 13 56 40 13 56 40 13 56 40 13 56 40 13 56 40 13 56 40 13 56 40 13 56 40 13 56 40 13 56 40 13 56 40 13 56 40 13 56 40 13 56 40 13 56 40 13 74 53 21 74 53 21 74 53 21 74 53 21 74 53 21 74 53 21 74 53 21 74 53 21 74 53 21 74 53 21 74 53 21 74 53 21 74 53 21 74 53 21 74 53 21 74 53 21 123 174 183 123 174 183 123 174 183 123 174 183 123 174 183 123 174 183 123 174 183 123 174 183 123 174 183 123 174 183 123 174 183 123 174 183 123 174 183 123 174 183 123 174 183 123 174 183 208 234 233 208 234 233 208 234 233 208 234 233 208 234 233 208 234 233 208 234 233 208 234 233 208 234 233 208 234 233 208 234 233 208 234 233 208 234 233 208 234 233 208 234 233 92 67 29 74 53 21 74 53 21 74 53 21 74 53 21 74 53 21 74 53 21 74 53 21 74 53 21 74 53 21 74 53 21 74 53 21 74 53 21 74 53 21 74 53 21 74 53 21 74 53 21 74 53 21 74 53 21 74 53 21 74 53 21 74 53 21 74 53 21 74 53 21 74 53 21 74 53 21 74 53 21 74 53 21 74 53 21 74 53 21 74 53 21 74 53 21 208 234 233 208 234 233 208 234 233 208 234 233 208 234 233 208 234 233 208 234 233 208 234 233 208 234 233 208 234 233 208 234 233 208 234 233 208 234 233 208 234 233 208 234 233 208 234 233 92 67 29 92 67 29 92 67 29 92 67 29 92 67 29 92 67 29 92 67 29 92 67 29 92 67 29 92 67 29 92 67 29 92 67 29 92 67 29 92 67 29 92 67 29 92 67 29 92 67 29 74 53 21 74 53 21 74 53 21 74 53 21 74 53 21 74 53 21 74 53 21 74 53 21 74 53 21 74 53 21 74 53 21 74 53 21 74 53 21 74 53 21 74 53 21 74 53 21 56 40 13 56 40 13 56 40 13 56 40 13 56 40 13 56 40 13 56 40 13 56 40 13 56 40 13 56 40 13 56 40 13 56 40 13 56 40 13 56 40 13 56 40 13 56 40 13 56 40 13 56 40 13 56 40 13 56 40 13 56 40 13 56 40 13 56 40 13 56 40 13 56 40 13 56 40 13 56 40 13 56 40 13 56 40 13 56 40 13 56 40 13 56 40 13 74 53 21 74 53 21 74 53 21 74 53 21 74 53 21 74 53 21 74 53 21 74 53 21 74 53 21 74 53 21 74 53 21 74 53 21 74 53 21 74 53 21 74 53 21 74 53 21 74 53 21 74 53 21 74 53 21 74 53 21 74 53 21 74 53 21 74 53 21 74 53 21 74 53 21 74 53 21 74 53 21 74 53 21 74 53 21 74 53 21 74 53 21 56 40 13 56 40 13 56 40 13 56 40 13 56 40 13 56 40 13 56 40 13 56 40 13 56 40 13 56 40 13 56 40 13 56 40 13 56 40 13 56 40 13 56 40 13 56 40 13 74 53 21 74 53 21 74 53 21 74 53 21 74 53 21 74 53 21 74 53 21 74 53 21 74 53 21 74 53 21 74 53 21 74 53 21 74 53 21 74 53 21 74 53 21 74 53 21 56 40 13 56 40 13 56 40 13 56 40 13 56 40 13 56 40 13 56 40 13 56 40 13 56 40 13 56 40 13 56 40 13 56 40 13 56 40 13 56 40 13 56 40 13 56 40 13 56 40 13 56 40 13 56 40 13 56 40 13 56 40 13 56 40 13 56 40 13 56 40 13 56 40 13 56 40 13 56 40 13 56 40 13 56 40 13 56 40 13 56 40 13 56 40 13 74 53 21 74 53 21 74 53 21 74 53 21 74 53 21 74 53 21 74 53 21 74 53 21 74 53 21 74 53 21 74 53 21 74 53 21 74 53 21 74 53 21 74 53 21 74 53 21 123 174 183 123 174 183 123 174 183 123 174 183 123 174 183 123 174 183 123 174 183 123 174 183 123 174 183 123 174 183 123 174 183 123 174 183 123 174 183 123 174 183 123 174 183 123 174 183 208 234 233 208 234 233 208 234 233 208 234 233 208 234 233 208 234 233 208 234 233 208 234 233 208 234 233 208 234 233 208 234 233 208 234 233 208 234 233 208 234 233 208 234 233 92 67 29 74 53 21 74 53 21 74 53 21 74 53 21 74 53 21 74 53 21 74 53 21 74 53 21 74 53 21 74 53 21 74 53 21 74 53 21 74 53 21 74 53 21 74 53 21 74 53 21 74 53 21 74 53 21 74 53 21 74 53 21 74 53 21 74 53 21 74 53 21 74 53 21 74 53 21 74 53 21 74 53 21 74 53 21 74 53 21 74 53 21 74 53 21 208 234 233 208 234 233 208 234 233 208 234 233 208 234 233 208 234 233 208 234 233 208 234 233 208 234 233 208 234 233 208 234 233 208 234 233 208 234 233 208 234 233 208 234 233 208 234 233 92 67 29 92 67 29 92 67 29 92 67 29 92 67 29 92 67 29 92 67 29 92 67 29 92 67 29 92 67 29 92 67 29 92 67 29 92 67 29 92 67 29 92 67 29 92 67 29 92 67 29 74 53 21 74 53 21 74 53 21 74 53 21 74 53 21 74 53 21 74 53 21 74 53 21 74 53 21 74 53 21 74 53 21 74 53 21 74 53 21 74 53 21 74 53 21 74 53 21 56 40 13 56 40 13 56 40 13 56 40 13 56 40 13 56 40 13 56 40 13 56 40 13 56 40 13 56 40 13 56 40 13 56 40 13 56 40 13 56 40 13 56 40 13 56 40 13 56 40 13 56 40 13 56 40 13 56 40 13 56 40 13 56 40 13 56 40 13 56 40 13 56 40 13 56 40 13 56 40 13 56 40 13 56 40 13 56 40 13 56 40 13 56 40 13 74 53 21 74 53 21 74 53 21 74 53 21 74 53 21 74 53 21 74 53 21 74 53 21 74 53 21 74 53 21 74 53 21 74 53 21 74 53 21 74 53 21 74 53 21 74 53 21 74 53 21 74 53 21 74 53 21 74 53 21 74 53 21 74 53 21 74 53 21 74 53 21 74 53 21 74 53 21 74 53 21 74 53 21 74 53 21 74 53 21 74 53 21 56 40 13 56 40 13 56 40 13 56 40 13 56 40 13 56 40 13 56 40 13 56 40 13 56 40 13 56 40 13 56 40 13 56 40 13 56 40 13 56 40 13 56 40 13 56 40 13 74 53 21 74 53 21 74 53 21 74 53 21 74 53 21 74 53 21 74 53 21 74 53 21 74 53 21 74 53 21 74 53 21 74 53 21 74 53 21 74 53 21 74 53 21 74 53 21 56 40 13 56 40 13 56 40 13 56 40 13 56 40 13 56 40 13 56 40 13 56 40 13 56 40 13 56 40 13 56 40 13 56 40 13 56 40 13 56 40 13 56 40 13 56 40 13 56 40 13 56 40 13 56 40 13 56 40 13 56 40 13 56 40 13 56 40 13 56 40 13 56 40 13 56 40 13 56 40 13 56 40 13 56 40 13 56 40 13 56 40 13 56 40 13 74 53 21 74 53 21 74 53 21 74 53 21 74 53 21 74 53 21 74 53 21 74 53 21 74 53 21 74 53 21 74 53 21 74 53 21 74 53 21 74 53 21 74 53 21 74 53 21 123 174 183 123 174 183 123 174 183 123 174 183 123 174 183 123 174 183 123 174 183 123 174 183 123 174 183 123 174 183 123 174 183 123 174 183 123 174 183 123 174 183 123 174 183 123 174 183 208 234 233 208 234 233 208 234 233 208 234 233 208 234 233 208 234 233 208 234 233 208 234 233 208 234 233 208 234 233 208 234 233 208 234 233 208 234 233 208 234 233 208 234 233 92 67 29 74 53 21 74 53 21 74 53 21 74 53 21 74 53 21 74 53 21 74 53 21 74 53 21 74 53 21 74 53 21 74 53 21 74 53 21 74 53 21 74 53 21 74 53 21 74 53 21 74 53 21 74 53 21 74 53 21 74 53 21 74 53 21 74 53 21 74 53 21 74 53 21 74 53 21 74 53 21 74 53 21 74 53 21 74 53 21 74 53 21 74 53 21 208 234 233 208 234 233 208 234 233 208 234 233 208 234 233 208 234 233 208 234 233 208 234 233 208 234 233 208 234 233 208 234 233 208 234 233 208 234 233 208 234 233 208 234 233 208 234 233 92 67 29 92 67 29 92 67 29 92 67 29 92 67 29 92 67 29 92 67 29 92 67 29 92 67 29 92 67 29 92 67 29 92 67 29 92 67 29 92 67 29 92 67 29 92 67 29 92 67 29 74 53 21 74 53 21 74 53 21 74 53 21 74 53 21 74 53 21 74 53 21 74 53 21 74 53 21 74 53 21 74 53 21 74 53 21 74 53 21 74 53 21 74 53 21 74 53 21 56 40 13 56 40 13 56 40 13 56 40 13 56 40 13 56 40 13 56 40 13 56 40 13 56 40 13 56 40 13 56 40 13 56 40 13 56 40 13 56 40 13 56 40 13 56 40 13 56 40 13 56 40 13 56 40 13 56 40 13 56 40 13 56 40 13 56 40 13 56 40 13 56 40 13 56 40 13 56 40 13 56 40 13 56 40 13 56 40 13 56 40 13 56 40 13 74 53 21 74 53 21 74 53 21 74 53 21 74 53 21 74 53 21 74 53 21 74 53 21 74 53 21 74 53 21 74 53 21 74 53 21 74 53 21 74 53 21 74 53 21 74 53 21 74 53 21 74 53 21 74 53 21 74 53 21 74 53 21 74 53 21 74 53 21 74 53 21 74 53 21 74 53 21 74 53 21 74 53 21 74 53 21 74 53 21 74 53 21 56 40 13 56 40 13 56 40 13 56 40 13 56 40 13 56 40 13 56 40 13 56 40 13 56 40 13 56 40 13 56 40 13 56 40 13 56 40 13 56 40 13 56 40 13 56 40 13 74 53 21 74 53 21 74 53 21 74 53 21 74 53 21 74 53 21 74 53 21 74 53 21 74 53 21 74 53 21 74 53 21 74 53 21 74 53 21 74 53 21 74 53 21 74 53 21 56 40 13 56 40 13 56 40 13 56 40 13 56 40 13 56 40 13 56 40 13 56 40 13 56 40 13 56 40 13 56 40 13 56 40 13 56 40 13 56 40 13 56 40 13 56 40 13 56 40 13 56 40 13 56 40 13 56 40 13 56 40 13 56 40 13 56 40 13 56 40 13 56 40 13 56 40 13 56 40 13 56 40 13 56 40 13 56 40 13 56 40 13 56 40 13 74 53 21 74 53 21 74 53 21 74 53 21 74 53 21 74 53 21 74 53 21 74 53 21 74 53 21 74 53 21 74 53 21 74 53 21 74 53 21 74 53 21 74 53 21 74 53 21 123 174 183 123 174 183 123 174 183 123 174 183 123 174 183 123 174 183 123 174 183 123 174 183 123 174 183 123 174 183 123 174 183 123 174 183 123 174 183 123 174 183 123 174 183 123 174 183 208 234 233 208 234 233 208 234 233 208 234 233 208 234 233 208 234 233 208 234 233 208 234 233 208 234 233 208 234 233 208 234 233 208 234 233 208 234 233 208 234 233 208 234 233 92 67 29 74 53 21 74 53 21 74 53 21 74 53 21 74 53 21 74 53 21 74 53 21 74 53 21 74 53 21 74 53 21 74 53 21 74 53 21 74 53 21 74 53 21 74 53 21 74 53 21 74 53 21 74 53 21 74 53 21 74 53 21 74 53 21 74 53 21 74 53 21 74 53 21 74 53 21 74 53 21 74 53 21 74 53 21 74 53 21 74 53 21 74 53 21 208 234 233 208 234 233 208 234 233 208 234 233 208 234 233 208 234 233 208 234 233 208 234 233 208 234 233 208 234 233 208 234 233 208 234 233 208 234 233 208 234 233 208 234 233 208 234 233 92 67 29 92 67 29 92 67 29 92 67 29 92 67 29 92 67 29 92 67 29 92 67 29 92 67 29 92 67 29 92 67 29 92 67 29 92 67 29 92 67 29 92 67 29 92 67 29 92 67 29 74 53 21 74 53 21 74 53 21 74 53 21 74 53 21 74 53 21 74 53 21 74 53 21 74 53 21 74 53 21 74 53 21 74 53 21 74 53 21 74 53 21 74 53 21 74 53 21 56 40 13 56 40 13 56 40 13 56 40 13 56 40 13 56 40 13 56 40 13 56 40 13 56 40 13 56 40 13 56 40 13 56 40 13 56 40 13 56 40 13 56 40 13 56 40 13 56 40 13 56 40 13 56 40 13 56 40 13 56 40 13 56 40 13 56 40 13 56 40 13 56 40 13 56 40 13 56 40 13 56 40 13 56 40 13 56 40 13 56 40 13 56 40 13 74 53 21 74 53 21 74 53 21 74 53 21 74 53 21 74 53 21 74 53 21 74 53 21 74 53 21 74 53 21 74 53 21 74 53 21 74 53 21 74 53 21 74 53 21 74 53 21 74 53 21 74 53 21 74 53 21 74 53 21 74 53 21 74 53 21 74 53 21 74 53 21 74 53 21 74 53 21 74 53 21 74 53 21 74 53 21 74 53 21 74 53 21 56 40 13 56 40 13 56 40 13 56 40 13 56 40 13 56 40 13 56 40 13 56 40 13 56 40 13 56 40 13 56 40 13 56 40 13 56 40 13 56 40 13 56 40 13 56 40 13 74 53 21 74 53 21 74 53 21 74 53 21 74 53 21 74 53 21 74 53 21 74 53 21 74 53 21 74 53 21 74 53 21 74 53 21 74 53 21 74 53 21 74 53 21 74 53 21 56 40 13 56 40 13 56 40 13 56 40 13 56 40 13 56 40 13 56 40 13 56 40 13 56 40 13 56 40 13 56 40 13 56 40 13 56 40 13 56 40 13 56 40 13 56 40 13 56 40 13 56 40 13 56 40 13 56 40 13 56 40 13 56 40 13 56 40 13 56 40 13 56 40 13 56 40 13 56 40 13 56 40 13 56 40 13 56 40 13 56 40 13 56 40 13 74 53 21 74 53 21 74 53 21 74 53 21 74 53 21 74 53 21 74 53 21 74 53 21 74 53 21 74 53 21 74 53 21 74 53 21 74 53 21 74 53 21 74 53 21 74 53 21 123 174 183 123 174 183 123 174 183 123 174 183 123 174 183 123 174 183 123 174 183 123 174 183 123 174 183 123 174 183 123 174 183 123 174 183 123 174 183 123 174 183 123 174 183 123 174 183 208 234 233 208 234 233 208 234 233 208 234 233 208 234 233 208 234 233 208 234 233 208 234 233 208 234 233 208 234 233 208 234 233 208 234 233 208 234 233 208 234 233 208 234 233 92 67 29 74 53 21 74 53 21 74 53 21 74 53 21 74 53 21 74 53 21 74 53 21 74 53 21 74 53 21 74 53 21 74 53 21 74 53 21 74 53 21 74 53 21 74 53 21 74 53 21 74 53 21 74 53 21 74 53 21 74 53 21 74 53 21 74 53 21 74 53 21 74 53 21 74 53 21 74 53 21 74 53 21 74 53 21 74 53 21 74 53 21 74 53 21 208 234 233 208 234 233 208 234 233 208 234 233 208 234 233 208 234 233 208 234 233 208 234 233 208 234 233 208 234 233 208 234 233 208 234 233 208 234 233 208 234 233 208 234 233 208 234 233 92 67 29 92 67 29 92 67 29 92 67 29 92 67 29 92 67 29 92 67 29 92 67 29 92 67 29 92 67 29 92 67 29 92 67 29 92 67 29 92 67 29 92 67 29 92 67 29 92 67 29 74 53 21 74 53 21 74 53 21 74 53 21 74 53 21 74 53 21 74 53 21 74 53 21 74 53 21 74 53 21 74 53 21 74 53 21 74 53 21 74 53 21 74 53 21 74 53 21 56 40 13 56 40 13 56 40 13 56 40 13 56 40 13 56 40 13 56 40 13 56 40 13 56 40 13 56 40 13 56 40 13 56 40 13 56 40 13 56 40 13 56 40 13 56 40 13 56 40 13 56 40 13 56 40 13 56 40 13 56 40 13 56 40 13 56 40 13 56 40 13 56 40 13 56 40 13 56 40 13 56 40 13 56 40 13 56 40 13 56 40 13 56 40 13 74 53 21 74 53 21 74 53 21 74 53 21 74 53 21 74 53 21 74 53 21 74 53 21 74 53 21 74 53 21 74 53 21 74 53 21 74 53 21 74 53 21 74 53 21 74 53 21 74 53 21 74 53 21 74 53 21 74 53 21 74 53 21 74 53 21 74 53 21 74 53 21 74 53 21 74 53 21 74 53 21 74 53 21 74 53 21 74 53 21 74 53 21 56 40 13 56 40 13 56 40 13 56 40 13 56 40 13 56 40 13 56 40 13 56 40 13 56 40 13 56 40 13 56 40 13 56 40 13 56 40 13 56 40 13 56 40 13 56 40 13 74 53 21 74 53 21 74 53 21 74 53 21 74 53 21 74 53 21 74 53 21 74 53 21 74 53 21 74 53 21 74 53 21 74 53 21 74 53 21 74 53 21 74 53 21 74 53 21 56 40 13 56 40 13 56 40 13 56 40 13 56 40 13 56 40 13 56 40 13 56 40 13 56 40 13 56 40 13 56 40 13 56 40 13 56 40 13 56 40 13 56 40 13 56 40 13 56 40 13 56 40 13 56 40 13 56 40 13 56 40 13 56 40 13 56 40 13 56 40 13 56 40 13 56 40 13 56 40 13 56 40 13 56 40 13 56 40 13 56 40 13 56 40 13 74 53 21 74 53 21 74 53 21 74 53 21 74 53 21 74 53 21 74 53 21 74 53 21 74 53 21 74 53 21 74 53 21 74 53 21 74 53 21 74 53 21 74 53 21 74 53 21 123 174 183 123 174 183 123 174 183 123 174 183 123 174 183 123 174 183 123 174 183 123 174 183 123 174 183 123 174 183 123 174 183 123 174 183 123 174 183 123 174 183 123 174 183 123 174 183 208 234 233 208 234 233 208 234 233 208 234 233 208 234 233 208 234 233 208 234 233 208 234 233 208 234 233 208 234 233 208 234 233 208 234 233 208 234 233 208 234 233 208 234 233 92 67 29 74 53 21 74 53 21 74 53 21 74 53 21 74 53 21 74 53 21 74 53 21 74 53 21 74 53 21 74 53 21 74 53 21 74 53 21 74 53 21 74 53 21 74 53 21 74 53 21 74 53 21 74 53 21 74 53 21 74 53 21 74 53 21 74 53 21 74 53 21 74 53 21 74 53 21 74 53 21 74 53 21 74 53 21 74 53 21 74 53 21 74 53 21 208 234 233 208 234 233 208 234 233 208 234 233 208 234 233 208 234 233 208 234 233 208 234 233 208 234 233 208 234 233 208 234 233 208 234 233 208 234 233 208 234 233 208 234 233 208 234 233 92 67 29 92 67 29 92 67 29 92 67 29 92 67 29 92 67 29 92 67 29 92 67 29 92 67 29 92 67 29 92 67 29 92 67 29 92 67 29 92 67 29 92 67 29 92 67 29 92 67 29 74 53 21 74 53 21 74 53 21 74 53 21 74 53 21 74 53 21 74 53 21 74 53 21 74 53 21 74 53 21 74 53 21 74 53 21 74 53 21 74 53 21 74 53 21 74 53 21 56 40 13 56 40 13 56 40 13 56 40 13 56 40 13 56 40 13 56 40 13 56 40 13 56 40 13 56 40 13 56 40 13 56 40 13 56 40 13 56 40 13 56 40 13 56 40 13 56 40 13 56 40 13 56 40 13 56 40 13 56 40 13 56 40 13 56 40 13 56 40 13 56 40 13 56 40 13 56 40 13 56 40 13 56 40 13 56 40 13 56 40 13 56 40 13 74 53 21 74 53 21 74 53 21 74 53 21 74 53 21 74 53 21 74 53 21 74 53 21 74 53 21 74 53 21 74 53 21 74 53 21 74 53 21 74 53 21 74 53 21 74 53 21 74 53 21 74 53 21 74 53 21 74 53 21 74 53 21 74 53 21 74 53 21 74 53 21 74 53 21 74 53 21 74 53 21 74 53 21 74 53 21 74 53 21 74 53 21 56 40 13 56 40 13 56 40 13 56 40 13 56 40 13 56 40 13 56 40 13 56 40 13 56 40 13 56 40 13 56 40 13 56 40 13 56 40 13 56 40 13 56 40 13 56 40 13 74 53 21 74 53 21 74 53 21 74 53 21 74 53 21 74 53 21 74 53 21 74 53 21 74 53 21 74 53 21 74 53 21 74 53 21 74 53 21 74 53 21 74 53 21 74 53 21 56 40 13 56 40 13 56 40 13 56 40 13 56 40 13 56 40 13 56 40 13 56 40 13 56 40 13 56 40 13 56 40 13 56 40 13 56 40 13 56 40 13 56 40 13 56 40 13 56 40 13 56 40 13 56 40 13 56 40 13 56 40 13 56 40 13 56 40 13 56 40 13 56 40 13 56 40 13 56 40 13 56 40 13 56 40 13 56 40 13 56 40 13 56 40 13 74 53 21 74 53 21 74 53 21 74 53 21 74 53 21 74 53 21 74 53 21 74 53 21 74 53 21 74 53 21 74 53 21 74 53 21 74 53 21 74 53 21 74 53 21 74 53 21 123 174 183 123 174 183 123 174 183 123 174 183 123 174 183 123 174 183 123 174 183 123 174 183 123 174 183 123 174 183 123 174 183 123 174 183 123 174 183 123 174 183 123 174 183 123 174 183 208 234 233 208 234 233 208 234 233 208 234 233 208 234 233 208 234 233 208 234 233 208 234 233 208 234 233 208 234 233 208 234 233 208 234 233 208 234 233 208 234 233 208 234 233 92 67 29 74 53 21 74 53 21 74 53 21 74 53 21 74 53 21 74 53 21 74 53 21 74 53 21 74 53 21 74 53 21 74 53 21 74 53 21 74 53 21 74 53 21 74 53 21 74 53 21 74 53 21 74 53 21 74 53 21 74 53 21 74 53 21 74 53 21 74 53 21 74 53 21 74 53 21 74 53 21 74 53 21 74 53 21 74 53 21 74 53 21 74 53 21 208 234 233 208 234 233 208 234 233 208 234 233 208 234 233 208 234 233 208 234 233 208 234 233 208 234 233 208 234 233 208 234 233 208 234 233 208 234 233 208 234 233 208 234 233 208 234 233 92 67 29 92 67 29 92 67 29 92 67 29 92 67 29 92 67 29 92 67 29 92 67 29 92 67 29 92 67 29 92 67 29 92 67 29 92 67 29 92 67 29 92 67 29 92 67 29 92 67 29 74 53 21 74 53 21 74 53 21 74 53 21 74 53 21 74 53 21 74 53 21 74 53 21 74 53 21 74 53 21 74 53 21 74 53 21 74 53 21 74 53 21 74 53 21 74 53 21 56 40 13 56 40 13 56 40 13 56 40 13 56 40 13 56 40 13 56 40 13 56 40 13 56 40 13 56 40 13 56 40 13 56 40 13 56 40 13 56 40 13 56 40 13 56 40 13 56 40 13 56 40 13 56 40 13 56 40 13 56 40 13 56 40 13 56 40 13 56 40 13 56 40 13 56 40 13 56 40 13 56 40 13 56 40 13 56 40 13 56 40 13 56 40 13 74 53 21 74 53 21 74 53 21 74 53 21 74 53 21 74 53 21 74 53 21 74 53 21 74 53 21 74 53 21 74 53 21 74 53 21 74 53 21 74 53 21 74 53 21 74 53 21 74 53 21 74 53 21 74 53 21 74 53 21 74 53 21 74 53 21 74 53 21 74 53 21 74 53 21 74 53 21 74 53 21 74 53 21 74 53 21 74 53 21 74 53 21 56 40 13 56 40 13 56 40 13 56 40 13 56 40 13 56 40 13 56 40 13 56 40 13 56 40 13 56 40 13 56 40 13 56 40 13 56 40 13 56 40 13 56 40 13 56 40 13 74 53 21 74 53 21 74 53 21 74 53 21 74 53 21 74 53 21 74 53 21 74 53 21 74 53 21 74 53 21 74 53 21 74 53 21 74 53 21 74 53 21 74 53 21 74 53 21 56 40 13 56 40 13 56 40 13 56 40 13 56 40 13 56 40 13 56 40 13 56 40 13 56 40 13 56 40 13 56 40 13 56 40 13 56 40 13 56 40 13 56 40 13 56 40 13 56 40 13 56 40 13 56 40 13 56 40 13 56 40 13 56 40 13 56 40 13 56 40 13 56 40 13 56 40 13 56 40 13 56 40 13 56 40 13 56 40 13 56 40 13 56 40 13 74 53 21 74 53 21 74 53 21 74 53 21 74 53 21 74 53 21 74 53 21 74 53 21 74 53 21 74 53 21 74 53 21 74 53 21 74 53 21 74 53 21 74 53 21 74 53 21 123 174 183 123 174 183 123 174 183 123 174 183 123 174 183 123 174 183 123 174 183 123 174 183 123 174 183 123 174 183 123 174 183 123 174 183 123 174 183 123 174 183 123 174 183 123 174 183 208 234 233 208 234 233 208 234 233 208 234 233 208 234 233 208 234 233 208 234 233 208 234 233 208 234 233 208 234 233 208 234 233 208 234 233 208 234 233 208 234 233 208 234 233 92 67 29 74 53 21 74 53 21 74 53 21 74 53 21 74 53 21 74 53 21 74 53 21 74 53 21 74 53 21 74 53 21 74 53 21 74 53 21 74 53 21 74 53 21 74 53 21 74 53 21 74 53 21 74 53 21 74 53 21 74 53 21 74 53 21 74 53 21 74 53 21 74 53 21 74 53 21 74 53 21 74 53 21 74 53 21 74 53 21 74 53 21 74 53 21 208 234 233 208 234 233 208 234 233 208 234 233 208 234 233 208 234 233 208 234 233 208 234 233 208 234 233 208 234 233 208 234 233 208 234 233 208 234 233 208 234 233 208 234 233 208 234 233 92 67 29 92 67 29 92 67 29 92 67 29 92 67 29 92 67 29 92 67 29 92 67 29 92 67 29 92 67 29 92 67 29 92 67 29 92 67 29 92 67 29 92 67 29 92 67 29 92 67 29 74 53 21 74 53 21 74 53 21 74 53 21 74 53 21 74 53 21 74 53 21 74 53 21 74 53 21 74 53 21 74 53 21 74 53 21 74 53 21 74 53 21 74 53 21 74 53 21 56 40 13 56 40 13 56 40 13 56 40 13 56 40 13 56 40 13 56 40 13 56 40 13 56 40 13 56 40 13 56 40 13 56 40 13 56 40 13 56 40 13 56 40 13 56 40 13 56 40 13 56 40 13 56 40 13 56 40 13 56 40 13 56 40 13 56 40 13 56 40 13 56 40 13 56 40 13 56 40 13 56 40 13 56 40 13 56 40 13 56 40 13 56 40 13 74 53 21 74 53 21 74 53 21 74 53 21 74 53 21 74 53 21 74 53 21 74 53 21 74 53 21 74 53 21 74 53 21 74 53 21 74 53 21 74 53 21 74 53 21 74 53 21 74 53 21 74 53 21 74 53 21 74 53 21 74 53 21 74 53 21 74 53 21 74 53 21 74 53 21 74 53 21 74 53 21 74 53 21 74 53 21 74 53 21 74 53 21 56 40 13 56 40 13 56 40 13 56 40 13 56 40 13 56 40 13 56 40 13 56 40 13 56 40 13 56 40 13 56 40 13 56 40 13 56 40 13 56 40 13 56 40 13 56 40 13 74 53 21 74 53 21 74 53 21 74 53 21 74 53 21 74 53 21 74 53 21 74 53 21 74 53 21 74 53 21 74 53 21 74 53 21 74 53 21 74 53 21 74 53 21 74 53 21 56 40 13 56 40 13 56 40 13 56 40 13 56 40 13 56 40 13 56 40 13 56 40 13 56 40 13 56 40 13 56 40 13 56 40 13 56 40 13 56 40 13 56 40 13 56 40 13 56 40 13 56 40 13 56 40 13 56 40 13 56 40 13 56 40 13 56 40 13 56 40 13 56 40 13 56 40 13 56 40 13 56 40 13 56 40 13 56 40 13 56 40 13 56 40 13 74 53 21 74 53 21 74 53 21 74 53 21 74 53 21 74 53 21 74 53 21 74 53 21 74 53 21 74 53 21 74 53 21 74 53 21 74 53 21 74 53 21 74 53 21 74 53 21 123 174 183 123 174 183 123 174 183 123 174 183 123 174 183 123 174 183 123 174 183 123 174 183 123 174 183 123 174 183 123 174 183 123 174 183 123 174 183 123 174 183 123 174 183 123 174 183 208 234 233 208 234 233 208 234 233 208 234 233 208 234 233 208 234 233 208 234 233 208 234 233 208 234 233 208 234 233 208 234 233 208 234 233 208 234 233 208 234 233 208 234 233 92 67 29 74 53 21 74 53 21 74 53 21 74 53 21 74 53 21 74 53 21 74 53 21 74 53 21 74 53 21 74 53 21 74 53 21 74 53 21 74 53 21 74 53 21 74 53 21 74 53 21 74 53 21 74 53 21 74 53 21 74 53 21 74 53 21 74 53 21 74 53 21 74 53 21 74 53 21 74 53 21 74 53 21 74 53 21 74 53 21 74 53 21 74 53 21 208 234 233 208 234 233 208 234 233 208 234 233 208 234 233 208 234 233 208 234 233 208 234 233 208 234 233 208 234 233 208 234 233 208 234 233 208 234 233 208 234 233 208 234 233 208 234 233 92 67 29 92 67 29 92 67 29 92 67 29 92 67 29 92 67 29 92 67 29 92 67 29 92 67 29 92 67 29 92 67 29 92 67 29 92 67 29 92 67 29 92 67 29 92 67 29 92 67 29 74 53 21 74 53 21 74 53 21 74 53 21 74 53 21 74 53 21 74 53 21 74 53 21 74 53 21 74 53 21 74 53 21 74 53 21 74 53 21 74 53 21 74 53 21 74 53 21 56 40 13 56 40 13 56 40 13 56 40 13 56 40 13 56 40 13 56 40 13 56 40 13 56 40 13 56 40 13 56 40 13 56 40 13 56 40 13 56 40 13 56 40 13 56 40 13 56 40 13 56 40 13 56 40 13 56 40 13 56 40 13 56 40 13 56 40 13 56 40 13 56 40 13 56 40 13 56 40 13 56 40 13 56 40 13 56 40 13 56 40 13 56 40 13 74 53 21 74 53 21 74 53 21 74 53 21 74 53 21 74 53 21 74 53 21 74 53 21 74 53 21 74 53 21 74 53 21 74 53 21 74 53 21 74 53 21 74 53 21 74 53 21 74 53 21 74 53 21 74 53 21 74 53 21 74 53 21 74 53 21 74 53 21 74 53 21 74 53 21 74 53 21 74 53 21 74 53 21 74 53 21 74 53 21 74 53 21 56 40 13 56 40 13 56 40 13 56 40 13 56 40 13 56 40 13 56 40 13 56 40 13 56 40 13 56 40 13 56 40 13 56 40 13 56 40 13 56 40 13 56 40 13 56 40 13 74 53 21 74 53 21 74 53 21 74 53 21 74 53 21 74 53 21 74 53 21 74 53 21 74 53 21 74 53 21 74 53 21 74 53 21 74 53 21 74 53 21 74 53 21 74 53 21 56 40 13 56 40 13 56 40 13 56 40 13 56 40 13 56 40 13 56 40 13 56 40 13 56 40 13 56 40 13 56 40 13 56 40 13 56 40 13 56 40 13 56 40 13 56 40 13 56 40 13 56 40 13 56 40 13 56 40 13 56 40 13 56 40 13 56 40 13 56 40 13 56 40 13 56 40 13 56 40 13 56 40 13 56 40 13 56 40 13 56 40 13 56 40 13 74 53 21 74 53 21 74 53 21 74 53 21 74 53 21 74 53 21 74 53 21 74 53 21 74 53 21 74 53 21 74 53 21 74 53 21 74 53 21 74 53 21 74 53 21 74 53 21 123 174 183 123 174 183 123 174 183 123 174 183 123 174 183 123 174 183 123 174 183 123 174 183 123 174 183 123 174 183 123 174 183 123 174 183 123 174 183 123 174 183 123 174 183 123 174 183 208 234 233 208 234 233 208 234 233 208 234 233 208 234 233 208 234 233 208 234 233 208 234 233 208 234 233 208 234 233 208 234 233 208 234 233 208 234 233 208 234 233 208 234 233 92 67 29 74 53 21 74 53 21 74 53 21 74 53 21 74 53 21 74 53 21 74 53 21 74 53 21 74 53 21 74 53 21 74 53 21 74 53 21 74 53 21 74 53 21 74 53 21 168 208 217 168 208 217 168 208 217 168 208 217 168 208 217 168 208 217 168 208 217 168 208 217 168 208 217 168 208 217 168 208 217 168 208 217 168 208 217 168 208 217 168 208 217 168 208 217 74 53 21 92 67 29 92 67 29 92 67 29 92 67 29 92 67 29 92 67 29 92 67 29 92 67 29 92 67 29 92 67 29 92 67 29 92 67 29 92 67 29 92 67 29 92 67 29 92 67 29 92 67 29 92 67 29 92 67 29 92 67 29 92 67 29 92 67 29 92 67 29 92 67 29 92 67 29 92 67 29 92 67 29 92 67 29 92 67 29 92 67 29 92 67 29 92 67 29 74 53 21 74 53 21 74 53 21 74 53 21 74 53 21 74 53 21 74 53 21 74 53 21 74 53 21 74 53 21 74 53 21 74 53 21 74 53 21 74 53 21 74 53 21 74 53 21 56 40 13 56 40 13 56 40 13 56 40 13 56 40 13 56 40 13 56 40 13 56 40 13 56 40 13 56 40 13 56 40 13 56 40 13 56 40 13 56 40 13 56 40 13 56 40 13 56 40 13 56 40 13 56 40 13 56 40 13 56 40 13 56 40 13 56 40 13 56 40 13 56 40 13 56 40 13 56 40 13 56 40 13 56 40 13 56 40 13 56 40 13 56 40 13 74 53 21 74 53 21 74 53 21 74 53 21 74 53 21 74 53 21 74 53 21 74 53 21 74 53 21 74 53 21 74 53 21 74 53 21 74 53 21 74 53 21 74 53 21 74 53 21 74 53 21 74 53 21 74 53 21 74 53 21 74 53 21 74 53 21 74 53 21 74 53 21 74 53 21 74 53 21 74 53 21 74 53 21 74 53 21 74 53 21 74 53 21 56 40 13 56 40 13 56 40 13 56 40 13 56 40 13 56 40 13 56 40 13 56 40 13 56 40 13 56 40 13 56 40 13 56 40 13 56 40 13 56 40 13 56 40 13 56 40 13 74 53 21 74 53 21 74 53 21 74 53 21 74 53 21 74 53 21 74 53 21 74 53 21 74 53 21 74 53 21 74 53 21 74 53 21 74 53 21 74 53 21 74 53 21 74 53 21 56 40 13 56 40 13 56 40 13 56 40 13 56 40 13 56 40 13 56 40 13 56 40 13 56 40 13 56 40 13 56 40 13 56 40 13 56 40 13 56 40 13 56 40 13 56 40 13 56 40 13 56 40 13 56 40 13 56 40 13 56 40 13 56 40 13 56 40 13 56 40 13 56 40 13 56 40 13 56 40 13 56 40 13 56 40 13 56 40 13 56 40 13 56 40 13 74 53 21 74 53 21 74 53 21 74 53 21 74 53 21 74 53 21 74 53 21 74 53 21 74 53 21 74 53 21 74 53 21 74 53 21 74 53 21 74 53 21 74 53 21 74 53 21 123 174 183 123 174 183 123 174 183 123 174 183 123 174 183 123 174 183 123 174 183 123 174 183 123 174 183 123 174 183 123 174 183 123 174 183 123 174 183 123 174 183 123 174 183 123 174 183 208 234 233 208 234 233 208 234 233 208 234 233 208 234 233 208 234 233 208 234 233 208 234 233 208 234 233 208 234 233 208 234 233 208 234 233 208 234 233 208 234 233 208 234 233 117 91 51 125 98 53 125 98 53 125 98 53 125 98 53 125 98 53 125 98 53 125 98 53 125 98 53 125 98 53 125 98 53 125 98 53 125 98 53 125 98 53 125 98 53 125 98 53 168 208 217 168 208 217 168 208 217 168 208 217 168 208 217 168 208 217 168 208 217 168 208 217 168 208 217 168 208 217 168 208 217 168 208 217 168 208 217 168 208 217 168 208 217 168 208 217 99 78 38 125 98 53 125 98 53 125 98 53 125 98 53 125 98 53 125 98 53 125 98 53 125 98 53 125 98 53 125 98 53 125 98 53 125 98 53 125 98 53 125 98 53 125 98 53 125 98 53 125 98 53 125 98 53 125 98 53 125 98 53 125 98 53 125 98 53 125 98 53 125 98 53 125 98 53 125 98 53 125 98 53 125 98 53 125 98 53 125 98 53 125 98 53 125 98 53 125 98 53 125 98 53 125 98 53 125 98 53 125 98 53 125 98 53 125 98 53 125 98 53 125 98 53 125 98 53 125 98 53 125 98 53 125 98 53 125 98 53 125 98 53 125 98 53 125 98 53 125 98 53 125 98 53 125 98 53 125 98 53 125 98 53 125 98 53 125 98 53 125 98 53 125 98 53 125 98 53 125 98 53 125 98 53 125 98 53 125 98 53 125 98 53 99 78 38 99 78 38 99 78 38 99 78 38 99 78 38 99 78 38 99 78 38 99 78 38 99 78 38 99 78 38 99 78 38 99 78 38 99 78 38 99 78 38 99 78 38 99 78 38 125 98 53 125 98 53 125 98 53 125 98 53 125 98 53 125 98 53 125 98 53 125 98 53 125 98 53 125 98 53 125 98 53 125 98 53 125 98 53 125 98 53 125 98 53 125 98 53 125 98 53 125 98 53 125 98 53 125 98 53 125 98 53 125 98 53 125 98 53 125 98 53 125 98 53 125 98 53 125 98 53 125 98 53 125 98 53 125 98 53 125 98 53 125 98 53 125 98 53 125 98 53 125 98 53 125 98 53 125 98 53 125 98 53 125 98 53 125 98 53 125 98 53 125 98 53 125 98 53 125 98 53 125 98 53 125 98 53 125 98 53 117 91 51 117 91 51 117 91 51 117 91 51 117 91 51 117 91 51 117 91 51 117 91 51 117 91 51 117 91 51 117 91 51 117 91 51 117 91 51 117 91 51 117 91 51 117 91 51 110 86 44 110 86 44 110 86 44 110 86 44 110 86 44 110 86 44 110 86 44 110 86 44 110 86 44 110 86 44 110 86 44 110 86 44 110 86 44 110 86 44 110 86 44 110 86 44 110 86 44 110 86 44 110 86 44 110 86 44 110 86 44 110 86 44 110 86 44 110 86 44 110 86 44 110 86 44 110 86 44 110 86 44 110 86 44 110 86 44 110 86 44 110 86 44 99 78 38 99 78 38 99 78 38 99 78 38 99 78 38 99 78 38 99 78 38 99 78 38 99 78 38 99 78 38 99 78 38 99 78 38 99 78 38 99 78 38 99 78 38 99 78 38 123 174 183 123 174 183 123 174 183 123 174 183 123 174 183 123 174 183 123 174 183 123 174 183 123 174 183 123 174 183 123 174 183 123 174 183 123 174 183 123 174 183 123 174 183 123 174 183 208 234 233 208 234 233 208 234 233 208 234 233 208 234 233 208 234 233 208 234 233 208 234 233 208 234 233 208 234 233 208 234 233 208 234 233 208 234 233 208 234 233 208 234 233 117 91 51 125 98 53 125 98 53 125 98 53 125 98 53 125 98 53 125 98 53 125 98 53 125 98 53 125 98 53 125 98 53 125 98 53 125 98 53 125 98 53 125 98 53 125 98 53 168 208 217 168 208 217 168 208 217 168 208 217 168 208 217 168 208 217 168 208 217 168 208 217 168 208 217 168 208 217 168 208 217 168 208 217 168 208 217 168 208 217 168 208 217 168 208 217 99 78 38 125 98 53 125 98 53 125 98 53 125 98 53 125 98 53 125 98 53 125 98 53 125 98 53 125 98 53 125 98 53 125 98 53 125 98 53 125 98 53 125 98 53 125 98 53 125 98 53 125 98 53 125 98 53 125 98 53 125 98 53 125 98 53 125 98 53 125 98 53 125 98 53 125 98 53 125 98 53 125 98 53 125 98 53 125 98 53 125 98 53 125 98 53 125 98 53 125 98 53 125 98 53 125 98 53 125 98 53 125 98 53 125 98 53 125 98 53 125 98 53 125 98 53 125 98 53 125 98 53 125 98 53 125 98 53 125 98 53 125 98 53 125 98 53 125 98 53 125 98 53 125 98 53 125 98 53 125 98 53 125 98 53 125 98 53 125 98 53 125 98 53 125 98 53 125 98 53 125 98 53 125 98 53 125 98 53 125 98 53 125 98 53 99 78 38 99 78 38 99 78 38 99 78 38 99 78 38 99 78 38 99 78 38 99 78 38 99 78 38 99 78 38 99 78 38 99 78 38 99 78 38 99 78 38 99 78 38 99 78 38 125 98 53 125 98 53 125 98 53 125 98 53 125 98 53 125 98 53 125 98 53 125 98 53 125 98 53 125 98 53 125 98 53 125 98 53 125 98 53 125 98 53 125 98 53 125 98 53 125 98 53 125 98 53 125 98 53 125 98 53 125 98 53 125 98 53 125 98 53 125 98 53 125 98 53 125 98 53 125 98 53 125 98 53 125 98 53 125 98 53 125 98 53 125 98 53 125 98 53 125 98 53 125 98 53 125 98 53 125 98 53 125 98 53 125 98 53 125 98 53 125 98 53 125 98 53 125 98 53 125 98 53 125 98 53 125 98 53 125 98 53 117 91 51 117 91 51 117 91 51 117 91 51 117 91 51 117 91 51 117 91 51 117 91 51 117 91 51 117 91 51 117 91 51 117 91 51 117 91 51 117 91 51 117 91 51 117 91 51 110 86 44 110 86 44 110 86 44 110 86 44 110 86 44 110 86 44 110 86 44 110 86 44 110 86 44 110 86 44 110 86 44 110 86 44 110 86 44 110 86 44 110 86 44 110 86 44 110 86 44 110 86 44 110 86 44 110 86 44 110 86 44 110 86 44 110 86 44 110 86 44 110 86 44 110 86 44 110 86 44 110 86 44 110 86 44 110 86 44 110 86 44 110 86 44 99 78 38 99 78 38 99 78 38 99 78 38 99 78 38 99 78 38 99 78 38 99 78 38 99 78 38 99 78 38 99 78 38 99 78 38 99 78 38 99 78 38 99 78 38 99 78 38 123 174 183 123 174 183 123 174 183 123 174 183 123 174 183 123 174 183 123 174 183 123 174 183 123 174 183 123 174 183 123 174 183 123 174 183 123 174 183 123 174 183 123 174 183 123 174 183 208 234 233 208 234 233 208 234 233 208 234 233 208 234 233 208 234 233 208 234 233 208 234 233 208 234 233 208 234 233 208 234 233 208 234 233 208 234 233 208 234 233 208 234 233 117 91 51 125 98 53 125 98 53 125 98 53 125 98 53 125 98 53 125 98 53 125 98 53 125 98 53 125 98 53 125 98 53 125 98 53 125 98 53 125 98 53 125 98 53 125 98 53 168 208 217 168 208 217 168 208 217 168 208 217 168 208 217 168 208 217 168 208 217 168 208 217 168 208 217 168 208 217 168 208 217 168 208 217 168 208 217 168 208 217 168 208 217 168 208 217 99 78 38 125 98 53 125 98 53 125 98 53 125 98 53 125 98 53 125 98 53 125 98 53 125 98 53 125 98 53 125 98 53 125 98 53 125 98 53 125 98 53 125 98 53 125 98 53 125 98 53 125 98 53 125 98 53 125 98 53 125 98 53 125 98 53 125 98 53 125 98 53 125 98 53 125 98 53 125 98 53 125 98 53 125 98 53 125 98 53 125 98 53 125 98 53 125 98 53 125 98 53 125 98 53 125 98 53 125 98 53 125 98 53 125 98 53 125 98 53 125 98 53 125 98 53 125 98 53 125 98 53 125 98 53 125 98 53 125 98 53 125 98 53 125 98 53 125 98 53 125 98 53 125 98 53 125 98 53 125 98 53 125 98 53 125 98 53 125 98 53 125 98 53 125 98 53 125 98 53 125 98 53 125 98 53 125 98 53 125 98 53 125 98 53 99 78 38 99 78 38 99 78 38 99 78 38 99 78 38 99 78 38 99 78 38 99 78 38 99 78 38 99 78 38 99 78 38 99 78 38 99 78 38 99 78 38 99 78 38 99 78 38 125 98 53 125 98 53 125 98 53 125 98 53 125 98 53 125 98 53 125 98 53 125 98 53 125 98 53 125 98 53 125 98 53 125 98 53 125 98 53 125 98 53 125 98 53 125 98 53 125 98 53 125 98 53 125 98 53 125 98 53 125 98 53 125 98 53 125 98 53 125 98 53 125 98 53 125 98 53 125 98 53 125 98 53 125 98 53 125 98 53 125 98 53 125 98 53 125 98 53 125 98 53 125 98 53 125 98 53 125 98 53 125 98 53 125 98 53 125 98 53 125 98 53 125 98 53 125 98 53 125 98 53 125 98 53 125 98 53 125 98 53 117 91 51 117 91 51 117 91 51 117 91 51 117 91 51 117 91 51 117 91 51 117 91 51 117 91 51 117 91 51 117 91 51 117 91 51 117 91 51 117 91 51 117 91 51 117 91 51 110 86 44 110 86 44 110 86 44 110 86 44 110 86 44 110 86 44 110 86 44 110 86 44 110 86 44 110 86 44 110 86 44 110 86 44 110 86 44 110 86 44 110 86 44 110 86 44 110 86 44 110 86 44 110 86 44 110 86 44 110 86 44 110 86 44 110 86 44 110 86 44 110 86 44 110 86 44 110 86 44 110 86 44 110 86 44 110 86 44 110 86 44 110 86 44 99 78 38 99 78 38 99 78 38 99 78 38 99 78 38 99 78 38 99 78 38 99 78 38 99 78 38 99 78 38 99 78 38 99 78 38 99 78 38 99 78 38 99 78 38 99 78 38 123 174 183 123 174 183 123 174 183 123 174 183 123 174 183 123 174 183 123 174 183 123 174 183 123 174 183 123 174 183 123 174 183 123 174 183 123 174 183 123 174 183 123 174 183 123 174 183 208 234 233 208 234 233 208 234 233 208 234 233 208 234 233 208 234 233 208 234 233 208 234 233 208 234 233 208 234 233 208 234 233 208 234 233 208 234 233 208 234 233 208 234 233 117 91 51 125 98 53 125 98 53 125 98 53 125 98 53 125 98 53 125 98 53 125 98 53 125 98 53 125 98 53 125 98 53 125 98 53 125 98 53 125 98 53 125 98 53 125 98 53 168 208 217 168 208 217 168 208 217 168 208 217 168 208 217 168 208 217 168 208 217 168 208 217 168 208 217 168 208 217 168 208 217 168 208 217 168 208 217 168 208 217 168 208 217 168 208 217 99 78 38 125 98 53 125 98 53 125 98 53 125 98 53 125 98 53 125 98 53 125 98 53 125 98 53 125 98 53 125 98 53 125 98 53 125 98 53 125 98 53 125 98 53 125 98 53 125 98 53 125 98 53 125 98 53 125 98 53 125 98 53 125 98 53 125 98 53 125 98 53 125 98 53 125 98 53 125 98 53 125 98 53 125 98 53 125 98 53 125 98 53 125 98 53 125 98 53 125 98 53 125 98 53 125 98 53 125 98 53 125 98 53 125 98 53 125 98 53 125 98 53 125 98 53 125 98 53 125 98 53 125 98 53 125 98 53 125 98 53 125 98 53 125 98 53 125 98 53 125 98 53 125 98 53 125 98 53 125 98 53 125 98 53 125 98 53 125 98 53 125 98 53 125 98 53 125 98 53 125 98 53 125 98 53 125 98 53 125 98 53 125 98 53 99 78 38 99 78 38 99 78 38 99 78 38 99 78 38 99 78 38 99 78 38 99 78 38 99 78 38 99 78 38 99 78 38 99 78 38 99 78 38 99 78 38 99 78 38 99 78 38 125 98 53 125 98 53 125 98 53 125 98 53 125 98 53 125 98 53 125 98 53 125 98 53 125 98 53 125 98 53 125 98 53 125 98 53 125 98 53 125 98 53 125 98 53 125 98 53 125 98 53 125 98 53 125 98 53 125 98 53 125 98 53 125 98 53 125 98 53 125 98 53 125 98 53 125 98 53 125 98 53 125 98 53 125 98 53 125 98 53 125 98 53 125 98 53 125 98 53 125 98 53 125 98 53 125 98 53 125 98 53 125 98 53 125 98 53 125 98 53 125 98 53 125 98 53 125 98 53 125 98 53 125 98 53 125 98 53 125 98 53 117 91 51 117 91 51 117 91 51 117 91 51 117 91 51 117 91 51 117 91 51 117 91 51 117 91 51 117 91 51 117 91 51 117 91 51 117 91 51 117 91 51 117 91 51 117 91 51 110 86 44 110 86 44 110 86 44 110 86 44 110 86 44 110 86 44 110 86 44 110 86 44 110 86 44 110 86 44 110 86 44 110 86 44 110 86 44 110 86 44 110 86 44 110 86 44 110 86 44 110 86 44 110 86 44 110 86 44 110 86 44 110 86 44 110 86 44 110 86 44 110 86 44 110 86 44 110 86 44 110 86 44 110 86 44 110 86 44 110 86 44 110 86 44 99 78 38 99 78 38 99 78 38 99 78 38 99 78 38 99 78 38 99 78 38 99 78 38 99 78 38 99 78 38 99 78 38 99 78 38 99 78 38 99 78 38 99 78 38 99 78 38 123 174 183 123 174 183 123 174 183 123 174 183 123 174 183 123 174 183 123 174 183 123 174 183 123 174 183 123 174 183 123 174 183 123 174 183 123 174 183 123 174 183 123 174 183 123 174 183 208 234 233 208 234 233 208 234 233 208 234 233 208 234 233 208 234 233 208 234 233 208 234 233 208 234 233 208 234 233 208 234 233 208 234 233 208 234 233 208 234 233 208 234 233 117 91 51 125 98 53 125 98 53 125 98 53 125 98 53 125 98 53 125 98 53 125 98 53 125 98 53 125 98 53 125 98 53 125 98 53 125 98 53 125 98 53 125 98 53 125 98 53 168 208 217 168 208 217 168 208 217 168 208 217 168 208 217 168 208 217 168 208 217 168 208 217 168 208 217 168 208 217 168 208 217 168 208 217 168 208 217 168 208 217 168 208 217 168 208 217 99 78 38 125 98 53 125 98 53 125 98 53 125 98 53 125 98 53 125 98 53 125 98 53 125 98 53 125 98 53 125 98 53 125 98 53 125 98 53 125 98 53 125 98 53 125 98 53 125 98 53 125 98 53 125 98 53 125 98 53 125 98 53 125 98 53 125 98 53 125 98 53 125 98 53 125 98 53 125 98 53 125 98 53 125 98 53 125 98 53 125 98 53 125 98 53 125 98 53 125 98 53 125 98 53 125 98 53 125 98 53 125 98 53 125 98 53 125 98 53 125 98 53 125 98 53 125 98 53 125 98 53 125 98 53 125 98 53 125 98 53 125 98 53 125 98 53 125 98 53 125 98 53 125 98 53 125 98 53 125 98 53 125 98 53 125 98 53 125 98 53 125 98 53 125 98 53 125 98 53 125 98 53 125 98 53 125 98 53 125 98 53 125 98 53 99 78 38 99 78 38 99 78 38 99 78 38 99 78 38 99 78 38 99 78 38 99 78 38 99 78 38 99 78 38 99 78 38 99 78 38 99 78 38 99 78 38 99 78 38 99 78 38 125 98 53 125 98 53 125 98 53 125 98 53 125 98 53 125 98 53 125 98 53 125 98 53 125 98 53 125 98 53 125 98 53 125 98 53 125 98 53 125 98 53 125 98 53 125 98 53 125 98 53 125 98 53 125 98 53 125 98 53 125 98 53 125 98 53 125 98 53 125 98 53 125 98 53 125 98 53 125 98 53 125 98 53 125 98 53 125 98 53 125 98 53 125 98 53 125 98 53 125 98 53 125 98 53 125 98 53 125 98 53 125 98 53 125 98 53 125 98 53 125 98 53 125 98 53 125 98 53 125 98 53 125 98 53 125 98 53 125 98 53 117 91 51 117 91 51 117 91 51 117 91 51 117 91 51 117 91 51 117 91 51 117 91 51 117 91 51 117 91 51 117 91 51 117 91 51 117 91 51 117 91 51 117 91 51 117 91 51 110 86 44 110 86 44 110 86 44 110 86 44 110 86 44 110 86 44 110 86 44 110 86 44 110 86 44 110 86 44 110 86 44 110 86 44 110 86 44 110 86 44 110 86 44 110 86 44 110 86 44 110 86 44 110 86 44 110 86 44 110 86 44 110 86 44 110 86 44 110 86 44 110 86 44 110 86 44 110 86 44 110 86 44 110 86 44 110 86 44 110 86 44 110 86 44 99 78 38 99 78 38 99 78 38 99 78 38 99 78 38 99 78 38 99 78 38 99 78 38 99 78 38 99 78 38 99 78 38 99 78 38 99 78 38 99 78 38 99 78 38 99 78 38 123 174 183 123 174 183 123 174 183 123 174 183 123 174 183 123 174 183 123 174 183 123 174 183 123 174 183 123 174 183 123 174 183 123 174 183 123 174 183 123 174 183 123 174 183 123 174 183 208 234 233 208 234 233 208 234 233 208 234 233 208 234 233 208 234 233 208 234 233 208 234 233 208 234 233 208 234 233 208 234 233 208 234 233 208 234 233 208 234 233 208 234 233 117 91 51 125 98 53 125 98 53 125 98 53 125 98 53 125 98 53 125 98 53 125 98 53 125 98 53 125 98 53 125 98 53 125 98 53 125 98 53 125 98 53 125 98 53 125 98 53 168 208 217 168 208 217 168 208 217 168 208 217 168 208 217 168 208 217 168 208 217 168 208 217 168 208 217 168 208 217 168 208 217 168 208 217 168 208 217 168 208 217 168 208 217 168 208 217 99 78 38 125 98 53 125 98 53 125 98 53 125 98 53 125 98 53 125 98 53 125 98 53 125 98 53 125 98 53 125 98 53 125 98 53 125 98 53 125 98 53 125 98 53 125 98 53 125 98 53 125 98 53 125 98 53 125 98 53 125 98 53 125 98 53 125 98 53 125 98 53 125 98 53 125 98 53 125 98 53 125 98 53 125 98 53 125 98 53 125 98 53 125 98 53 125 98 53 125 98 53 125 98 53 125 98 53 125 98 53 125 98 53 125 98 53 125 98 53 125 98 53 125 98 53 125 98 53 125 98 53 125 98 53 125 98 53 125 98 53 125 98 53 125 98 53 125 98 53 125 98 53 125 98 53 125 98 53 125 98 53 125 98 53 125 98 53 125 98 53 125 98 53 125 98 53 125 98 53 125 98 53 125 98 53 125 98 53 125 98 53 125 98 53 99 78 38 99 78 38 99 78 38 99 78 38 99 78 38 99 78 38 99 78 38 99 78 38 99 78 38 99 78 38 99 78 38 99 78 38 99 78 38 99 78 38 99 78 38 99 78 38 125 98 53 125 98 53 125 98 53 125 98 53 125 98 53 125 98 53 125 98 53 125 98 53 125 98 53 125 98 53 125 98 53 125 98 53 125 98 53 125 98 53 125 98 53 125 98 53 125 98 53 125 98 53 125 98 53 125 98 53 125 98 53 125 98 53 125 98 53 125 98 53 125 98 53 125 98 53 125 98 53 125 98 53 125 98 53 125 98 53 125 98 53 125 98 53 125 98 53 125 98 53 125 98 53 125 98 53 125 98 53 125 98 53 125 98 53 125 98 53 125 98 53 125 98 53 125 98 53 125 98 53 125 98 53 125 98 53 125 98 53 117 91 51 117 91 51 117 91 51 117 91 51 117 91 51 117 91 51 117 91 51 117 91 51 117 91 51 117 91 51 117 91 51 117 91 51 117 91 51 117 91 51 117 91 51 117 91 51 110 86 44 110 86 44 110 86 44 110 86 44 110 86 44 110 86 44 110 86 44 110 86 44 110 86 44 110 86 44 110 86 44 110 86 44 110 86 44 110 86 44 110 86 44 110 86 44 110 86 44 110 86 44 110 86 44 110 86 44 110 86 44 110 86 44 110 86 44 110 86 44 110 86 44 110 86 44 110 86 44 110 86 44 110 86 44 110 86 44 110 86 44 110 86 44 99 78 38 99 78 38 99 78 38 99 78 38 99 78 38 99 78 38 99 78 38 99 78 38 99 78 38 99 78 38 99 78 38 99 78 38 99 78 38 99 78 38 99 78 38 99 78 38 123 174 183 123 174 183 123 174 183 123 174 183 123 174 183 123 174 183 123 174 183 123 174 183 123 174 183 123 174 183 123 174 183 123 174 183 123 174 183 123 174 183 123 174 183 123 174 183 208 234 233 208 234 233 208 234 233 208 234 233 208 234 233 208 234 233 208 234 233 208 234 233 208 234 233 208 234 233 208 234 233 208 234 233 208 234 233 208 234 233 208 234 233 117 91 51 125 98 53 125 98 53 125 98 53 125 98 53 125 98 53 125 98 53 125 98 53 125 98 53 125 98 53 125 98 53 125 98 53 125 98 53 125 98 53 125 98 53 125 98 53 168 208 217 168 208 217 168 208 217 168 208 217 168 208 217 168 208 217 168 208 217 168 208 217 168 208 217 168 208 217 168 208 217 168 208 217 168 208 217 168 208 217 168 208 217 168 208 217 99 78 38 125 98 53 125 98 53 125 98 53 125 98 53 125 98 53 125 98 53 125 98 53 125 98 53 125 98 53 125 98 53 125 98 53 125 98 53 125 98 53 125 98 53 125 98 53 125 98 53 125 98 53 125 98 53 125 98 53 125 98 53 125 98 53 125 98 53 125 98 53 125 98 53 125 98 53 125 98 53 125 98 53 125 98 53 125 98 53 125 98 53 125 98 53 125 98 53 125 98 53 125 98 53 125 98 53 125 98 53 125 98 53 125 98 53 125 98 53 125 98 53 125 98 53 125 98 53 125 98 53 125 98 53 125 98 53 125 98 53 125 98 53 125 98 53 125 98 53 125 98 53 125 98 53 125 98 53 125 98 53 125 98 53 125 98 53 125 98 53 125 98 53 125 98 53 125 98 53 125 98 53 125 98 53 125 98 53 125 98 53 125 98 53 99 78 38 99 78 38 99 78 38 99 78 38 99 78 38 99 78 38 99 78 38 99 78 38 99 78 38 99 78 38 99 78 38 99 78 38 99 78 38 99 78 38 99 78 38 99 78 38 125 98 53 125 98 53 125 98 53 125 98 53 125 98 53 125 98 53 125 98 53 125 98 53 125 98 53 125 98 53 125 98 53 125 98 53 125 98 53 125 98 53 125 98 53 125 98 53 125 98 53 125 98 53 125 98 53 125 98 53 125 98 53 125 98 53 125 98 53 125 98 53 125 98 53 125 98 53 125 98 53 125 98 53 125 98 53 125 98 53 125 98 53 125 98 53 125 98 53 125 98 53 125 98 53 125 98 53 125 98 53 125 98 53 125 98 53 125 98 53 125 98 53 125 98 53 125 98 53 125 98 53 125 98 53 125 98 53 125 98 53 117 91 51 117 91 51 117 91 51 117 91 51 117 91 51 117 91 51 117 91 51 117 91 51 117 91 51 117 91 51 117 91 51 117 91 51 117 91 51 117 91 51 117 91 51 117 91 51 110 86 44 110 86 44 110 86 44 110 86 44 110 86 44 110 86 44 110 86 44 110 86 44 110 86 44 110 86 44 110 86 44 110 86 44 110 86 44 110 86 44 110 86 44 110 86 44 110 86 44 110 86 44 110 86 44 110 86 44 110 86 44 110 86 44 110 86 44 110 86 44 110 86 44 110 86 44 110 86 44 110 86 44 110 86 44 110 86 44 110 86 44 110 86 44 99 78 38 99 78 38 99 78 38 99 78 38 99 78 38 99 78 38 99 78 38 99 78 38 99 78 38 99 78 38 99 78 38 99 78 38 99 78 38 99 78 38 99 78 38 99 78 38 123 174 183 123 174 183 123 174 183 123 174 183 123 174 183 123 174 183 123 174 183 123 174 183 123 174 183 123 174 183 123 174 183 123 174 183 123 174 183 123 174 183 123 174 183 123 174 183 208 234 233 208 234 233 208 234 233 208 234 233 208 234 233 208 234 233 208 234 233 208 234 233 208 234 233 208 234 233 208 234 233 208 234 233 208 234 233 208 234 233 208 234 233 117 91 51 125 98 53 125 98 53 125 98 53 125 98 53 125 98 53 125 98 53 125 98 53 125 98 53 125 98 53 125 98 53 125 98 53 125 98 53 125 98 53 125 98 53 125 98 53 168 208 217 168 208 217 168 208 217 168 208 217 168 208 217 168 208 217 168 208 217 168 208 217 168 208 217 168 208 217 168 208 217 168 208 217 168 208 217 168 208 217 168 208 217 168 208 217 99 78 38 125 98 53 125 98 53 125 98 53 125 98 53 125 98 53 125 98 53 125 98 53 125 98 53 125 98 53 125 98 53 125 98 53 125 98 53 125 98 53 125 98 53 125 98 53 125 98 53 125 98 53 125 98 53 125 98 53 125 98 53 125 98 53 125 98 53 125 98 53 125 98 53 125 98 53 125 98 53 125 98 53 125 98 53 125 98 53 125 98 53 125 98 53 125 98 53 125 98 53 125 98 53 125 98 53 125 98 53 125 98 53 125 98 53 125 98 53 125 98 53 125 98 53 125 98 53 125 98 53 125 98 53 125 98 53 125 98 53 125 98 53 125 98 53 125 98 53 125 98 53 125 98 53 125 98 53 125 98 53 125 98 53 125 98 53 125 98 53 125 98 53 125 98 53 125 98 53 125 98 53 125 98 53 125 98 53 125 98 53 125 98 53 99 78 38 99 78 38 99 78 38 99 78 38 99 78 38 99 78 38 99 78 38 99 78 38 99 78 38 99 78 38 99 78 38 99 78 38 99 78 38 99 78 38 99 78 38 99 78 38 125 98 53 125 98 53 125 98 53 125 98 53 125 98 53 125 98 53 125 98 53 125 98 53 125 98 53 125 98 53 125 98 53 125 98 53 125 98 53 125 98 53 125 98 53 125 98 53 125 98 53 125 98 53 125 98 53 125 98 53 125 98 53 125 98 53 125 98 53 125 98 53 125 98 53 125 98 53 125 98 53 125 98 53 125 98 53 125 98 53 125 98 53 125 98 53 125 98 53 125 98 53 125 98 53 125 98 53 125 98 53 125 98 53 125 98 53 125 98 53 125 98 53 125 98 53 125 98 53 125 98 53 125 98 53 125 98 53 125 98 53 117 91 51 117 91 51 117 91 51 117 91 51 117 91 51 117 91 51 117 91 51 117 91 51 117 91 51 117 91 51 117 91 51 117 91 51 117 91 51 117 91 51 117 91 51 117 91 51 110 86 44 110 86 44 110 86 44 110 86 44 110 86 44 110 86 44 110 86 44 110 86 44 110 86 44 110 86 44 110 86 44 110 86 44 110 86 44 110 86 44 110 86 44 110 86 44 110 86 44 110 86 44 110 86 44 110 86 44 110 86 44 110 86 44 110 86 44 110 86 44 110 86 44 110 86 44 110 86 44 110 86 44 110 86 44 110 86 44 110 86 44 110 86 44 99 78 38 99 78 38 99 78 38 99 78 38 99 78 38 99 78 38 99 78 38 99 78 38 99 78 38 99 78 38 99 78 38 99 78 38 99 78 38 99 78 38 99 78 38 99 78 38 123 174 183 123 174 183 123 174 183 123 174 183 123 174 183 123 174 183 123 174 183 123 174 183 123 174 183 123 174 183 123 174 183 123 174 183 123 174 183 123 174 183 123 174 183 123 174 183 208 234 233 208 234 233 208 234 233 208 234 233 208 234 233 208 234 233 208 234 233 208 234 233 208 234 233 208 234 233 208 234 233 208 234 233 208 234 233 208 234 233 208 234 233 117 91 51 125 98 53 125 98 53 125 98 53 125 98 53 125 98 53 125 98 53 125 98 53 125 98 53 125 98 53 125 98 53 125 98 53 125 98 53 125 98 53 125 98 53 125 98 53 168 208 217 168 208 217 168 208 217 168 208 217 168 208 217 168 208 217 168 208 217 168 208 217 168 208 217 168 208 217 168 208 217 168 208 217 168 208 217 168 208 217 168 208 217 168 208 217 99 78 38 125 98 53 125 98 53 125 98 53 125 98 53 125 98 53 125 98 53 125 98 53 125 98 53 125 98 53 125 98 53 125 98 53 125 98 53 125 98 53 125 98 53 125 98 53 125 98 53 125 98 53 125 98 53 125 98 53 125 98 53 125 98 53 125 98 53 125 98 53 125 98 53 125 98 53 125 98 53 125 98 53 125 98 53 125 98 53 125 98 53 125 98 53 125 98 53 125 98 53 125 98 53 125 98 53 125 98 53 125 98 53 125 98 53 125 98 53 125 98 53 125 98 53 125 98 53 125 98 53 125 98 53 125 98 53 125 98 53 125 98 53 125 98 53 125 98 53 125 98 53 125 98 53 125 98 53 125 98 53 125 98 53 125 98 53 125 98 53 125 98 53 125 98 53 125 98 53 125 98 53 125 98 53 125 98 53 125 98 53 125 98 53 99 78 38 99 78 38 99 78 38 99 78 38 99 78 38 99 78 38 99 78 38 99 78 38 99 78 38 99 78 38 99 78 38 99 78 38 99 78 38 99 78 38 99 78 38 99 78 38 125 98 53 125 98 53 125 98 53 125 98 53 125 98 53 125 98 53 125 98 53 125 98 53 125 98 53 125 98 53 125 98 53 125 98 53 125 98 53 125 98 53 125 98 53 125 98 53 125 98 53 125 98 53 125 98 53 125 98 53 125 98 53 125 98 53 125 98 53 125 98 53 125 98 53 125 98 53 125 98 53 125 98 53 125 98 53 125 98 53 125 98 53 125 98 53 125 98 53 125 98 53 125 98 53 125 98 53 125 98 53 125 98 53 125 98 53 125 98 53 125 98 53 125 98 53 125 98 53 125 98 53 125 98 53 125 98 53 125 98 53 117 91 51 117 91 51 117 91 51 117 91 51 117 91 51 117 91 51 117 91 51 117 91 51 117 91 51 117 91 51 117 91 51 117 91 51 117 91 51 117 91 51 117 91 51 117 91 51 110 86 44 110 86 44 110 86 44 110 86 44 110 86 44 110 86 44 110 86 44 110 86 44 110 86 44 110 86 44 110 86 44 110 86 44 110 86 44 110 86 44 110 86 44 110 86 44 110 86 44 110 86 44 110 86 44 110 86 44 110 86 44 110 86 44 110 86 44 110 86 44 110 86 44 110 86 44 110 86 44 110 86 44 110 86 44 110 86 44 110 86 44 110 86 44 99 78 38 99 78 38 99 78 38 99 78 38 99 78 38 99 78 38 99 78 38 99 78 38 99 78 38 99 78 38 99 78 38 99 78 38 99 78 38 99 78 38 99 78 38 99 78 38 123 174 183 123 174 183 123 174 183 123 174 183 123 174 183 123 174 183 123 174 183 123 174 183 123 174 183 123 174 183 123 174 183 123 174 183 123 174 183 123 174 183 123 174 183 123 174 183 208 234 233 208 234 233 208 234 233 208 234 233 208 234 233 208 234 233 208 234 233 208 234 233 208 234 233 208 234 233 208 234 233 208 234 233 208 234 233 208 234 233 208 234 233 117 91 51 125 98 53 125 98 53 125 98 53 125 98 53 125 98 53 125 98 53 125 98 53 125 98 53 125 98 53 125 98 53 125 98 53 125 98 53 125 98 53 125 98 53 125 98 53 168 208 217 168 208 217 168 208 217 168 208 217 168 208 217 168 208 217 168 208 217 168 208 217 168 208 217 168 208 217 168 208 217 168 208 217 168 208 217 168 208 217 168 208 217 168 208 217 99 78 38 125 98 53 125 98 53 125 98 53 125 98 53 125 98 53 125 98 53 125 98 53 125 98 53 125 98 53 125 98 53 125 98 53 125 98 53 125 98 53 125 98 53 125 98 53 125 98 53 125 98 53 125 98 53 125 98 53 125 98 53 125 98 53 125 98 53 125 98 53 125 98 53 125 98 53 125 98 53 125 98 53 125 98 53 125 98 53 125 98 53 125 98 53 125 98 53 125 98 53 125 98 53 125 98 53 125 98 53 125 98 53 125 98 53 125 98 53 125 98 53 125 98 53 125 98 53 125 98 53 125 98 53 125 98 53 125 98 53 125 98 53 125 98 53 125 98 53 125 98 53 125 98 53 125 98 53 125 98 53 125 98 53 125 98 53 125 98 53 125 98 53 125 98 53 125 98 53 125 98 53 125 98 53 125 98 53 125 98 53 125 98 53 99 78 38 99 78 38 99 78 38 99 78 38 99 78 38 99 78 38 99 78 38 99 78 38 99 78 38 99 78 38 99 78 38 99 78 38 99 78 38 99 78 38 99 78 38 99 78 38 125 98 53 125 98 53 125 98 53 125 98 53 125 98 53 125 98 53 125 98 53 125 98 53 125 98 53 125 98 53 125 98 53 125 98 53 125 98 53 125 98 53 125 98 53 125 98 53 125 98 53 125 98 53 125 98 53 125 98 53 125 98 53 125 98 53 125 98 53 125 98 53 125 98 53 125 98 53 125 98 53 125 98 53 125 98 53 125 98 53 125 98 53 125 98 53 125 98 53 125 98 53 125 98 53 125 98 53 125 98 53 125 98 53 125 98 53 125 98 53 125 98 53 125 98 53 125 98 53 125 98 53 125 98 53 125 98 53 125 98 53 117 91 51 117 91 51 117 91 51 117 91 51 117 91 51 117 91 51 117 91 51 117 91 51 117 91 51 117 91 51 117 91 51 117 91 51 117 91 51 117 91 51 117 91 51 117 91 51 110 86 44 110 86 44 110 86 44 110 86 44 110 86 44 110 86 44 110 86 44 110 86 44 110 86 44 110 86 44 110 86 44 110 86 44 110 86 44 110 86 44 110 86 44 110 86 44 110 86 44 110 86 44 110 86 44 110 86 44 110 86 44 110 86 44 110 86 44 110 86 44 110 86 44 110 86 44 110 86 44 110 86 44 110 86 44 110 86 44 110 86 44 110 86 44 99 78 38 99 78 38 99 78 38 99 78 38 99 78 38 99 78 38 99 78 38 99 78 38 99 78 38 99 78 38 99 78 38 99 78 38 99 78 38 99 78 38 99 78 38 99 78 38 123 174 183 123 174 183 123 174 183 123 174 183 123 174 183 123 174 183 123 174 183 123 174 183 123 174 183 123 174 183 123 174 183 123 174 183 123 174 183 123 174 183 123 174 183 123 174 183 208 234 233 208 234 233 208 234 233 208 234 233 208 234 233 208 234 233 208 234 233 208 234 233 208 234 233 208 234 233 208 234 233 208 234 233 208 234 233 208 234 233 208 234 233 117 91 51 125 98 53 125 98 53 125 98 53 125 98 53 125 98 53 125 98 53 125 98 53 125 98 53 125 98 53 125 98 53 125 98 53 125 98 53 125 98 53 125 98 53 125 98 53 168 208 217 168 208 217 168 208 217 168 208 217 168 208 217 168 208 217 168 208 217 168 208 217 168 208 217 168 208 217 168 208 217 168 208 217 168 208 217 168 208 217 168 208 217 168 208 217 99 78 38 125 98 53 125 98 53 125 98 53 125 98 53 125 98 53 125 98 53 125 98 53 125 98 53 125 98 53 125 98 53 125 98 53 125 98 53 125 98 53 125 98 53 125 98 53 125 98 53 125 98 53 125 98 53 125 98 53 125 98 53 125 98 53 125 98 53 125 98 53 125 98 53 125 98 53 125 98 53 125 98 53 125 98 53 125 98 53 125 98 53 125 98 53 125 98 53 125 98 53 125 98 53 125 98 53 125 98 53 125 98 53 125 98 53 125 98 53 125 98 53 125 98 53 125 98 53 125 98 53 125 98 53 125 98 53 125 98 53 125 98 53 125 98 53 125 98 53 125 98 53 125 98 53 125 98 53 125 98 53 125 98 53 125 98 53 125 98 53 125 98 53 125 98 53 125 98 53 125 98 53 125 98 53 125 98 53 125 98 53 125 98 53 99 78 38 99 78 38 99 78 38 99 78 38 99 78 38 99 78 38 99 78 38 99 78 38 99 78 38 99 78 38 99 78 38 99 78 38 99 78 38 99 78 38 99 78 38 99 78 38 125 98 53 125 98 53 125 98 53 125 98 53 125 98 53 125 98 53 125 98 53 125 98 53 125 98 53 125 98 53 125 98 53 125 98 53 125 98 53 125 98 53 125 98 53 125 98 53 125 98 53 125 98 53 125 98 53 125 98 53 125 98 53 125 98 53 125 98 53 125 98 53 125 98 53 125 98 53 125 98 53 125 98 53 125 98 53 125 98 53 125 98 53 125 98 53 125 98 53 125 98 53 125 98 53 125 98 53 125 98 53 125 98 53 125 98 53 125 98 53 125 98 53 125 98 53 125 98 53 125 98 53 125 98 53 125 98 53 125 98 53 117 91 51 117 91 51 117 91 51 117 91 51 117 91 51 117 91 51 117 91 51 117 91 51 117 91 51 117 91 51 117 91 51 117 91 51 117 91 51 117 91 51 117 91 51 117 91 51 110 86 44 110 86 44 110 86 44 110 86 44 110 86 44 110 86 44 110 86 44 110 86 44 110 86 44 110 86 44 110 86 44 110 86 44 110 86 44 110 86 44 110 86 44 110 86 44 110 86 44 110 86 44 110 86 44 110 86 44 110 86 44 110 86 44 110 86 44 110 86 44 110 86 44 110 86 44 110 86 44 110 86 44 110 86 44 110 86 44 110 86 44 110 86 44 99 78 38 99 78 38 99 78 38 99 78 38 99 78 38 99 78 38 99 78 38 99 78 38 99 78 38 99 78 38 99 78 38 99 78 38 99 78 38 99 78 38 99 78 38 99 78 38 123 174 183 123 174 183 123 174 183 123 174 183 123 174 183 123 174 183 123 174 183 123 174 183 123 174 183 123 174 183 123 174 183 123 174 183 123 174 183 123 174 183 123 174 183 123 174 183 208 234 233 208 234 233 208 234 233 208 234 233 208 234 233 208 234 233 208 234 233 208 234 233 208 234 233 208 234 233 208 234 233 208 234 233 208 234 233 208 234 233 208 234 233 117 91 51 125 98 53 125 98 53 125 98 53 125 98 53 125 98 53 125 98 53 125 98 53 125 98 53 125 98 53 125 98 53 125 98 53 125 98 53 125 98 53 125 98 53 125 98 53 168 208 217 168 208 217 168 208 217 168 208 217 168 208 217 168 208 217 168 208 217 168 208 217 168 208 217 168 208 217 168 208 217 168 208 217 168 208 217 168 208 217 168 208 217 168 208 217 99 78 38 125 98 53 125 98 53 125 98 53 125 98 53 125 98 53 125 98 53 125 98 53 125 98 53 125 98 53 125 98 53 125 98 53 125 98 53 125 98 53 125 98 53 125 98 53 125 98 53 125 98 53 125 98 53 125 98 53 125 98 53 125 98 53 125 98 53 125 98 53 125 98 53 125 98 53 125 98 53 125 98 53 125 98 53 125 98 53 125 98 53 125 98 53 125 98 53 125 98 53 125 98 53 125 98 53 125 98 53 125 98 53 125 98 53 125 98 53 125 98 53 125 98 53 125 98 53 125 98 53 125 98 53 125 98 53 125 98 53 125 98 53 125 98 53 125 98 53 125 98 53 125 98 53 125 98 53 125 98 53 125 98 53 125 98 53 125 98 53 125 98 53 125 98 53 125 98 53 125 98 53 125 98 53 125 98 53 125 98 53 125 98 53 99 78 38 99 78 38 99 78 38 99 78 38 99 78 38 99 78 38 99 78 38 99 78 38 99 78 38 99 78 38 99 78 38 99 78 38 99 78 38 99 78 38 99 78 38 99 78 38 125 98 53 125 98 53 125 98 53 125 98 53 125 98 53 125 98 53 125 98 53 125 98 53 125 98 53 125 98 53 125 98 53 125 98 53 125 98 53 125 98 53 125 98 53 125 98 53 125 98 53 125 98 53 125 98 53 125 98 53 125 98 53 125 98 53 125 98 53 125 98 53 125 98 53 125 98 53 125 98 53 125 98 53 125 98 53 125 98 53 125 98 53 125 98 53 125 98 53 125 98 53 125 98 53 125 98 53 125 98 53 125 98 53 125 98 53 125 98 53 125 98 53 125 98 53 125 98 53 125 98 53 125 98 53 125 98 53 125 98 53 117 91 51 117 91 51 117 91 51 117 91 51 117 91 51 117 91 51 117 91 51 117 91 51 117 91 51 117 91 51 117 91 51 117 91 51 117 91 51 117 91 51 117 91 51 117 91 51 110 86 44 110 86 44 110 86 44 110 86 44 110 86 44 110 86 44 110 86 44 110 86 44 110 86 44 110 86 44 110 86 44 110 86 44 110 86 44 110 86 44 110 86 44 110 86 44 110 86 44 110 86 44 110 86 44 110 86 44 110 86 44 110 86 44 110 86 44 110 86 44 110 86 44 110 86 44 110 86 44 110 86 44 110 86 44 110 86 44 110 86 44 110 86 44 99 78 38 99 78 38 99 78 38 99 78 38 99 78 38 99 78 38 99 78 38 99 78 38 99 78 38 99 78 38 99 78 38 99 78 38 99 78 38 99 78 38 99 78 38 99 78 38 123 174 183 123 174 183 123 174 183 123 174 183 123 174 183 123 174 183 123 174 183 123 174 183 123 174 183 123 174 183 123 174 183 123 174 183 123 174 183 123 174 183 123 174 183 123 174 183 208 234 233 208 234 233 208 234 233 208 234 233 208 234 233 208 234 233 208 234 233 208 234 233 208 234 233 208 234 233 208 234 233 208 234 233 208 234 233 208 234 233 208 234 233 117 91 51 125 98 53 125 98 53 125 98 53 125 98 53 125 98 53 125 98 53 125 98 53 125 98 53 125 98 53 125 98 53 125 98 53 125 98 53 125 98 53 125 98 53 125 98 53 168 208 217 168 208 217 168 208 217 168 208 217 168 208 217 168 208 217 168 208 217 168 208 217 168 208 217 168 208 217 168 208 217 168 208 217 168 208 217 168 208 217 168 208 217 168 208 217 99 78 38 125 98 53 125 98 53 125 98 53 125 98 53 125 98 53 125 98 53 125 98 53 125 98 53 125 98 53 125 98 53 125 98 53 125 98 53 125 98 53 125 98 53 125 98 53 125 98 53 125 98 53 125 98 53 125 98 53 125 98 53 125 98 53 125 98 53 125 98 53 125 98 53 125 98 53 125 98 53 125 98 53 125 98 53 125 98 53 125 98 53 125 98 53 125 98 53 125 98 53 125 98 53 125 98 53 125 98 53 125 98 53 125 98 53 125 98 53 125 98 53 125 98 53 125 98 53 125 98 53 125 98 53 125 98 53 125 98 53 125 98 53 125 98 53 125 98 53 125 98 53 125 98 53 125 98 53 125 98 53 125 98 53 125 98 53 125 98 53 125 98 53 125 98 53 125 98 53 125 98 53 125 98 53 125 98 53 125 98 53 125 98 53 99 78 38 99 78 38 99 78 38 99 78 38 99 78 38 99 78 38 99 78 38 99 78 38 99 78 38 99 78 38 99 78 38 99 78 38 99 78 38 99 78 38 99 78 38 99 78 38 125 98 53 125 98 53 125 98 53 125 98 53 125 98 53 125 98 53 125 98 53 125 98 53 125 98 53 125 98 53 125 98 53 125 98 53 125 98 53 125 98 53 125 98 53 125 98 53 125 98 53 125 98 53 125 98 53 125 98 53 125 98 53 125 98 53 125 98 53 125 98 53 125 98 53 125 98 53 125 98 53 125 98 53 125 98 53 125 98 53 125 98 53 125 98 53 125 98 53 125 98 53 125 98 53 125 98 53 125 98 53 125 98 53 125 98 53 125 98 53 125 98 53 125 98 53 125 98 53 125 98 53 125 98 53 125 98 53 125 98 53 117 91 51 117 91 51 117 91 51 117 91 51 117 91 51 117 91 51 117 91 51 117 91 51 117 91 51 117 91 51 117 91 51 117 91 51 117 91 51 117 91 51 117 91 51 117 91 51 110 86 44 110 86 44 110 86 44 110 86 44 110 86 44 110 86 44 110 86 44 110 86 44 110 86 44 110 86 44 110 86 44 110 86 44 110 86 44 110 86 44 110 86 44 110 86 44 110 86 44 110 86 44 110 86 44 110 86 44 110 86 44 110 86 44 110 86 44 110 86 44 110 86 44 110 86 44 110 86 44 110 86 44 110 86 44 110 86 44 110 86 44 110 86 44 99 78 38 99 78 38 99 78 38 99 78 38 99 78 38 99 78 38 99 78 38 99 78 38 99 78 38 99 78 38 99 78 38 99 78 38 99 78 38 99 78 38 99 78 38 99 78 38 123 174 183 123 174 183 123 174 183 123 174 183 123 174 183 123 174 183 123 174 183 123 174 183 123 174 183 123 174 183 123 174 183 123 174 183 123 174 183 123 174 183 123 174 183 123 174 183 208 234 233 208 234 233 208 234 233 208 234 233 208 234 233 208 234 233 208 234 233 208 234 233 208 234 233 208 234 233 208 234 233 208 234 233 208 234 233 208 234 233 208 234 233 117 91 51 125 98 53 125 98 53 125 98 53 125 98 53 125 98 53 125 98 53 125 98 53 125 98 53 125 98 53 125 98 53 125 98 53 125 98 53 125 98 53 125 98 53 125 98 53 168 208 217 168 208 217 168 208 217 168 208 217 168 208 217 168 208 217 168 208 217 168 208 217 168 208 217 168 208 217 168 208 217 168 208 217 168 208 217 168 208 217 168 208 217 168 208 217 99 78 38 125 98 53 125 98 53 125 98 53 125 98 53 125 98 53 125 98 53 125 98 53 125 98 53 125 98 53 125 98 53 125 98 53 125 98 53 125 98 53 125 98 53 125 98 53 125 98 53 125 98 53 125 98 53 125 98 53 125 98 53 125 98 53 125 98 53 125 98 53 125 98 53 125 98 53 125 98 53 125 98 53 125 98 53 125 98 53 125 98 53 125 98 53 125 98 53 125 98 53 125 98 53 125 98 53 125 98 53 125 98 53 125 98 53 125 98 53 125 98 53 125 98 53 125 98 53 125 98 53 125 98 53 125 98 53 125 98 53 125 98 53 125 98 53 125 98 53 125 98 53 125 98 53 125 98 53 125 98 53 125 98 53 125 98 53 125 98 53 125 98 53 125 98 53 125 98 53 125 98 53 125 98 53 125 98 53 125 98 53 125 98 53 99 78 38 99 78 38 99 78 38 99 78 38 99 78 38 99 78 38 99 78 38 99 78 38 99 78 38 99 78 38 99 78 38 99 78 38 99 78 38 99 78 38 99 78 38 99 78 38 125 98 53 125 98 53 125 98 53 125 98 53 125 98 53 125 98 53 125 98 53 125 98 53 125 98 53 125 98 53 125 98 53 125 98 53 125 98 53 125 98 53 125 98 53 125 98 53 125 98 53 125 98 53 125 98 53 125 98 53 125 98 53 125 98 53 125 98 53 125 98 53 125 98 53 125 98 53 125 98 53 125 98 53 125 98 53 125 98 53 125 98 53 125 98 53 125 98 53 125 98 53 125 98 53 125 98 53 125 98 53 125 98 53 125 98 53 125 98 53 125 98 53 125 98 53 125 98 53 125 98 53 125 98 53 125 98 53 125 98 53 117 91 51 117 91 51 117 91 51 117 91 51 117 91 51 117 91 51 117 91 51 117 91 51 117 91 51 117 91 51 117 91 51 117 91 51 117 91 51 117 91 51 117 91 51 117 91 51 110 86 44 110 86 44 110 86 44 110 86 44 110 86 44 110 86 44 110 86 44 110 86 44 110 86 44 110 86 44 110 86 44 110 86 44 110 86 44 110 86 44 110 86 44 110 86 44 110 86 44 110 86 44 110 86 44 110 86 44 110 86 44 110 86 44 110 86 44 110 86 44 110 86 44 110 86 44 110 86 44 110 86 44 110 86 44 110 86 44 110 86 44 110 86 44 99 78 38 99 78 38 99 78 38 99 78 38 99 78 38 99 78 38 99 78 38 99 78 38 99 78 38 99 78 38 99 78 38 99 78 38 99 78 38 99 78 38 99 78 38 99 78 38 123 174 183 123 174 183 123 174 183 123 174 183 123 174 183 123 174 183 123 174 183 123 174 183 123 174 183 123 174 183 123 174 183 123 174 183 123 174 183 123 174 183 123 174 183 123 174 183 208 234 233 208 234 233 208 234 233 208 234 233 208 234 233 208 234 233 208 234 233 208 234 233 208 234 233 208 234 233 208 234 233 208 234 233 208 234 233 208 234 233 208 234 233 117 91 51 125 98 53 125 98 53 125 98 53 125 98 53 125 98 53 125 98 53 125 98 53 125 98 53 125 98 53 125 98 53 125 98 53 125 98 53 125 98 53 125 98 53 125 98 53 168 208 217 168 208 217 168 208 217 168 208 217 168 208 217 168 208 217 168 208 217 168 208 217 168 208 217 168 208 217 168 208 217 168 208 217 168 208 217 168 208 217 168 208 217 168 208 217 99 78 38 125 98 53 125 98 53 125 98 53 125 98 53 125 98 53 125 98 53 125 98 53 125 98 53 125 98 53 125 98 53 125 98 53 125 98 53 125 98 53 125 98 53 125 98 53 125 98 53 125 98 53 125 98 53 125 98 53 125 98 53 125 98 53 125 98 53 125 98 53 125 98 53 125 98 53 125 98 53 125 98 53 125 98 53 125 98 53 125 98 53 125 98 53 125 98 53 125 98 53 125 98 53 125 98 53 125 98 53 125 98 53 125 98 53 125 98 53 125 98 53 125 98 53 125 98 53 125 98 53 125 98 53 125 98 53 125 98 53 125 98 53 125 98 53 125 98 53 125 98 53 125 98 53 125 98 53 125 98 53 125 98 53 125 98 53 125 98 53 125 98 53 125 98 53 125 98 53 125 98 53 125 98 53 125 98 53 125 98 53 125 98 53 99 78 38 99 78 38 99 78 38 99 78 38 99 78 38 99 78 38 99 78 38 99 78 38 99 78 38 99 78 38 99 78 38 99 78 38 99 78 38 99 78 38 99 78 38 99 78 38 125 98 53 125 98 53 125 98 53 125 98 53 125 98 53 125 98 53 125 98 53 125 98 53 125 98 53 125 98 53 125 98 53 125 98 53 125 98 53 125 98 53 125 98 53 125 98 53 125 98 53 125 98 53 125 98 53 125 98 53 125 98 53 125 98 53 125 98 53 125 98 53 125 98 53 125 98 53 125 98 53 125 98 53 125 98 53 125 98 53 125 98 53 125 98 53 125 98 53 125 98 53 125 98 53 125 98 53 125 98 53 125 98 53 125 98 53 125 98 53 125 98 53 125 98 53 125 98 53 125 98 53 125 98 53 125 98 53 125 98 53 117 91 51 117 91 51 117 91 51 117 91 51 117 91 51 117 91 51 117 91 51 117 91 51 117 91 51 117 91 51 117 91 51 117 91 51 117 91 51 117 91 51 117 91 51 117 91 51 110 86 44 110 86 44 110 86 44 110 86 44 110 86 44 110 86 44 110 86 44 110 86 44 110 86 44 110 86 44 110 86 44 110 86 44 110 86 44 110 86 44 110 86 44 110 86 44 110 86 44 110 86 44 110 86 44 110 86 44 110 86 44 110 86 44 110 86 44 110 86 44 110 86 44 110 86 44 110 86 44 110 86 44 110 86 44 110 86 44 110 86 44 110 86 44 99 78 38 99 78 38 99 78 38 99 78 38 99 78 38 99 78 38 99 78 38 99 78 38 99 78 38 99 78 38 99 78 38 99 78 38 99 78 38 99 78 38 99 78 38 99 78 38 123 174 183 123 174 183 123 174 183 123 174 183 123 174 183 123 174 183 123 174 183 123 174 183 123 174 183 123 174 183 123 174 183 123 174 183 123 174 183 123 174 183 123 174 183 123 174 183 208 234 233 208 234 233 208 234 233 208 234 233 208 234 233 208 234 233 208 234 233 208 234 233 208 234 233 208 234 233 208 234 233 208 234 233 208 234 233 208 234 233 208 234 233 117 91 51 125 98 53 125 98 53 125 98 53 125 98 53 125 98 53 125 98 53 125 98 53 125 98 53 125 98 53 125 98 53 125 98 53 125 98 53 125 98 53 125 98 53 125 98 53 125 98 53 99 78 38 99 78 38 99 78 38 99 78 38 99 78 38 99 78 38 99 78 38 99 78 38 99 78 38 99 78 38 99 78 38 99 78 38 99 78 38 99 78 38 99 78 38 99 78 38 125 98 53 125 98 53 125 98 53 125 98 53 125 98 53 125 98 53 125 98 53 125 98 53 125 98 53 125 98 53 125 98 53 125 98 53 125 98 53 125 98 53 125 98 53 125 98 53 125 98 53 125 98 53 125 98 53 125 98 53 125 98 53 125 98 53 125 98 53 125 98 53 125 98 53 125 98 53 125 98 53 125 98 53 125 98 53 125 98 53 125 98 53 125 98 53 125 98 53 125 98 53 125 98 53 125 98 53 125 98 53 125 98 53 125 98 53 125 98 53 125 98 53 125 98 53 125 98 53 125 98 53 125 98 53 125 98 53 125 98 53 125 98 53 125 98 53 125 98 53 125 98 53 125 98 53 125 98 53 125 98 53 125 98 53 125 98 53 125 98 53 125 98 53 125 98 53 125 98 53 125 98 53 125 98 53 125 98 53 125 98 53 99 78 38 99 78 38 99 78 38 99 78 38 99 78 38 99 78 38 99 78 38 99 78 38 99 78 38 99 78 38 99 78 38 99 78 38 99 78 38 99 78 38 99 78 38 99 78 38 125 98 53 125 98 53 125 98 53 125 98 53 125 98 53 125 98 53 125 98 53 125 98 53 125 98 53 125 98 53 125 98 53 125 98 53 125 98 53 125 98 53 125 98 53 125 98 53 125 98 53 125 98 53 125 98 53 125 98 53 125 98 53 125 98 53 125 98 53 125 98 53 125 98 53 125 98 53 125 98 53 125 98 53 125 98 53 125 98 53 125 98 53 125 98 53 125 98 53 125 98 53 125 98 53 125 98 53 125 98 53 125 98 53 125 98 53 125 98 53 125 98 53 125 98 53 125 98 53 125 98 53 125 98 53 125 98 53 125 98 53 117 91 51 117 91 51 117 91 51 117 91 51 117 91 51 117 91 51 117 91 51 117 91 51 117 91 51 117 91 51 117 91 51 117 91 51 117 91 51 117 91 51 117 91 51 117 91 51 110 86 44 110 86 44 110 86 44 110 86 44 110 86 44 110 86 44 110 86 44 110 86 44 110 86 44 110 86 44 110 86 44 110 86 44 110 86 44 110 86 44 110 86 44 110 86 44 110 86 44 110 86 44 110 86 44 110 86 44 110 86 44 110 86 44 110 86 44 110 86 44 110 86 44 110 86 44 110 86 44 110 86 44 110 86 44 110 86 44 110 86 44 110 86 44 99 78 38 99 78 38 99 78 38 99 78 38 99 78 38 99 78 38 99 78 38 99 78 38 99 78 38 99 78 38 99 78 38 99 78 38 99 78 38 99 78 38 99 78 38 99 78 38 139 193 205 139 193 205 139 193 205 139 193 205 139 193 205 139 193 205 139 193 205 139 193 205 139 193 205 139 193 205 139 193 205 139 193 205 139 193 205 139 193 205 139 193 205 139 193 205 208 234 233 208 234 233 208 234 233 208 234 233 208 234 233 208 234 233 208 234 233 208 234 233 208 234 233 208 234 233 208 234 233 208 234 233 208 234 233 208 234 233 208 234 233 110 86 44 117 91 51 117 91 51 117 91 51 117 91 51 117 91 51 117 91 51 117 91 51 117 91 51 117 91 51 117 91 51 117 91 51 117 91 51 117 91 51 117 91 51 117 91 51 117 91 51 117 91 51 117 91 51 117 91 51 117 91 51 117 91 51 117 91 51 117 91 51 117 91 51 117 91 51 117 91 51 117 91 51 117 91 51 117 91 51 117 91 51 117 91 51 117 91 51 110 86 44 110 86 44 110 86 44 110 86 44 110 86 44 110 86 44 110 86 44 110 86 44 110 86 44 110 86 44 110 86 44 110 86 44 110 86 44 110 86 44 110 86 44 110 86 44 99 78 38 99 78 38 99 78 38 99 78 38 99 78 38 99 78 38 99 78 38 99 78 38 99 78 38 99 78 38 99 78 38 99 78 38 99 78 38 99 78 38 99 78 38 99 78 38 110 86 44 110 86 44 110 86 44 110 86 44 110 86 44 110 86 44 110 86 44 110 86 44 110 86 44 110 86 44 110 86 44 110 86 44 110 86 44 110 86 44 110 86 44 110 86 44 99 78 38 99 78 38 99 78 38 99 78 38 99 78 38 99 78 38 99 78 38 99 78 38 99 78 38 99 78 38 99 78 38 99 78 38 99 78 38 99 78 38 99 78 38 99 78 38 92 67 29 92 67 29 92 67 29 92 67 29 92 67 29 92 67 29 92 67 29 92 67 29 92 67 29 92 67 29 92 67 29 92 67 29 92 67 29 92 67 29 92 67 29 92 67 29 99 78 38 99 78 38 99 78 38 99 78 38 99 78 38 99 78 38 99 78 38 99 78 38 99 78 38 99 78 38 99 78 38 99 78 38 99 78 38 99 78 38 99 78 38 110 86 44 110 86 44 110 86 44 110 86 44 110 86 44 110 86 44 110 86 44 110 86 44 110 86 44 110 86 44 110 86 44 110 86 44 110 86 44 110 86 44 110 86 44 110 86 44 110 86 44 110 86 44 110 86 44 110 86 44 110 86 44 110 86 44 110 86 44 110 86 44 110 86 44 110 86 44 110 86 44 110 86 44 110 86 44 110 86 44 110 86 44 110 86 44 117 91 51 117 91 51 117 91 51 117 91 51 117 91 51 117 91 51 117 91 51 117 91 51 117 91 51 117 91 51 117 91 51 117 91 51 117 91 51 117 91 51 117 91 51 117 91 51 117 91 51 117 91 51 117 91 51 117 91 51 117 91 51 117 91 51 117 91 51 117 91 51 117 91 51 117 91 51 117 91 51 117 91 51 117 91 51 117 91 51 117 91 51 117 91 51 117 91 51 117 91 51 117 91 51 117 91 51 117 91 51 117 91 51 117 91 51 117 91 51 117 91 51 117 91 51 117 91 51 117 91 51 117 91 51 117 91 51 117 91 51 117 91 51 117 91 51 117 91 51 117 91 51 117 91 51 117 91 51 117 91 51 117 91 51 117 91 51 117 91 51 117 91 51 117 91 51 117 91 51 117 91 51 117 91 51 117 91 51 117 91 51 139 193 205 139 193 205 139 193 205 139 193 205 139 193 205 139 193 205 139 193 205 139 193 205 139 193 205 139 193 205 139 193 205 139 193 205 139 193 205 139 193 205 139 193 205 139 193 205 208 234 233 208 234 233 208 234 233 208 234 233 208 234 233 208 234 233 208 234 233 208 234 233 208 234 233 208 234 233 208 234 233 208 234 233 208 234 233 208 234 233 208 234 233 110 86 44 117 91 51 117 91 51 117 91 51 117 91 51 117 91 51 117 91 51 117 91 51 117 91 51 117 91 51 117 91 51 117 91 51 117 91 51 117 91 51 117 91 51 117 91 51 117 91 51 117 91 51 117 91 51 117 91 51 117 91 51 117 91 51 117 91 51 117 91 51 117 91 51 117 91 51 117 91 51 117 91 51 117 91 51 117 91 51 117 91 51 117 91 51 117 91 51 110 86 44 110 86 44 110 86 44 110 86 44 110 86 44 110 86 44 110 86 44 110 86 44 110 86 44 110 86 44 110 86 44 110 86 44 110 86 44 110 86 44 110 86 44 110 86 44 99 78 38 99 78 38 99 78 38 99 78 38 99 78 38 99 78 38 99 78 38 99 78 38 99 78 38 99 78 38 99 78 38 99 78 38 99 78 38 99 78 38 99 78 38 99 78 38 110 86 44 110 86 44 110 86 44 110 86 44 110 86 44 110 86 44 110 86 44 110 86 44 110 86 44 110 86 44 110 86 44 110 86 44 110 86 44 110 86 44 110 86 44 110 86 44 99 78 38 99 78 38 99 78 38 99 78 38 99 78 38 99 78 38 99 78 38 99 78 38 99 78 38 99 78 38 99 78 38 99 78 38 99 78 38 99 78 38 99 78 38 99 78 38 92 67 29 92 67 29 92 67 29 92 67 29 92 67 29 92 67 29 92 67 29 92 67 29 92 67 29 92 67 29 92 67 29 92 67 29 92 67 29 92 67 29 92 67 29 92 67 29 99 78 38 99 78 38 99 78 38 99 78 38 99 78 38 99 78 38 99 78 38 99 78 38 99 78 38 99 78 38 99 78 38 99 78 38 99 78 38 99 78 38 99 78 38 110 86 44 110 86 44 110 86 44 110 86 44 110 86 44 110 86 44 110 86 44 110 86 44 110 86 44 110 86 44 110 86 44 110 86 44 110 86 44 110 86 44 110 86 44 110 86 44 110 86 44 110 86 44 110 86 44 110 86 44 110 86 44 110 86 44 110 86 44 110 86 44 110 86 44 110 86 44 110 86 44 110 86 44 110 86 44 110 86 44 110 86 44 110 86 44 117 91 51 117 91 51 117 91 51 117 91 51 117 91 51 117 91 51 117 91 51 117 91 51 117 91 51 117 91 51 117 91 51 117 91 51 117 91 51 117 91 51 117 91 51 117 91 51 117 91 51 117 91 51 117 91 51 117 91 51 117 91 51 117 91 51 117 91 51 117 91 51 117 91 51 117 91 51 117 91 51 117 91 51 117 91 51 117 91 51 117 91 51 117 91 51 117 91 51 117 91 51 117 91 51 117 91 51 117 91 51 117 91 51 117 91 51 117 91 51 117 91 51 117 91 51 117 91 51 117 91 51 117 91 51 117 91 51 117 91 51 117 91 51 117 91 51 117 91 51 117 91 51 117 91 51 117 91 51 117 91 51 117 91 51 117 91 51 117 91 51 117 91 51 117 91 51 117 91 51 117 91 51 117 91 51 117 91 51 117 91 51 139 193 205 139 193 205 139 193 205 139 193 205 139 193 205 139 193 205 139 193 205 139 193 205 139 193 205 139 193 205 139 193 205 139 193 205 139 193 205 139 193 205 139 193 205 139 193 205 208 234 233 208 234 233 208 234 233 208 234 233 208 234 233 208 234 233 208 234 233 208 234 233 208 234 233 208 234 233 208 234 233 208 234 233 208 234 233 208 234 233 208 234 233 110 86 44 117 91 51 117 91 51 117 91 51 117 91 51 117 91 51 117 91 51 117 91 51 117 91 51 117 91 51 117 91 51 117 91 51 117 91 51 117 91 51 117 91 51 117 91 51 117 91 51 117 91 51 117 91 51 117 91 51 117 91 51 117 91 51 117 91 51 117 91 51 117 91 51 117 91 51 117 91 51 117 91 51 117 91 51 117 91 51 117 91 51 117 91 51 117 91 51 110 86 44 110 86 44 110 86 44 110 86 44 110 86 44 110 86 44 110 86 44 110 86 44 110 86 44 110 86 44 110 86 44 110 86 44 110 86 44 110 86 44 110 86 44 110 86 44 99 78 38 99 78 38 99 78 38 99 78 38 99 78 38 99 78 38 99 78 38 99 78 38 99 78 38 99 78 38 99 78 38 99 78 38 99 78 38 99 78 38 99 78 38 99 78 38 110 86 44 110 86 44 110 86 44 110 86 44 110 86 44 110 86 44 110 86 44 110 86 44 110 86 44 110 86 44 110 86 44 110 86 44 110 86 44 110 86 44 110 86 44 110 86 44 99 78 38 99 78 38 99 78 38 99 78 38 99 78 38 99 78 38 99 78 38 99 78 38 99 78 38 99 78 38 99 78 38 99 78 38 99 78 38 99 78 38 99 78 38 99 78 38 92 67 29 92 67 29 92 67 29 92 67 29 92 67 29 92 67 29 92 67 29 92 67 29 92 67 29 92 67 29 92 67 29 92 67 29 92 67 29 92 67 29 92 67 29 92 67 29 99 78 38 99 78 38 99 78 38 99 78 38 99 78 38 99 78 38 99 78 38 99 78 38 99 78 38 99 78 38 99 78 38 99 78 38 99 78 38 99 78 38 99 78 38 110 86 44 110 86 44 110 86 44 110 86 44 110 86 44 110 86 44 110 86 44 110 86 44 110 86 44 110 86 44 110 86 44 110 86 44 110 86 44 110 86 44 110 86 44 110 86 44 110 86 44 110 86 44 110 86 44 110 86 44 110 86 44 110 86 44 110 86 44 110 86 44 110 86 44 110 86 44 110 86 44 110 86 44 110 86 44 110 86 44 110 86 44 110 86 44 117 91 51 117 91 51 117 91 51 117 91 51 117 91 51 117 91 51 117 91 51 117 91 51 117 91 51 117 91 51 117 91 51 117 91 51 117 91 51 117 91 51 117 91 51 117 91 51 117 91 51 117 91 51 117 91 51 117 91 51 117 91 51 117 91 51 117 91 51 117 91 51 117 91 51 117 91 51 117 91 51 117 91 51 117 91 51 117 91 51 117 91 51 117 91 51 117 91 51 117 91 51 117 91 51 117 91 51 117 91 51 117 91 51 117 91 51 117 91 51 117 91 51 117 91 51 117 91 51 117 91 51 117 91 51 117 91 51 117 91 51 117 91 51 117 91 51 117 91 51 117 91 51 117 91 51 117 91 51 117 91 51 117 91 51 117 91 51 117 91 51 117 91 51 117 91 51 117 91 51 117 91 51 117 91 51 117 91 51 117 91 51 139 193 205 139 193 205 139 193 205 139 193 205 139 193 205 139 193 205 139 193 205 139 193 205 139 193 205 139 193 205 139 193 205 139 193 205 139 193 205 139 193 205 139 193 205 139 193 205 208 234 233 208 234 233 208 234 233 208 234 233 208 234 233 208 234 233 208 234 233 208 234 233 208 234 233 208 234 233 208 234 233 208 234 233 208 234 233 208 234 233 208 234 233 110 86 44 117 91 51 117 91 51 117 91 51 117 91 51 117 91 51 117 91 51 117 91 51 117 91 51 117 91 51 117 91 51 117 91 51 117 91 51 117 91 51 117 91 51 117 91 51 117 91 51 117 91 51 117 91 51 117 91 51 117 91 51 117 91 51 117 91 51 117 91 51 117 91 51 117 91 51 117 91 51 117 91 51 117 91 51 117 91 51 117 91 51 117 91 51 117 91 51 110 86 44 110 86 44 110 86 44 110 86 44 110 86 44 110 86 44 110 86 44 110 86 44 110 86 44 110 86 44 110 86 44 110 86 44 110 86 44 110 86 44 110 86 44 110 86 44 99 78 38 99 78 38 99 78 38 99 78 38 99 78 38 99 78 38 99 78 38 99 78 38 99 78 38 99 78 38 99 78 38 99 78 38 99 78 38 99 78 38 99 78 38 99 78 38 110 86 44 110 86 44 110 86 44 110 86 44 110 86 44 110 86 44 110 86 44 110 86 44 110 86 44 110 86 44 110 86 44 110 86 44 110 86 44 110 86 44 110 86 44 110 86 44 99 78 38 99 78 38 99 78 38 99 78 38 99 78 38 99 78 38 99 78 38 99 78 38 99 78 38 99 78 38 99 78 38 99 78 38 99 78 38 99 78 38 99 78 38 99 78 38 92 67 29 92 67 29 92 67 29 92 67 29 92 67 29 92 67 29 92 67 29 92 67 29 92 67 29 92 67 29 92 67 29 92 67 29 92 67 29 92 67 29 92 67 29 92 67 29 99 78 38 99 78 38 99 78 38 99 78 38 99 78 38 99 78 38 99 78 38 99 78 38 99 78 38 99 78 38 99 78 38 99 78 38 99 78 38 99 78 38 99 78 38 110 86 44 110 86 44 110 86 44 110 86 44 110 86 44 110 86 44 110 86 44 110 86 44 110 86 44 110 86 44 110 86 44 110 86 44 110 86 44 110 86 44 110 86 44 110 86 44 110 86 44 110 86 44 110 86 44 110 86 44 110 86 44 110 86 44 110 86 44 110 86 44 110 86 44 110 86 44 110 86 44 110 86 44 110 86 44 110 86 44 110 86 44 110 86 44 117 91 51 117 91 51 117 91 51 117 91 51 117 91 51 117 91 51 117 91 51 117 91 51 117 91 51 117 91 51 117 91 51 117 91 51 117 91 51 117 91 51 117 91 51 117 91 51 117 91 51 117 91 51 117 91 51 117 91 51 117 91 51 117 91 51 117 91 51 117 91 51 117 91 51 117 91 51 117 91 51 117 91 51 117 91 51 117 91 51 117 91 51 117 91 51 117 91 51 117 91 51 117 91 51 117 91 51 117 91 51 117 91 51 117 91 51 117 91 51 117 91 51 117 91 51 117 91 51 117 91 51 117 91 51 117 91 51 117 91 51 117 91 51 117 91 51 117 91 51 117 91 51 117 91 51 117 91 51 117 91 51 117 91 51 117 91 51 117 91 51 117 91 51 117 91 51 117 91 51 117 91 51 117 91 51 117 91 51 117 91 51 139 193 205 139 193 205 139 193 205 139 193 205 139 193 205 139 193 205 139 193 205 139 193 205 139 193 205 139 193 205 139 193 205 139 193 205 139 193 205 139 193 205 139 193 205 139 193 205 208 234 233 208 234 233 208 234 233 208 234 233 208 234 233 208 234 233 208 234 233 208 234 233 208 234 233 208 234 233 208 234 233 208 234 233 208 234 233 208 234 233 208 234 233 110 86 44 117 91 51 117 91 51 117 91 51 117 91 51 117 91 51 117 91 51 117 91 51 117 91 51 117 91 51 117 91 51 117 91 51 117 91 51 117 91 51 117 91 51 117 91 51 117 91 51 117 91 51 117 91 51 117 91 51 117 91 51 117 91 51 117 91 51 117 91 51 117 91 51 117 91 51 117 91 51 117 91 51 117 91 51 117 91 51 117 91 51 117 91 51 117 91 51 110 86 44 110 86 44 110 86 44 110 86 44 110 86 44 110 86 44 110 86 44 110 86 44 110 86 44 110 86 44 110 86 44 110 86 44 110 86 44 110 86 44 110 86 44 110 86 44 99 78 38 99 78 38 99 78 38 99 78 38 99 78 38 99 78 38 99 78 38 99 78 38 99 78 38 99 78 38 99 78 38 99 78 38 99 78 38 99 78 38 99 78 38 99 78 38 110 86 44 110 86 44 110 86 44 110 86 44 110 86 44 110 86 44 110 86 44 110 86 44 110 86 44 110 86 44 110 86 44 110 86 44 110 86 44 110 86 44 110 86 44 110 86 44 99 78 38 99 78 38 99 78 38 99 78 38 99 78 38 99 78 38 99 78 38 99 78 38 99 78 38 99 78 38 99 78 38 99 78 38 99 78 38 99 78 38 99 78 38 99 78 38 92 67 29 92 67 29 92 67 29 92 67 29 92 67 29 92 67 29 92 67 29 92 67 29 92 67 29 92 67 29 92 67 29 92 67 29 92 67 29 92 67 29 92 67 29 92 67 29 99 78 38 99 78 38 99 78 38 99 78 38 99 78 38 99 78 38 99 78 38 99 78 38 99 78 38 99 78 38 99 78 38 99 78 38 99 78 38 99 78 38 99 78 38 110 86 44 110 86 44 110 86 44 110 86 44 110 86 44 110 86 44 110 86 44 110 86 44 110 86 44 110 86 44 110 86 44 110 86 44 110 86 44 110 86 44 110 86 44 110 86 44 110 86 44 110 86 44 110 86 44 110 86 44 110 86 44 110 86 44 110 86 44 110 86 44 110 86 44 110 86 44 110 86 44 110 86 44 110 86 44 110 86 44 110 86 44 110 86 44 117 91 51 117 91 51 117 91 51 117 91 51 117 91 51 117 91 51 117 91 51 117 91 51 117 91 51 117 91 51 117 91 51 117 91 51 117 91 51 117 91 51 117 91 51 117 91 51 117 91 51 117 91 51 117 91 51 117 91 51 117 91 51 117 91 51 117 91 51 117 91 51 117 91 51 117 91 51 117 91 51 117 91 51 117 91 51 117 91 51 117 91 51 117 91 51 117 91 51 117 91 51 117 91 51 117 91 51 117 91 51 117 91 51 117 91 51 117 91 51 117 91 51 117 91 51 117 91 51 117 91 51 117 91 51 117 91 51 117 91 51 117 91 51 117 91 51 117 91 51 117 91 51 117 91 51 117 91 51 117 91 51 117 91 51 117 91 51 117 91 51 117 91 51 117 91 51 117 91 51 117 91 51 117 91 51 117 91 51 117 91 51 139 193 205 139 193 205 139 193 205 139 193 205 139 193 205 139 193 205 139 193 205 139 193 205 139 193 205 139 193 205 139 193 205 139 193 205 139 193 205 139 193 205 139 193 205 139 193 205 208 234 233 208 234 233 208 234 233 208 234 233 208 234 233 208 234 233 208 234 233 208 234 233 208 234 233 208 234 233 208 234 233 208 234 233 208 234 233 208 234 233 208 234 233 110 86 44 117 91 51 117 91 51 117 91 51 117 91 51 117 91 51 117 91 51 117 91 51 117 91 51 117 91 51 117 91 51 117 91 51 117 91 51 117 91 51 117 91 51 117 91 51 117 91 51 117 91 51 117 91 51 117 91 51 117 91 51 117 91 51 117 91 51 117 91 51 117 91 51 117 91 51 117 91 51 117 91 51 117 91 51 117 91 51 117 91 51 117 91 51 117 91 51 110 86 44 110 86 44 110 86 44 110 86 44 110 86 44 110 86 44 110 86 44 110 86 44 110 86 44 110 86 44 110 86 44 110 86 44 110 86 44 110 86 44 110 86 44 110 86 44 99 78 38 99 78 38 99 78 38 99 78 38 99 78 38 99 78 38 99 78 38 99 78 38 99 78 38 99 78 38 99 78 38 99 78 38 99 78 38 99 78 38 99 78 38 99 78 38 110 86 44 110 86 44 110 86 44 110 86 44 110 86 44 110 86 44 110 86 44 110 86 44 110 86 44 110 86 44 110 86 44 110 86 44 110 86 44 110 86 44 110 86 44 110 86 44 99 78 38 99 78 38 99 78 38 99 78 38 99 78 38 99 78 38 99 78 38 99 78 38 99 78 38 99 78 38 99 78 38 99 78 38 99 78 38 99 78 38 99 78 38 99 78 38 92 67 29 92 67 29 92 67 29 92 67 29 92 67 29 92 67 29 92 67 29 92 67 29 92 67 29 92 67 29 92 67 29 92 67 29 92 67 29 92 67 29 92 67 29 92 67 29 99 78 38 99 78 38 99 78 38 99 78 38 99 78 38 99 78 38 99 78 38 99 78 38 99 78 38 99 78 38 99 78 38 99 78 38 99 78 38 99 78 38 99 78 38 110 86 44 110 86 44 110 86 44 110 86 44 110 86 44 110 86 44 110 86 44 110 86 44 110 86 44 110 86 44 110 86 44 110 86 44 110 86 44 110 86 44 110 86 44 110 86 44 110 86 44 110 86 44 110 86 44 110 86 44 110 86 44 110 86 44 110 86 44 110 86 44 110 86 44 110 86 44 110 86 44 110 86 44 110 86 44 110 86 44 110 86 44 110 86 44 117 91 51 117 91 51 117 91 51 117 91 51 117 91 51 117 91 51 117 91 51 117 91 51 117 91 51 117 91 51 117 91 51 117 91 51 117 91 51 117 91 51 117 91 51 117 91 51 117 91 51 117 91 51 117 91 51 117 91 51 117 91 51 117 91 51 117 91 51 117 91 51 117 91 51 117 91 51 117 91 51 117 91 51 117 91 51 117 91 51 117 91 51 117 91 51 117 91 51 117 91 51 117 91 51 117 91 51 117 91 51 117 91 51 117 91 51 117 91 51 117 91 51 117 91 51 117 91 51 117 91 51 117 91 51 117 91 51 117 91 51 117 91 51 117 91 51 117 91 51 117 91 51 117 91 51 117 91 51 117 91 51 117 91 51 117 91 51 117 91 51 117 91 51 117 91 51 117 91 51 117 91 51 117 91 51 117 91 51 117 91 51 139 193 205 139 193 205 139 193 205 139 193 205 139 193 205 139 193 205 139 193 205 139 193 205 139 193 205 139 193 205 139 193 205 139 193 205 139 193 205 139 193 205 139 193 205 139 193 205 208 234 233 208 234 233 208 234 233 208 234 233 208 234 233 208 234 233 208 234 233 208 234 233 208 234 233 208 234 233 208 234 233 208 234 233 208 234 233 208 234 233 208 234 233 110 86 44 117 91 51 117 91 51 117 91 51 117 91 51 117 91 51 117 91 51 117 91 51 117 91 51 117 91 51 117 91 51 117 91 51 117 91 51 117 91 51 117 91 51 117 91 51 117 91 51 117 91 51 117 91 51 117 91 51 117 91 51 117 91 51 117 91 51 117 91 51 117 91 51 117 91 51 117 91 51 117 91 51 117 91 51 117 91 51 117 91 51 117 91 51 117 91 51 110 86 44 110 86 44 110 86 44 110 86 44 110 86 44 110 86 44 110 86 44 110 86 44 110 86 44 110 86 44 110 86 44 110 86 44 110 86 44 110 86 44 110 86 44 110 86 44 99 78 38 99 78 38 99 78 38 99 78 38 99 78 38 99 78 38 99 78 38 99 78 38 99 78 38 99 78 38 99 78 38 99 78 38 99 78 38 99 78 38 99 78 38 99 78 38 110 86 44 110 86 44 110 86 44 110 86 44 110 86 44 110 86 44 110 86 44 110 86 44 110 86 44 110 86 44 110 86 44 110 86 44 110 86 44 110 86 44 110 86 44 110 86 44 99 78 38 99 78 38 99 78 38 99 78 38 99 78 38 99 78 38 99 78 38 99 78 38 99 78 38 99 78 38 99 78 38 99 78 38 99 78 38 99 78 38 99 78 38 99 78 38 92 67 29 92 67 29 92 67 29 92 67 29 92 67 29 92 67 29 92 67 29 92 67 29 92 67 29 92 67 29 92 67 29 92 67 29 92 67 29 92 67 29 92 67 29 92 67 29 99 78 38 99 78 38 99 78 38 99 78 38 99 78 38 99 78 38 99 78 38 99 78 38 99 78 38 99 78 38 99 78 38 99 78 38 99 78 38 99 78 38 99 78 38 110 86 44 110 86 44 110 86 44 110 86 44 110 86 44 110 86 44 110 86 44 110 86 44 110 86 44 110 86 44 110 86 44 110 86 44 110 86 44 110 86 44 110 86 44 110 86 44 110 86 44 110 86 44 110 86 44 110 86 44 110 86 44 110 86 44 110 86 44 110 86 44 110 86 44 110 86 44 110 86 44 110 86 44 110 86 44 110 86 44 110 86 44 110 86 44 117 91 51 117 91 51 117 91 51 117 91 51 117 91 51 117 91 51 117 91 51 117 91 51 117 91 51 117 91 51 117 91 51 117 91 51 117 91 51 117 91 51 117 91 51 117 91 51 117 91 51 117 91 51 117 91 51 117 91 51 117 91 51 117 91 51 117 91 51 117 91 51 117 91 51 117 91 51 117 91 51 117 91 51 117 91 51 117 91 51 117 91 51 117 91 51 117 91 51 117 91 51 117 91 51 117 91 51 117 91 51 117 91 51 117 91 51 117 91 51 117 91 51 117 91 51 117 91 51 117 91 51 117 91 51 117 91 51 117 91 51 117 91 51 117 91 51 117 91 51 117 91 51 117 91 51 117 91 51 117 91 51 117 91 51 117 91 51 117 91 51 117 91 51 117 91 51 117 91 51 117 91 51 117 91 51 117 91 51 117 91 51 139 193 205 139 193 205 139 193 205 139 193 205 139 193 205 139 193 205 139 193 205 139 193 205 139 193 205 139 193 205 139 193 205 139 193 205 139 193 205 139 193 205 139 193 205 139 193 205 208 234 233 208 234 233 208 234 233 208 234 233 208 234 233 208 234 233 208 234 233 208 234 233 208 234 233 208 234 233 208 234 233 208 234 233 208 234 233 208 234 233 208 234 233 110 86 44 117 91 51 117 91 51 117 91 51 117 91 51 117 91 51 117 91 51 117 91 51 117 91 51 117 91 51 117 91 51 117 91 51 117 91 51 117 91 51 117 91 51 117 91 51 117 91 51 117 91 51 117 91 51 117 91 51 117 91 51 117 91 51 117 91 51 117 91 51 117 91 51 117 91 51 117 91 51 117 91 51 117 91 51 117 91 51 117 91 51 117 91 51 117 91 51 110 86 44 110 86 44 110 86 44 110 86 44 110 86 44 110 86 44 110 86 44 110 86 44 110 86 44 110 86 44 110 86 44 110 86 44 110 86 44 110 86 44 110 86 44 110 86 44 99 78 38 99 78 38 99 78 38 99 78 38 99 78 38 99 78 38 99 78 38 99 78 38 99 78 38 99 78 38 99 78 38 99 78 38 99 78 38 99 78 38 99 78 38 99 78 38 110 86 44 110 86 44 110 86 44 110 86 44 110 86 44 110 86 44 110 86 44 110 86 44 110 86 44 110 86 44 110 86 44 110 86 44 110 86 44 110 86 44 110 86 44 110 86 44 99 78 38 99 78 38 99 78 38 99 78 38 99 78 38 99 78 38 99 78 38 99 78 38 99 78 38 99 78 38 99 78 38 99 78 38 99 78 38 99 78 38 99 78 38 99 78 38 92 67 29 92 67 29 92 67 29 92 67 29 92 67 29 92 67 29 92 67 29 92 67 29 92 67 29 92 67 29 92 67 29 92 67 29 92 67 29 92 67 29 92 67 29 92 67 29 99 78 38 99 78 38 99 78 38 99 78 38 99 78 38 99 78 38 99 78 38 99 78 38 99 78 38 99 78 38 99 78 38 99 78 38 99 78 38 99 78 38 99 78 38 110 86 44 110 86 44 110 86 44 110 86 44 110 86 44 110 86 44 110 86 44 110 86 44 110 86 44 110 86 44 110 86 44 110 86 44 110 86 44 110 86 44 110 86 44 110 86 44 110 86 44 110 86 44 110 86 44 110 86 44 110 86 44 110 86 44 110 86 44 110 86 44 110 86 44 110 86 44 110 86 44 110 86 44 110 86 44 110 86 44 110 86 44 110 86 44 117 91 51 117 91 51 117 91 51 117 91 51 117 91 51 117 91 51 117 91 51 117 91 51 117 91 51 117 91 51 117 91 51 117 91 51 117 91 51 117 91 51 117 91 51 117 91 51 117 91 51 117 91 51 117 91 51 117 91 51 117 91 51 117 91 51 117 91 51 117 91 51 117 91 51 117 91 51 117 91 51 117 91 51 117 91 51 117 91 51 117 91 51 117 91 51 117 91 51 117 91 51 117 91 51 117 91 51 117 91 51 117 91 51 117 91 51 117 91 51 117 91 51 117 91 51 117 91 51 117 91 51 117 91 51 117 91 51 117 91 51 117 91 51 117 91 51 117 91 51 117 91 51 117 91 51 117 91 51 117 91 51 117 91 51 117 91 51 117 91 51 117 91 51 117 91 51 117 91 51 117 91 51 117 91 51 117 91 51 117 91 51 139 193 205 139 193 205 139 193 205 139 193 205 139 193 205 139 193 205 139 193 205 139 193 205 139 193 205 139 193 205 139 193 205 139 193 205 139 193 205 139 193 205 139 193 205 139 193 205 208 234 233 208 234 233 208 234 233 208 234 233 208 234 233 208 234 233 208 234 233 208 234 233 208 234 233 208 234 233 208 234 233 208 234 233 208 234 233 208 234 233 208 234 233 110 86 44 117 91 51 117 91 51 117 91 51 117 91 51 117 91 51 117 91 51 117 91 51 117 91 51 117 91 51 117 91 51 117 91 51 117 91 51 117 91 51 117 91 51 117 91 51 117 91 51 117 91 51 117 91 51 117 91 51 117 91 51 117 91 51 117 91 51 117 91 51 117 91 51 117 91 51 117 91 51 117 91 51 117 91 51 117 91 51 117 91 51 117 91 51 117 91 51 110 86 44 110 86 44 110 86 44 110 86 44 110 86 44 110 86 44 110 86 44 110 86 44 110 86 44 110 86 44 110 86 44 110 86 44 110 86 44 110 86 44 110 86 44 110 86 44 99 78 38 99 78 38 99 78 38 99 78 38 99 78 38 99 78 38 99 78 38 99 78 38 99 78 38 99 78 38 99 78 38 99 78 38 99 78 38 99 78 38 99 78 38 99 78 38 110 86 44 110 86 44 110 86 44 110 86 44 110 86 44 110 86 44 110 86 44 110 86 44 110 86 44 110 86 44 110 86 44 110 86 44 110 86 44 110 86 44 110 86 44 110 86 44 99 78 38 99 78 38 99 78 38 99 78 38 99 78 38 99 78 38 99 78 38 99 78 38 99 78 38 99 78 38 99 78 38 99 78 38 99 78 38 99 78 38 99 78 38 99 78 38 92 67 29 92 67 29 92 67 29 92 67 29 92 67 29 92 67 29 92 67 29 92 67 29 92 67 29 92 67 29 92 67 29 92 67 29 92 67 29 92 67 29 92 67 29 92 67 29 99 78 38 99 78 38 99 78 38 99 78 38 99 78 38 99 78 38 99 78 38 99 78 38 99 78 38 99 78 38 99 78 38 99 78 38 99 78 38 99 78 38 99 78 38 110 86 44 110 86 44 110 86 44 110 86 44 110 86 44 110 86 44 110 86 44 110 86 44 110 86 44 110 86 44 110 86 44 110 86 44 110 86 44 110 86 44 110 86 44 110 86 44 110 86 44 110 86 44 110 86 44 110 86 44 110 86 44 110 86 44 110 86 44 110 86 44 110 86 44 110 86 44 110 86 44 110 86 44 110 86 44 110 86 44 110 86 44 110 86 44 117 91 51 117 91 51 117 91 51 117 91 51 117 91 51 117 91 51 117 91 51 117 91 51 117 91 51 117 91 51 117 91 51 117 91 51 117 91 51 117 91 51 117 91 51 117 91 51 117 91 51 117 91 51 117 91 51 117 91 51 117 91 51 117 91 51 117 91 51 117 91 51 117 91 51 117 91 51 117 91 51 117 91 51 117 91 51 117 91 51 117 91 51 117 91 51 117 91 51 117 91 51 117 91 51 117 91 51 117 91 51 117 91 51 117 91 51 117 91 51 117 91 51 117 91 51 117 91 51 117 91 51 117 91 51 117 91 51 117 91 51 117 91 51 117 91 51 117 91 51 117 91 51 117 91 51 117 91 51 117 91 51 117 91 51 117 91 51 117 91 51 117 91 51 117 91 51 117 91 51 117 91 51 117 91 51 117 91 51 117 91 51 139 193 205 139 193 205 139 193 205 139 193 205 139 193 205 139 193 205 139 193 205 139 193 205 139 193 205 139 193 205 139 193 205 139 193 205 139 193 205 139 193 205 139 193 205 139 193 205 208 234 233 208 234 233 208 234 233 208 234 233 208 234 233 208 234 233 208 234 233 208 234 233 208 234 233 208 234 233 208 234 233 208 234 233 208 234 233 208 234 233 208 234 233 110 86 44 117 91 51 117 91 51 117 91 51 117 91 51 117 91 51 117 91 51 117 91 51 117 91 51 117 91 51 117 91 51 117 91 51 117 91 51 117 91 51 117 91 51 117 91 51 117 91 51 117 91 51 117 91 51 117 91 51 117 91 51 117 91 51 117 91 51 117 91 51 117 91 51 117 91 51 117 91 51 117 91 51 117 91 51 117 91 51 117 91 51 117 91 51 117 91 51 110 86 44 110 86 44 110 86 44 110 86 44 110 86 44 110 86 44 110 86 44 110 86 44 110 86 44 110 86 44 110 86 44 110 86 44 110 86 44 110 86 44 110 86 44 110 86 44 99 78 38 99 78 38 99 78 38 99 78 38 99 78 38 99 78 38 99 78 38 99 78 38 99 78 38 99 78 38 99 78 38 99 78 38 99 78 38 99 78 38 99 78 38 99 78 38 110 86 44 110 86 44 110 86 44 110 86 44 110 86 44 110 86 44 110 86 44 110 86 44 110 86 44 110 86 44 110 86 44 110 86 44 110 86 44 110 86 44 110 86 44 110 86 44 99 78 38 99 78 38 99 78 38 99 78 38 99 78 38 99 78 38 99 78 38 99 78 38 99 78 38 99 78 38 99 78 38 99 78 38 99 78 38 99 78 38 99 78 38 99 78 38 92 67 29 92 67 29 92 67 29 92 67 29 92 67 29 92 67 29 92 67 29 92 67 29 92 67 29 92 67 29 92 67 29 92 67 29 92 67 29 92 67 29 92 67 29 92 67 29 99 78 38 99 78 38 99 78 38 99 78 38 99 78 38 99 78 38 99 78 38 99 78 38 99 78 38 99 78 38 99 78 38 99 78 38 99 78 38 99 78 38 99 78 38 110 86 44 110 86 44 110 86 44 110 86 44 110 86 44 110 86 44 110 86 44 110 86 44 110 86 44 110 86 44 110 86 44 110 86 44 110 86 44 110 86 44 110 86 44 110 86 44 110 86 44 110 86 44 110 86 44 110 86 44 110 86 44 110 86 44 110 86 44 110 86 44 110 86 44 110 86 44 110 86 44 110 86 44 110 86 44 110 86 44 110 86 44 110 86 44 117 91 51 117 91 51 117 91 51 117 91 51 117 91 51 117 91 51 117 91 51 117 91 51 117 91 51 117 91 51 117 91 51 117 91 51 117 91 51 117 91 51 117 91 51 117 91 51 117 91 51 117 91 51 117 91 51 117 91 51 117 91 51 117 91 51 117 91 51 117 91 51 117 91 51 117 91 51 117 91 51 117 91 51 117 91 51 117 91 51 117 91 51 117 91 51 117 91 51 117 91 51 117 91 51 117 91 51 117 91 51 117 91 51 117 91 51 117 91 51 117 91 51 117 91 51 117 91 51 117 91 51 117 91 51 117 91 51 117 91 51 117 91 51 117 91 51 117 91 51 117 91 51 117 91 51 117 91 51 117 91 51 117 91 51 117 91 51 117 91 51 117 91 51 117 91 51 117 91 51 117 91 51 117 91 51 117 91 51 117 91 51 139 193 205 139 193 205 139 193 205 139 193 205 139 193 205 139 193 205 139 193 205 139 193 205 139 193 205 139 193 205 139 193 205 139 193 205 139 193 205 139 193 205 139 193 205 139 193 205 208 234 233 208 234 233 208 234 233 208 234 233 208 234 233 208 234 233 208 234 233 208 234 233 208 234 233 208 234 233 208 234 233 208 234 233 208 234 233 208 234 233 208 234 233 110 86 44 117 91 51 117 91 51 117 91 51 117 91 51 117 91 51 117 91 51 117 91 51 117 91 51 117 91 51 117 91 51 117 91 51 117 91 51 117 91 51 117 91 51 117 91 51 117 91 51 117 91 51 117 91 51 117 91 51 117 91 51 117 91 51 117 91 51 117 91 51 117 91 51 117 91 51 117 91 51 117 91 51 117 91 51 117 91 51 117 91 51 117 91 51 117 91 51 110 86 44 110 86 44 110 86 44 110 86 44 110 86 44 110 86 44 110 86 44 110 86 44 110 86 44 110 86 44 110 86 44 110 86 44 110 86 44 110 86 44 110 86 44 110 86 44 99 78 38 99 78 38 99 78 38 99 78 38 99 78 38 99 78 38 99 78 38 99 78 38 99 78 38 99 78 38 99 78 38 99 78 38 99 78 38 99 78 38 99 78 38 99 78 38 110 86 44 110 86 44 110 86 44 110 86 44 110 86 44 110 86 44 110 86 44 110 86 44 110 86 44 110 86 44 110 86 44 110 86 44 110 86 44 110 86 44 110 86 44 110 86 44 99 78 38 99 78 38 99 78 38 99 78 38 99 78 38 99 78 38 99 78 38 99 78 38 99 78 38 99 78 38 99 78 38 99 78 38 99 78 38 99 78 38 99 78 38 99 78 38 92 67 29 92 67 29 92 67 29 92 67 29 92 67 29 92 67 29 92 67 29 92 67 29 92 67 29 92 67 29 92 67 29 92 67 29 92 67 29 92 67 29 92 67 29 92 67 29 99 78 38 99 78 38 99 78 38 99 78 38 99 78 38 99 78 38 99 78 38 99 78 38 99 78 38 99 78 38 99 78 38 99 78 38 99 78 38 99 78 38 99 78 38 110 86 44 110 86 44 110 86 44 110 86 44 110 86 44 110 86 44 110 86 44 110 86 44 110 86 44 110 86 44 110 86 44 110 86 44 110 86 44 110 86 44 110 86 44 110 86 44 110 86 44 110 86 44 110 86 44 110 86 44 110 86 44 110 86 44 110 86 44 110 86 44 110 86 44 110 86 44 110 86 44 110 86 44 110 86 44 110 86 44 110 86 44 110 86 44 117 91 51 117 91 51 117 91 51 117 91 51 117 91 51 117 91 51 117 91 51 117 91 51 117 91 51 117 91 51 117 91 51 117 91 51 117 91 51 117 91 51 117 91 51 117 91 51 117 91 51 117 91 51 117 91 51 117 91 51 117 91 51 117 91 51 117 91 51 117 91 51 117 91 51 117 91 51 117 91 51 117 91 51 117 91 51 117 91 51 117 91 51 117 91 51 117 91 51 117 91 51 117 91 51 117 91 51 117 91 51 117 91 51 117 91 51 117 91 51 117 91 51 117 91 51 117 91 51 117 91 51 117 91 51 117 91 51 117 91 51 117 91 51 117 91 51 117 91 51 117 91 51 117 91 51 117 91 51 117 91 51 117 91 51 117 91 51 117 91 51 117 91 51 117 91 51 117 91 51 117 91 51 117 91 51 117 91 51 117 91 51 139 193 205 139 193 205 139 193 205 139 193 205 139 193 205 139 193 205 139 193 205 139 193 205 139 193 205 139 193 205 139 193 205 139 193 205 139 193 205 139 193 205 139 193 205 139 193 205 208 234 233 208 234 233 208 234 233 208 234 233 208 234 233 208 234 233 208 234 233 208 234 233 208 234 233 208 234 233 208 234 233 208 234 233 208 234 233 208 234 233 208 234 233 110 86 44 117 91 51 117 91 51 117 91 51 117 91 51 117 91 51 117 91 51 117 91 51 117 91 51 117 91 51 117 91 51 117 91 51 117 91 51 117 91 51 117 91 51 117 91 51 117 91 51 117 91 51 117 91 51 117 91 51 117 91 51 117 91 51 117 91 51 117 91 51 117 91 51 117 91 51 117 91 51 117 91 51 117 91 51 117 91 51 117 91 51 117 91 51 117 91 51 110 86 44 110 86 44 110 86 44 110 86 44 110 86 44 110 86 44 110 86 44 110 86 44 110 86 44 110 86 44 110 86 44 110 86 44 110 86 44 110 86 44 110 86 44 110 86 44 99 78 38 99 78 38 99 78 38 99 78 38 99 78 38 99 78 38 99 78 38 99 78 38 99 78 38 99 78 38 99 78 38 99 78 38 99 78 38 99 78 38 99 78 38 99 78 38 110 86 44 110 86 44 110 86 44 110 86 44 110 86 44 110 86 44 110 86 44 110 86 44 110 86 44 110 86 44 110 86 44 110 86 44 110 86 44 110 86 44 110 86 44 110 86 44 99 78 38 99 78 38 99 78 38 99 78 38 99 78 38 99 78 38 99 78 38 99 78 38 99 78 38 99 78 38 99 78 38 99 78 38 99 78 38 99 78 38 99 78 38 99 78 38 92 67 29 92 67 29 92 67 29 92 67 29 92 67 29 92 67 29 92 67 29 92 67 29 92 67 29 92 67 29 92 67 29 92 67 29 92 67 29 92 67 29 92 67 29 92 67 29 99 78 38 99 78 38 99 78 38 99 78 38 99 78 38 99 78 38 99 78 38 99 78 38 99 78 38 99 78 38 99 78 38 99 78 38 99 78 38 99 78 38 99 78 38 110 86 44 110 86 44 110 86 44 110 86 44 110 86 44 110 86 44 110 86 44 110 86 44 110 86 44 110 86 44 110 86 44 110 86 44 110 86 44 110 86 44 110 86 44 110 86 44 110 86 44 110 86 44 110 86 44 110 86 44 110 86 44 110 86 44 110 86 44 110 86 44 110 86 44 110 86 44 110 86 44 110 86 44 110 86 44 110 86 44 110 86 44 110 86 44 117 91 51 117 91 51 117 91 51 117 91 51 117 91 51 117 91 51 117 91 51 117 91 51 117 91 51 117 91 51 117 91 51 117 91 51 117 91 51 117 91 51 117 91 51 117 91 51 117 91 51 117 91 51 117 91 51 117 91 51 117 91 51 117 91 51 117 91 51 117 91 51 117 91 51 117 91 51 117 91 51 117 91 51 117 91 51 117 91 51 117 91 51 117 91 51 117 91 51 117 91 51 117 91 51 117 91 51 117 91 51 117 91 51 117 91 51 117 91 51 117 91 51 117 91 51 117 91 51 117 91 51 117 91 51 117 91 51 117 91 51 117 91 51 117 91 51 117 91 51 117 91 51 117 91 51 117 91 51 117 91 51 117 91 51 117 91 51 117 91 51 117 91 51 117 91 51 117 91 51 117 91 51 117 91 51 117 91 51 117 91 51 139 193 205 139 193 205 139 193 205 139 193 205 139 193 205 139 193 205 139 193 205 139 193 205 139 193 205 139 193 205 139 193 205 139 193 205 139 193 205 139 193 205 139 193 205 139 193 205 208 234 233 208 234 233 208 234 233 208 234 233 208 234 233 208 234 233 208 234 233 208 234 233 208 234 233 208 234 233 208 234 233 208 234 233 208 234 233 208 234 233 208 234 233 110 86 44 117 91 51 117 91 51 117 91 51 117 91 51 117 91 51 117 91 51 117 91 51 117 91 51 117 91 51 117 91 51 117 91 51 117 91 51 117 91 51 117 91 51 117 91 51 117 91 51 117 91 51 117 91 51 117 91 51 117 91 51 117 91 51 117 91 51 117 91 51 117 91 51 117 91 51 117 91 51 117 91 51 117 91 51 117 91 51 117 91 51 117 91 51 117 91 51 110 86 44 110 86 44 110 86 44 110 86 44 110 86 44 110 86 44 110 86 44 110 86 44 110 86 44 110 86 44 110 86 44 110 86 44 110 86 44 110 86 44 110 86 44 110 86 44 99 78 38 99 78 38 99 78 38 99 78 38 99 78 38 99 78 38 99 78 38 99 78 38 99 78 38 99 78 38 99 78 38 99 78 38 99 78 38 99 78 38 99 78 38 99 78 38 110 86 44 110 86 44 110 86 44 110 86 44 110 86 44 110 86 44 110 86 44 110 86 44 110 86 44 110 86 44 110 86 44 110 86 44 110 86 44 110 86 44 110 86 44 110 86 44 99 78 38 99 78 38 99 78 38 99 78 38 99 78 38 99 78 38 99 78 38 99 78 38 99 78 38 99 78 38 99 78 38 99 78 38 99 78 38 99 78 38 99 78 38 99 78 38 92 67 29 92 67 29 92 67 29 92 67 29 92 67 29 92 67 29 92 67 29 92 67 29 92 67 29 92 67 29 92 67 29 92 67 29 92 67 29 92 67 29 92 67 29 92 67 29 99 78 38 99 78 38 99 78 38 99 78 38 99 78 38 99 78 38 99 78 38 99 78 38 99 78 38 99 78 38 99 78 38 99 78 38 99 78 38 99 78 38 99 78 38 110 86 44 110 86 44 110 86 44 110 86 44 110 86 44 110 86 44 110 86 44 110 86 44 110 86 44 110 86 44 110 86 44 110 86 44 110 86 44 110 86 44 110 86 44 110 86 44 110 86 44 110 86 44 110 86 44 110 86 44 110 86 44 110 86 44 110 86 44 110 86 44 110 86 44 110 86 44 110 86 44 110 86 44 110 86 44 110 86 44 110 86 44 110 86 44 117 91 51 117 91 51 117 91 51 117 91 51 117 91 51 117 91 51 117 91 51 117 91 51 117 91 51 117 91 51 117 91 51 117 91 51 117 91 51 117 91 51 117 91 51 117 91 51 117 91 51 117 91 51 117 91 51 117 91 51 117 91 51 117 91 51 117 91 51 117 91 51 117 91 51 117 91 51 117 91 51 117 91 51 117 91 51 117 91 51 117 91 51 117 91 51 117 91 51 117 91 51 117 91 51 117 91 51 117 91 51 117 91 51 117 91 51 117 91 51 117 91 51 117 91 51 117 91 51 117 91 51 117 91 51 117 91 51 117 91 51 117 91 51 117 91 51 117 91 51 117 91 51 117 91 51 117 91 51 117 91 51 117 91 51 117 91 51 117 91 51 117 91 51 117 91 51 117 91 51 117 91 51 117 91 51 117 91 51 117 91 51 139 193 205 139 193 205 139 193 205 139 193 205 139 193 205 139 193 205 139 193 205 139 193 205 139 193 205 139 193 205 139 193 205 139 193 205 139 193 205 139 193 205 139 193 205 139 193 205 208 234 233 208 234 233 208 234 233 208 234 233 208 234 233 208 234 233 208 234 233 208 234 233 208 234 233 208 234 233 208 234 233 208 234 233 208 234 233 208 234 233 208 234 233 110 86 44 117 91 51 117 91 51 117 91 51 117 91 51 117 91 51 117 91 51 117 91 51 117 91 51 117 91 51 117 91 51 117 91 51 117 91 51 117 91 51 117 91 51 117 91 51 117 91 51 117 91 51 117 91 51 117 91 51 117 91 51 117 91 51 117 91 51 117 91 51 117 91 51 117 91 51 117 91 51 117 91 51 117 91 51 117 91 51 117 91 51 117 91 51 117 91 51 110 86 44 110 86 44 110 86 44 110 86 44 110 86 44 110 86 44 110 86 44 110 86 44 110 86 44 110 86 44 110 86 44 110 86 44 110 86 44 110 86 44 110 86 44 110 86 44 99 78 38 99 78 38 99 78 38 99 78 38 99 78 38 99 78 38 99 78 38 99 78 38 99 78 38 99 78 38 99 78 38 99 78 38 99 78 38 99 78 38 99 78 38 99 78 38 110 86 44 110 86 44 110 86 44 110 86 44 110 86 44 110 86 44 110 86 44 110 86 44 110 86 44 110 86 44 110 86 44 110 86 44 110 86 44 110 86 44 110 86 44 110 86 44 99 78 38 99 78 38 99 78 38 99 78 38 99 78 38 99 78 38 99 78 38 99 78 38 99 78 38 99 78 38 99 78 38 99 78 38 99 78 38 99 78 38 99 78 38 99 78 38 92 67 29 92 67 29 92 67 29 92 67 29 92 67 29 92 67 29 92 67 29 92 67 29 92 67 29 92 67 29 92 67 29 92 67 29 92 67 29 92 67 29 92 67 29 92 67 29 99 78 38 99 78 38 99 78 38 99 78 38 99 78 38 99 78 38 99 78 38 99 78 38 99 78 38 99 78 38 99 78 38 99 78 38 99 78 38 99 78 38 99 78 38 110 86 44 110 86 44 110 86 44 110 86 44 110 86 44 110 86 44 110 86 44 110 86 44 110 86 44 110 86 44 110 86 44 110 86 44 110 86 44 110 86 44 110 86 44 110 86 44 110 86 44 110 86 44 110 86 44 110 86 44 110 86 44 110 86 44 110 86 44 110 86 44 110 86 44 110 86 44 110 86 44 110 86 44 110 86 44 110 86 44 110 86 44 110 86 44 117 91 51 117 91 51 117 91 51 117 91 51 117 91 51 117 91 51 117 91 51 117 91 51 117 91 51 117 91 51 117 91 51 117 91 51 117 91 51 117 91 51 117 91 51 117 91 51 117 91 51 117 91 51 117 91 51 117 91 51 117 91 51 117 91 51 117 91 51 117 91 51 117 91 51 117 91 51 117 91 51 117 91 51 117 91 51 117 91 51 117 91 51 117 91 51 117 91 51 117 91 51 117 91 51 117 91 51 117 91 51 117 91 51 117 91 51 117 91 51 117 91 51 117 91 51 117 91 51 117 91 51 117 91 51 117 91 51 117 91 51 117 91 51 117 91 51 117 91 51 117 91 51 117 91 51 117 91 51 117 91 51 117 91 51 117 91 51 117 91 51 117 91 51 117 91 51 117 91 51 117 91 51 117 91 51 117 91 51 117 91 51 139 193 205 139 193 205 139 193 205 139 193 205 139 193 205 139 193 205 139 193 205 139 193 205 139 193 205 139 193 205 139 193 205 139 193 205 139 193 205 139 193 205 139 193 205 139 193 205 208 234 233 208 234 233 208 234 233 208 234 233 208 234 233 208 234 233 208 234 233 208 234 233 208 234 233 208 234 233 208 234 233 208 234 233 208 234 233 208 234 233 208 234 233 110 86 44 117 91 51 117 91 51 117 91 51 117 91 51 117 91 51 117 91 51 117 91 51 117 91 51 117 91 51 117 91 51 117 91 51 117 91 51 117 91 51 117 91 51 117 91 51 117 91 51 117 91 51 117 91 51 117 91 51 117 91 51 117 91 51 117 91 51 117 91 51 117 91 51 117 91 51 117 91 51 117 91 51 117 91 51 117 91 51 117 91 51 117 91 51 117 91 51 110 86 44 110 86 44 110 86 44 110 86 44 110 86 44 110 86 44 110 86 44 110 86 44 110 86 44 110 86 44 110 86 44 110 86 44 110 86 44 110 86 44 110 86 44 110 86 44 99 78 38 99 78 38 99 78 38 99 78 38 99 78 38 99 78 38 99 78 38 99 78 38 99 78 38 99 78 38 99 78 38 99 78 38 99 78 38 99 78 38 99 78 38 99 78 38 110 86 44 110 86 44 110 86 44 110 86 44 110 86 44 110 86 44 110 86 44 110 86 44 110 86 44 110 86 44 110 86 44 110 86 44 110 86 44 110 86 44 110 86 44 110 86 44 99 78 38 99 78 38 99 78 38 99 78 38 99 78 38 99 78 38 99 78 38 99 78 38 99 78 38 99 78 38 99 78 38 99 78 38 99 78 38 99 78 38 99 78 38 99 78 38 92 67 29 92 67 29 92 67 29 92 67 29 92 67 29 92 67 29 92 67 29 92 67 29 92 67 29 92 67 29 92 67 29 92 67 29 92 67 29 92 67 29 92 67 29 92 67 29 99 78 38 99 78 38 99 78 38 99 78 38 99 78 38 99 78 38 99 78 38 99 78 38 99 78 38 99 78 38 99 78 38 99 78 38 99 78 38 99 78 38 99 78 38 110 86 44 110 86 44 110 86 44 110 86 44 110 86 44 110 86 44 110 86 44 110 86 44 110 86 44 110 86 44 110 86 44 110 86 44 110 86 44 110 86 44 110 86 44 110 86 44 110 86 44 110 86 44 110 86 44 110 86 44 110 86 44 110 86 44 110 86 44 110 86 44 110 86 44 110 86 44 110 86 44 110 86 44 110 86 44 110 86 44 110 86 44 110 86 44 117 91 51 117 91 51 117 91 51 117 91 51 117 91 51 117 91 51 117 91 51 117 91 51 117 91 51 117 91 51 117 91 51 117 91 51 117 91 51 117 91 51 117 91 51 117 91 51 117 91 51 117 91 51 117 91 51 117 91 51 117 91 51 117 91 51 117 91 51 117 91 51 117 91 51 117 91 51 117 91 51 117 91 51 117 91 51 117 91 51 117 91 51 117 91 51 117 91 51 117 91 51 117 91 51 117 91 51 117 91 51 117 91 51 117 91 51 117 91 51 117 91 51 117 91 51 117 91 51 117 91 51 117 91 51 117 91 51 117 91 51 117 91 51 117 91 51 117 91 51 117 91 51 117 91 51 117 91 51 117 91 51 117 91 51 117 91 51 117 91 51 117 91 51 117 91 51 117 91 51 117 91 51 117 91 51 117 91 51 117 91 51 139 193 205 139 193 205 139 193 205 139 193 205 139 193 205 139 193 205 139 193 205 139 193 205 139 193 205 139 193 205 139 193 205 139 193 205 139 193 205 139 193 205 139 193 205 139 193 205 208 234 233 208 234 233 208 234 233 208 234 233 208 234 233 208 234 233 208 234 233 208 234 233 208 234 233 208 234 233 208 234 233 208 234 233 208 234 233 208 234 233 208 234 233 110 86 44 117 91 51 117 91 51 117 91 51 117 91 51 117 91 51 117 91 51 117 91 51 117 91 51 117 91 51 117 91 51 117 91 51 117 91 51 117 91 51 117 91 51 117 91 51 117 91 51 117 91 51 117 91 51 117 91 51 117 91 51 117 91 51 117 91 51 117 91 51 117 91 51 117 91 51 117 91 51 117 91 51 117 91 51 117 91 51 117 91 51 117 91 51 117 91 51 110 86 44 110 86 44 110 86 44 110 86 44 110 86 44 110 86 44 110 86 44 110 86 44 110 86 44 110 86 44 110 86 44 110 86 44 110 86 44 110 86 44 110 86 44 110 86 44 99 78 38 99 78 38 99 78 38 99 78 38 99 78 38 99 78 38 99 78 38 99 78 38 99 78 38 99 78 38 99 78 38 99 78 38 99 78 38 99 78 38 99 78 38 99 78 38 110 86 44 110 86 44 110 86 44 110 86 44 110 86 44 110 86 44 110 86 44 110 86 44 110 86 44 110 86 44 110 86 44 110 86 44 110 86 44 110 86 44 110 86 44 110 86 44 99 78 38 99 78 38 99 78 38 99 78 38 99 78 38 99 78 38 99 78 38 99 78 38 99 78 38 99 78 38 99 78 38 99 78 38 99 78 38 99 78 38 99 78 38 99 78 38 92 67 29 92 67 29 92 67 29 92 67 29 92 67 29 92 67 29 92 67 29 92 67 29 92 67 29 92 67 29 92 67 29 92 67 29 92 67 29 92 67 29 92 67 29 92 67 29 99 78 38 99 78 38 99 78 38 99 78 38 99 78 38 99 78 38 99 78 38 99 78 38 99 78 38 99 78 38 99 78 38 99 78 38 99 78 38 99 78 38 99 78 38 110 86 44 110 86 44 110 86 44 110 86 44 110 86 44 110 86 44 110 86 44 110 86 44 110 86 44 110 86 44 110 86 44 110 86 44 110 86 44 110 86 44 110 86 44 110 86 44 110 86 44 110 86 44 110 86 44 110 86 44 110 86 44 110 86 44 110 86 44 110 86 44 110 86 44 110 86 44 110 86 44 110 86 44 110 86 44 110 86 44 110 86 44 110 86 44 117 91 51 117 91 51 117 91 51 117 91 51 117 91 51 117 91 51 117 91 51 117 91 51 117 91 51 117 91 51 117 91 51 117 91 51 117 91 51 117 91 51 117 91 51 117 91 51 117 91 51 117 91 51 117 91 51 117 91 51 117 91 51 117 91 51 117 91 51 117 91 51 117 91 51 117 91 51 117 91 51 117 91 51 117 91 51 117 91 51 117 91 51 117 91 51 117 91 51 117 91 51 117 91 51 117 91 51 117 91 51 117 91 51 117 91 51 117 91 51 117 91 51 117 91 51 117 91 51 117 91 51 117 91 51 117 91 51 117 91 51 117 91 51 117 91 51 117 91 51 117 91 51 117 91 51 117 91 51 117 91 51 117 91 51 117 91 51 117 91 51 117 91 51 117 91 51 117 91 51 117 91 51 117 91 51 117 91 51 117 91 51 123 174 183 123 174 183 123 174 183 123 174 183 123 174 183 123 174 183 123 174 183 123 174 183 123 174 183 123 174 183 123 174 183 123 174 183 123 174 183 123 174 183 123 174 183 123 174 183 208 234 233 208 234 233 208 234 233 208 234 233 208 234 233 208 234 233 208 234 233 208 234 233 208 234 233 208 234 233 208 234 233 208 234 233 208 234 233 208 234 233 208 234 233 99 78 38 99 78 38 99 78 38 99 78 38 99 78 38 99 78 38 99 78 38 99 78 38 99 78 38 99 78 38 99 78 38 99 78 38 99 78 38 99 78 38 99 78 38 99 78 38 99 78 38 110 86 44 110 86 44 110 86 44 110 86 44 110 86 44 110 86 44 110 86 44 110 86 44 110 86 44 110 86 44 110 86 44 110 86 44 110 86 44 110 86 44 110 86 44 110 86 44 117 91 51 117 91 51 117 91 51 117 91 51 117 91 51 117 91 51 117 91 51 117 91 51 117 91 51 117 91 51 117 91 51 117 91 51 117 91 51 117 91 51 117 91 51 117 91 51 110 86 44 110 86 44 110 86 44 110 86 44 110 86 44 110 86 44 110 86 44 110 86 44 110 86 44 110 86 44 110 86 44 110 86 44 110 86 44 110 86 44 110 86 44 110 86 44 110 86 44 110 86 44 110 86 44 110 86 44 110 86 44 110 86 44 110 86 44 110 86 44 110 86 44 110 86 44 110 86 44 110 86 44 110 86 44 110 86 44 110 86 44 110 86 44 110 86 44 110 86 44 110 86 44 110 86 44 110 86 44 110 86 44 110 86 44 110 86 44 110 86 44 110 86 44 110 86 44 110 86 44 110 86 44 110 86 44 110 86 44 110 86 44 92 67 29 92 67 29 92 67 29 92 67 29 92 67 29 92 67 29 92 67 29 92 67 29 92 67 29 92 67 29 92 67 29 92 67 29 92 67 29 92 67 29 92 67 29 92 67 29 117 91 51 117 91 51 117 91 51 117 91 51 117 91 51 117 91 51 117 91 51 117 91 51 117 91 51 117 91 51 117 91 51 117 91 51 117 91 51 117 91 51 117 91 51 117 91 51 117 91 51 117 91 51 117 91 51 117 91 51 117 91 51 117 91 51 117 91 51 117 91 51 117 91 51 117 91 51 117 91 51 117 91 51 117 91 51 117 91 51 117 91 51 117 91 51 117 91 51 117 91 51 117 91 51 117 91 51 117 91 51 117 91 51 117 91 51 117 91 51 117 91 51 117 91 51 117 91 51 117 91 51 117 91 51 117 91 51 117 91 51 110 86 44 110 86 44 110 86 44 110 86 44 110 86 44 110 86 44 110 86 44 110 86 44 110 86 44 110 86 44 110 86 44 110 86 44 110 86 44 110 86 44 110 86 44 110 86 44 110 86 44 110 86 44 110 86 44 110 86 44 110 86 44 110 86 44 110 86 44 110 86 44 110 86 44 110 86 44 110 86 44 110 86 44 110 86 44 110 86 44 110 86 44 110 86 44 99 78 38 99 78 38 99 78 38 99 78 38 99 78 38 99 78 38 99 78 38 99 78 38 99 78 38 99 78 38 99 78 38 99 78 38 99 78 38 99 78 38 99 78 38 99 78 38 99 78 38 99 78 38 99 78 38 99 78 38 99 78 38 99 78 38 99 78 38 99 78 38 99 78 38 99 78 38 99 78 38 99 78 38 99 78 38 99 78 38 99 78 38 99 78 38 123 174 183 123 174 183 123 174 183 123 174 183 123 174 183 123 174 183 123 174 183 123 174 183 123 174 183 123 174 183 123 174 183 123 174 183 123 174 183 123 174 183 123 174 183 123 174 183 208 234 233 208 234 233 208 234 233 208 234 233 208 234 233 208 234 233 208 234 233 208 234 233 208 234 233 208 234 233 208 234 233 208 234 233 208 234 233 208 234 233 208 234 233 99 78 38 99 78 38 99 78 38 99 78 38 99 78 38 99 78 38 99 78 38 99 78 38 99 78 38 99 78 38 99 78 38 99 78 38 99 78 38 99 78 38 99 78 38 99 78 38 99 78 38 110 86 44 110 86 44 110 86 44 110 86 44 110 86 44 110 86 44 110 86 44 110 86 44 110 86 44 110 86 44 110 86 44 110 86 44 110 86 44 110 86 44 110 86 44 110 86 44 117 91 51 117 91 51 117 91 51 117 91 51 117 91 51 117 91 51 117 91 51 117 91 51 117 91 51 117 91 51 117 91 51 117 91 51 117 91 51 117 91 51 117 91 51 117 91 51 110 86 44 110 86 44 110 86 44 110 86 44 110 86 44 110 86 44 110 86 44 110 86 44 110 86 44 110 86 44 110 86 44 110 86 44 110 86 44 110 86 44 110 86 44 110 86 44 110 86 44 110 86 44 110 86 44 110 86 44 110 86 44 110 86 44 110 86 44 110 86 44 110 86 44 110 86 44 110 86 44 110 86 44 110 86 44 110 86 44 110 86 44 110 86 44 110 86 44 110 86 44 110 86 44 110 86 44 110 86 44 110 86 44 110 86 44 110 86 44 110 86 44 110 86 44 110 86 44 110 86 44 110 86 44 110 86 44 110 86 44 110 86 44 92 67 29 92 67 29 92 67 29 92 67 29 92 67 29 92 67 29 92 67 29 92 67 29 92 67 29 92 67 29 92 67 29 92 67 29 92 67 29 92 67 29 92 67 29 92 67 29 117 91 51 117 91 51 117 91 51 117 91 51 117 91 51 117 91 51 117 91 51 117 91 51 117 91 51 117 91 51 117 91 51 117 91 51 117 91 51 117 91 51 117 91 51 117 91 51 117 91 51 117 91 51 117 91 51 117 91 51 117 91 51 117 91 51 117 91 51 117 91 51 117 91 51 117 91 51 117 91 51 117 91 51 117 91 51 117 91 51 117 91 51 117 91 51 117 91 51 117 91 51 117 91 51 117 91 51 117 91 51 117 91 51 117 91 51 117 91 51 117 91 51 117 91 51 117 91 51 117 91 51 117 91 51 117 91 51 117 91 51 110 86 44 110 86 44 110 86 44 110 86 44 110 86 44 110 86 44 110 86 44 110 86 44 110 86 44 110 86 44 110 86 44 110 86 44 110 86 44 110 86 44 110 86 44 110 86 44 110 86 44 110 86 44 110 86 44 110 86 44 110 86 44 110 86 44 110 86 44 110 86 44 110 86 44 110 86 44 110 86 44 110 86 44 110 86 44 110 86 44 110 86 44 110 86 44 99 78 38 99 78 38 99 78 38 99 78 38 99 78 38 99 78 38 99 78 38 99 78 38 99 78 38 99 78 38 99 78 38 99 78 38 99 78 38 99 78 38 99 78 38 99 78 38 99 78 38 99 78 38 99 78 38 99 78 38 99 78 38 99 78 38 99 78 38 99 78 38 99 78 38 99 78 38 99 78 38 99 78 38 99 78 38 99 78 38 99 78 38 99 78 38 123 174 183 123 174 183 123 174 183 123 174 183 123 174 183 123 174 183 123 174 183 123 174 183 123 174 183 123 174 183 123 174 183 123 174 183 123 174 183 123 174 183 123 174 183 123 174 183 208 234 233 208 234 233 208 234 233 208 234 233 208 234 233 208 234 233 208 234 233 208 234 233 208 234 233 208 234 233 208 234 233 208 234 233 208 234 233 208 234 233 208 234 233 99 78 38 99 78 38 99 78 38 99 78 38 99 78 38 99 78 38 99 78 38 99 78 38 99 78 38 99 78 38 99 78 38 99 78 38 99 78 38 99 78 38 99 78 38 99 78 38 99 78 38 110 86 44 110 86 44 110 86 44 110 86 44 110 86 44 110 86 44 110 86 44 110 86 44 110 86 44 110 86 44 110 86 44 110 86 44 110 86 44 110 86 44 110 86 44 110 86 44 117 91 51 117 91 51 117 91 51 117 91 51 117 91 51 117 91 51 117 91 51 117 91 51 117 91 51 117 91 51 117 91 51 117 91 51 117 91 51 117 91 51 117 91 51 117 91 51 110 86 44 110 86 44 110 86 44 110 86 44 110 86 44 110 86 44 110 86 44 110 86 44 110 86 44 110 86 44 110 86 44 110 86 44 110 86 44 110 86 44 110 86 44 110 86 44 110 86 44 110 86 44 110 86 44 110 86 44 110 86 44 110 86 44 110 86 44 110 86 44 110 86 44 110 86 44 110 86 44 110 86 44 110 86 44 110 86 44 110 86 44 110 86 44 110 86 44 110 86 44 110 86 44 110 86 44 110 86 44 110 86 44 110 86 44 110 86 44 110 86 44 110 86 44 110 86 44 110 86 44 110 86 44 110 86 44 110 86 44 110 86 44 92 67 29 92 67 29 92 67 29 92 67 29 92 67 29 92 67 29 92 67 29 92 67 29 92 67 29 92 67 29 92 67 29 92 67 29 92 67 29 92 67 29 92 67 29 92 67 29 117 91 51 117 91 51 117 91 51 117 91 51 117 91 51 117 91 51 117 91 51 117 91 51 117 91 51 117 91 51 117 91 51 117 91 51 117 91 51 117 91 51 117 91 51 117 91 51 117 91 51 117 91 51 117 91 51 117 91 51 117 91 51 117 91 51 117 91 51 117 91 51 117 91 51 117 91 51 117 91 51 117 91 51 117 91 51 117 91 51 117 91 51 117 91 51 117 91 51 117 91 51 117 91 51 117 91 51 117 91 51 117 91 51 117 91 51 117 91 51 117 91 51 117 91 51 117 91 51 117 91 51 117 91 51 117 91 51 117 91 51 110 86 44 110 86 44 110 86 44 110 86 44 110 86 44 110 86 44 110 86 44 110 86 44 110 86 44 110 86 44 110 86 44 110 86 44 110 86 44 110 86 44 110 86 44 110 86 44 110 86 44 110 86 44 110 86 44 110 86 44 110 86 44 110 86 44 110 86 44 110 86 44 110 86 44 110 86 44 110 86 44 110 86 44 110 86 44 110 86 44 110 86 44 110 86 44 99 78 38 99 78 38 99 78 38 99 78 38 99 78 38 99 78 38 99 78 38 99 78 38 99 78 38 99 78 38 99 78 38 99 78 38 99 78 38 99 78 38 99 78 38 99 78 38 99 78 38 99 78 38 99 78 38 99 78 38 99 78 38 99 78 38 99 78 38 99 78 38 99 78 38 99 78 38 99 78 38 99 78 38 99 78 38 99 78 38 99 78 38 99 78 38 123 174 183 123 174 183 123 174 183 123 174 183 123 174 183 123 174 183 123 174 183 123 174 183 123 174 183 123 174 183 123 174 183 123 174 183 123 174 183 123 174 183 123 174 183 123 174 183 208 234 233 208 234 233 208 234 233 208 234 233 208 234 233 208 234 233 208 234 233 208 234 233 208 234 233 208 234 233 208 234 233 208 234 233 208 234 233 208 234 233 208 234 233 99 78 38 99 78 38 99 78 38 99 78 38 99 78 38 99 78 38 99 78 38 99 78 38 99 78 38 99 78 38 99 78 38 99 78 38 99 78 38 99 78 38 99 78 38 99 78 38 99 78 38 110 86 44 110 86 44 110 86 44 110 86 44 110 86 44 110 86 44 110 86 44 110 86 44 110 86 44 110 86 44 110 86 44 110 86 44 110 86 44 110 86 44 110 86 44 110 86 44 117 91 51 117 91 51 117 91 51 117 91 51 117 91 51 117 91 51 117 91 51 117 91 51 117 91 51 117 91 51 117 91 51 117 91 51 117 91 51 117 91 51 117 91 51 117 91 51 110 86 44 110 86 44 110 86 44 110 86 44 110 86 44 110 86 44 110 86 44 110 86 44 110 86 44 110 86 44 110 86 44 110 86 44 110 86 44 110 86 44 110 86 44 110 86 44 110 86 44 110 86 44 110 86 44 110 86 44 110 86 44 110 86 44 110 86 44 110 86 44 110 86 44 110 86 44 110 86 44 110 86 44 110 86 44 110 86 44 110 86 44 110 86 44 110 86 44 110 86 44 110 86 44 110 86 44 110 86 44 110 86 44 110 86 44 110 86 44 110 86 44 110 86 44 110 86 44 110 86 44 110 86 44 110 86 44 110 86 44 110 86 44 92 67 29 92 67 29 92 67 29 92 67 29 92 67 29 92 67 29 92 67 29 92 67 29 92 67 29 92 67 29 92 67 29 92 67 29 92 67 29 92 67 29 92 67 29 92 67 29 117 91 51 117 91 51 117 91 51 117 91 51 117 91 51 117 91 51 117 91 51 117 91 51 117 91 51 117 91 51 117 91 51 117 91 51 117 91 51 117 91 51 117 91 51 117 91 51 117 91 51 117 91 51 117 91 51 117 91 51 117 91 51 117 91 51 117 91 51 117 91 51 117 91 51 117 91 51 117 91 51 117 91 51 117 91 51 117 91 51 117 91 51 117 91 51 117 91 51 117 91 51 117 91 51 117 91 51 117 91 51 117 91 51 117 91 51 117 91 51 117 91 51 117 91 51 117 91 51 117 91 51 117 91 51 117 91 51 117 91 51 110 86 44 110 86 44 110 86 44 110 86 44 110 86 44 110 86 44 110 86 44 110 86 44 110 86 44 110 86 44 110 86 44 110 86 44 110 86 44 110 86 44 110 86 44 110 86 44 110 86 44 110 86 44 110 86 44 110 86 44 110 86 44 110 86 44 110 86 44 110 86 44 110 86 44 110 86 44 110 86 44 110 86 44 110 86 44 110 86 44 110 86 44 110 86 44 99 78 38 99 78 38 99 78 38 99 78 38 99 78 38 99 78 38 99 78 38 99 78 38 99 78 38 99 78 38 99 78 38 99 78 38 99 78 38 99 78 38 99 78 38 99 78 38 99 78 38 99 78 38 99 78 38 99 78 38 99 78 38 99 78 38 99 78 38 99 78 38 99 78 38 99 78 38 99 78 38 99 78 38 99 78 38 99 78 38 99 78 38 99 78 38 123 174 183 123 174 183 123 174 183 123 174 183 123 174 183 123 174 183 123 174 183 123 174 183 123 174 183 123 174 183 123 174 183 123 174 183 123 174 183 123 174 183 123 174 183 123 174 183 208 234 233 208 234 233 208 234 233 208 234 233 208 234 233 208 234 233 208 234 233 208 234 233 208 234 233 208 234 233 208 234 233 208 234 233 208 234 233 208 234 233 208 234 233 99 78 38 99 78 38 99 78 38 99 78 38 99 78 38 99 78 38 99 78 38 99 78 38 99 78 38 99 78 38 99 78 38 99 78 38 99 78 38 99 78 38 99 78 38 99 78 38 99 78 38 110 86 44 110 86 44 110 86 44 110 86 44 110 86 44 110 86 44 110 86 44 110 86 44 110 86 44 110 86 44 110 86 44 110 86 44 110 86 44 110 86 44 110 86 44 110 86 44 117 91 51 117 91 51 117 91 51 117 91 51 117 91 51 117 91 51 117 91 51 117 91 51 117 91 51 117 91 51 117 91 51 117 91 51 117 91 51 117 91 51 117 91 51 117 91 51 110 86 44 110 86 44 110 86 44 110 86 44 110 86 44 110 86 44 110 86 44 110 86 44 110 86 44 110 86 44 110 86 44 110 86 44 110 86 44 110 86 44 110 86 44 110 86 44 110 86 44 110 86 44 110 86 44 110 86 44 110 86 44 110 86 44 110 86 44 110 86 44 110 86 44 110 86 44 110 86 44 110 86 44 110 86 44 110 86 44 110 86 44 110 86 44 110 86 44 110 86 44 110 86 44 110 86 44 110 86 44 110 86 44 110 86 44 110 86 44 110 86 44 110 86 44 110 86 44 110 86 44 110 86 44 110 86 44 110 86 44 110 86 44 92 67 29 92 67 29 92 67 29 92 67 29 92 67 29 92 67 29 92 67 29 92 67 29 92 67 29 92 67 29 92 67 29 92 67 29 92 67 29 92 67 29 92 67 29 92 67 29 117 91 51 117 91 51 117 91 51 117 91 51 117 91 51 117 91 51 117 91 51 117 91 51 117 91 51 117 91 51 117 91 51 117 91 51 117 91 51 117 91 51 117 91 51 117 91 51 117 91 51 117 91 51 117 91 51 117 91 51 117 91 51 117 91 51 117 91 51 117 91 51 117 91 51 117 91 51 117 91 51 117 91 51 117 91 51 117 91 51 117 91 51 117 91 51 117 91 51 117 91 51 117 91 51 117 91 51 117 91 51 117 91 51 117 91 51 117 91 51 117 91 51 117 91 51 117 91 51 117 91 51 117 91 51 117 91 51 117 91 51 110 86 44 110 86 44 110 86 44 110 86 44 110 86 44 110 86 44 110 86 44 110 86 44 110 86 44 110 86 44 110 86 44 110 86 44 110 86 44 110 86 44 110 86 44 110 86 44 110 86 44 110 86 44 110 86 44 110 86 44 110 86 44 110 86 44 110 86 44 110 86 44 110 86 44 110 86 44 110 86 44 110 86 44 110 86 44 110 86 44 110 86 44 110 86 44 99 78 38 99 78 38 99 78 38 99 78 38 99 78 38 99 78 38 99 78 38 99 78 38 99 78 38 99 78 38 99 78 38 99 78 38 99 78 38 99 78 38 99 78 38 99 78 38 99 78 38 99 78 38 99 78 38 99 78 38 99 78 38 99 78 38 99 78 38 99 78 38 99 78 38 99 78 38 99 78 38 99 78 38 99 78 38 99 78 38 99 78 38 99 78 38 123 174 183 123 174 183 123 174 183 123 174 183 123 174 183 123 174 183 123 174 183 123 174 183 123 174 183 123 174 183 123 174 183 123 174 183 123 174 183 123 174 183 123 174 183 123 174 183 208 234 233 208 234 233 208 234 233 208 234 233 208 234 233 208 234 233 208 234 233 208 234 233 208 234 233 208 234 233 208 234 233 208 234 233 208 234 233 208 234 233 208 234 233 99 78 38 99 78 38 99 78 38 99 78 38 99 78 38 99 78 38 99 78 38 99 78 38 99 78 38 99 78 38 99 78 38 99 78 38 99 78 38 99 78 38 99 78 38 99 78 38 99 78 38 110 86 44 110 86 44 110 86 44 110 86 44 110 86 44 110 86 44 110 86 44 110 86 44 110 86 44 110 86 44 110 86 44 110 86 44 110 86 44 110 86 44 110 86 44 110 86 44 117 91 51 117 91 51 117 91 51 117 91 51 117 91 51 117 91 51 117 91 51 117 91 51 117 91 51 117 91 51 117 91 51 117 91 51 117 91 51 117 91 51 117 91 51 117 91 51 110 86 44 110 86 44 110 86 44 110 86 44 110 86 44 110 86 44 110 86 44 110 86 44 110 86 44 110 86 44 110 86 44 110 86 44 110 86 44 110 86 44 110 86 44 110 86 44 110 86 44 110 86 44 110 86 44 110 86 44 110 86 44 110 86 44 110 86 44 110 86 44 110 86 44 110 86 44 110 86 44 110 86 44 110 86 44 110 86 44 110 86 44 110 86 44 110 86 44 110 86 44 110 86 44 110 86 44 110 86 44 110 86 44 110 86 44 110 86 44 110 86 44 110 86 44 110 86 44 110 86 44 110 86 44 110 86 44 110 86 44 110 86 44 92 67 29 92 67 29 92 67 29 92 67 29 92 67 29 92 67 29 92 67 29 92 67 29 92 67 29 92 67 29 92 67 29 92 67 29 92 67 29 92 67 29 92 67 29 92 67 29 117 91 51 117 91 51 117 91 51 117 91 51 117 91 51 117 91 51 117 91 51 117 91 51 117 91 51 117 91 51 117 91 51 117 91 51 117 91 51 117 91 51 117 91 51 117 91 51 117 91 51 117 91 51 117 91 51 117 91 51 117 91 51 117 91 51 117 91 51 117 91 51 117 91 51 117 91 51 117 91 51 117 91 51 117 91 51 117 91 51 117 91 51 117 91 51 117 91 51 117 91 51 117 91 51 117 91 51 117 91 51 117 91 51 117 91 51 117 91 51 117 91 51 117 91 51 117 91 51 117 91 51 117 91 51 117 91 51 117 91 51 110 86 44 110 86 44 110 86 44 110 86 44 110 86 44 110 86 44 110 86 44 110 86 44 110 86 44 110 86 44 110 86 44 110 86 44 110 86 44 110 86 44 110 86 44 110 86 44 110 86 44 110 86 44 110 86 44 110 86 44 110 86 44 110 86 44 110 86 44 110 86 44 110 86 44 110 86 44 110 86 44 110 86 44 110 86 44 110 86 44 110 86 44 110 86 44 99 78 38 99 78 38 99 78 38 99 78 38 99 78 38 99 78 38 99 78 38 99 78 38 99 78 38 99 78 38 99 78 38 99 78 38 99 78 38 99 78 38 99 78 38 99 78 38 99 78 38 99 78 38 99 78 38 99 78 38 99 78 38 99 78 38 99 78 38 99 78 38 99 78 38 99 78 38 99 78 38 99 78 38 99 78 38 99 78 38 99 78 38 99 78 38 123 174 183 123 174 183 123 174 183 123 174 183 123 174 183 123 174 183 123 174 183 123 174 183 123 174 183 123 174 183 123 174 183 123 174 183 123 174 183 123 174 183 123 174 183 123 174 183 208 234 233 208 234 233 208 234 233 208 234 233 208 234 233 208 234 233 208 234 233 208 234 233 208 234 233 208 234 233 208 234 233 208 234 233 208 234 233 208 234 233 208 234 233 99 78 38 99 78 38 99 78 38 99 78 38 99 78 38 99 78 38 99 78 38 99 78 38 99 78 38 99 78 38 99 78 38 99 78 38 99 78 38 99 78 38 99 78 38 99 78 38 99 78 38 110 86 44 110 86 44 110 86 44 110 86 44 110 86 44 110 86 44 110 86 44 110 86 44 110 86 44 110 86 44 110 86 44 110 86 44 110 86 44 110 86 44 110 86 44 110 86 44 117 91 51 117 91 51 117 91 51 117 91 51 117 91 51 117 91 51 117 91 51 117 91 51 117 91 51 117 91 51 117 91 51 117 91 51 117 91 51 117 91 51 117 91 51 117 91 51 110 86 44 110 86 44 110 86 44 110 86 44 110 86 44 110 86 44 110 86 44 110 86 44 110 86 44 110 86 44 110 86 44 110 86 44 110 86 44 110 86 44 110 86 44 110 86 44 110 86 44 110 86 44 110 86 44 110 86 44 110 86 44 110 86 44 110 86 44 110 86 44 110 86 44 110 86 44 110 86 44 110 86 44 110 86 44 110 86 44 110 86 44 110 86 44 110 86 44 110 86 44 110 86 44 110 86 44 110 86 44 110 86 44 110 86 44 110 86 44 110 86 44 110 86 44 110 86 44 110 86 44 110 86 44 110 86 44 110 86 44 110 86 44 92 67 29 92 67 29 92 67 29 92 67 29 92 67 29 92 67 29 92 67 29 92 67 29 92 67 29 92 67 29 92 67 29 92 67 29 92 67 29 92 67 29 92 67 29 92 67 29 117 91 51 117 91 51 117 91 51 117 91 51 117 91 51 117 91 51 117 91 51 117 91 51 117 91 51 117 91 51 117 91 51 117 91 51 117 91 51 117 91 51 117 91 51 117 91 51 117 91 51 117 91 51 117 91 51 117 91 51 117 91 51 117 91 51 117 91 51 117 91 51 117 91 51 117 91 51 117 91 51 117 91 51 117 91 51 117 91 51 117 91 51 117 91 51 117 91 51 117 91 51 117 91 51 117 91 51 117 91 51 117 91 51 117 91 51 117 91 51 117 91 51 117 91 51 117 91 51 117 91 51 117 91 51 117 91 51 117 91 51 110 86 44 110 86 44 110 86 44 110 86 44 110 86 44 110 86 44 110 86 44 110 86 44 110 86 44 110 86 44 110 86 44 110 86 44 110 86 44 110 86 44 110 86 44 110 86 44 110 86 44 110 86 44 110 86 44 110 86 44 110 86 44 110 86 44 110 86 44 110 86 44 110 86 44 110 86 44 110 86 44 110 86 44 110 86 44 110 86 44 110 86 44 110 86 44 99 78 38 99 78 38 99 78 38 99 78 38 99 78 38 99 78 38 99 78 38 99 78 38 99 78 38 99 78 38 99 78 38 99 78 38 99 78 38 99 78 38 99 78 38 99 78 38 99 78 38 99 78 38 99 78 38 99 78 38 99 78 38 99 78 38 99 78 38 99 78 38 99 78 38 99 78 38 99 78 38 99 78 38 99 78 38 99 78 38 99 78 38 99 78 38 123 174 183 123 174 183 123 174 183 123 174 183 123 174 183 123 174 183 123 174 183 123 174 183 123 174 183 123 174 183 123 174 183 123 174 183 123 174 183 123 174 183 123 174 183 123 174 183 208 234 233 208 234 233 208 234 233 208 234 233 208 234 233 208 234 233 208 234 233 208 234 233 208 234 233 208 234 233 208 234 233 208 234 233 208 234 233 208 234 233 208 234 233 99 78 38 99 78 38 99 78 38 99 78 38 99 78 38 99 78 38 99 78 38 99 78 38 99 78 38 99 78 38 99 78 38 99 78 38 99 78 38 99 78 38 99 78 38 99 78 38 99 78 38 110 86 44 110 86 44 110 86 44 110 86 44 110 86 44 110 86 44 110 86 44 110 86 44 110 86 44 110 86 44 110 86 44 110 86 44 110 86 44 110 86 44 110 86 44 110 86 44 117 91 51 117 91 51 117 91 51 117 91 51 117 91 51 117 91 51 117 91 51 117 91 51 117 91 51 117 91 51 117 91 51 117 91 51 117 91 51 117 91 51 117 91 51 117 91 51 110 86 44 110 86 44 110 86 44 110 86 44 110 86 44 110 86 44 110 86 44 110 86 44 110 86 44 110 86 44 110 86 44 110 86 44 110 86 44 110 86 44 110 86 44 110 86 44 110 86 44 110 86 44 110 86 44 110 86 44 110 86 44 110 86 44 110 86 44 110 86 44 110 86 44 110 86 44 110 86 44 110 86 44 110 86 44 110 86 44 110 86 44 110 86 44 110 86 44 110 86 44 110 86 44 110 86 44 110 86 44 110 86 44 110 86 44 110 86 44 110 86 44 110 86 44 110 86 44 110 86 44 110 86 44 110 86 44 110 86 44 110 86 44 92 67 29 92 67 29 92 67 29 92 67 29 92 67 29 92 67 29 92 67 29 92 67 29 92 67 29 92 67 29 92 67 29 92 67 29 92 67 29 92 67 29 92 67 29 92 67 29 117 91 51 117 91 51 117 91 51 117 91 51 117 91 51 117 91 51 117 91 51 117 91 51 117 91 51 117 91 51 117 91 51 117 91 51 117 91 51 117 91 51 117 91 51 117 91 51 117 91 51 117 91 51 117 91 51 117 91 51 117 91 51 117 91 51 117 91 51 117 91 51 117 91 51 117 91 51 117 91 51 117 91 51 117 91 51 117 91 51 117 91 51 117 91 51 117 91 51 117 91 51 117 91 51 117 91 51 117 91 51 117 91 51 117 91 51 117 91 51 117 91 51 117 91 51 117 91 51 117 91 51 117 91 51 117 91 51 117 91 51 110 86 44 110 86 44 110 86 44 110 86 44 110 86 44 110 86 44 110 86 44 110 86 44 110 86 44 110 86 44 110 86 44 110 86 44 110 86 44 110 86 44 110 86 44 110 86 44 110 86 44 110 86 44 110 86 44 110 86 44 110 86 44 110 86 44 110 86 44 110 86 44 110 86 44 110 86 44 110 86 44 110 86 44 110 86 44 110 86 44 110 86 44 110 86 44 99 78 38 99 78 38 99 78 38 99 78 38 99 78 38 99 78 38 99 78 38 99 78 38 99 78 38 99 78 38 99 78 38 99 78 38 99 78 38 99 78 38 99 78 38 99 78 38 99 78 38 99 78 38 99 78 38 99 78 38 99 78 38 99 78 38 99 78 38 99 78 38 99 78 38 99 78 38 99 78 38 99 78 38 99 78 38 99 78 38 99 78 38 99 78 38 123 174 183 123 174 183 123 174 183 123 174 183 123 174 183 123 174 183 123 174 183 123 174 183 123 174 183 123 174 183 123 174 183 123 174 183 123 174 183 123 174 183 123 174 183 123 174 183 208 234 233 208 234 233 208 234 233 208 234 233 208 234 233 208 234 233 208 234 233 208 234 233 208 234 233 208 234 233 208 234 233 208 234 233 208 234 233 208 234 233 208 234 233 99 78 38 99 78 38 99 78 38 99 78 38 99 78 38 99 78 38 99 78 38 99 78 38 99 78 38 99 78 38 99 78 38 99 78 38 99 78 38 99 78 38 99 78 38 99 78 38 99 78 38 110 86 44 110 86 44 110 86 44 110 86 44 110 86 44 110 86 44 110 86 44 110 86 44 110 86 44 110 86 44 110 86 44 110 86 44 110 86 44 110 86 44 110 86 44 110 86 44 117 91 51 117 91 51 117 91 51 117 91 51 117 91 51 117 91 51 117 91 51 117 91 51 117 91 51 117 91 51 117 91 51 117 91 51 117 91 51 117 91 51 117 91 51 117 91 51 110 86 44 110 86 44 110 86 44 110 86 44 110 86 44 110 86 44 110 86 44 110 86 44 110 86 44 110 86 44 110 86 44 110 86 44 110 86 44 110 86 44 110 86 44 110 86 44 110 86 44 110 86 44 110 86 44 110 86 44 110 86 44 110 86 44 110 86 44 110 86 44 110 86 44 110 86 44 110 86 44 110 86 44 110 86 44 110 86 44 110 86 44 110 86 44 110 86 44 110 86 44 110 86 44 110 86 44 110 86 44 110 86 44 110 86 44 110 86 44 110 86 44 110 86 44 110 86 44 110 86 44 110 86 44 110 86 44 110 86 44 110 86 44 92 67 29 92 67 29 92 67 29 92 67 29 92 67 29 92 67 29 92 67 29 92 67 29 92 67 29 92 67 29 92 67 29 92 67 29 92 67 29 92 67 29 92 67 29 92 67 29 117 91 51 117 91 51 117 91 51 117 91 51 117 91 51 117 91 51 117 91 51 117 91 51 117 91 51 117 91 51 117 91 51 117 91 51 117 91 51 117 91 51 117 91 51 117 91 51 117 91 51 117 91 51 117 91 51 117 91 51 117 91 51 117 91 51 117 91 51 117 91 51 117 91 51 117 91 51 117 91 51 117 91 51 117 91 51 117 91 51 117 91 51 117 91 51 117 91 51 117 91 51 117 91 51 117 91 51 117 91 51 117 91 51 117 91 51 117 91 51 117 91 51 117 91 51 117 91 51 117 91 51 117 91 51 117 91 51 117 91 51 110 86 44 110 86 44 110 86 44 110 86 44 110 86 44 110 86 44 110 86 44 110 86 44 110 86 44 110 86 44 110 86 44 110 86 44 110 86 44 110 86 44 110 86 44 110 86 44 110 86 44 110 86 44 110 86 44 110 86 44 110 86 44 110 86 44 110 86 44 110 86 44 110 86 44 110 86 44 110 86 44 110 86 44 110 86 44 110 86 44 110 86 44 110 86 44 99 78 38 99 78 38 99 78 38 99 78 38 99 78 38 99 78 38 99 78 38 99 78 38 99 78 38 99 78 38 99 78 38 99 78 38 99 78 38 99 78 38 99 78 38 99 78 38 99 78 38 99 78 38 99 78 38 99 78 38 99 78 38 99 78 38 99 78 38 99 78 38 99 78 38 99 78 38 99 78 38 99 78 38 99 78 38 99 78 38 99 78 38 99 78 38 123 174 183 123 174 183 123 174 183 123 174 183 123 174 183 123 174 183 123 174 183 123 174 183 123 174 183 123 174 183 123 174 183 123 174 183 123 174 183 123 174 183 123 174 183 123 174 183 208 234 233 208 234 233 208 234 233 208 234 233 208 234 233 208 234 233 208 234 233 208 234 233 208 234 233 208 234 233 208 234 233 208 234 233 208 234 233 208 234 233 208 234 233 99 78 38 99 78 38 99 78 38 99 78 38 99 78 38 99 78 38 99 78 38 99 78 38 99 78 38 99 78 38 99 78 38 99 78 38 99 78 38 99 78 38 99 78 38 99 78 38 99 78 38 110 86 44 110 86 44 110 86 44 110 86 44 110 86 44 110 86 44 110 86 44 110 86 44 110 86 44 110 86 44 110 86 44 110 86 44 110 86 44 110 86 44 110 86 44 110 86 44 117 91 51 117 91 51 117 91 51 117 91 51 117 91 51 117 91 51 117 91 51 117 91 51 117 91 51 117 91 51 117 91 51 117 91 51 117 91 51 117 91 51 117 91 51 117 91 51 110 86 44 110 86 44 110 86 44 110 86 44 110 86 44 110 86 44 110 86 44 110 86 44 110 86 44 110 86 44 110 86 44 110 86 44 110 86 44 110 86 44 110 86 44 110 86 44 110 86 44 110 86 44 110 86 44 110 86 44 110 86 44 110 86 44 110 86 44 110 86 44 110 86 44 110 86 44 110 86 44 110 86 44 110 86 44 110 86 44 110 86 44 110 86 44 110 86 44 110 86 44 110 86 44 110 86 44 110 86 44 110 86 44 110 86 44 110 86 44 110 86 44 110 86 44 110 86 44 110 86 44 110 86 44 110 86 44 110 86 44 110 86 44 92 67 29 92 67 29 92 67 29 92 67 29 92 67 29 92 67 29 92 67 29 92 67 29 92 67 29 92 67 29 92 67 29 92 67 29 92 67 29 92 67 29 92 67 29 92 67 29 117 91 51 117 91 51 117 91 51 117 91 51 117 91 51 117 91 51 117 91 51 117 91 51 117 91 51 117 91 51 117 91 51 117 91 51 117 91 51 117 91 51 117 91 51 117 91 51 117 91 51 117 91 51 117 91 51 117 91 51 117 91 51 117 91 51 117 91 51 117 91 51 117 91 51 117 91 51 117 91 51 117 91 51 117 91 51 117 91 51 117 91 51 117 91 51 117 91 51 117 91 51 117 91 51 117 91 51 117 91 51 117 91 51 117 91 51 117 91 51 117 91 51 117 91 51 117 91 51 117 91 51 117 91 51 117 91 51 117 91 51 110 86 44 110 86 44 110 86 44 110 86 44 110 86 44 110 86 44 110 86 44 110 86 44 110 86 44 110 86 44 110 86 44 110 86 44 110 86 44 110 86 44 110 86 44 110 86 44 110 86 44 110 86 44 110 86 44 110 86 44 110 86 44 110 86 44 110 86 44 110 86 44 110 86 44 110 86 44 110 86 44 110 86 44 110 86 44 110 86 44 110 86 44 110 86 44 99 78 38 99 78 38 99 78 38 99 78 38 99 78 38 99 78 38 99 78 38 99 78 38 99 78 38 99 78 38 99 78 38 99 78 38 99 78 38 99 78 38 99 78 38 99 78 38 99 78 38 99 78 38 99 78 38 99 78 38 99 78 38 99 78 38 99 78 38 99 78 38 99 78 38 99 78 38 99 78 38 99 78 38 99 78 38 99 78 38 99 78 38 99 78 38 123 174 183 123 174 183 123 174 183 123 174 183 123 174 183 123 174 183 123 174 183 123 174 183 123 174 183 123 174 183 123 174 183 123 174 183 123 174 183 123 174 183 123 174 183 123 174 183 208 234 233 208 234 233 208 234 233 208 234 233 208 234 233 208 234 233 208 234 233 208 234 233 208 234 233 208 234 233 208 234 233 208 234 233 208 234 233 208 234 233 208 234 233 99 78 38 99 78 38 99 78 38 99 78 38 99 78 38 99 78 38 99 78 38 99 78 38 99 78 38 99 78 38 99 78 38 99 78 38 99 78 38 99 78 38 99 78 38 99 78 38 99 78 38 110 86 44 110 86 44 110 86 44 110 86 44 110 86 44 110 86 44 110 86 44 110 86 44 110 86 44 110 86 44 110 86 44 110 86 44 110 86 44 110 86 44 110 86 44 110 86 44 117 91 51 117 91 51 117 91 51 117 91 51 117 91 51 117 91 51 117 91 51 117 91 51 117 91 51 117 91 51 117 91 51 117 91 51 117 91 51 117 91 51 117 91 51 117 91 51 110 86 44 110 86 44 110 86 44 110 86 44 110 86 44 110 86 44 110 86 44 110 86 44 110 86 44 110 86 44 110 86 44 110 86 44 110 86 44 110 86 44 110 86 44 110 86 44 110 86 44 110 86 44 110 86 44 110 86 44 110 86 44 110 86 44 110 86 44 110 86 44 110 86 44 110 86 44 110 86 44 110 86 44 110 86 44 110 86 44 110 86 44 110 86 44 110 86 44 110 86 44 110 86 44 110 86 44 110 86 44 110 86 44 110 86 44 110 86 44 110 86 44 110 86 44 110 86 44 110 86 44 110 86 44 110 86 44 110 86 44 110 86 44 92 67 29 92 67 29 92 67 29 92 67 29 92 67 29 92 67 29 92 67 29 92 67 29 92 67 29 92 67 29 92 67 29 92 67 29 92 67 29 92 67 29 92 67 29 92 67 29 117 91 51 117 91 51 117 91 51 117 91 51 117 91 51 117 91 51 117 91 51 117 91 51 117 91 51 117 91 51 117 91 51 117 91 51 117 91 51 117 91 51 117 91 51 117 91 51 117 91 51 117 91 51 117 91 51 117 91 51 117 91 51 117 91 51 117 91 51 117 91 51 117 91 51 117 91 51 117 91 51 117 91 51 117 91 51 117 91 51 117 91 51 117 91 51 117 91 51 117 91 51 117 91 51 117 91 51 117 91 51 117 91 51 117 91 51 117 91 51 117 91 51 117 91 51 117 91 51 117 91 51 117 91 51 117 91 51 117 91 51 110 86 44 110 86 44 110 86 44 110 86 44 110 86 44 110 86 44 110 86 44 110 86 44 110 86 44 110 86 44 110 86 44 110 86 44 110 86 44 110 86 44 110 86 44 110 86 44 110 86 44 110 86 44 110 86 44 110 86 44 110 86 44 110 86 44 110 86 44 110 86 44 110 86 44 110 86 44 110 86 44 110 86 44 110 86 44 110 86 44 110 86 44 110 86 44 99 78 38 99 78 38 99 78 38 99 78 38 99 78 38 99 78 38 99 78 38 99 78 38 99 78 38 99 78 38 99 78 38 99 78 38 99 78 38 99 78 38 99 78 38 99 78 38 99 78 38 99 78 38 99 78 38 99 78 38 99 78 38 99 78 38 99 78 38 99 78 38 99 78 38 99 78 38 99 78 38 99 78 38 99 78 38 99 78 38 99 78 38 99 78 38 123 174 183 123 174 183 123 174 183 123 174 183 123 174 183 123 174 183 123 174 183 123 174 183 123 174 183 123 174 183 123 174 183 123 174 183 123 174 183 123 174 183 123 174 183 123 174 183 208 234 233 208 234 233 208 234 233 208 234 233 208 234 233 208 234 233 208 234 233 208 234 233 208 234 233 208 234 233 208 234 233 208 234 233 208 234 233 208 234 233 208 234 233 99 78 38 99 78 38 99 78 38 99 78 38 99 78 38 99 78 38 99 78 38 99 78 38 99 78 38 99 78 38 99 78 38 99 78 38 99 78 38 99 78 38 99 78 38 99 78 38 99 78 38 110 86 44 110 86 44 110 86 44 110 86 44 110 86 44 110 86 44 110 86 44 110 86 44 110 86 44 110 86 44 110 86 44 110 86 44 110 86 44 110 86 44 110 86 44 110 86 44 117 91 51 117 91 51 117 91 51 117 91 51 117 91 51 117 91 51 117 91 51 117 91 51 117 91 51 117 91 51 117 91 51 117 91 51 117 91 51 117 91 51 117 91 51 117 91 51 110 86 44 110 86 44 110 86 44 110 86 44 110 86 44 110 86 44 110 86 44 110 86 44 110 86 44 110 86 44 110 86 44 110 86 44 110 86 44 110 86 44 110 86 44 110 86 44 110 86 44 110 86 44 110 86 44 110 86 44 110 86 44 110 86 44 110 86 44 110 86 44 110 86 44 110 86 44 110 86 44 110 86 44 110 86 44 110 86 44 110 86 44 110 86 44 110 86 44 110 86 44 110 86 44 110 86 44 110 86 44 110 86 44 110 86 44 110 86 44 110 86 44 110 86 44 110 86 44 110 86 44 110 86 44 110 86 44 110 86 44 110 86 44 92 67 29 92 67 29 92 67 29 92 67 29 92 67 29 92 67 29 92 67 29 92 67 29 92 67 29 92 67 29 92 67 29 92 67 29 92 67 29 92 67 29 92 67 29 92 67 29 117 91 51 117 91 51 117 91 51 117 91 51 117 91 51 117 91 51 117 91 51 117 91 51 117 91 51 117 91 51 117 91 51 117 91 51 117 91 51 117 91 51 117 91 51 117 91 51 117 91 51 117 91 51 117 91 51 117 91 51 117 91 51 117 91 51 117 91 51 117 91 51 117 91 51 117 91 51 117 91 51 117 91 51 117 91 51 117 91 51 117 91 51 117 91 51 117 91 51 117 91 51 117 91 51 117 91 51 117 91 51 117 91 51 117 91 51 117 91 51 117 91 51 117 91 51 117 91 51 117 91 51 117 91 51 117 91 51 117 91 51 110 86 44 110 86 44 110 86 44 110 86 44 110 86 44 110 86 44 110 86 44 110 86 44 110 86 44 110 86 44 110 86 44 110 86 44 110 86 44 110 86 44 110 86 44 110 86 44 110 86 44 110 86 44 110 86 44 110 86 44 110 86 44 110 86 44 110 86 44 110 86 44 110 86 44 110 86 44 110 86 44 110 86 44 110 86 44 110 86 44 110 86 44 110 86 44 99 78 38 99 78 38 99 78 38 99 78 38 99 78 38 99 78 38 99 78 38 99 78 38 99 78 38 99 78 38 99 78 38 99 78 38 99 78 38 99 78 38 99 78 38 99 78 38 99 78 38 99 78 38 99 78 38 99 78 38 99 78 38 99 78 38 99 78 38 99 78 38 99 78 38 99 78 38 99 78 38 99 78 38 99 78 38 99 78 38 99 78 38 99 78 38 123 174 183 123 174 183 123 174 183 123 174 183 123 174 183 123 174 183 123 174 183 123 174 183 123 174 183 123 174 183 123 174 183 123 174 183 123 174 183 123 174 183 123 174 183 123 174 183 208 234 233 208 234 233 208 234 233 208 234 233 208 234 233 208 234 233 208 234 233 208 234 233 208 234 233 208 234 233 208 234 233 208 234 233 208 234 233 208 234 233 208 234 233 99 78 38 99 78 38 99 78 38 99 78 38 99 78 38 99 78 38 99 78 38 99 78 38 99 78 38 99 78 38 99 78 38 99 78 38 99 78 38 99 78 38 99 78 38 99 78 38 99 78 38 110 86 44 110 86 44 110 86 44 110 86 44 110 86 44 110 86 44 110 86 44 110 86 44 110 86 44 110 86 44 110 86 44 110 86 44 110 86 44 110 86 44 110 86 44 110 86 44 117 91 51 117 91 51 117 91 51 117 91 51 117 91 51 117 91 51 117 91 51 117 91 51 117 91 51 117 91 51 117 91 51 117 91 51 117 91 51 117 91 51 117 91 51 117 91 51 110 86 44 110 86 44 110 86 44 110 86 44 110 86 44 110 86 44 110 86 44 110 86 44 110 86 44 110 86 44 110 86 44 110 86 44 110 86 44 110 86 44 110 86 44 110 86 44 110 86 44 110 86 44 110 86 44 110 86 44 110 86 44 110 86 44 110 86 44 110 86 44 110 86 44 110 86 44 110 86 44 110 86 44 110 86 44 110 86 44 110 86 44 110 86 44 110 86 44 110 86 44 110 86 44 110 86 44 110 86 44 110 86 44 110 86 44 110 86 44 110 86 44 110 86 44 110 86 44 110 86 44 110 86 44 110 86 44 110 86 44 110 86 44 92 67 29 92 67 29 92 67 29 92 67 29 92 67 29 92 67 29 92 67 29 92 67 29 92 67 29 92 67 29 92 67 29 92 67 29 92 67 29 92 67 29 92 67 29 92 67 29 117 91 51 117 91 51 117 91 51 117 91 51 117 91 51 117 91 51 117 91 51 117 91 51 117 91 51 117 91 51 117 91 51 117 91 51 117 91 51 117 91 51 117 91 51 117 91 51 117 91 51 117 91 51 117 91 51 117 91 51 117 91 51 117 91 51 117 91 51 117 91 51 117 91 51 117 91 51 117 91 51 117 91 51 117 91 51 117 91 51 117 91 51 117 91 51 117 91 51 117 91 51 117 91 51 117 91 51 117 91 51 117 91 51 117 91 51 117 91 51 117 91 51 117 91 51 117 91 51 117 91 51 117 91 51 117 91 51 117 91 51 110 86 44 110 86 44 110 86 44 110 86 44 110 86 44 110 86 44 110 86 44 110 86 44 110 86 44 110 86 44 110 86 44 110 86 44 110 86 44 110 86 44 110 86 44 110 86 44 110 86 44 110 86 44 110 86 44 110 86 44 110 86 44 110 86 44 110 86 44 110 86 44 110 86 44 110 86 44 110 86 44 110 86 44 110 86 44 110 86 44 110 86 44 110 86 44 99 78 38 99 78 38 99 78 38 99 78 38 99 78 38 99 78 38 99 78 38 99 78 38 99 78 38 99 78 38 99 78 38 99 78 38 99 78 38 99 78 38 99 78 38 99 78 38 99 78 38 99 78 38 99 78 38 99 78 38 99 78 38 99 78 38 99 78 38 99 78 38 99 78 38 99 78 38 99 78 38 99 78 38 99 78 38 99 78 38 99 78 38 99 78 38 123 174 183 123 174 183 123 174 183 123 174 183 123 174 183 123 174 183 123 174 183 123 174 183 123 174 183 123 174 183 123 174 183 123 174 183 123 174 183 123 174 183 123 174 183 123 174 183 208 234 233 208 234 233 208 234 233 208 234 233 208 234 233 208 234 233 208 234 233 208 234 233 208 234 233 208 234 233 208 234 233 208 234 233 208 234 233 208 234 233 208 234 233 99 78 38 99 78 38 99 78 38 99 78 38 99 78 38 99 78 38 99 78 38 99 78 38 99 78 38 99 78 38 99 78 38 99 78 38 99 78 38 99 78 38 99 78 38 99 78 38 99 78 38 110 86 44 110 86 44 110 86 44 110 86 44 110 86 44 110 86 44 110 86 44 110 86 44 110 86 44 110 86 44 110 86 44 110 86 44 110 86 44 110 86 44 110 86 44 110 86 44 117 91 51 117 91 51 117 91 51 117 91 51 117 91 51 117 91 51 117 91 51 117 91 51 117 91 51 117 91 51 117 91 51 117 91 51 117 91 51 117 91 51 117 91 51 117 91 51 110 86 44 110 86 44 110 86 44 110 86 44 110 86 44 110 86 44 110 86 44 110 86 44 110 86 44 110 86 44 110 86 44 110 86 44 110 86 44 110 86 44 110 86 44 110 86 44 110 86 44 110 86 44 110 86 44 110 86 44 110 86 44 110 86 44 110 86 44 110 86 44 110 86 44 110 86 44 110 86 44 110 86 44 110 86 44 110 86 44 110 86 44 110 86 44 110 86 44 110 86 44 110 86 44 110 86 44 110 86 44 110 86 44 110 86 44 110 86 44 110 86 44 110 86 44 110 86 44 110 86 44 110 86 44 110 86 44 110 86 44 110 86 44 92 67 29 92 67 29 92 67 29 92 67 29 92 67 29 92 67 29 92 67 29 92 67 29 92 67 29 92 67 29 92 67 29 92 67 29 92 67 29 92 67 29 92 67 29 92 67 29 117 91 51 117 91 51 117 91 51 117 91 51 117 91 51 117 91 51 117 91 51 117 91 51 117 91 51 117 91 51 117 91 51 117 91 51 117 91 51 117 91 51 117 91 51 117 91 51 117 91 51 117 91 51 117 91 51 117 91 51 117 91 51 117 91 51 117 91 51 117 91 51 117 91 51 117 91 51 117 91 51 117 91 51 117 91 51 117 91 51 117 91 51 117 91 51 117 91 51 117 91 51 117 91 51 117 91 51 117 91 51 117 91 51 117 91 51 117 91 51 117 91 51 117 91 51 117 91 51 117 91 51 117 91 51 117 91 51 117 91 51 110 86 44 110 86 44 110 86 44 110 86 44 110 86 44 110 86 44 110 86 44 110 86 44 110 86 44 110 86 44 110 86 44 110 86 44 110 86 44 110 86 44 110 86 44 110 86 44 110 86 44 110 86 44 110 86 44 110 86 44 110 86 44 110 86 44 110 86 44 110 86 44 110 86 44 110 86 44 110 86 44 110 86 44 110 86 44 110 86 44 110 86 44 110 86 44 99 78 38 99 78 38 99 78 38 99 78 38 99 78 38 99 78 38 99 78 38 99 78 38 99 78 38 99 78 38 99 78 38 99 78 38 99 78 38 99 78 38 99 78 38 99 78 38 99 78 38 99 78 38 99 78 38 99 78 38 99 78 38 99 78 38 99 78 38 99 78 38 99 78 38 99 78 38 99 78 38 99 78 38 99 78 38 99 78 38 99 78 38 99 78 38 123 174 183 123 174 183 123 174 183 123 174 183 123 174 183 123 174 183 123 174 183 123 174 183 123 174 183 123 174 183 123 174 183 123 174 183 123 174 183 123 174 183 123 174 183 123 174 183 208 234 233 208 234 233 208 234 233 208 234 233 208 234 233 208 234 233 208 234 233 208 234 233 208 234 233 208 234 233 208 234 233 208 234 233 208 234 233 208 234 233 208 234 233 99 78 38 99 78 38 99 78 38 99 78 38 99 78 38 99 78 38 99 78 38 99 78 38 99 78 38 99 78 38 99 78 38 99 78 38 99 78 38 99 78 38 99 78 38 99 78 38 99 78 38 110 86 44 110 86 44 110 86 44 110 86 44 110 86 44 110 86 44 110 86 44 110 86 44 110 86 44 110 86 44 110 86 44 110 86 44 110 86 44 110 86 44 110 86 44 110 86 44 117 91 51 117 91 51 117 91 51 117 91 51 117 91 51 117 91 51 117 91 51 117 91 51 117 91 51 117 91 51 117 91 51 117 91 51 117 91 51 117 91 51 117 91 51 117 91 51 110 86 44 110 86 44 110 86 44 110 86 44 110 86 44 110 86 44 110 86 44 110 86 44 110 86 44 110 86 44 110 86 44 110 86 44 110 86 44 110 86 44 110 86 44 110 86 44 110 86 44 110 86 44 110 86 44 110 86 44 110 86 44 110 86 44 110 86 44 110 86 44 110 86 44 110 86 44 110 86 44 110 86 44 110 86 44 110 86 44 110 86 44 110 86 44 110 86 44 110 86 44 110 86 44 110 86 44 110 86 44 110 86 44 110 86 44 110 86 44 110 86 44 110 86 44 110 86 44 110 86 44 110 86 44 110 86 44 110 86 44 110 86 44 92 67 29 92 67 29 92 67 29 92 67 29 92 67 29 92 67 29 92 67 29 92 67 29 92 67 29 92 67 29 92 67 29 92 67 29 92 67 29 92 67 29 92 67 29 92 67 29 117 91 51 117 91 51 117 91 51 117 91 51 117 91 51 117 91 51 117 91 51 117 91 51 117 91 51 117 91 51 117 91 51 117 91 51 117 91 51 117 91 51 117 91 51 117 91 51 117 91 51 117 91 51 117 91 51 117 91 51 117 91 51 117 91 51 117 91 51 117 91 51 117 91 51 117 91 51 117 91 51 117 91 51 117 91 51 117 91 51 117 91 51 117 91 51 117 91 51 117 91 51 117 91 51 117 91 51 117 91 51 117 91 51 117 91 51 117 91 51 117 91 51 117 91 51 117 91 51 117 91 51 117 91 51 117 91 51 117 91 51 110 86 44 110 86 44 110 86 44 110 86 44 110 86 44 110 86 44 110 86 44 110 86 44 110 86 44 110 86 44 110 86 44 110 86 44 110 86 44 110 86 44 110 86 44 110 86 44 110 86 44 110 86 44 110 86 44 110 86 44 110 86 44 110 86 44 110 86 44 110 86 44 110 86 44 110 86 44 110 86 44 110 86 44 110 86 44 110 86 44 110 86 44 110 86 44 99 78 38 99 78 38 99 78 38 99 78 38 99 78 38 99 78 38 99 78 38 99 78 38 99 78 38 99 78 38 99 78 38 99 78 38 99 78 38 99 78 38 99 78 38 99 78 38 99 78 38 99 78 38 99 78 38 99 78 38 99 78 38 99 78 38 99 78 38 99 78 38 99 78 38 99 78 38 99 78 38 99 78 38 99 78 38 99 78 38 99 78 38 99 78 38 123 174 183 123 174 183 123 174 183 123 174 183 123 174 183 123 174 183 123 174 183 123 174 183 123 174 183 123 174 183 123 174 183 123 174 183 123 174 183 123 174 183 123 174 183 123 174 183 208 234 233 208 234 233 208 234 233 208 234 233 208 234 233 208 234 233 208 234 233 208 234 233 208 234 233 208 234 233 208 234 233 208 234 233 208 234 233 208 234 233 208 234 233 99 78 38 99 78 38 99 78 38 99 78 38 99 78 38 99 78 38 99 78 38 99 78 38 99 78 38 99 78 38 99 78 38 99 78 38 99 78 38 99 78 38 99 78 38 99 78 38 99 78 38 110 86 44 110 86 44 110 86 44 110 86 44 110 86 44 110 86 44 110 86 44 110 86 44 110 86 44 110 86 44 110 86 44 110 86 44 110 86 44 110 86 44 110 86 44 110 86 44 117 91 51 117 91 51 117 91 51 117 91 51 117 91 51 117 91 51 117 91 51 117 91 51 117 91 51 117 91 51 117 91 51 117 91 51 117 91 51 117 91 51 117 91 51 117 91 51 110 86 44 110 86 44 110 86 44 110 86 44 110 86 44 110 86 44 110 86 44 110 86 44 110 86 44 110 86 44 110 86 44 110 86 44 110 86 44 110 86 44 110 86 44 110 86 44 110 86 44 110 86 44 110 86 44 110 86 44 110 86 44 110 86 44 110 86 44 110 86 44 110 86 44 110 86 44 110 86 44 110 86 44 110 86 44 110 86 44 110 86 44 110 86 44 110 86 44 110 86 44 110 86 44 110 86 44 110 86 44 110 86 44 110 86 44 110 86 44 110 86 44 110 86 44 110 86 44 110 86 44 110 86 44 110 86 44 110 86 44 110 86 44 92 67 29 92 67 29 92 67 29 92 67 29 92 67 29 92 67 29 92 67 29 92 67 29 92 67 29 92 67 29 92 67 29 92 67 29 92 67 29 92 67 29 92 67 29 92 67 29 117 91 51 117 91 51 117 91 51 117 91 51 117 91 51 117 91 51 117 91 51 117 91 51 117 91 51 117 91 51 117 91 51 117 91 51 117 91 51 117 91 51 117 91 51 117 91 51 117 91 51 117 91 51 117 91 51 117 91 51 117 91 51 117 91 51 117 91 51 117 91 51 117 91 51 117 91 51 117 91 51 117 91 51 117 91 51 117 91 51 117 91 51 117 91 51 117 91 51 117 91 51 117 91 51 117 91 51 117 91 51 117 91 51 117 91 51 117 91 51 117 91 51 117 91 51 117 91 51 117 91 51 117 91 51 117 91 51 117 91 51 110 86 44 110 86 44 110 86 44 110 86 44 110 86 44 110 86 44 110 86 44 110 86 44 110 86 44 110 86 44 110 86 44 110 86 44 110 86 44 110 86 44 110 86 44 110 86 44 110 86 44 110 86 44 110 86 44 110 86 44 110 86 44 110 86 44 110 86 44 110 86 44 110 86 44 110 86 44 110 86 44 110 86 44 110 86 44 110 86 44 110 86 44 110 86 44 99 78 38 99 78 38 99 78 38 99 78 38 99 78 38 99 78 38 99 78 38 99 78 38 99 78 38 99 78 38 99 78 38 99 78 38 99 78 38 99 78 38 99 78 38 99 78 38 99 78 38 99 78 38 99 78 38 99 78 38 99 78 38 99 78 38 99 78 38 99 78 38 99 78 38 99 78 38 99 78 38 99 78 38 99 78 38 99 78 38 99 78 38 99 78 38 139 193 205 139 193 205 139 193 205 139 193 205 139 193 205 139 193 205 139 193 205 139 193 205 139 193 205 139 193 205 139 193 205 139 193 205 139 193 205 139 193 205 139 193 205 139 193 205 208 234 233 208 234 233 208 234 233 208 234 233 208 234 233 208 234 233 208 234 233 208 234 233 208 234 233 208 234 233 208 234 233 208 234 233 208 234 233 208 234 233 208 234 233 56 40 13 56 40 13 56 40 13 56 40 13 56 40 13 56 40 13 56 40 13 56 40 13 56 40 13 56 40 13 56 40 13 56 40 13 56 40 13 56 40 13 56 40 13 56 40 13 56 40 13 74 53 21 74 53 21 74 53 21 74 53 21 74 53 21 74 53 21 74 53 21 74 53 21 74 53 21 74 53 21 74 53 21 74 53 21 74 53 21 74 53 21 74 53 21 74 53 21 74 53 21 74 53 21 74 53 21 74 53 21 74 53 21 74 53 21 74 53 21 74 53 21 74 53 21 74 53 21 74 53 21 74 53 21 74 53 21 74 53 21 74 53 21 74 53 21 92 67 29 92 67 29 92 67 29 92 67 29 92 67 29 92 67 29 92 67 29 92 67 29 92 67 29 92 67 29 92 67 29 92 67 29 92 67 29 92 67 29 92 67 29 92 67 29 74 53 21 74 53 21 74 53 21 74 53 21 74 53 21 74 53 21 74 53 21 74 53 21 74 53 21 74 53 21 74 53 21 74 53 21 74 53 21 74 53 21 74 53 21 74 53 21 56 40 13 56 40 13 56 40 13 56 40 13 56 40 13 56 40 13 56 40 13 56 40 13 56 40 13 56 40 13 56 40 13 56 40 13 56 40 13 56 40 13 56 40 13 56 40 13 56 40 13 56 40 13 56 40 13 56 40 13 56 40 13 56 40 13 56 40 13 56 40 13 56 40 13 56 40 13 56 40 13 56 40 13 56 40 13 56 40 13 56 40 13 56 40 13 56 40 13 56 40 13 56 40 13 56 40 13 56 40 13 56 40 13 56 40 13 56 40 13 56 40 13 56 40 13 56 40 13 56 40 13 56 40 13 56 40 13 56 40 13 56 40 13 56 40 13 56 40 13 56 40 13 56 40 13 56 40 13 56 40 13 56 40 13 56 40 13 56 40 13 56 40 13 56 40 13 56 40 13 56 40 13 56 40 13 56 40 13 74 53 21 74 53 21 74 53 21 74 53 21 74 53 21 74 53 21 74 53 21 74 53 21 74 53 21 74 53 21 74 53 21 74 53 21 74 53 21 74 53 21 74 53 21 74 53 21 74 53 21 74 53 21 74 53 21 74 53 21 74 53 21 74 53 21 74 53 21 74 53 21 74 53 21 74 53 21 74 53 21 74 53 21 74 53 21 74 53 21 74 53 21 74 53 21 74 53 21 74 53 21 74 53 21 74 53 21 74 53 21 74 53 21 74 53 21 74 53 21 74 53 21 74 53 21 74 53 21 74 53 21 74 53 21 74 53 21 74 53 21 74 53 21 92 67 29 92 67 29 92 67 29 92 67 29 92 67 29 92 67 29 92 67 29 92 67 29 92 67 29 92 67 29 92 67 29 92 67 29 92 67 29 92 67 29 92 67 29 92 67 29 74 53 21 74 53 21 74 53 21 74 53 21 74 53 21 74 53 21 74 53 21 74 53 21 74 53 21 74 53 21 74 53 21 74 53 21 74 53 21 74 53 21 74 53 21 74 53 21 139 193 205 139 193 205 139 193 205 139 193 205 139 193 205 139 193 205 139 193 205 139 193 205 139 193 205 139 193 205 139 193 205 139 193 205 139 193 205 139 193 205 139 193 205 139 193 205 208 234 233 208 234 233 208 234 233 208 234 233 208 234 233 208 234 233 208 234 233 208 234 233 208 234 233 208 234 233 208 234 233 208 234 233 208 234 233 208 234 233 208 234 233 56 40 13 56 40 13 56 40 13 56 40 13 56 40 13 56 40 13 56 40 13 56 40 13 56 40 13 56 40 13 56 40 13 56 40 13 56 40 13 56 40 13 56 40 13 56 40 13 56 40 13 74 53 21 74 53 21 74 53 21 74 53 21 74 53 21 74 53 21 74 53 21 74 53 21 74 53 21 74 53 21 74 53 21 74 53 21 74 53 21 74 53 21 74 53 21 74 53 21 74 53 21 74 53 21 74 53 21 74 53 21 74 53 21 74 53 21 74 53 21 74 53 21 74 53 21 74 53 21 74 53 21 74 53 21 74 53 21 74 53 21 74 53 21 74 53 21 92 67 29 92 67 29 92 67 29 92 67 29 92 67 29 92 67 29 92 67 29 92 67 29 92 67 29 92 67 29 92 67 29 92 67 29 92 67 29 92 67 29 92 67 29 92 67 29 74 53 21 74 53 21 74 53 21 74 53 21 74 53 21 74 53 21 74 53 21 74 53 21 74 53 21 74 53 21 74 53 21 74 53 21 74 53 21 74 53 21 74 53 21 74 53 21 56 40 13 56 40 13 56 40 13 56 40 13 56 40 13 56 40 13 56 40 13 56 40 13 56 40 13 56 40 13 56 40 13 56 40 13 56 40 13 56 40 13 56 40 13 56 40 13 56 40 13 56 40 13 56 40 13 56 40 13 56 40 13 56 40 13 56 40 13 56 40 13 56 40 13 56 40 13 56 40 13 56 40 13 56 40 13 56 40 13 56 40 13 56 40 13 56 40 13 56 40 13 56 40 13 56 40 13 56 40 13 56 40 13 56 40 13 56 40 13 56 40 13 56 40 13 56 40 13 56 40 13 56 40 13 56 40 13 56 40 13 56 40 13 56 40 13 56 40 13 56 40 13 56 40 13 56 40 13 56 40 13 56 40 13 56 40 13 56 40 13 56 40 13 56 40 13 56 40 13 56 40 13 56 40 13 56 40 13 74 53 21 74 53 21 74 53 21 74 53 21 74 53 21 74 53 21 74 53 21 74 53 21 74 53 21 74 53 21 74 53 21 74 53 21 74 53 21 74 53 21 74 53 21 74 53 21 74 53 21 74 53 21 74 53 21 74 53 21 74 53 21 74 53 21 74 53 21 74 53 21 74 53 21 74 53 21 74 53 21 74 53 21 74 53 21 74 53 21 74 53 21 74 53 21 74 53 21 74 53 21 74 53 21 74 53 21 74 53 21 74 53 21 74 53 21 74 53 21 74 53 21 74 53 21 74 53 21 74 53 21 74 53 21 74 53 21 74 53 21 74 53 21 92 67 29 92 67 29 92 67 29 92 67 29 92 67 29 92 67 29 92 67 29 92 67 29 92 67 29 92 67 29 92 67 29 92 67 29 92 67 29 92 67 29 92 67 29 92 67 29 74 53 21 74 53 21 74 53 21 74 53 21 74 53 21 74 53 21 74 53 21 74 53 21 74 53 21 74 53 21 74 53 21 74 53 21 74 53 21 74 53 21 74 53 21 74 53 21 139 193 205 139 193 205 139 193 205 139 193 205 139 193 205 139 193 205 139 193 205 139 193 205 139 193 205 139 193 205 139 193 205 139 193 205 139 193 205 139 193 205 139 193 205 139 193 205 208 234 233 208 234 233 208 234 233 208 234 233 208 234 233 208 234 233 208 234 233 208 234 233 208 234 233 208 234 233 208 234 233 208 234 233 208 234 233 208 234 233 208 234 233 56 40 13 56 40 13 56 40 13 56 40 13 56 40 13 56 40 13 56 40 13 56 40 13 56 40 13 56 40 13 56 40 13 56 40 13 56 40 13 56 40 13 56 40 13 56 40 13 56 40 13 74 53 21 74 53 21 74 53 21 74 53 21 74 53 21 74 53 21 74 53 21 74 53 21 74 53 21 74 53 21 74 53 21 74 53 21 74 53 21 74 53 21 74 53 21 74 53 21 74 53 21 74 53 21 74 53 21 74 53 21 74 53 21 74 53 21 74 53 21 74 53 21 74 53 21 74 53 21 74 53 21 74 53 21 74 53 21 74 53 21 74 53 21 74 53 21 92 67 29 92 67 29 92 67 29 92 67 29 92 67 29 92 67 29 92 67 29 92 67 29 92 67 29 92 67 29 92 67 29 92 67 29 92 67 29 92 67 29 92 67 29 92 67 29 74 53 21 74 53 21 74 53 21 74 53 21 74 53 21 74 53 21 74 53 21 74 53 21 74 53 21 74 53 21 74 53 21 74 53 21 74 53 21 74 53 21 74 53 21 74 53 21 56 40 13 56 40 13 56 40 13 56 40 13 56 40 13 56 40 13 56 40 13 56 40 13 56 40 13 56 40 13 56 40 13 56 40 13 56 40 13 56 40 13 56 40 13 56 40 13 56 40 13 56 40 13 56 40 13 56 40 13 56 40 13 56 40 13 56 40 13 56 40 13 56 40 13 56 40 13 56 40 13 56 40 13 56 40 13 56 40 13 56 40 13 56 40 13 56 40 13 56 40 13 56 40 13 56 40 13 56 40 13 56 40 13 56 40 13 56 40 13 56 40 13 56 40 13 56 40 13 56 40 13 56 40 13 56 40 13 56 40 13 56 40 13 56 40 13 56 40 13 56 40 13 56 40 13 56 40 13 56 40 13 56 40 13 56 40 13 56 40 13 56 40 13 56 40 13 56 40 13 56 40 13 56 40 13 56 40 13 74 53 21 74 53 21 74 53 21 74 53 21 74 53 21 74 53 21 74 53 21 74 53 21 74 53 21 74 53 21 74 53 21 74 53 21 74 53 21 74 53 21 74 53 21 74 53 21 74 53 21 74 53 21 74 53 21 74 53 21 74 53 21 74 53 21 74 53 21 74 53 21 74 53 21 74 53 21 74 53 21 74 53 21 74 53 21 74 53 21 74 53 21 74 53 21 74 53 21 74 53 21 74 53 21 74 53 21 74 53 21 74 53 21 74 53 21 74 53 21 74 53 21 74 53 21 74 53 21 74 53 21 74 53 21 74 53 21 74 53 21 74 53 21 92 67 29 92 67 29 92 67 29 92 67 29 92 67 29 92 67 29 92 67 29 92 67 29 92 67 29 92 67 29 92 67 29 92 67 29 92 67 29 92 67 29 92 67 29 92 67 29 74 53 21 74 53 21 74 53 21 74 53 21 74 53 21 74 53 21 74 53 21 74 53 21 74 53 21 74 53 21 74 53 21 74 53 21 74 53 21 74 53 21 74 53 21 74 53 21 139 193 205 139 193 205 139 193 205 139 193 205 139 193 205 139 193 205 139 193 205 139 193 205 139 193 205 139 193 205 139 193 205 139 193 205 139 193 205 139 193 205 139 193 205 139 193 205 208 234 233 208 234 233 208 234 233 208 234 233 208 234 233 208 234 233 208 234 233 208 234 233 208 234 233 208 234 233 208 234 233 208 234 233 208 234 233 208 234 233 208 234 233 56 40 13 56 40 13 56 40 13 56 40 13 56 40 13 56 40 13 56 40 13 56 40 13 56 40 13 56 40 13 56 40 13 56 40 13 56 40 13 56 40 13 56 40 13 56 40 13 56 40 13 74 53 21 74 53 21 74 53 21 74 53 21 74 53 21 74 53 21 74 53 21 74 53 21 74 53 21 74 53 21 74 53 21 74 53 21 74 53 21 74 53 21 74 53 21 74 53 21 74 53 21 74 53 21 74 53 21 74 53 21 74 53 21 74 53 21 74 53 21 74 53 21 74 53 21 74 53 21 74 53 21 74 53 21 74 53 21 74 53 21 74 53 21 74 53 21 92 67 29 92 67 29 92 67 29 92 67 29 92 67 29 92 67 29 92 67 29 92 67 29 92 67 29 92 67 29 92 67 29 92 67 29 92 67 29 92 67 29 92 67 29 92 67 29 74 53 21 74 53 21 74 53 21 74 53 21 74 53 21 74 53 21 74 53 21 74 53 21 74 53 21 74 53 21 74 53 21 74 53 21 74 53 21 74 53 21 74 53 21 74 53 21 56 40 13 56 40 13 56 40 13 56 40 13 56 40 13 56 40 13 56 40 13 56 40 13 56 40 13 56 40 13 56 40 13 56 40 13 56 40 13 56 40 13 56 40 13 56 40 13 56 40 13 56 40 13 56 40 13 56 40 13 56 40 13 56 40 13 56 40 13 56 40 13 56 40 13 56 40 13 56 40 13 56 40 13 56 40 13 56 40 13 56 40 13 56 40 13 56 40 13 56 40 13 56 40 13 56 40 13 56 40 13 56 40 13 56 40 13 56 40 13 56 40 13 56 40 13 56 40 13 56 40 13 56 40 13 56 40 13 56 40 13 56 40 13 56 40 13 56 40 13 56 40 13 56 40 13 56 40 13 56 40 13 56 40 13 56 40 13 56 40 13 56 40 13 56 40 13 56 40 13 56 40 13 56 40 13 56 40 13 74 53 21 74 53 21 74 53 21 74 53 21 74 53 21 74 53 21 74 53 21 74 53 21 74 53 21 74 53 21 74 53 21 74 53 21 74 53 21 74 53 21 74 53 21 74 53 21 74 53 21 74 53 21 74 53 21 74 53 21 74 53 21 74 53 21 74 53 21 74 53 21 74 53 21 74 53 21 74 53 21 74 53 21 74 53 21 74 53 21 74 53 21 74 53 21 74 53 21 74 53 21 74 53 21 74 53 21 74 53 21 74 53 21 74 53 21 74 53 21 74 53 21 74 53 21 74 53 21 74 53 21 74 53 21 74 53 21 74 53 21 74 53 21 92 67 29 92 67 29 92 67 29 92 67 29 92 67 29 92 67 29 92 67 29 92 67 29 92 67 29 92 67 29 92 67 29 92 67 29 92 67 29 92 67 29 92 67 29 92 67 29 74 53 21 74 53 21 74 53 21 74 53 21 74 53 21 74 53 21 74 53 21 74 53 21 74 53 21 74 53 21 74 53 21 74 53 21 74 53 21 74 53 21 74 53 21 74 53 21 139 193 205 139 193 205 139 193 205 139 193 205 139 193 205 139 193 205 139 193 205 139 193 205 139 193 205 139 193 205 139 193 205 139 193 205 139 193 205 139 193 205 139 193 205 139 193 205 208 234 233 208 234 233 208 234 233 208 234 233 208 234 233 208 234 233 208 234 233 208 234 233 208 234 233 208 234 233 208 234 233 208 234 233 208 234 233 208 234 233 208 234 233 56 40 13 56 40 13 56 40 13 56 40 13 56 40 13 56 40 13 56 40 13 56 40 13 56 40 13 56 40 13 56 40 13 56 40 13 56 40 13 56 40 13 56 40 13 56 40 13 56 40 13 74 53 21 74 53 21 74 53 21 74 53 21 74 53 21 74 53 21 74 53 21 74 53 21 74 53 21 74 53 21 74 53 21 74 53 21 74 53 21 74 53 21 74 53 21 74 53 21 74 53 21 74 53 21 74 53 21 74 53 21 74 53 21 74 53 21 74 53 21 74 53 21 74 53 21 74 53 21 74 53 21 74 53 21 74 53 21 74 53 21 74 53 21 74 53 21 92 67 29 92 67 29 92 67 29 92 67 29 92 67 29 92 67 29 92 67 29 92 67 29 92 67 29 92 67 29 92 67 29 92 67 29 92 67 29 92 67 29 92 67 29 92 67 29 74 53 21 74 53 21 74 53 21 74 53 21 74 53 21 74 53 21 74 53 21 74 53 21 74 53 21 74 53 21 74 53 21 74 53 21 74 53 21 74 53 21 74 53 21 74 53 21 56 40 13 56 40 13 56 40 13 56 40 13 56 40 13 56 40 13 56 40 13 56 40 13 56 40 13 56 40 13 56 40 13 56 40 13 56 40 13 56 40 13 56 40 13 56 40 13 56 40 13 56 40 13 56 40 13 56 40 13 56 40 13 56 40 13 56 40 13 56 40 13 56 40 13 56 40 13 56 40 13 56 40 13 56 40 13 56 40 13 56 40 13 56 40 13 56 40 13 56 40 13 56 40 13 56 40 13 56 40 13 56 40 13 56 40 13 56 40 13 56 40 13 56 40 13 56 40 13 56 40 13 56 40 13 56 40 13 56 40 13 56 40 13 56 40 13 56 40 13 56 40 13 56 40 13 56 40 13 56 40 13 56 40 13 56 40 13 56 40 13 56 40 13 56 40 13 56 40 13 56 40 13 56 40 13 56 40 13 74 53 21 74 53 21 74 53 21 74 53 21 74 53 21 74 53 21 74 53 21 74 53 21 74 53 21 74 53 21 74 53 21 74 53 21 74 53 21 74 53 21 74 53 21 74 53 21 74 53 21 74 53 21 74 53 21 74 53 21 74 53 21 74 53 21 74 53 21 74 53 21 74 53 21 74 53 21 74 53 21 74 53 21 74 53 21 74 53 21 74 53 21 74 53 21 74 53 21 74 53 21 74 53 21 74 53 21 74 53 21 74 53 21 74 53 21 74 53 21 74 53 21 74 53 21 74 53 21 74 53 21 74 53 21 74 53 21 74 53 21 74 53 21 92 67 29 92 67 29 92 67 29 92 67 29 92 67 29 92 67 29 92 67 29 92 67 29 92 67 29 92 67 29 92 67 29 92 67 29 92 67 29 92 67 29 92 67 29 92 67 29 74 53 21 74 53 21 74 53 21 74 53 21 74 53 21 74 53 21 74 53 21 74 53 21 74 53 21 74 53 21 74 53 21 74 53 21 74 53 21 74 53 21 74 53 21 74 53 21 139 193 205 139 193 205 139 193 205 139 193 205 139 193 205 139 193 205 139 193 205 139 193 205 139 193 205 139 193 205 139 193 205 139 193 205 139 193 205 139 193 205 139 193 205 139 193 205 208 234 233 208 234 233 208 234 233 208 234 233 208 234 233 208 234 233 208 234 233 208 234 233 208 234 233 208 234 233 208 234 233 208 234 233 208 234 233 208 234 233 208 234 233 56 40 13 56 40 13 56 40 13 56 40 13 56 40 13 56 40 13 56 40 13 56 40 13 56 40 13 56 40 13 56 40 13 56 40 13 56 40 13 56 40 13 56 40 13 56 40 13 56 40 13 74 53 21 74 53 21 74 53 21 74 53 21 74 53 21 74 53 21 74 53 21 74 53 21 74 53 21 74 53 21 74 53 21 74 53 21 74 53 21 74 53 21 74 53 21 74 53 21 74 53 21 74 53 21 74 53 21 74 53 21 74 53 21 74 53 21 74 53 21 74 53 21 74 53 21 74 53 21 74 53 21 74 53 21 74 53 21 74 53 21 74 53 21 74 53 21 92 67 29 92 67 29 92 67 29 92 67 29 92 67 29 92 67 29 92 67 29 92 67 29 92 67 29 92 67 29 92 67 29 92 67 29 92 67 29 92 67 29 92 67 29 92 67 29 74 53 21 74 53 21 74 53 21 74 53 21 74 53 21 74 53 21 74 53 21 74 53 21 74 53 21 74 53 21 74 53 21 74 53 21 74 53 21 74 53 21 74 53 21 74 53 21 56 40 13 56 40 13 56 40 13 56 40 13 56 40 13 56 40 13 56 40 13 56 40 13 56 40 13 56 40 13 56 40 13 56 40 13 56 40 13 56 40 13 56 40 13 56 40 13 56 40 13 56 40 13 56 40 13 56 40 13 56 40 13 56 40 13 56 40 13 56 40 13 56 40 13 56 40 13 56 40 13 56 40 13 56 40 13 56 40 13 56 40 13 56 40 13 56 40 13 56 40 13 56 40 13 56 40 13 56 40 13 56 40 13 56 40 13 56 40 13 56 40 13 56 40 13 56 40 13 56 40 13 56 40 13 56 40 13 56 40 13 56 40 13 56 40 13 56 40 13 56 40 13 56 40 13 56 40 13 56 40 13 56 40 13 56 40 13 56 40 13 56 40 13 56 40 13 56 40 13 56 40 13 56 40 13 56 40 13 74 53 21 74 53 21 74 53 21 74 53 21 74 53 21 74 53 21 74 53 21 74 53 21 74 53 21 74 53 21 74 53 21 74 53 21 74 53 21 74 53 21 74 53 21 74 53 21 74 53 21 74 53 21 74 53 21 74 53 21 74 53 21 74 53 21 74 53 21 74 53 21 74 53 21 74 53 21 74 53 21 74 53 21 74 53 21 74 53 21 74 53 21 74 53 21 74 53 21 74 53 21 74 53 21 74 53 21 74 53 21 74 53 21 74 53 21 74 53 21 74 53 21 74 53 21 74 53 21 74 53 21 74 53 21 74 53 21 74 53 21 74 53 21 92 67 29 92 67 29 92 67 29 92 67 29 92 67 29 92 67 29 92 67 29 92 67 29 92 67 29 92 67 29 92 67 29 92 67 29 92 67 29 92 67 29 92 67 29 92 67 29 74 53 21 74 53 21 74 53 21 74 53 21 74 53 21 74 53 21 74 53 21 74 53 21 74 53 21 74 53 21 74 53 21 74 53 21 74 53 21 74 53 21 74 53 21 74 53 21 139 193 205 139 193 205 139 193 205 139 193 205 139 193 205 139 193 205 139 193 205 139 193 205 139 193 205 139 193 205 139 193 205 139 193 205 139 193 205 139 193 205 139 193 205 139 193 205 208 234 233 208 234 233 208 234 233 208 234 233 208 234 233 208 234 233 208 234 233 208 234 233 208 234 233 208 234 233 208 234 233 208 234 233 208 234 233 208 234 233 208 234 233 56 40 13 56 40 13 56 40 13 56 40 13 56 40 13 56 40 13 56 40 13 56 40 13 56 40 13 56 40 13 56 40 13 56 40 13 56 40 13 56 40 13 56 40 13 56 40 13 56 40 13 74 53 21 74 53 21 74 53 21 74 53 21 74 53 21 74 53 21 74 53 21 74 53 21 74 53 21 74 53 21 74 53 21 74 53 21 74 53 21 74 53 21 74 53 21 74 53 21 74 53 21 74 53 21 74 53 21 74 53 21 74 53 21 74 53 21 74 53 21 74 53 21 74 53 21 74 53 21 74 53 21 74 53 21 74 53 21 74 53 21 74 53 21 74 53 21 92 67 29 92 67 29 92 67 29 92 67 29 92 67 29 92 67 29 92 67 29 92 67 29 92 67 29 92 67 29 92 67 29 92 67 29 92 67 29 92 67 29 92 67 29 92 67 29 74 53 21 74 53 21 74 53 21 74 53 21 74 53 21 74 53 21 74 53 21 74 53 21 74 53 21 74 53 21 74 53 21 74 53 21 74 53 21 74 53 21 74 53 21 74 53 21 56 40 13 56 40 13 56 40 13 56 40 13 56 40 13 56 40 13 56 40 13 56 40 13 56 40 13 56 40 13 56 40 13 56 40 13 56 40 13 56 40 13 56 40 13 56 40 13 56 40 13 56 40 13 56 40 13 56 40 13 56 40 13 56 40 13 56 40 13 56 40 13 56 40 13 56 40 13 56 40 13 56 40 13 56 40 13 56 40 13 56 40 13 56 40 13 56 40 13 56 40 13 56 40 13 56 40 13 56 40 13 56 40 13 56 40 13 56 40 13 56 40 13 56 40 13 56 40 13 56 40 13 56 40 13 56 40 13 56 40 13 56 40 13 56 40 13 56 40 13 56 40 13 56 40 13 56 40 13 56 40 13 56 40 13 56 40 13 56 40 13 56 40 13 56 40 13 56 40 13 56 40 13 56 40 13 56 40 13 74 53 21 74 53 21 74 53 21 74 53 21 74 53 21 74 53 21 74 53 21 74 53 21 74 53 21 74 53 21 74 53 21 74 53 21 74 53 21 74 53 21 74 53 21 74 53 21 74 53 21 74 53 21 74 53 21 74 53 21 74 53 21 74 53 21 74 53 21 74 53 21 74 53 21 74 53 21 74 53 21 74 53 21 74 53 21 74 53 21 74 53 21 74 53 21 74 53 21 74 53 21 74 53 21 74 53 21 74 53 21 74 53 21 74 53 21 74 53 21 74 53 21 74 53 21 74 53 21 74 53 21 74 53 21 74 53 21 74 53 21 74 53 21 92 67 29 92 67 29 92 67 29 92 67 29 92 67 29 92 67 29 92 67 29 92 67 29 92 67 29 92 67 29 92 67 29 92 67 29 92 67 29 92 67 29 92 67 29 92 67 29 74 53 21 74 53 21 74 53 21 74 53 21 74 53 21 74 53 21 74 53 21 74 53 21 74 53 21 74 53 21 74 53 21 74 53 21 74 53 21 74 53 21 74 53 21 74 53 21 139 193 205 139 193 205 139 193 205 139 193 205 139 193 205 139 193 205 139 193 205 139 193 205 139 193 205 139 193 205 139 193 205 139 193 205 139 193 205 139 193 205 139 193 205 139 193 205 208 234 233 208 234 233 208 234 233 208 234 233 208 234 233 208 234 233 208 234 233 208 234 233 208 234 233 208 234 233 208 234 233 208 234 233 208 234 233 208 234 233 208 234 233 56 40 13 56 40 13 56 40 13 56 40 13 56 40 13 56 40 13 56 40 13 56 40 13 56 40 13 56 40 13 56 40 13 56 40 13 56 40 13 56 40 13 56 40 13 56 40 13 56 40 13 74 53 21 74 53 21 74 53 21 74 53 21 74 53 21 74 53 21 74 53 21 74 53 21 74 53 21 74 53 21 74 53 21 74 53 21 74 53 21 74 53 21 74 53 21 74 53 21 74 53 21 74 53 21 74 53 21 74 53 21 74 53 21 74 53 21 74 53 21 74 53 21 74 53 21 74 53 21 74 53 21 74 53 21 74 53 21 74 53 21 74 53 21 74 53 21 92 67 29 92 67 29 92 67 29 92 67 29 92 67 29 92 67 29 92 67 29 92 67 29 92 67 29 92 67 29 92 67 29 92 67 29 92 67 29 92 67 29 92 67 29 92 67 29 74 53 21 74 53 21 74 53 21 74 53 21 74 53 21 74 53 21 74 53 21 74 53 21 74 53 21 74 53 21 74 53 21 74 53 21 74 53 21 74 53 21 74 53 21 74 53 21 56 40 13 56 40 13 56 40 13 56 40 13 56 40 13 56 40 13 56 40 13 56 40 13 56 40 13 56 40 13 56 40 13 56 40 13 56 40 13 56 40 13 56 40 13 56 40 13 56 40 13 56 40 13 56 40 13 56 40 13 56 40 13 56 40 13 56 40 13 56 40 13 56 40 13 56 40 13 56 40 13 56 40 13 56 40 13 56 40 13 56 40 13 56 40 13 56 40 13 56 40 13 56 40 13 56 40 13 56 40 13 56 40 13 56 40 13 56 40 13 56 40 13 56 40 13 56 40 13 56 40 13 56 40 13 56 40 13 56 40 13 56 40 13 56 40 13 56 40 13 56 40 13 56 40 13 56 40 13 56 40 13 56 40 13 56 40 13 56 40 13 56 40 13 56 40 13 56 40 13 56 40 13 56 40 13 56 40 13 74 53 21 74 53 21 74 53 21 74 53 21 74 53 21 74 53 21 74 53 21 74 53 21 74 53 21 74 53 21 74 53 21 74 53 21 74 53 21 74 53 21 74 53 21 74 53 21 74 53 21 74 53 21 74 53 21 74 53 21 74 53 21 74 53 21 74 53 21 74 53 21 74 53 21 74 53 21 74 53 21 74 53 21 74 53 21 74 53 21 74 53 21 74 53 21 74 53 21 74 53 21 74 53 21 74 53 21 74 53 21 74 53 21 74 53 21 74 53 21 74 53 21 74 53 21 74 53 21 74 53 21 74 53 21 74 53 21 74 53 21 74 53 21 92 67 29 92 67 29 92 67 29 92 67 29 92 67 29 92 67 29 92 67 29 92 67 29 92 67 29 92 67 29 92 67 29 92 67 29 92 67 29 92 67 29 92 67 29 92 67 29 74 53 21 74 53 21 74 53 21 74 53 21 74 53 21 74 53 21 74 53 21 74 53 21 74 53 21 74 53 21 74 53 21 74 53 21 74 53 21 74 53 21 74 53 21 74 53 21 139 193 205 139 193 205 139 193 205 139 193 205 139 193 205 139 193 205 139 193 205 139 193 205 139 193 205 139 193 205 139 193 205 139 193 205 139 193 205 139 193 205 139 193 205 139 193 205 208 234 233 208 234 233 208 234 233 208 234 233 208 234 233 208 234 233 208 234 233 208 234 233 208 234 233 208 234 233 208 234 233 208 234 233 208 234 233 208 234 233 208 234 233 56 40 13 56 40 13 56 40 13 56 40 13 56 40 13 56 40 13 56 40 13 56 40 13 56 40 13 56 40 13 56 40 13 56 40 13 56 40 13 56 40 13 56 40 13 56 40 13 56 40 13 74 53 21 74 53 21 74 53 21 74 53 21 74 53 21 74 53 21 74 53 21 74 53 21 74 53 21 74 53 21 74 53 21 74 53 21 74 53 21 74 53 21 74 53 21 74 53 21 74 53 21 74 53 21 74 53 21 74 53 21 74 53 21 74 53 21 74 53 21 74 53 21 74 53 21 74 53 21 74 53 21 74 53 21 74 53 21 74 53 21 74 53 21 74 53 21 92 67 29 92 67 29 92 67 29 92 67 29 92 67 29 92 67 29 92 67 29 92 67 29 92 67 29 92 67 29 92 67 29 92 67 29 92 67 29 92 67 29 92 67 29 92 67 29 74 53 21 74 53 21 74 53 21 74 53 21 74 53 21 74 53 21 74 53 21 74 53 21 74 53 21 74 53 21 74 53 21 74 53 21 74 53 21 74 53 21 74 53 21 74 53 21 56 40 13 56 40 13 56 40 13 56 40 13 56 40 13 56 40 13 56 40 13 56 40 13 56 40 13 56 40 13 56 40 13 56 40 13 56 40 13 56 40 13 56 40 13 56 40 13 56 40 13 56 40 13 56 40 13 56 40 13 56 40 13 56 40 13 56 40 13 56 40 13 56 40 13 56 40 13 56 40 13 56 40 13 56 40 13 56 40 13 56 40 13 56 40 13 56 40 13 56 40 13 56 40 13 56 40 13 56 40 13 56 40 13 56 40 13 56 40 13 56 40 13 56 40 13 56 40 13 56 40 13 56 40 13 56 40 13 56 40 13 56 40 13 56 40 13 56 40 13 56 40 13 56 40 13 56 40 13 56 40 13 56 40 13 56 40 13 56 40 13 56 40 13 56 40 13 56 40 13 56 40 13 56 40 13 56 40 13 74 53 21 74 53 21 74 53 21 74 53 21 74 53 21 74 53 21 74 53 21 74 53 21 74 53 21 74 53 21 74 53 21 74 53 21 74 53 21 74 53 21 74 53 21 74 53 21 74 53 21 74 53 21 74 53 21 74 53 21 74 53 21 74 53 21 74 53 21 74 53 21 74 53 21 74 53 21 74 53 21 74 53 21 74 53 21 74 53 21 74 53 21 74 53 21 74 53 21 74 53 21 74 53 21 74 53 21 74 53 21 74 53 21 74 53 21 74 53 21 74 53 21 74 53 21 74 53 21 74 53 21 74 53 21 74 53 21 74 53 21 74 53 21 92 67 29 92 67 29 92 67 29 92 67 29 92 67 29 92 67 29 92 67 29 92 67 29 92 67 29 92 67 29 92 67 29 92 67 29 92 67 29 92 67 29 92 67 29 92 67 29 74 53 21 74 53 21 74 53 21 74 53 21 74 53 21 74 53 21 74 53 21 74 53 21 74 53 21 74 53 21 74 53 21 74 53 21 74 53 21 74 53 21 74 53 21 74 53 21 139 193 205 139 193 205 139 193 205 139 193 205 139 193 205 139 193 205 139 193 205 139 193 205 139 193 205 139 193 205 139 193 205 139 193 205 139 193 205 139 193 205 139 193 205 139 193 205 208 234 233 208 234 233 208 234 233 208 234 233 208 234 233 208 234 233 208 234 233 208 234 233 208 234 233 208 234 233 208 234 233 208 234 233 208 234 233 208 234 233 208 234 233 56 40 13 56 40 13 56 40 13 56 40 13 56 40 13 56 40 13 56 40 13 56 40 13 56 40 13 56 40 13 56 40 13 56 40 13 56 40 13 56 40 13 56 40 13 56 40 13 56 40 13 74 53 21 74 53 21 74 53 21 74 53 21 74 53 21 74 53 21 74 53 21 74 53 21 74 53 21 74 53 21 74 53 21 74 53 21 74 53 21 74 53 21 74 53 21 74 53 21 74 53 21 74 53 21 74 53 21 74 53 21 74 53 21 74 53 21 74 53 21 74 53 21 74 53 21 74 53 21 74 53 21 74 53 21 74 53 21 74 53 21 74 53 21 74 53 21 92 67 29 92 67 29 92 67 29 92 67 29 92 67 29 92 67 29 92 67 29 92 67 29 92 67 29 92 67 29 92 67 29 92 67 29 92 67 29 92 67 29 92 67 29 92 67 29 74 53 21 74 53 21 74 53 21 74 53 21 74 53 21 74 53 21 74 53 21 74 53 21 74 53 21 74 53 21 74 53 21 74 53 21 74 53 21 74 53 21 74 53 21 74 53 21 56 40 13 56 40 13 56 40 13 56 40 13 56 40 13 56 40 13 56 40 13 56 40 13 56 40 13 56 40 13 56 40 13 56 40 13 56 40 13 56 40 13 56 40 13 56 40 13 56 40 13 56 40 13 56 40 13 56 40 13 56 40 13 56 40 13 56 40 13 56 40 13 56 40 13 56 40 13 56 40 13 56 40 13 56 40 13 56 40 13 56 40 13 56 40 13 56 40 13 56 40 13 56 40 13 56 40 13 56 40 13 56 40 13 56 40 13 56 40 13 56 40 13 56 40 13 56 40 13 56 40 13 56 40 13 56 40 13 56 40 13 56 40 13 56 40 13 56 40 13 56 40 13 56 40 13 56 40 13 56 40 13 56 40 13 56 40 13 56 40 13 56 40 13 56 40 13 56 40 13 56 40 13 56 40 13 56 40 13 74 53 21 74 53 21 74 53 21 74 53 21 74 53 21 74 53 21 74 53 21 74 53 21 74 53 21 74 53 21 74 53 21 74 53 21 74 53 21 74 53 21 74 53 21 74 53 21 74 53 21 74 53 21 74 53 21 74 53 21 74 53 21 74 53 21 74 53 21 74 53 21 74 53 21 74 53 21 74 53 21 74 53 21 74 53 21 74 53 21 74 53 21 74 53 21 74 53 21 74 53 21 74 53 21 74 53 21 74 53 21 74 53 21 74 53 21 74 53 21 74 53 21 74 53 21 74 53 21 74 53 21 74 53 21 74 53 21 74 53 21 74 53 21 92 67 29 92 67 29 92 67 29 92 67 29 92 67 29 92 67 29 92 67 29 92 67 29 92 67 29 92 67 29 92 67 29 92 67 29 92 67 29 92 67 29 92 67 29 92 67 29 74 53 21 74 53 21 74 53 21 74 53 21 74 53 21 74 53 21 74 53 21 74 53 21 74 53 21 74 53 21 74 53 21 74 53 21 74 53 21 74 53 21 74 53 21 74 53 21 139 193 205 139 193 205 139 193 205 139 193 205 139 193 205 139 193 205 139 193 205 139 193 205 139 193 205 139 193 205 139 193 205 139 193 205 139 193 205 139 193 205 139 193 205 139 193 205 208 234 233 208 234 233 208 234 233 208 234 233 208 234 233 208 234 233 208 234 233 208 234 233 208 234 233 208 234 233 208 234 233 208 234 233 208 234 233 208 234 233 208 234 233 56 40 13 56 40 13 56 40 13 56 40 13 56 40 13 56 40 13 56 40 13 56 40 13 56 40 13 56 40 13 56 40 13 56 40 13 56 40 13 56 40 13 56 40 13 56 40 13 56 40 13 74 53 21 74 53 21 74 53 21 74 53 21 74 53 21 74 53 21 74 53 21 74 53 21 74 53 21 74 53 21 74 53 21 74 53 21 74 53 21 74 53 21 74 53 21 74 53 21 74 53 21 74 53 21 74 53 21 74 53 21 74 53 21 74 53 21 74 53 21 74 53 21 74 53 21 74 53 21 74 53 21 74 53 21 74 53 21 74 53 21 74 53 21 74 53 21 92 67 29 92 67 29 92 67 29 92 67 29 92 67 29 92 67 29 92 67 29 92 67 29 92 67 29 92 67 29 92 67 29 92 67 29 92 67 29 92 67 29 92 67 29 92 67 29 74 53 21 74 53 21 74 53 21 74 53 21 74 53 21 74 53 21 74 53 21 74 53 21 74 53 21 74 53 21 74 53 21 74 53 21 74 53 21 74 53 21 74 53 21 74 53 21 56 40 13 56 40 13 56 40 13 56 40 13 56 40 13 56 40 13 56 40 13 56 40 13 56 40 13 56 40 13 56 40 13 56 40 13 56 40 13 56 40 13 56 40 13 56 40 13 56 40 13 56 40 13 56 40 13 56 40 13 56 40 13 56 40 13 56 40 13 56 40 13 56 40 13 56 40 13 56 40 13 56 40 13 56 40 13 56 40 13 56 40 13 56 40 13 56 40 13 56 40 13 56 40 13 56 40 13 56 40 13 56 40 13 56 40 13 56 40 13 56 40 13 56 40 13 56 40 13 56 40 13 56 40 13 56 40 13 56 40 13 56 40 13 56 40 13 56 40 13 56 40 13 56 40 13 56 40 13 56 40 13 56 40 13 56 40 13 56 40 13 56 40 13 56 40 13 56 40 13 56 40 13 56 40 13 56 40 13 74 53 21 74 53 21 74 53 21 74 53 21 74 53 21 74 53 21 74 53 21 74 53 21 74 53 21 74 53 21 74 53 21 74 53 21 74 53 21 74 53 21 74 53 21 74 53 21 74 53 21 74 53 21 74 53 21 74 53 21 74 53 21 74 53 21 74 53 21 74 53 21 74 53 21 74 53 21 74 53 21 74 53 21 74 53 21 74 53 21 74 53 21 74 53 21 74 53 21 74 53 21 74 53 21 74 53 21 74 53 21 74 53 21 74 53 21 74 53 21 74 53 21 74 53 21 74 53 21 74 53 21 74 53 21 74 53 21 74 53 21 74 53 21 92 67 29 92 67 29 92 67 29 92 67 29 92 67 29 92 67 29 92 67 29 92 67 29 92 67 29 92 67 29 92 67 29 92 67 29 92 67 29 92 67 29 92 67 29 92 67 29 74 53 21 74 53 21 74 53 21 74 53 21 74 53 21 74 53 21 74 53 21 74 53 21 74 53 21 74 53 21 74 53 21 74 53 21 74 53 21 74 53 21 74 53 21 74 53 21 139 193 205 139 193 205 139 193 205 139 193 205 139 193 205 139 193 205 139 193 205 139 193 205 139 193 205 139 193 205 139 193 205 139 193 205 139 193 205 139 193 205 139 193 205 139 193 205 208 234 233 208 234 233 208 234 233 208 234 233 208 234 233 208 234 233 208 234 233 208 234 233 208 234 233 208 234 233 208 234 233 208 234 233 208 234 233 208 234 233 208 234 233 56 40 13 56 40 13 56 40 13 56 40 13 56 40 13 56 40 13 56 40 13 56 40 13 56 40 13 56 40 13 56 40 13 56 40 13 56 40 13 56 40 13 56 40 13 56 40 13 56 40 13 74 53 21 74 53 21 74 53 21 74 53 21 74 53 21 74 53 21 74 53 21 74 53 21 74 53 21 74 53 21 74 53 21 74 53 21 74 53 21 74 53 21 74 53 21 74 53 21 74 53 21 74 53 21 74 53 21 74 53 21 74 53 21 74 53 21 74 53 21 74 53 21 74 53 21 74 53 21 74 53 21 74 53 21 74 53 21 74 53 21 74 53 21 74 53 21 92 67 29 92 67 29 92 67 29 92 67 29 92 67 29 92 67 29 92 67 29 92 67 29 92 67 29 92 67 29 92 67 29 92 67 29 92 67 29 92 67 29 92 67 29 92 67 29 74 53 21 74 53 21 74 53 21 74 53 21 74 53 21 74 53 21 74 53 21 74 53 21 74 53 21 74 53 21 74 53 21 74 53 21 74 53 21 74 53 21 74 53 21 74 53 21 56 40 13 56 40 13 56 40 13 56 40 13 56 40 13 56 40 13 56 40 13 56 40 13 56 40 13 56 40 13 56 40 13 56 40 13 56 40 13 56 40 13 56 40 13 56 40 13 56 40 13 56 40 13 56 40 13 56 40 13 56 40 13 56 40 13 56 40 13 56 40 13 56 40 13 56 40 13 56 40 13 56 40 13 56 40 13 56 40 13 56 40 13 56 40 13 56 40 13 56 40 13 56 40 13 56 40 13 56 40 13 56 40 13 56 40 13 56 40 13 56 40 13 56 40 13 56 40 13 56 40 13 56 40 13 56 40 13 56 40 13 56 40 13 56 40 13 56 40 13 56 40 13 56 40 13 56 40 13 56 40 13 56 40 13 56 40 13 56 40 13 56 40 13 56 40 13 56 40 13 56 40 13 56 40 13 56 40 13 74 53 21 74 53 21 74 53 21 74 53 21 74 53 21 74 53 21 74 53 21 74 53 21 74 53 21 74 53 21 74 53 21 74 53 21 74 53 21 74 53 21 74 53 21 74 53 21 74 53 21 74 53 21 74 53 21 74 53 21 74 53 21 74 53 21 74 53 21 74 53 21 74 53 21 74 53 21 74 53 21 74 53 21 74 53 21 74 53 21 74 53 21 74 53 21 74 53 21 74 53 21 74 53 21 74 53 21 74 53 21 74 53 21 74 53 21 74 53 21 74 53 21 74 53 21 74 53 21 74 53 21 74 53 21 74 53 21 74 53 21 74 53 21 92 67 29 92 67 29 92 67 29 92 67 29 92 67 29 92 67 29 92 67 29 92 67 29 92 67 29 92 67 29 92 67 29 92 67 29 92 67 29 92 67 29 92 67 29 92 67 29 74 53 21 74 53 21 74 53 21 74 53 21 74 53 21 74 53 21 74 53 21 74 53 21 74 53 21 74 53 21 74 53 21 74 53 21 74 53 21 74 53 21 74 53 21 74 53 21 139 193 205 139 193 205 139 193 205 139 193 205 139 193 205 139 193 205 139 193 205 139 193 205 139 193 205 139 193 205 139 193 205 139 193 205 139 193 205 139 193 205 139 193 205 139 193 205 208 234 233 208 234 233 208 234 233 208 234 233 208 234 233 208 234 233 208 234 233 208 234 233 208 234 233 208 234 233 208 234 233 208 234 233 208 234 233 208 234 233 208 234 233 56 40 13 56 40 13 56 40 13 56 40 13 56 40 13 56 40 13 56 40 13 56 40 13 56 40 13 56 40 13 56 40 13 56 40 13 56 40 13 56 40 13 56 40 13 56 40 13 56 40 13 74 53 21 74 53 21 74 53 21 74 53 21 74 53 21 74 53 21 74 53 21 74 53 21 74 53 21 74 53 21 74 53 21 74 53 21 74 53 21 74 53 21 74 53 21 74 53 21 74 53 21 74 53 21 74 53 21 74 53 21 74 53 21 74 53 21 74 53 21 74 53 21 74 53 21 74 53 21 74 53 21 74 53 21 74 53 21 74 53 21 74 53 21 74 53 21 92 67 29 92 67 29 92 67 29 92 67 29 92 67 29 92 67 29 92 67 29 92 67 29 92 67 29 92 67 29 92 67 29 92 67 29 92 67 29 92 67 29 92 67 29 92 67 29 74 53 21 74 53 21 74 53 21 74 53 21 74 53 21 74 53 21 74 53 21 74 53 21 74 53 21 74 53 21 74 53 21 74 53 21 74 53 21 74 53 21 74 53 21 74 53 21 56 40 13 56 40 13 56 40 13 56 40 13 56 40 13 56 40 13 56 40 13 56 40 13 56 40 13 56 40 13 56 40 13 56 40 13 56 40 13 56 40 13 56 40 13 56 40 13 56 40 13 56 40 13 56 40 13 56 40 13 56 40 13 56 40 13 56 40 13 56 40 13 56 40 13 56 40 13 56 40 13 56 40 13 56 40 13 56 40 13 56 40 13 56 40 13 56 40 13 56 40 13 56 40 13 56 40 13 56 40 13 56 40 13 56 40 13 56 40 13 56 40 13 56 40 13 56 40 13 56 40 13 56 40 13 56 40 13 56 40 13 56 40 13 56 40 13 56 40 13 56 40 13 56 40 13 56 40 13 56 40 13 56 40 13 56 40 13 56 40 13 56 40 13 56 40 13 56 40 13 56 40 13 56 40 13 56 40 13 74 53 21 74 53 21 74 53 21 74 53 21 74 53 21 74 53 21 74 53 21 74 53 21 74 53 21 74 53 21 74 53 21 74 53 21 74 53 21 74 53 21 74 53 21 74 53 21 74 53 21 74 53 21 74 53 21 74 53 21 74 53 21 74 53 21 74 53 21 74 53 21 74 53 21 74 53 21 74 53 21 74 53 21 74 53 21 74 53 21 74 53 21 74 53 21 74 53 21 74 53 21 74 53 21 74 53 21 74 53 21 74 53 21 74 53 21 74 53 21 74 53 21 74 53 21 74 53 21 74 53 21 74 53 21 74 53 21 74 53 21 74 53 21 92 67 29 92 67 29 92 67 29 92 67 29 92 67 29 92 67 29 92 67 29 92 67 29 92 67 29 92 67 29 92 67 29 92 67 29 92 67 29 92 67 29 92 67 29 92 67 29 74 53 21 74 53 21 74 53 21 74 53 21 74 53 21 74 53 21 74 53 21 74 53 21 74 53 21 74 53 21 74 53 21 74 53 21 74 53 21 74 53 21 74 53 21 74 53 21 139 193 205 139 193 205 139 193 205 139 193 205 139 193 205 139 193 205 139 193 205 139 193 205 139 193 205 139 193 205 139 193 205 139 193 205 139 193 205 139 193 205 139 193 205 139 193 205 208 234 233 208 234 233 208 234 233 208 234 233 208 234 233 208 234 233 208 234 233 208 234 233 208 234 233 208 234 233 208 234 233 208 234 233 208 234 233 208 234 233 208 234 233 56 40 13 56 40 13 56 40 13 56 40 13 56 40 13 56 40 13 56 40 13 56 40 13 56 40 13 56 40 13 56 40 13 56 40 13 56 40 13 56 40 13 56 40 13 56 40 13 56 40 13 74 53 21 74 53 21 74 53 21 74 53 21 74 53 21 74 53 21 74 53 21 74 53 21 74 53 21 74 53 21 74 53 21 74 53 21 74 53 21 74 53 21 74 53 21 74 53 21 74 53 21 74 53 21 74 53 21 74 53 21 74 53 21 74 53 21 74 53 21 74 53 21 74 53 21 74 53 21 74 53 21 74 53 21 74 53 21 74 53 21 74 53 21 74 53 21 92 67 29 92 67 29 92 67 29 92 67 29 92 67 29 92 67 29 92 67 29 92 67 29 92 67 29 92 67 29 92 67 29 92 67 29 92 67 29 92 67 29 92 67 29 92 67 29 74 53 21 74 53 21 74 53 21 74 53 21 74 53 21 74 53 21 74 53 21 74 53 21 74 53 21 74 53 21 74 53 21 74 53 21 74 53 21 74 53 21 74 53 21 74 53 21 56 40 13 56 40 13 56 40 13 56 40 13 56 40 13 56 40 13 56 40 13 56 40 13 56 40 13 56 40 13 56 40 13 56 40 13 56 40 13 56 40 13 56 40 13 56 40 13 56 40 13 56 40 13 56 40 13 56 40 13 56 40 13 56 40 13 56 40 13 56 40 13 56 40 13 56 40 13 56 40 13 56 40 13 56 40 13 56 40 13 56 40 13 56 40 13 56 40 13 56 40 13 56 40 13 56 40 13 56 40 13 56 40 13 56 40 13 56 40 13 56 40 13 56 40 13 56 40 13 56 40 13 56 40 13 56 40 13 56 40 13 56 40 13 56 40 13 56 40 13 56 40 13 56 40 13 56 40 13 56 40 13 56 40 13 56 40 13 56 40 13 56 40 13 56 40 13 56 40 13 56 40 13 56 40 13 56 40 13 74 53 21 74 53 21 74 53 21 74 53 21 74 53 21 74 53 21 74 53 21 74 53 21 74 53 21 74 53 21 74 53 21 74 53 21 74 53 21 74 53 21 74 53 21 74 53 21 74 53 21 74 53 21 74 53 21 74 53 21 74 53 21 74 53 21 74 53 21 74 53 21 74 53 21 74 53 21 74 53 21 74 53 21 74 53 21 74 53 21 74 53 21 74 53 21 74 53 21 74 53 21 74 53 21 74 53 21 74 53 21 74 53 21 74 53 21 74 53 21 74 53 21 74 53 21 74 53 21 74 53 21 74 53 21 74 53 21 74 53 21 74 53 21 92 67 29 92 67 29 92 67 29 92 67 29 92 67 29 92 67 29 92 67 29 92 67 29 92 67 29 92 67 29 92 67 29 92 67 29 92 67 29 92 67 29 92 67 29 92 67 29 74 53 21 74 53 21 74 53 21 74 53 21 74 53 21 74 53 21 74 53 21 74 53 21 74 53 21 74 53 21 74 53 21 74 53 21 74 53 21 74 53 21 74 53 21 74 53 21 139 193 205 139 193 205 139 193 205 139 193 205 139 193 205 139 193 205 139 193 205 139 193 205 139 193 205 139 193 205 139 193 205 139 193 205 139 193 205 139 193 205 139 193 205 139 193 205 208 234 233 208 234 233 208 234 233 208 234 233 208 234 233 208 234 233 208 234 233 208 234 233 208 234 233 208 234 233 208 234 233 208 234 233 208 234 233 208 234 233 208 234 233 56 40 13 56 40 13 56 40 13 56 40 13 56 40 13 56 40 13 56 40 13 56 40 13 56 40 13 56 40 13 56 40 13 56 40 13 56 40 13 56 40 13 56 40 13 56 40 13 56 40 13 74 53 21 74 53 21 74 53 21 74 53 21 74 53 21 74 53 21 74 53 21 74 53 21 74 53 21 74 53 21 74 53 21 74 53 21 74 53 21 74 53 21 74 53 21 74 53 21 74 53 21 74 53 21 74 53 21 74 53 21 74 53 21 74 53 21 74 53 21 74 53 21 74 53 21 74 53 21 74 53 21 74 53 21 74 53 21 74 53 21 74 53 21 74 53 21 92 67 29 92 67 29 92 67 29 92 67 29 92 67 29 92 67 29 92 67 29 92 67 29 92 67 29 92 67 29 92 67 29 92 67 29 92 67 29 92 67 29 92 67 29 92 67 29 74 53 21 74 53 21 74 53 21 74 53 21 74 53 21 74 53 21 74 53 21 74 53 21 74 53 21 74 53 21 74 53 21 74 53 21 74 53 21 74 53 21 74 53 21 74 53 21 56 40 13 56 40 13 56 40 13 56 40 13 56 40 13 56 40 13 56 40 13 56 40 13 56 40 13 56 40 13 56 40 13 56 40 13 56 40 13 56 40 13 56 40 13 56 40 13 56 40 13 56 40 13 56 40 13 56 40 13 56 40 13 56 40 13 56 40 13 56 40 13 56 40 13 56 40 13 56 40 13 56 40 13 56 40 13 56 40 13 56 40 13 56 40 13 56 40 13 56 40 13 56 40 13 56 40 13 56 40 13 56 40 13 56 40 13 56 40 13 56 40 13 56 40 13 56 40 13 56 40 13 56 40 13 56 40 13 56 40 13 56 40 13 56 40 13 56 40 13 56 40 13 56 40 13 56 40 13 56 40 13 56 40 13 56 40 13 56 40 13 56 40 13 56 40 13 56 40 13 56 40 13 56 40 13 56 40 13 74 53 21 74 53 21 74 53 21 74 53 21 74 53 21 74 53 21 74 53 21 74 53 21 74 53 21 74 53 21 74 53 21 74 53 21 74 53 21 74 53 21 74 53 21 74 53 21 74 53 21 74 53 21 74 53 21 74 53 21 74 53 21 74 53 21 74 53 21 74 53 21 74 53 21 74 53 21 74 53 21 74 53 21 74 53 21 74 53 21 74 53 21 74 53 21 74 53 21 74 53 21 74 53 21 74 53 21 74 53 21 74 53 21 74 53 21 74 53 21 74 53 21 74 53 21 74 53 21 74 53 21 74 53 21 74 53 21 74 53 21 74 53 21 92 67 29 92 67 29 92 67 29 92 67 29 92 67 29 92 67 29 92 67 29 92 67 29 92 67 29 92 67 29 92 67 29 92 67 29 92 67 29 92 67 29 92 67 29 92 67 29 74 53 21 74 53 21 74 53 21 74 53 21 74 53 21 74 53 21 74 53 21 74 53 21 74 53 21 74 53 21 74 53 21 74 53 21 74 53 21 74 53 21 74 53 21 74 53 21 139 193 205 139 193 205 139 193 205 139 193 205 139 193 205 139 193 205 139 193 205 139 193 205 139 193 205 139 193 205 139 193 205 139 193 205 139 193 205 139 193 205 139 193 205 139 193 205 208 234 233 208 234 233 208 234 233 208 234 233 208 234 233 208 234 233 208 234 233 208 234 233 208 234 233 208 234 233 208 234 233 208 234 233 208 234 233 208 234 233 208 234 233 56 40 13 56 40 13 56 40 13 56 40 13 56 40 13 56 40 13 56 40 13 56 40 13 56 40 13 56 40 13 56 40 13 56 40 13 56 40 13 56 40 13 56 40 13 56 40 13 56 40 13 74 53 21 74 53 21 74 53 21 74 53 21 74 53 21 74 53 21 74 53 21 74 53 21 74 53 21 74 53 21 74 53 21 74 53 21 74 53 21 74 53 21 74 53 21 74 53 21 74 53 21 74 53 21 74 53 21 74 53 21 74 53 21 74 53 21 74 53 21 74 53 21 74 53 21 74 53 21 74 53 21 74 53 21 74 53 21 74 53 21 74 53 21 74 53 21 92 67 29 92 67 29 92 67 29 92 67 29 92 67 29 92 67 29 92 67 29 92 67 29 92 67 29 92 67 29 92 67 29 92 67 29 92 67 29 92 67 29 92 67 29 92 67 29 74 53 21 74 53 21 74 53 21 74 53 21 74 53 21 74 53 21 74 53 21 74 53 21 74 53 21 74 53 21 74 53 21 74 53 21 74 53 21 74 53 21 74 53 21 74 53 21 56 40 13 56 40 13 56 40 13 56 40 13 56 40 13 56 40 13 56 40 13 56 40 13 56 40 13 56 40 13 56 40 13 56 40 13 56 40 13 56 40 13 56 40 13 56 40 13 56 40 13 56 40 13 56 40 13 56 40 13 56 40 13 56 40 13 56 40 13 56 40 13 56 40 13 56 40 13 56 40 13 56 40 13 56 40 13 56 40 13 56 40 13 56 40 13 56 40 13 56 40 13 56 40 13 56 40 13 56 40 13 56 40 13 56 40 13 56 40 13 56 40 13 56 40 13 56 40 13 56 40 13 56 40 13 56 40 13 56 40 13 56 40 13 56 40 13 56 40 13 56 40 13 56 40 13 56 40 13 56 40 13 56 40 13 56 40 13 56 40 13 56 40 13 56 40 13 56 40 13 56 40 13 56 40 13 56 40 13 74 53 21 74 53 21 74 53 21 74 53 21 74 53 21 74 53 21 74 53 21 74 53 21 74 53 21 74 53 21 74 53 21 74 53 21 74 53 21 74 53 21 74 53 21 74 53 21 74 53 21 74 53 21 74 53 21 74 53 21 74 53 21 74 53 21 74 53 21 74 53 21 74 53 21 74 53 21 74 53 21 74 53 21 74 53 21 74 53 21 74 53 21 74 53 21 74 53 21 74 53 21 74 53 21 74 53 21 74 53 21 74 53 21 74 53 21 74 53 21 74 53 21 74 53 21 74 53 21 74 53 21 74 53 21 74 53 21 74 53 21 74 53 21 92 67 29 92 67 29 92 67 29 92 67 29 92 67 29 92 67 29 92 67 29 92 67 29 92 67 29 92 67 29 92 67 29 92 67 29 92 67 29 92 67 29 92 67 29 92 67 29 74 53 21 74 53 21 74 53 21 74 53 21 74 53 21 74 53 21 74 53 21 74 53 21 74 53 21 74 53 21 74 53 21 74 53 21 74 53 21 74 53 21 74 53 21 74 53 21 139 193 205 139 193 205 139 193 205 139 193 205 139 193 205 139 193 205 139 193 205 139 193 205 139 193 205 139 193 205 139 193 205 139 193 205 139 193 205 139 193 205 139 193 205 139 193 205 208 234 233 208 234 233 208 234 233 208 234 233 208 234 233 208 234 233 208 234 233 208 234 233 208 234 233 208 234 233 208 234 233 208 234 233 208 234 233 208 234 233 208 234 233 117 91 51 125 98 53 125 98 53 125 98 53 125 98 53 125 98 53 125 98 53 125 98 53 125 98 53 125 98 53 125 98 53 125 98 53 125 98 53 125 98 53 125 98 53 125 98 53 125 98 53 125 98 53 125 98 53 125 98 53 125 98 53 125 98 53 125 98 53 125 98 53 125 98 53 125 98 53 125 98 53 125 98 53 125 98 53 125 98 53 125 98 53 125 98 53 125 98 53 117 91 51 117 91 51 117 91 51 117 91 51 117 91 51 117 91 51 117 91 51 117 91 51 117 91 51 117 91 51 117 91 51 117 91 51 117 91 51 117 91 51 117 91 51 117 91 51 110 86 44 110 86 44 110 86 44 110 86 44 110 86 44 110 86 44 110 86 44 110 86 44 110 86 44 110 86 44 110 86 44 110 86 44 110 86 44 110 86 44 110 86 44 110 86 44 110 86 44 110 86 44 110 86 44 110 86 44 110 86 44 110 86 44 110 86 44 110 86 44 110 86 44 110 86 44 110 86 44 110 86 44 110 86 44 110 86 44 110 86 44 110 86 44 125 98 53 125 98 53 125 98 53 125 98 53 125 98 53 125 98 53 125 98 53 125 98 53 125 98 53 125 98 53 125 98 53 125 98 53 125 98 53 125 98 53 125 98 53 125 98 53 125 98 53 125 98 53 125 98 53 125 98 53 125 98 53 125 98 53 125 98 53 125 98 53 125 98 53 125 98 53 125 98 53 125 98 53 125 98 53 125 98 53 125 98 53 125 98 53 125 98 53 125 98 53 125 98 53 125 98 53 125 98 53 125 98 53 125 98 53 125 98 53 125 98 53 125 98 53 125 98 53 125 98 53 125 98 53 125 98 53 125 98 53 125 98 53 125 98 53 125 98 53 125 98 53 125 98 53 125 98 53 125 98 53 125 98 53 125 98 53 125 98 53 125 98 53 125 98 53 125 98 53 125 98 53 125 98 53 125 98 53 125 98 53 125 98 53 125 98 53 125 98 53 125 98 53 125 98 53 125 98 53 125 98 53 125 98 53 125 98 53 125 98 53 125 98 53 125 98 53 125 98 53 125 98 53 125 98 53 125 98 53 125 98 53 125 98 53 125 98 53 125 98 53 125 98 53 125 98 53 125 98 53 125 98 53 125 98 53 125 98 53 125 98 53 125 98 53 125 98 53 125 98 53 125 98 53 125 98 53 125 98 53 125 98 53 125 98 53 125 98 53 125 98 53 125 98 53 125 98 53 125 98 53 125 98 53 125 98 53 125 98 53 125 98 53 125 98 53 125 98 53 125 98 53 125 98 53 125 98 53 125 98 53 125 98 53 125 98 53 125 98 53 125 98 53 125 98 53 125 98 53 125 98 53 125 98 53 125 98 53 125 98 53 125 98 53 125 98 53 125 98 53 117 91 51 117 91 51 117 91 51 117 91 51 117 91 51 117 91 51 117 91 51 117 91 51 117 91 51 117 91 51 117 91 51 117 91 51 117 91 51 117 91 51 117 91 51 117 91 51 139 193 205 139 193 205 139 193 205 139 193 205 139 193 205 139 193 205 139 193 205 139 193 205 139 193 205 139 193 205 139 193 205 139 193 205 139 193 205 139 193 205 139 193 205 139 193 205 208 234 233 208 234 233 208 234 233 208 234 233 208 234 233 208 234 233 208 234 233 208 234 233 208 234 233 208 234 233 208 234 233 208 234 233 208 234 233 208 234 233 208 234 233 117 91 51 125 98 53 125 98 53 125 98 53 125 98 53 125 98 53 125 98 53 125 98 53 125 98 53 125 98 53 125 98 53 125 98 53 125 98 53 125 98 53 125 98 53 125 98 53 125 98 53 125 98 53 125 98 53 125 98 53 125 98 53 125 98 53 125 98 53 125 98 53 125 98 53 125 98 53 125 98 53 125 98 53 125 98 53 125 98 53 125 98 53 125 98 53 125 98 53 117 91 51 117 91 51 117 91 51 117 91 51 117 91 51 117 91 51 117 91 51 117 91 51 117 91 51 117 91 51 117 91 51 117 91 51 117 91 51 117 91 51 117 91 51 117 91 51 110 86 44 110 86 44 110 86 44 110 86 44 110 86 44 110 86 44 110 86 44 110 86 44 110 86 44 110 86 44 110 86 44 110 86 44 110 86 44 110 86 44 110 86 44 110 86 44 110 86 44 110 86 44 110 86 44 110 86 44 110 86 44 110 86 44 110 86 44 110 86 44 110 86 44 110 86 44 110 86 44 110 86 44 110 86 44 110 86 44 110 86 44 110 86 44 125 98 53 125 98 53 125 98 53 125 98 53 125 98 53 125 98 53 125 98 53 125 98 53 125 98 53 125 98 53 125 98 53 125 98 53 125 98 53 125 98 53 125 98 53 125 98 53 125 98 53 125 98 53 125 98 53 125 98 53 125 98 53 125 98 53 125 98 53 125 98 53 125 98 53 125 98 53 125 98 53 125 98 53 125 98 53 125 98 53 125 98 53 125 98 53 125 98 53 125 98 53 125 98 53 125 98 53 125 98 53 125 98 53 125 98 53 125 98 53 125 98 53 125 98 53 125 98 53 125 98 53 125 98 53 125 98 53 125 98 53 125 98 53 125 98 53 125 98 53 125 98 53 125 98 53 125 98 53 125 98 53 125 98 53 125 98 53 125 98 53 125 98 53 125 98 53 125 98 53 125 98 53 125 98 53 125 98 53 125 98 53 125 98 53 125 98 53 125 98 53 125 98 53 125 98 53 125 98 53 125 98 53 125 98 53 125 98 53 125 98 53 125 98 53 125 98 53 125 98 53 125 98 53 125 98 53 125 98 53 125 98 53 125 98 53 125 98 53 125 98 53 125 98 53 125 98 53 125 98 53 125 98 53 125 98 53 125 98 53 125 98 53 125 98 53 125 98 53 125 98 53 125 98 53 125 98 53 125 98 53 125 98 53 125 98 53 125 98 53 125 98 53 125 98 53 125 98 53 125 98 53 125 98 53 125 98 53 125 98 53 125 98 53 125 98 53 125 98 53 125 98 53 125 98 53 125 98 53 125 98 53 125 98 53 125 98 53 125 98 53 125 98 53 125 98 53 125 98 53 125 98 53 125 98 53 125 98 53 125 98 53 125 98 53 125 98 53 125 98 53 117 91 51 117 91 51 117 91 51 117 91 51 117 91 51 117 91 51 117 91 51 117 91 51 117 91 51 117 91 51 117 91 51 117 91 51 117 91 51 117 91 51 117 91 51 117 91 51 139 193 205 139 193 205 139 193 205 139 193 205 139 193 205 139 193 205 139 193 205 139 193 205 139 193 205 139 193 205 139 193 205 139 193 205 139 193 205 139 193 205 139 193 205 139 193 205 208 234 233 208 234 233 208 234 233 208 234 233 208 234 233 208 234 233 208 234 233 208 234 233 208 234 233 208 234 233 208 234 233 208 234 233 208 234 233 208 234 233 208 234 233 117 91 51 125 98 53 125 98 53 125 98 53 125 98 53 125 98 53 125 98 53 125 98 53 125 98 53 125 98 53 125 98 53 125 98 53 125 98 53 125 98 53 125 98 53 125 98 53 125 98 53 125 98 53 125 98 53 125 98 53 125 98 53 125 98 53 125 98 53 125 98 53 125 98 53 125 98 53 125 98 53 125 98 53 125 98 53 125 98 53 125 98 53 125 98 53 125 98 53 117 91 51 117 91 51 117 91 51 117 91 51 117 91 51 117 91 51 117 91 51 117 91 51 117 91 51 117 91 51 117 91 51 117 91 51 117 91 51 117 91 51 117 91 51 117 91 51 110 86 44 110 86 44 110 86 44 110 86 44 110 86 44 110 86 44 110 86 44 110 86 44 110 86 44 110 86 44 110 86 44 110 86 44 110 86 44 110 86 44 110 86 44 110 86 44 110 86 44 110 86 44 110 86 44 110 86 44 110 86 44 110 86 44 110 86 44 110 86 44 110 86 44 110 86 44 110 86 44 110 86 44 110 86 44 110 86 44 110 86 44 110 86 44 125 98 53 125 98 53 125 98 53 125 98 53 125 98 53 125 98 53 125 98 53 125 98 53 125 98 53 125 98 53 125 98 53 125 98 53 125 98 53 125 98 53 125 98 53 125 98 53 125 98 53 125 98 53 125 98 53 125 98 53 125 98 53 125 98 53 125 98 53 125 98 53 125 98 53 125 98 53 125 98 53 125 98 53 125 98 53 125 98 53 125 98 53 125 98 53 125 98 53 125 98 53 125 98 53 125 98 53 125 98 53 125 98 53 125 98 53 125 98 53 125 98 53 125 98 53 125 98 53 125 98 53 125 98 53 125 98 53 125 98 53 125 98 53 125 98 53 125 98 53 125 98 53 125 98 53 125 98 53 125 98 53 125 98 53 125 98 53 125 98 53 125 98 53 125 98 53 125 98 53 125 98 53 125 98 53 125 98 53 125 98 53 125 98 53 125 98 53 125 98 53 125 98 53 125 98 53 125 98 53 125 98 53 125 98 53 125 98 53 125 98 53 125 98 53 125 98 53 125 98 53 125 98 53 125 98 53 125 98 53 125 98 53 125 98 53 125 98 53 125 98 53 125 98 53 125 98 53 125 98 53 125 98 53 125 98 53 125 98 53 125 98 53 125 98 53 125 98 53 125 98 53 125 98 53 125 98 53 125 98 53 125 98 53 125 98 53 125 98 53 125 98 53 125 98 53 125 98 53 125 98 53 125 98 53 125 98 53 125 98 53 125 98 53 125 98 53 125 98 53 125 98 53 125 98 53 125 98 53 125 98 53 125 98 53 125 98 53 125 98 53 125 98 53 125 98 53 125 98 53 125 98 53 125 98 53 125 98 53 125 98 53 125 98 53 125 98 53 125 98 53 117 91 51 117 91 51 117 91 51 117 91 51 117 91 51 117 91 51 117 91 51 117 91 51 117 91 51 117 91 51 117 91 51 117 91 51 117 91 51 117 91 51 117 91 51 117 91 51 139 193 205 139 193 205 139 193 205 139 193 205 139 193 205 139 193 205 139 193 205 139 193 205 139 193 205 139 193 205 139 193 205 139 193 205 139 193 205 139 193 205 139 193 205 139 193 205 208 234 233 208 234 233 208 234 233 208 234 233 208 234 233 208 234 233 208 234 233 208 234 233 208 234 233 208 234 233 208 234 233 208 234 233 208 234 233 208 234 233 208 234 233 117 91 51 125 98 53 125 98 53 125 98 53 125 98 53 125 98 53 125 98 53 125 98 53 125 98 53 125 98 53 125 98 53 125 98 53 125 98 53 125 98 53 125 98 53 125 98 53 125 98 53 125 98 53 125 98 53 125 98 53 125 98 53 125 98 53 125 98 53 125 98 53 125 98 53 125 98 53 125 98 53 125 98 53 125 98 53 125 98 53 125 98 53 125 98 53 125 98 53 117 91 51 117 91 51 117 91 51 117 91 51 117 91 51 117 91 51 117 91 51 117 91 51 117 91 51 117 91 51 117 91 51 117 91 51 117 91 51 117 91 51 117 91 51 117 91 51 110 86 44 110 86 44 110 86 44 110 86 44 110 86 44 110 86 44 110 86 44 110 86 44 110 86 44 110 86 44 110 86 44 110 86 44 110 86 44 110 86 44 110 86 44 110 86 44 110 86 44 110 86 44 110 86 44 110 86 44 110 86 44 110 86 44 110 86 44 110 86 44 110 86 44 110 86 44 110 86 44 110 86 44 110 86 44 110 86 44 110 86 44 110 86 44 125 98 53 125 98 53 125 98 53 125 98 53 125 98 53 125 98 53 125 98 53 125 98 53 125 98 53 125 98 53 125 98 53 125 98 53 125 98 53 125 98 53 125 98 53 125 98 53 125 98 53 125 98 53 125 98 53 125 98 53 125 98 53 125 98 53 125 98 53 125 98 53 125 98 53 125 98 53 125 98 53 125 98 53 125 98 53 125 98 53 125 98 53 125 98 53 125 98 53 125 98 53 125 98 53 125 98 53 125 98 53 125 98 53 125 98 53 125 98 53 125 98 53 125 98 53 125 98 53 125 98 53 125 98 53 125 98 53 125 98 53 125 98 53 125 98 53 125 98 53 125 98 53 125 98 53 125 98 53 125 98 53 125 98 53 125 98 53 125 98 53 125 98 53 125 98 53 125 98 53 125 98 53 125 98 53 125 98 53 125 98 53 125 98 53 125 98 53 125 98 53 125 98 53 125 98 53 125 98 53 125 98 53 125 98 53 125 98 53 125 98 53 125 98 53 125 98 53 125 98 53 125 98 53 125 98 53 125 98 53 125 98 53 125 98 53 125 98 53 125 98 53 125 98 53 125 98 53 125 98 53 125 98 53 125 98 53 125 98 53 125 98 53 125 98 53 125 98 53 125 98 53 125 98 53 125 98 53 125 98 53 125 98 53 125 98 53 125 98 53 125 98 53 125 98 53 125 98 53 125 98 53 125 98 53 125 98 53 125 98 53 125 98 53 125 98 53 125 98 53 125 98 53 125 98 53 125 98 53 125 98 53 125 98 53 125 98 53 125 98 53 125 98 53 125 98 53 125 98 53 125 98 53 125 98 53 125 98 53 125 98 53 125 98 53 125 98 53 125 98 53 117 91 51 117 91 51 117 91 51 117 91 51 117 91 51 117 91 51 117 91 51 117 91 51 117 91 51 117 91 51 117 91 51 117 91 51 117 91 51 117 91 51 117 91 51 117 91 51 139 193 205 139 193 205 139 193 205 139 193 205 139 193 205 139 193 205 139 193 205 139 193 205 139 193 205 139 193 205 139 193 205 139 193 205 139 193 205 139 193 205 139 193 205 139 193 205 208 234 233 208 234 233 208 234 233 208 234 233 208 234 233 208 234 233 208 234 233 208 234 233 208 234 233 208 234 233 208 234 233 208 234 233 208 234 233 208 234 233 208 234 233 117 91 51 125 98 53 125 98 53 125 98 53 125 98 53 125 98 53 125 98 53 125 98 53 125 98 53 125 98 53 125 98 53 125 98 53 125 98 53 125 98 53 125 98 53 125 98 53 125 98 53 125 98 53 125 98 53 125 98 53 125 98 53 125 98 53 125 98 53 125 98 53 125 98 53 125 98 53 125 98 53 125 98 53 125 98 53 125 98 53 125 98 53 125 98 53 125 98 53 117 91 51 117 91 51 117 91 51 117 91 51 117 91 51 117 91 51 117 91 51 117 91 51 117 91 51 117 91 51 117 91 51 117 91 51 117 91 51 117 91 51 117 91 51 117 91 51 110 86 44 110 86 44 110 86 44 110 86 44 110 86 44 110 86 44 110 86 44 110 86 44 110 86 44 110 86 44 110 86 44 110 86 44 110 86 44 110 86 44 110 86 44 110 86 44 110 86 44 110 86 44 110 86 44 110 86 44 110 86 44 110 86 44 110 86 44 110 86 44 110 86 44 110 86 44 110 86 44 110 86 44 110 86 44 110 86 44 110 86 44 110 86 44 125 98 53 125 98 53 125 98 53 125 98 53 125 98 53 125 98 53 125 98 53 125 98 53 125 98 53 125 98 53 125 98 53 125 98 53 125 98 53 125 98 53 125 98 53 125 98 53 125 98 53 125 98 53 125 98 53 125 98 53 125 98 53 125 98 53 125 98 53 125 98 53 125 98 53 125 98 53 125 98 53 125 98 53 125 98 53 125 98 53 125 98 53 125 98 53 125 98 53 125 98 53 125 98 53 125 98 53 125 98 53 125 98 53 125 98 53 125 98 53 125 98 53 125 98 53 125 98 53 125 98 53 125 98 53 125 98 53 125 98 53 125 98 53 125 98 53 125 98 53 125 98 53 125 98 53 125 98 53 125 98 53 125 98 53 125 98 53 125 98 53 125 98 53 125 98 53 125 98 53 125 98 53 125 98 53 125 98 53 125 98 53 125 98 53 125 98 53 125 98 53 125 98 53 125 98 53 125 98 53 125 98 53 125 98 53 125 98 53 125 98 53 125 98 53 125 98 53 125 98 53 125 98 53 125 98 53 125 98 53 125 98 53 125 98 53 125 98 53 125 98 53 125 98 53 125 98 53 125 98 53 125 98 53 125 98 53 125 98 53 125 98 53 125 98 53 125 98 53 125 98 53 125 98 53 125 98 53 125 98 53 125 98 53 125 98 53 125 98 53 125 98 53 125 98 53 125 98 53 125 98 53 125 98 53 125 98 53 125 98 53 125 98 53 125 98 53 125 98 53 125 98 53 125 98 53 125 98 53 125 98 53 125 98 53 125 98 53 125 98 53 125 98 53 125 98 53 125 98 53 125 98 53 125 98 53 125 98 53 125 98 53 125 98 53 125 98 53 125 98 53 117 91 51 117 91 51 117 91 51 117 91 51 117 91 51 117 91 51 117 91 51 117 91 51 117 91 51 117 91 51 117 91 51 117 91 51 117 91 51 117 91 51 117 91 51 117 91 51 139 193 205 139 193 205 139 193 205 139 193 205 139 193 205 139 193 205 139 193 205 139 193 205 139 193 205 139 193 205 139 193 205 139 193 205 139 193 205 139 193 205 139 193 205 139 193 205 208 234 233 208 234 233 208 234 233 208 234 233 208 234 233 208 234 233 208 234 233 208 234 233 208 234 233 208 234 233 208 234 233 208 234 233 208 234 233 208 234 233 208 234 233 117 91 51 125 98 53 125 98 53 125 98 53 125 98 53 125 98 53 125 98 53 125 98 53 125 98 53 125 98 53 125 98 53 125 98 53 125 98 53 125 98 53 125 98 53 125 98 53 125 98 53 125 98 53 125 98 53 125 98 53 125 98 53 125 98 53 125 98 53 125 98 53 125 98 53 125 98 53 125 98 53 125 98 53 125 98 53 125 98 53 125 98 53 125 98 53 125 98 53 117 91 51 117 91 51 117 91 51 117 91 51 117 91 51 117 91 51 117 91 51 117 91 51 117 91 51 117 91 51 117 91 51 117 91 51 117 91 51 117 91 51 117 91 51 117 91 51 110 86 44 110 86 44 110 86 44 110 86 44 110 86 44 110 86 44 110 86 44 110 86 44 110 86 44 110 86 44 110 86 44 110 86 44 110 86 44 110 86 44 110 86 44 110 86 44 110 86 44 110 86 44 110 86 44 110 86 44 110 86 44 110 86 44 110 86 44 110 86 44 110 86 44 110 86 44 110 86 44 110 86 44 110 86 44 110 86 44 110 86 44 110 86 44 125 98 53 125 98 53 125 98 53 125 98 53 125 98 53 125 98 53 125 98 53 125 98 53 125 98 53 125 98 53 125 98 53 125 98 53 125 98 53 125 98 53 125 98 53 125 98 53 125 98 53 125 98 53 125 98 53 125 98 53 125 98 53 125 98 53 125 98 53 125 98 53 125 98 53 125 98 53 125 98 53 125 98 53 125 98 53 125 98 53 125 98 53 125 98 53 125 98 53 125 98 53 125 98 53 125 98 53 125 98 53 125 98 53 125 98 53 125 98 53 125 98 53 125 98 53 125 98 53 125 98 53 125 98 53 125 98 53 125 98 53 125 98 53 125 98 53 125 98 53 125 98 53 125 98 53 125 98 53 125 98 53 125 98 53 125 98 53 125 98 53 125 98 53 125 98 53 125 98 53 125 98 53 125 98 53 125 98 53 125 98 53 125 98 53 125 98 53 125 98 53 125 98 53 125 98 53 125 98 53 125 98 53 125 98 53 125 98 53 125 98 53 125 98 53 125 98 53 125 98 53 125 98 53 125 98 53 125 98 53 125 98 53 125 98 53 125 98 53 125 98 53 125 98 53 125 98 53 125 98 53 125 98 53 125 98 53 125 98 53 125 98 53 125 98 53 125 98 53 125 98 53 125 98 53 125 98 53 125 98 53 125 98 53 125 98 53 125 98 53 125 98 53 125 98 53 125 98 53 125 98 53 125 98 53 125 98 53 125 98 53 125 98 53 125 98 53 125 98 53 125 98 53 125 98 53 125 98 53 125 98 53 125 98 53 125 98 53 125 98 53 125 98 53 125 98 53 125 98 53 125 98 53 125 98 53 125 98 53 125 98 53 125 98 53 125 98 53 125 98 53 117 91 51 117 91 51 117 91 51 117 91 51 117 91 51 117 91 51 117 91 51 117 91 51 117 91 51 117 91 51 117 91 51 117 91 51 117 91 51 117 91 51 117 91 51 117 91 51 139 193 205 139 193 205 139 193 205 139 193 205 139 193 205 139 193 205 139 193 205 139 193 205 139 193 205 139 193 205 139 193 205 139 193 205 139 193 205 139 193 205 139 193 205 139 193 205 208 234 233 208 234 233 208 234 233 208 234 233 208 234 233 208 234 233 208 234 233 208 234 233 208 234 233 208 234 233 208 234 233 208 234 233 208 234 233 208 234 233 208 234 233 117 91 51 125 98 53 125 98 53 125 98 53 125 98 53 125 98 53 125 98 53 125 98 53 125 98 53 125 98 53 125 98 53 125 98 53 125 98 53 125 98 53 125 98 53 125 98 53 125 98 53 125 98 53 125 98 53 125 98 53 125 98 53 125 98 53 125 98 53 125 98 53 125 98 53 125 98 53 125 98 53 125 98 53 125 98 53 125 98 53 125 98 53 125 98 53 125 98 53 117 91 51 117 91 51 117 91 51 117 91 51 117 91 51 117 91 51 117 91 51 117 91 51 117 91 51 117 91 51 117 91 51 117 91 51 117 91 51 117 91 51 117 91 51 117 91 51 110 86 44 110 86 44 110 86 44 110 86 44 110 86 44 110 86 44 110 86 44 110 86 44 110 86 44 110 86 44 110 86 44 110 86 44 110 86 44 110 86 44 110 86 44 110 86 44 110 86 44 110 86 44 110 86 44 110 86 44 110 86 44 110 86 44 110 86 44 110 86 44 110 86 44 110 86 44 110 86 44 110 86 44 110 86 44 110 86 44 110 86 44 110 86 44 125 98 53 125 98 53 125 98 53 125 98 53 125 98 53 125 98 53 125 98 53 125 98 53 125 98 53 125 98 53 125 98 53 125 98 53 125 98 53 125 98 53 125 98 53 125 98 53 125 98 53 125 98 53 125 98 53 125 98 53 125 98 53 125 98 53 125 98 53 125 98 53 125 98 53 125 98 53 125 98 53 125 98 53 125 98 53 125 98 53 125 98 53 125 98 53 125 98 53 125 98 53 125 98 53 125 98 53 125 98 53 125 98 53 125 98 53 125 98 53 125 98 53 125 98 53 125 98 53 125 98 53 125 98 53 125 98 53 125 98 53 125 98 53 125 98 53 125 98 53 125 98 53 125 98 53 125 98 53 125 98 53 125 98 53 125 98 53 125 98 53 125 98 53 125 98 53 125 98 53 125 98 53 125 98 53 125 98 53 125 98 53 125 98 53 125 98 53 125 98 53 125 98 53 125 98 53 125 98 53 125 98 53 125 98 53 125 98 53 125 98 53 125 98 53 125 98 53 125 98 53 125 98 53 125 98 53 125 98 53 125 98 53 125 98 53 125 98 53 125 98 53 125 98 53 125 98 53 125 98 53 125 98 53 125 98 53 125 98 53 125 98 53 125 98 53 125 98 53 125 98 53 125 98 53 125 98 53 125 98 53 125 98 53 125 98 53 125 98 53 125 98 53 125 98 53 125 98 53 125 98 53 125 98 53 125 98 53 125 98 53 125 98 53 125 98 53 125 98 53 125 98 53 125 98 53 125 98 53 125 98 53 125 98 53 125 98 53 125 98 53 125 98 53 125 98 53 125 98 53 125 98 53 125 98 53 125 98 53 125 98 53 125 98 53 125 98 53 125 98 53 117 91 51 117 91 51 117 91 51 117 91 51 117 91 51 117 91 51 117 91 51 117 91 51 117 91 51 117 91 51 117 91 51 117 91 51 117 91 51 117 91 51 117 91 51 117 91 51 139 193 205 139 193 205 139 193 205 139 193 205 139 193 205 139 193 205 139 193 205 139 193 205 139 193 205 139 193 205 139 193 205 139 193 205 139 193 205 139 193 205 139 193 205 139 193 205 208 234 233 208 234 233 208 234 233 208 234 233 208 234 233 208 234 233 208 234 233 208 234 233 208 234 233 208 234 233 208 234 233 208 234 233 208 234 233 208 234 233 208 234 233 117 91 51 125 98 53 125 98 53 125 98 53 125 98 53 125 98 53 125 98 53 125 98 53 125 98 53 125 98 53 125 98 53 125 98 53 125 98 53 125 98 53 125 98 53 125 98 53 125 98 53 125 98 53 125 98 53 125 98 53 125 98 53 125 98 53 125 98 53 125 98 53 125 98 53 125 98 53 125 98 53 125 98 53 125 98 53 125 98 53 125 98 53 125 98 53 125 98 53 117 91 51 117 91 51 117 91 51 117 91 51 117 91 51 117 91 51 117 91 51 117 91 51 117 91 51 117 91 51 117 91 51 117 91 51 117 91 51 117 91 51 117 91 51 117 91 51 110 86 44 110 86 44 110 86 44 110 86 44 110 86 44 110 86 44 110 86 44 110 86 44 110 86 44 110 86 44 110 86 44 110 86 44 110 86 44 110 86 44 110 86 44 110 86 44 110 86 44 110 86 44 110 86 44 110 86 44 110 86 44 110 86 44 110 86 44 110 86 44 110 86 44 110 86 44 110 86 44 110 86 44 110 86 44 110 86 44 110 86 44 110 86 44 125 98 53 125 98 53 125 98 53 125 98 53 125 98 53 125 98 53 125 98 53 125 98 53 125 98 53 125 98 53 125 98 53 125 98 53 125 98 53 125 98 53 125 98 53 125 98 53 125 98 53 125 98 53 125 98 53 125 98 53 125 98 53 125 98 53 125 98 53 125 98 53 125 98 53 125 98 53 125 98 53 125 98 53 125 98 53 125 98 53 125 98 53 125 98 53 125 98 53 125 98 53 125 98 53 125 98 53 125 98 53 125 98 53 125 98 53 125 98 53 125 98 53 125 98 53 125 98 53 125 98 53 125 98 53 125 98 53 125 98 53 125 98 53 125 98 53 125 98 53 125 98 53 125 98 53 125 98 53 125 98 53 125 98 53 125 98 53 125 98 53 125 98 53 125 98 53 125 98 53 125 98 53 125 98 53 125 98 53 125 98 53 125 98 53 125 98 53 125 98 53 125 98 53 125 98 53 125 98 53 125 98 53 125 98 53 125 98 53 125 98 53 125 98 53 125 98 53 125 98 53 125 98 53 125 98 53 125 98 53 125 98 53 125 98 53 125 98 53 125 98 53 125 98 53 125 98 53 125 98 53 125 98 53 125 98 53 125 98 53 125 98 53 125 98 53 125 98 53 125 98 53 125 98 53 125 98 53 125 98 53 125 98 53 125 98 53 125 98 53 125 98 53 125 98 53 125 98 53 125 98 53 125 98 53 125 98 53 125 98 53 125 98 53 125 98 53 125 98 53 125 98 53 125 98 53 125 98 53 125 98 53 125 98 53 125 98 53 125 98 53 125 98 53 125 98 53 125 98 53 125 98 53 125 98 53 125 98 53 125 98 53 125 98 53 125 98 53 125 98 53 117 91 51 117 91 51 117 91 51 117 91 51 117 91 51 117 91 51 117 91 51 117 91 51 117 91 51 117 91 51 117 91 51 117 91 51 117 91 51 117 91 51 117 91 51 117 91 51 139 193 205 139 193 205 139 193 205 139 193 205 139 193 205 139 193 205 139 193 205 139 193 205 139 193 205 139 193 205 139 193 205 139 193 205 139 193 205 139 193 205 139 193 205 139 193 205 208 234 233 208 234 233 208 234 233 208 234 233 208 234 233 208 234 233 208 234 233 208 234 233 208 234 233 208 234 233 208 234 233 208 234 233 208 234 233 208 234 233 208 234 233 117 91 51 125 98 53 125 98 53 125 98 53 125 98 53 125 98 53 125 98 53 125 98 53 125 98 53 125 98 53 125 98 53 125 98 53 125 98 53 125 98 53 125 98 53 125 98 53 125 98 53 125 98 53 125 98 53 125 98 53 125 98 53 125 98 53 125 98 53 125 98 53 125 98 53 125 98 53 125 98 53 125 98 53 125 98 53 125 98 53 125 98 53 125 98 53 125 98 53 117 91 51 117 91 51 117 91 51 117 91 51 117 91 51 117 91 51 117 91 51 117 91 51 117 91 51 117 91 51 117 91 51 117 91 51 117 91 51 117 91 51 117 91 51 117 91 51 110 86 44 110 86 44 110 86 44 110 86 44 110 86 44 110 86 44 110 86 44 110 86 44 110 86 44 110 86 44 110 86 44 110 86 44 110 86 44 110 86 44 110 86 44 110 86 44 110 86 44 110 86 44 110 86 44 110 86 44 110 86 44 110 86 44 110 86 44 110 86 44 110 86 44 110 86 44 110 86 44 110 86 44 110 86 44 110 86 44 110 86 44 110 86 44 125 98 53 125 98 53 125 98 53 125 98 53 125 98 53 125 98 53 125 98 53 125 98 53 125 98 53 125 98 53 125 98 53 125 98 53 125 98 53 125 98 53 125 98 53 125 98 53 125 98 53 125 98 53 125 98 53 125 98 53 125 98 53 125 98 53 125 98 53 125 98 53 125 98 53 125 98 53 125 98 53 125 98 53 125 98 53 125 98 53 125 98 53 125 98 53 125 98 53 125 98 53 125 98 53 125 98 53 125 98 53 125 98 53 125 98 53 125 98 53 125 98 53 125 98 53 125 98 53 125 98 53 125 98 53 125 98 53 125 98 53 125 98 53 125 98 53 125 98 53 125 98 53 125 98 53 125 98 53 125 98 53 125 98 53 125 98 53 125 98 53 125 98 53 125 98 53 125 98 53 125 98 53 125 98 53 125 98 53 125 98 53 125 98 53 125 98 53 125 98 53 125 98 53 125 98 53 125 98 53 125 98 53 125 98 53 125 98 53 125 98 53 125 98 53 125 98 53 125 98 53 125 98 53 125 98 53 125 98 53 125 98 53 125 98 53 125 98 53 125 98 53 125 98 53 125 98 53 125 98 53 125 98 53 125 98 53 125 98 53 125 98 53 125 98 53 125 98 53 125 98 53 125 98 53 125 98 53 125 98 53 125 98 53 125 98 53 125 98 53 125 98 53 125 98 53 125 98 53 125 98 53 125 98 53 125 98 53 125 98 53 125 98 53 125 98 53 125 98 53 125 98 53 125 98 53 125 98 53 125 98 53 125 98 53 125 98 53 125 98 53 125 98 53 125 98 53 125 98 53 125 98 53 125 98 53 125 98 53 125 98 53 125 98 53 125 98 53 125 98 53 117 91 51 117 91 51 117 91 51 117 91 51 117 91 51 117 91 51 117 91 51 117 91 51 117 91 51 117 91 51 117 91 51 117 91 51 117 91 51 117 91 51 117 91 51 117 91 51 139 193 205 139 193 205 139 193 205 139 193 205 139 193 205 139 193 205 139 193 205 139 193 205 139 193 205 139 193 205 139 193 205 139 193 205 139 193 205 139 193 205 139 193 205 139 193 205 208 234 233 208 234 233 208 234 233 208 234 233 208 234 233 208 234 233 208 234 233 208 234 233 208 234 233 208 234 233 208 234 233 208 234 233 208 234 233 208 234 233 208 234 233 117 91 51 125 98 53 125 98 53 125 98 53 125 98 53 125 98 53 125 98 53 125 98 53 125 98 53 125 98 53 125 98 53 125 98 53 125 98 53 125 98 53 125 98 53 125 98 53 125 98 53 125 98 53 125 98 53 125 98 53 125 98 53 125 98 53 125 98 53 125 98 53 125 98 53 125 98 53 125 98 53 125 98 53 125 98 53 125 98 53 125 98 53 125 98 53 125 98 53 117 91 51 117 91 51 117 91 51 117 91 51 117 91 51 117 91 51 117 91 51 117 91 51 117 91 51 117 91 51 117 91 51 117 91 51 117 91 51 117 91 51 117 91 51 117 91 51 110 86 44 110 86 44 110 86 44 110 86 44 110 86 44 110 86 44 110 86 44 110 86 44 110 86 44 110 86 44 110 86 44 110 86 44 110 86 44 110 86 44 110 86 44 110 86 44 110 86 44 110 86 44 110 86 44 110 86 44 110 86 44 110 86 44 110 86 44 110 86 44 110 86 44 110 86 44 110 86 44 110 86 44 110 86 44 110 86 44 110 86 44 110 86 44 125 98 53 125 98 53 125 98 53 125 98 53 125 98 53 125 98 53 125 98 53 125 98 53 125 98 53 125 98 53 125 98 53 125 98 53 125 98 53 125 98 53 125 98 53 125 98 53 125 98 53 125 98 53 125 98 53 125 98 53 125 98 53 125 98 53 125 98 53 125 98 53 125 98 53 125 98 53 125 98 53 125 98 53 125 98 53 125 98 53 125 98 53 125 98 53 125 98 53 125 98 53 125 98 53 125 98 53 125 98 53 125 98 53 125 98 53 125 98 53 125 98 53 125 98 53 125 98 53 125 98 53 125 98 53 125 98 53 125 98 53 125 98 53 125 98 53 125 98 53 125 98 53 125 98 53 125 98 53 125 98 53 125 98 53 125 98 53 125 98 53 125 98 53 125 98 53 125 98 53 125 98 53 125 98 53 125 98 53 125 98 53 125 98 53 125 98 53 125 98 53 125 98 53 125 98 53 125 98 53 125 98 53 125 98 53 125 98 53 125 98 53 125 98 53 125 98 53 125 98 53 125 98 53 125 98 53 125 98 53 125 98 53 125 98 53 125 98 53 125 98 53 125 98 53 125 98 53 125 98 53 125 98 53 125 98 53 125 98 53 125 98 53 125 98 53 125 98 53 125 98 53 125 98 53 125 98 53 125 98 53 125 98 53 125 98 53 125 98 53 125 98 53 125 98 53 125 98 53 125 98 53 125 98 53 125 98 53 125 98 53 125 98 53 125 98 53 125 98 53 125 98 53 125 98 53 125 98 53 125 98 53 125 98 53 125 98 53 125 98 53 125 98 53 125 98 53 125 98 53 125 98 53 125 98 53 125 98 53 125 98 53 125 98 53 125 98 53 125 98 53 117 91 51 117 91 51 117 91 51 117 91 51 117 91 51 117 91 51 117 91 51 117 91 51 117 91 51 117 91 51 117 91 51 117 91 51 117 91 51 117 91 51 117 91 51 117 91 51 139 193 205 139 193 205 139 193 205 139 193 205 139 193 205 139 193 205 139 193 205 139 193 205 139 193 205 139 193 205 139 193 205 139 193 205 139 193 205 139 193 205 139 193 205 139 193 205 208 234 233 208 234 233 208 234 233 208 234 233 208 234 233 208 234 233 208 234 233 208 234 233 208 234 233 208 234 233 208 234 233 208 234 233 208 234 233 208 234 233 208 234 233 117 91 51 125 98 53 125 98 53 125 98 53 125 98 53 125 98 53 125 98 53 125 98 53 125 98 53 125 98 53 125 98 53 125 98 53 125 98 53 125 98 53 125 98 53 125 98 53 125 98 53 125 98 53 125 98 53 125 98 53 125 98 53 125 98 53 125 98 53 125 98 53 125 98 53 125 98 53 125 98 53 125 98 53 125 98 53 125 98 53 125 98 53 125 98 53 125 98 53 117 91 51 117 91 51 117 91 51 117 91 51 117 91 51 117 91 51 117 91 51 117 91 51 117 91 51 117 91 51 117 91 51 117 91 51 117 91 51 117 91 51 117 91 51 117 91 51 110 86 44 110 86 44 110 86 44 110 86 44 110 86 44 110 86 44 110 86 44 110 86 44 110 86 44 110 86 44 110 86 44 110 86 44 110 86 44 110 86 44 110 86 44 110 86 44 110 86 44 110 86 44 110 86 44 110 86 44 110 86 44 110 86 44 110 86 44 110 86 44 110 86 44 110 86 44 110 86 44 110 86 44 110 86 44 110 86 44 110 86 44 110 86 44 125 98 53 125 98 53 125 98 53 125 98 53 125 98 53 125 98 53 125 98 53 125 98 53 125 98 53 125 98 53 125 98 53 125 98 53 125 98 53 125 98 53 125 98 53 125 98 53 125 98 53 125 98 53 125 98 53 125 98 53 125 98 53 125 98 53 125 98 53 125 98 53 125 98 53 125 98 53 125 98 53 125 98 53 125 98 53 125 98 53 125 98 53 125 98 53 125 98 53 125 98 53 125 98 53 125 98 53 125 98 53 125 98 53 125 98 53 125 98 53 125 98 53 125 98 53 125 98 53 125 98 53 125 98 53 125 98 53 125 98 53 125 98 53 125 98 53 125 98 53 125 98 53 125 98 53 125 98 53 125 98 53 125 98 53 125 98 53 125 98 53 125 98 53 125 98 53 125 98 53 125 98 53 125 98 53 125 98 53 125 98 53 125 98 53 125 98 53 125 98 53 125 98 53 125 98 53 125 98 53 125 98 53 125 98 53 125 98 53 125 98 53 125 98 53 125 98 53 125 98 53 125 98 53 125 98 53 125 98 53 125 98 53 125 98 53 125 98 53 125 98 53 125 98 53 125 98 53 125 98 53 125 98 53 125 98 53 125 98 53 125 98 53 125 98 53 125 98 53 125 98 53 125 98 53 125 98 53 125 98 53 125 98 53 125 98 53 125 98 53 125 98 53 125 98 53 125 98 53 125 98 53 125 98 53 125 98 53 125 98 53 125 98 53 125 98 53 125 98 53 125 98 53 125 98 53 125 98 53 125 98 53 125 98 53 125 98 53 125 98 53 125 98 53 125 98 53 125 98 53 125 98 53 125 98 53 125 98 53 125 98 53 125 98 53 125 98 53 125 98 53 117 91 51 117 91 51 117 91 51 117 91 51 117 91 51 117 91 51 117 91 51 117 91 51 117 91 51 117 91 51 117 91 51 117 91 51 117 91 51 117 91 51 117 91 51 117 91 51 139 193 205 139 193 205 139 193 205 139 193 205 139 193 205 139 193 205 139 193 205 139 193 205 139 193 205 139 193 205 139 193 205 139 193 205 139 193 205 139 193 205 139 193 205 139 193 205 208 234 233 208 234 233 208 234 233 208 234 233 208 234 233 208 234 233 208 234 233 208 234 233 208 234 233 208 234 233 208 234 233 208 234 233 208 234 233 208 234 233 208 234 233 117 91 51 125 98 53 125 98 53 125 98 53 125 98 53 125 98 53 125 98 53 125 98 53 125 98 53 125 98 53 125 98 53 125 98 53 125 98 53 125 98 53 125 98 53 125 98 53 125 98 53 125 98 53 125 98 53 125 98 53 125 98 53 125 98 53 125 98 53 125 98 53 125 98 53 125 98 53 125 98 53 125 98 53 125 98 53 125 98 53 125 98 53 125 98 53 125 98 53 117 91 51 117 91 51 117 91 51 117 91 51 117 91 51 117 91 51 117 91 51 117 91 51 117 91 51 117 91 51 117 91 51 117 91 51 117 91 51 117 91 51 117 91 51 117 91 51 110 86 44 110 86 44 110 86 44 110 86 44 110 86 44 110 86 44 110 86 44 110 86 44 110 86 44 110 86 44 110 86 44 110 86 44 110 86 44 110 86 44 110 86 44 110 86 44 110 86 44 110 86 44 110 86 44 110 86 44 110 86 44 110 86 44 110 86 44 110 86 44 110 86 44 110 86 44 110 86 44 110 86 44 110 86 44 110 86 44 110 86 44 110 86 44 125 98 53 125 98 53 125 98 53 125 98 53 125 98 53 125 98 53 125 98 53 125 98 53 125 98 53 125 98 53 125 98 53 125 98 53 125 98 53 125 98 53 125 98 53 125 98 53 125 98 53 125 98 53 125 98 53 125 98 53 125 98 53 125 98 53 125 98 53 125 98 53 125 98 53 125 98 53 125 98 53 125 98 53 125 98 53 125 98 53 125 98 53 125 98 53 125 98 53 125 98 53 125 98 53 125 98 53 125 98 53 125 98 53 125 98 53 125 98 53 125 98 53 125 98 53 125 98 53 125 98 53 125 98 53 125 98 53 125 98 53 125 98 53 125 98 53 125 98 53 125 98 53 125 98 53 125 98 53 125 98 53 125 98 53 125 98 53 125 98 53 125 98 53 125 98 53 125 98 53 125 98 53 125 98 53 125 98 53 125 98 53 125 98 53 125 98 53 125 98 53 125 98 53 125 98 53 125 98 53 125 98 53 125 98 53 125 98 53 125 98 53 125 98 53 125 98 53 125 98 53 125 98 53 125 98 53 125 98 53 125 98 53 125 98 53 125 98 53 125 98 53 125 98 53 125 98 53 125 98 53 125 98 53 125 98 53 125 98 53 125 98 53 125 98 53 125 98 53 125 98 53 125 98 53 125 98 53 125 98 53 125 98 53 125 98 53 125 98 53 125 98 53 125 98 53 125 98 53 125 98 53 125 98 53 125 98 53 125 98 53 125 98 53 125 98 53 125 98 53 125 98 53 125 98 53 125 98 53 125 98 53 125 98 53 125 98 53 125 98 53 125 98 53 125 98 53 125 98 53 125 98 53 125 98 53 125 98 53 125 98 53 125 98 53 125 98 53 125 98 53 117 91 51 117 91 51 117 91 51 117 91 51 117 91 51 117 91 51 117 91 51 117 91 51 117 91 51 117 91 51 117 91 51 117 91 51 117 91 51 117 91 51 117 91 51 117 91 51 139 193 205 139 193 205 139 193 205 139 193 205 139 193 205 139 193 205 139 193 205 139 193 205 139 193 205 139 193 205 139 193 205 139 193 205 139 193 205 139 193 205 139 193 205 139 193 205 208 234 233 208 234 233 208 234 233 208 234 233 208 234 233 208 234 233 208 234 233 208 234 233 208 234 233 208 234 233 208 234 233 208 234 233 208 234 233 208 234 233 208 234 233 117 91 51 125 98 53 125 98 53 125 98 53 125 98 53 125 98 53 125 98 53 125 98 53 125 98 53 125 98 53 125 98 53 125 98 53 125 98 53 125 98 53 125 98 53 125 98 53 125 98 53 125 98 53 125 98 53 125 98 53 125 98 53 125 98 53 125 98 53 125 98 53 125 98 53 125 98 53 125 98 53 125 98 53 125 98 53 125 98 53 125 98 53 125 98 53 125 98 53 117 91 51 117 91 51 117 91 51 117 91 51 117 91 51 117 91 51 117 91 51 117 91 51 117 91 51 117 91 51 117 91 51 117 91 51 117 91 51 117 91 51 117 91 51 117 91 51 110 86 44 110 86 44 110 86 44 110 86 44 110 86 44 110 86 44 110 86 44 110 86 44 110 86 44 110 86 44 110 86 44 110 86 44 110 86 44 110 86 44 110 86 44 110 86 44 110 86 44 110 86 44 110 86 44 110 86 44 110 86 44 110 86 44 110 86 44 110 86 44 110 86 44 110 86 44 110 86 44 110 86 44 110 86 44 110 86 44 110 86 44 110 86 44 125 98 53 125 98 53 125 98 53 125 98 53 125 98 53 125 98 53 125 98 53 125 98 53 125 98 53 125 98 53 125 98 53 125 98 53 125 98 53 125 98 53 125 98 53 125 98 53 125 98 53 125 98 53 125 98 53 125 98 53 125 98 53 125 98 53 125 98 53 125 98 53 125 98 53 125 98 53 125 98 53 125 98 53 125 98 53 125 98 53 125 98 53 125 98 53 125 98 53 125 98 53 125 98 53 125 98 53 125 98 53 125 98 53 125 98 53 125 98 53 125 98 53 125 98 53 125 98 53 125 98 53 125 98 53 125 98 53 125 98 53 125 98 53 125 98 53 125 98 53 125 98 53 125 98 53 125 98 53 125 98 53 125 98 53 125 98 53 125 98 53 125 98 53 125 98 53 125 98 53 125 98 53 125 98 53 125 98 53 125 98 53 125 98 53 125 98 53 125 98 53 125 98 53 125 98 53 125 98 53 125 98 53 125 98 53 125 98 53 125 98 53 125 98 53 125 98 53 125 98 53 125 98 53 125 98 53 125 98 53 125 98 53 125 98 53 125 98 53 125 98 53 125 98 53 125 98 53 125 98 53 125 98 53 125 98 53 125 98 53 125 98 53 125 98 53 125 98 53 125 98 53 125 98 53 125 98 53 125 98 53 125 98 53 125 98 53 125 98 53 125 98 53 125 98 53 125 98 53 125 98 53 125 98 53 125 98 53 125 98 53 125 98 53 125 98 53 125 98 53 125 98 53 125 98 53 125 98 53 125 98 53 125 98 53 125 98 53 125 98 53 125 98 53 125 98 53 125 98 53 125 98 53 125 98 53 125 98 53 125 98 53 125 98 53 125 98 53 125 98 53 117 91 51 117 91 51 117 91 51 117 91 51 117 91 51 117 91 51 117 91 51 117 91 51 117 91 51 117 91 51 117 91 51 117 91 51 117 91 51 117 91 51 117 91 51 117 91 51 139 193 205 139 193 205 139 193 205 139 193 205 139 193 205 139 193 205 139 193 205 139 193 205 139 193 205 139 193 205 139 193 205 139 193 205 139 193 205 139 193 205 139 193 205 139 193 205 208 234 233 208 234 233 208 234 233 208 234 233 208 234 233 208 234 233 208 234 233 208 234 233 208 234 233 208 234 233 208 234 233 208 234 233 208 234 233 208 234 233 208 234 233 117 91 51 125 98 53 125 98 53 125 98 53 125 98 53 125 98 53 125 98 53 125 98 53 125 98 53 125 98 53 125 98 53 125 98 53 125 98 53 125 98 53 125 98 53 125 98 53 125 98 53 125 98 53 125 98 53 125 98 53 125 98 53 125 98 53 125 98 53 125 98 53 125 98 53 125 98 53 125 98 53 125 98 53 125 98 53 125 98 53 125 98 53 125 98 53 125 98 53 117 91 51 117 91 51 117 91 51 117 91 51 117 91 51 117 91 51 117 91 51 117 91 51 117 91 51 117 91 51 117 91 51 117 91 51 117 91 51 117 91 51 117 91 51 117 91 51 110 86 44 110 86 44 110 86 44 110 86 44 110 86 44 110 86 44 110 86 44 110 86 44 110 86 44 110 86 44 110 86 44 110 86 44 110 86 44 110 86 44 110 86 44 110 86 44 110 86 44 110 86 44 110 86 44 110 86 44 110 86 44 110 86 44 110 86 44 110 86 44 110 86 44 110 86 44 110 86 44 110 86 44 110 86 44 110 86 44 110 86 44 110 86 44 125 98 53 125 98 53 125 98 53 125 98 53 125 98 53 125 98 53 125 98 53 125 98 53 125 98 53 125 98 53 125 98 53 125 98 53 125 98 53 125 98 53 125 98 53 125 98 53 125 98 53 125 98 53 125 98 53 125 98 53 125 98 53 125 98 53 125 98 53 125 98 53 125 98 53 125 98 53 125 98 53 125 98 53 125 98 53 125 98 53 125 98 53 125 98 53 125 98 53 125 98 53 125 98 53 125 98 53 125 98 53 125 98 53 125 98 53 125 98 53 125 98 53 125 98 53 125 98 53 125 98 53 125 98 53 125 98 53 125 98 53 125 98 53 125 98 53 125 98 53 125 98 53 125 98 53 125 98 53 125 98 53 125 98 53 125 98 53 125 98 53 125 98 53 125 98 53 125 98 53 125 98 53 125 98 53 125 98 53 125 98 53 125 98 53 125 98 53 125 98 53 125 98 53 125 98 53 125 98 53 125 98 53 125 98 53 125 98 53 125 98 53 125 98 53 125 98 53 125 98 53 125 98 53 125 98 53 125 98 53 125 98 53 125 98 53 125 98 53 125 98 53 125 98 53 125 98 53 125 98 53 125 98 53 125 98 53 125 98 53 125 98 53 125 98 53 125 98 53 125 98 53 125 98 53 125 98 53 125 98 53 125 98 53 125 98 53 125 98 53 125 98 53 125 98 53 125 98 53 125 98 53 125 98 53 125 98 53 125 98 53 125 98 53 125 98 53 125 98 53 125 98 53 125 98 53 125 98 53 125 98 53 125 98 53 125 98 53 125 98 53 125 98 53 125 98 53 125 98 53 125 98 53 125 98 53 125 98 53 125 98 53 125 98 53 125 98 53 125 98 53 117 91 51 117 91 51 117 91 51 117 91 51 117 91 51 117 91 51 117 91 51 117 91 51 117 91 51 117 91 51 117 91 51 117 91 51 117 91 51 117 91 51 117 91 51 117 91 51 139 193 205 139 193 205 139 193 205 139 193 205 139 193 205 139 193 205 139 193 205 139 193 205 139 193 205 139 193 205 139 193 205 139 193 205 139 193 205 139 193 205 139 193 205 139 193 205 208 234 233 208 234 233 208 234 233 208 234 233 208 234 233 208 234 233 208 234 233 208 234 233 208 234 233 208 234 233 208 234 233 208 234 233 208 234 233 208 234 233 208 234 233 117 91 51 125 98 53 125 98 53 125 98 53 125 98 53 125 98 53 125 98 53 125 98 53 125 98 53 125 98 53 125 98 53 125 98 53 125 98 53 125 98 53 125 98 53 125 98 53 125 98 53 125 98 53 125 98 53 125 98 53 125 98 53 125 98 53 125 98 53 125 98 53 125 98 53 125 98 53 125 98 53 125 98 53 125 98 53 125 98 53 125 98 53 125 98 53 125 98 53 117 91 51 117 91 51 117 91 51 117 91 51 117 91 51 117 91 51 117 91 51 117 91 51 117 91 51 117 91 51 117 91 51 117 91 51 117 91 51 117 91 51 117 91 51 117 91 51 110 86 44 110 86 44 110 86 44 110 86 44 110 86 44 110 86 44 110 86 44 110 86 44 110 86 44 110 86 44 110 86 44 110 86 44 110 86 44 110 86 44 110 86 44 110 86 44 110 86 44 110 86 44 110 86 44 110 86 44 110 86 44 110 86 44 110 86 44 110 86 44 110 86 44 110 86 44 110 86 44 110 86 44 110 86 44 110 86 44 110 86 44 110 86 44 125 98 53 125 98 53 125 98 53 125 98 53 125 98 53 125 98 53 125 98 53 125 98 53 125 98 53 125 98 53 125 98 53 125 98 53 125 98 53 125 98 53 125 98 53 125 98 53 125 98 53 125 98 53 125 98 53 125 98 53 125 98 53 125 98 53 125 98 53 125 98 53 125 98 53 125 98 53 125 98 53 125 98 53 125 98 53 125 98 53 125 98 53 125 98 53 125 98 53 125 98 53 125 98 53 125 98 53 125 98 53 125 98 53 125 98 53 125 98 53 125 98 53 125 98 53 125 98 53 125 98 53 125 98 53 125 98 53 125 98 53 125 98 53 125 98 53 125 98 53 125 98 53 125 98 53 125 98 53 125 98 53 125 98 53 125 98 53 125 98 53 125 98 53 125 98 53 125 98 53 125 98 53 125 98 53 125 98 53 125 98 53 125 98 53 125 98 53 125 98 53 125 98 53 125 98 53 125 98 53 125 98 53 125 98 53 125 98 53 125 98 53 125 98 53 125 98 53 125 98 53 125 98 53 125 98 53 125 98 53 125 98 53 125 98 53 125 98 53 125 98 53 125 98 53 125 98 53 125 98 53 125 98 53 125 98 53 125 98 53 125 98 53 125 98 53 125 98 53 125 98 53 125 98 53 125 98 53 125 98 53 125 98 53 125 98 53 125 98 53 125 98 53 125 98 53 125 98 53 125 98 53 125 98 53 125 98 53 125 98 53 125 98 53 125 98 53 125 98 53 125 98 53 125 98 53 125 98 53 125 98 53 125 98 53 125 98 53 125 98 53 125 98 53 125 98 53 125 98 53 125 98 53 125 98 53 125 98 53 125 98 53 125 98 53 125 98 53 125 98 53 117 91 51 117 91 51 117 91 51 117 91 51 117 91 51 117 91 51 117 91 51 117 91 51 117 91 51 117 91 51 117 91 51 117 91 51 117 91 51 117 91 51 117 91 51 117 91 51 139 193 205 139 193 205 139 193 205 139 193 205 139 193 205 139 193 205 139 193 205 139 193 205 139 193 205 139 193 205 139 193 205 139 193 205 139 193 205 139 193 205 139 193 205 139 193 205 208 234 233 208 234 233 208 234 233 208 234 233 208 234 233 208 234 233 208 234 233 208 234 233 208 234 233 208 234 233 208 234 233 208 234 233 208 234 233 208 234 233 208 234 233 117 91 51 110 86 44 110 86 44 110 86 44 110 86 44 110 86 44 110 86 44 110 86 44 110 86 44 110 86 44 110 86 44 110 86 44 110 86 44 110 86 44 110 86 44 110 86 44 110 86 44 117 91 51 117 91 51 117 91 51 117 91 51 117 91 51 117 91 51 117 91 51 117 91 51 117 91 51 117 91 51 117 91 51 117 91 51 117 91 51 117 91 51 117 91 51 117 91 51 117 91 51 117 91 51 117 91 51 117 91 51 117 91 51 117 91 51 117 91 51 117 91 51 117 91 51 117 91 51 117 91 51 117 91 51 117 91 51 117 91 51 117 91 51 117 91 51 117 91 51 117 91 51 117 91 51 117 91 51 117 91 51 117 91 51 117 91 51 117 91 51 117 91 51 117 91 51 117 91 51 117 91 51 117 91 51 117 91 51 117 91 51 117 91 51 117 91 51 117 91 51 117 91 51 117 91 51 117 91 51 117 91 51 117 91 51 117 91 51 117 91 51 117 91 51 117 91 51 117 91 51 117 91 51 117 91 51 117 91 51 117 91 51 110 86 44 110 86 44 110 86 44 110 86 44 110 86 44 110 86 44 110 86 44 110 86 44 110 86 44 110 86 44 110 86 44 110 86 44 110 86 44 110 86 44 110 86 44 110 86 44 99 78 38 99 78 38 99 78 38 99 78 38 99 78 38 99 78 38 99 78 38 99 78 38 99 78 38 99 78 38 99 78 38 99 78 38 99 78 38 99 78 38 99 78 38 99 78 38 99 78 38 99 78 38 99 78 38 99 78 38 99 78 38 99 78 38 99 78 38 99 78 38 99 78 38 99 78 38 99 78 38 99 78 38 99 78 38 99 78 38 99 78 38 99 78 38 99 78 38 99 78 38 99 78 38 99 78 38 99 78 38 99 78 38 99 78 38 99 78 38 99 78 38 99 78 38 99 78 38 99 78 38 99 78 38 99 78 38 99 78 38 110 86 44 110 86 44 110 86 44 110 86 44 110 86 44 110 86 44 110 86 44 110 86 44 110 86 44 110 86 44 110 86 44 110 86 44 110 86 44 110 86 44 110 86 44 110 86 44 99 78 38 99 78 38 99 78 38 99 78 38 99 78 38 99 78 38 99 78 38 99 78 38 99 78 38 99 78 38 99 78 38 99 78 38 99 78 38 99 78 38 99 78 38 99 78 38 110 86 44 110 86 44 110 86 44 110 86 44 110 86 44 110 86 44 110 86 44 110 86 44 110 86 44 110 86 44 110 86 44 110 86 44 110 86 44 110 86 44 110 86 44 110 86 44 99 78 38 99 78 38 99 78 38 99 78 38 99 78 38 99 78 38 99 78 38 99 78 38 99 78 38 99 78 38 99 78 38 99 78 38 99 78 38 99 78 38 99 78 38 99 78 38 99 78 38 99 78 38 99 78 38 99 78 38 99 78 38 99 78 38 99 78 38 99 78 38 99 78 38 99 78 38 99 78 38 99 78 38 99 78 38 99 78 38 99 78 38 99 78 38 139 193 205 139 193 205 139 193 205 139 193 205 139 193 205 139 193 205 139 193 205 139 193 205 139 193 205 139 193 205 139 193 205 139 193 205 139 193 205 139 193 205 139 193 205 139 193 205 208 234 233 208 234 233 208 234 233 208 234 233 208 234 233 208 234 233 208 234 233 208 234 233 208 234 233 208 234 233 208 234 233 208 234 233 208 234 233 208 234 233 208 234 233 117 91 51 110 86 44 110 86 44 110 86 44 110 86 44 110 86 44 110 86 44 110 86 44 110 86 44 110 86 44 110 86 44 110 86 44 110 86 44 110 86 44 110 86 44 110 86 44 110 86 44 117 91 51 117 91 51 117 91 51 117 91 51 117 91 51 117 91 51 117 91 51 117 91 51 117 91 51 117 91 51 117 91 51 117 91 51 117 91 51 117 91 51 117 91 51 117 91 51 117 91 51 117 91 51 117 91 51 117 91 51 117 91 51 117 91 51 117 91 51 117 91 51 117 91 51 117 91 51 117 91 51 117 91 51 117 91 51 117 91 51 117 91 51 117 91 51 117 91 51 117 91 51 117 91 51 117 91 51 117 91 51 117 91 51 117 91 51 117 91 51 117 91 51 117 91 51 117 91 51 117 91 51 117 91 51 117 91 51 117 91 51 117 91 51 117 91 51 117 91 51 117 91 51 117 91 51 117 91 51 117 91 51 117 91 51 117 91 51 117 91 51 117 91 51 117 91 51 117 91 51 117 91 51 117 91 51 117 91 51 117 91 51 110 86 44 110 86 44 110 86 44 110 86 44 110 86 44 110 86 44 110 86 44 110 86 44 110 86 44 110 86 44 110 86 44 110 86 44 110 86 44 110 86 44 110 86 44 110 86 44 99 78 38 99 78 38 99 78 38 99 78 38 99 78 38 99 78 38 99 78 38 99 78 38 99 78 38 99 78 38 99 78 38 99 78 38 99 78 38 99 78 38 99 78 38 99 78 38 99 78 38 99 78 38 99 78 38 99 78 38 99 78 38 99 78 38 99 78 38 99 78 38 99 78 38 99 78 38 99 78 38 99 78 38 99 78 38 99 78 38 99 78 38 99 78 38 99 78 38 99 78 38 99 78 38 99 78 38 99 78 38 99 78 38 99 78 38 99 78 38 99 78 38 99 78 38 99 78 38 99 78 38 99 78 38 99 78 38 99 78 38 110 86 44 110 86 44 110 86 44 110 86 44 110 86 44 110 86 44 110 86 44 110 86 44 110 86 44 110 86 44 110 86 44 110 86 44 110 86 44 110 86 44 110 86 44 110 86 44 99 78 38 99 78 38 99 78 38 99 78 38 99 78 38 99 78 38 99 78 38 99 78 38 99 78 38 99 78 38 99 78 38 99 78 38 99 78 38 99 78 38 99 78 38 99 78 38 110 86 44 110 86 44 110 86 44 110 86 44 110 86 44 110 86 44 110 86 44 110 86 44 110 86 44 110 86 44 110 86 44 110 86 44 110 86 44 110 86 44 110 86 44 110 86 44 99 78 38 99 78 38 99 78 38 99 78 38 99 78 38 99 78 38 99 78 38 99 78 38 99 78 38 99 78 38 99 78 38 99 78 38 99 78 38 99 78 38 99 78 38 99 78 38 99 78 38 99 78 38 99 78 38 99 78 38 99 78 38 99 78 38 99 78 38 99 78 38 99 78 38 99 78 38 99 78 38 99 78 38 99 78 38 99 78 38 99 78 38 99 78 38 139 193 205 139 193 205 139 193 205 139 193 205 139 193 205 139 193 205 139 193 205 139 193 205 139 193 205 139 193 205 139 193 205 139 193 205 139 193 205 139 193 205 139 193 205 139 193 205 208 234 233 208 234 233 208 234 233 208 234 233 208 234 233 208 234 233 208 234 233 208 234 233 208 234 233 208 234 233 208 234 233 208 234 233 208 234 233 208 234 233 208 234 233 117 91 51 110 86 44 110 86 44 110 86 44 110 86 44 110 86 44 110 86 44 110 86 44 110 86 44 110 86 44 110 86 44 110 86 44 110 86 44 110 86 44 110 86 44 110 86 44 110 86 44 117 91 51 117 91 51 117 91 51 117 91 51 117 91 51 117 91 51 117 91 51 117 91 51 117 91 51 117 91 51 117 91 51 117 91 51 117 91 51 117 91 51 117 91 51 117 91 51 117 91 51 117 91 51 117 91 51 117 91 51 117 91 51 117 91 51 117 91 51 117 91 51 117 91 51 117 91 51 117 91 51 117 91 51 117 91 51 117 91 51 117 91 51 117 91 51 117 91 51 117 91 51 117 91 51 117 91 51 117 91 51 117 91 51 117 91 51 117 91 51 117 91 51 117 91 51 117 91 51 117 91 51 117 91 51 117 91 51 117 91 51 117 91 51 117 91 51 117 91 51 117 91 51 117 91 51 117 91 51 117 91 51 117 91 51 117 91 51 117 91 51 117 91 51 117 91 51 117 91 51 117 91 51 117 91 51 117 91 51 117 91 51 110 86 44 110 86 44 110 86 44 110 86 44 110 86 44 110 86 44 110 86 44 110 86 44 110 86 44 110 86 44 110 86 44 110 86 44 110 86 44 110 86 44 110 86 44 110 86 44 99 78 38 99 78 38 99 78 38 99 78 38 99 78 38 99 78 38 99 78 38 99 78 38 99 78 38 99 78 38 99 78 38 99 78 38 99 78 38 99 78 38 99 78 38 99 78 38 99 78 38 99 78 38 99 78 38 99 78 38 99 78 38 99 78 38 99 78 38 99 78 38 99 78 38 99 78 38 99 78 38 99 78 38 99 78 38 99 78 38 99 78 38 99 78 38 99 78 38 99 78 38 99 78 38 99 78 38 99 78 38 99 78 38 99 78 38 99 78 38 99 78 38 99 78 38 99 78 38 99 78 38 99 78 38 99 78 38 99 78 38 110 86 44 110 86 44 110 86 44 110 86 44 110 86 44 110 86 44 110 86 44 110 86 44 110 86 44 110 86 44 110 86 44 110 86 44 110 86 44 110 86 44 110 86 44 110 86 44 99 78 38 99 78 38 99 78 38 99 78 38 99 78 38 99 78 38 99 78 38 99 78 38 99 78 38 99 78 38 99 78 38 99 78 38 99 78 38 99 78 38 99 78 38 99 78 38 110 86 44 110 86 44 110 86 44 110 86 44 110 86 44 110 86 44 110 86 44 110 86 44 110 86 44 110 86 44 110 86 44 110 86 44 110 86 44 110 86 44 110 86 44 110 86 44 99 78 38 99 78 38 99 78 38 99 78 38 99 78 38 99 78 38 99 78 38 99 78 38 99 78 38 99 78 38 99 78 38 99 78 38 99 78 38 99 78 38 99 78 38 99 78 38 99 78 38 99 78 38 99 78 38 99 78 38 99 78 38 99 78 38 99 78 38 99 78 38 99 78 38 99 78 38 99 78 38 99 78 38 99 78 38 99 78 38 99 78 38 99 78 38 139 193 205 139 193 205 139 193 205 139 193 205 139 193 205 139 193 205 139 193 205 139 193 205 139 193 205 139 193 205 139 193 205 139 193 205 139 193 205 139 193 205 139 193 205 139 193 205 208 234 233 208 234 233 208 234 233 208 234 233 208 234 233 208 234 233 208 234 233 208 234 233 208 234 233 208 234 233 208 234 233 208 234 233 208 234 233 208 234 233 208 234 233 117 91 51 110 86 44 110 86 44 110 86 44 110 86 44 110 86 44 110 86 44 110 86 44 110 86 44 110 86 44 110 86 44 110 86 44 110 86 44 110 86 44 110 86 44 110 86 44 110 86 44 117 91 51 117 91 51 117 91 51 117 91 51 117 91 51 117 91 51 117 91 51 117 91 51 117 91 51 117 91 51 117 91 51 117 91 51 117 91 51 117 91 51 117 91 51 117 91 51 117 91 51 117 91 51 117 91 51 117 91 51 117 91 51 117 91 51 117 91 51 117 91 51 117 91 51 117 91 51 117 91 51 117 91 51 117 91 51 117 91 51 117 91 51 117 91 51 117 91 51 117 91 51 117 91 51 117 91 51 117 91 51 117 91 51 117 91 51 117 91 51 117 91 51 117 91 51 117 91 51 117 91 51 117 91 51 117 91 51 117 91 51 117 91 51 117 91 51 117 91 51 117 91 51 117 91 51 117 91 51 117 91 51 117 91 51 117 91 51 117 91 51 117 91 51 117 91 51 117 91 51 117 91 51 117 91 51 117 91 51 117 91 51 110 86 44 110 86 44 110 86 44 110 86 44 110 86 44 110 86 44 110 86 44 110 86 44 110 86 44 110 86 44 110 86 44 110 86 44 110 86 44 110 86 44 110 86 44 110 86 44 99 78 38 99 78 38 99 78 38 99 78 38 99 78 38 99 78 38 99 78 38 99 78 38 99 78 38 99 78 38 99 78 38 99 78 38 99 78 38 99 78 38 99 78 38 99 78 38 99 78 38 99 78 38 99 78 38 99 78 38 99 78 38 99 78 38 99 78 38 99 78 38 99 78 38 99 78 38 99 78 38 99 78 38 99 78 38 99 78 38 99 78 38 99 78 38 99 78 38 99 78 38 99 78 38 99 78 38 99 78 38 99 78 38 99 78 38 99 78 38 99 78 38 99 78 38 99 78 38 99 78 38 99 78 38 99 78 38 99 78 38 110 86 44 110 86 44 110 86 44 110 86 44 110 86 44 110 86 44 110 86 44 110 86 44 110 86 44 110 86 44 110 86 44 110 86 44 110 86 44 110 86 44 110 86 44 110 86 44 99 78 38 99 78 38 99 78 38 99 78 38 99 78 38 99 78 38 99 78 38 99 78 38 99 78 38 99 78 38 99 78 38 99 78 38 99 78 38 99 78 38 99 78 38 99 78 38 110 86 44 110 86 44 110 86 44 110 86 44 110 86 44 110 86 44 110 86 44 110 86 44 110 86 44 110 86 44 110 86 44 110 86 44 110 86 44 110 86 44 110 86 44 110 86 44 99 78 38 99 78 38 99 78 38 99 78 38 99 78 38 99 78 38 99 78 38 99 78 38 99 78 38 99 78 38 99 78 38 99 78 38 99 78 38 99 78 38 99 78 38 99 78 38 99 78 38 99 78 38 99 78 38 99 78 38 99 78 38 99 78 38 99 78 38 99 78 38 99 78 38 99 78 38 99 78 38 99 78 38 99 78 38 99 78 38 99 78 38 99 78 38 139 193 205 139 193 205 139 193 205 139 193 205 139 193 205 139 193 205 139 193 205 139 193 205 139 193 205 139 193 205 139 193 205 139 193 205 139 193 205 139 193 205 139 193 205 139 193 205 208 234 233 208 234 233 208 234 233 208 234 233 208 234 233 208 234 233 208 234 233 208 234 233 208 234 233 208 234 233 208 234 233 208 234 233 208 234 233 208 234 233 208 234 233 117 91 51 110 86 44 110 86 44 110 86 44 110 86 44 110 86 44 110 86 44 110 86 44 110 86 44 110 86 44 110 86 44 110 86 44 110 86 44 110 86 44 110 86 44 110 86 44 110 86 44 117 91 51 117 91 51 117 91 51 117 91 51 117 91 51 117 91 51 117 91 51 117 91 51 117 91 51 117 91 51 117 91 51 117 91 51 117 91 51 117 91 51 117 91 51 117 91 51 117 91 51 117 91 51 117 91 51 117 91 51 117 91 51 117 91 51 117 91 51 117 91 51 117 91 51 117 91 51 117 91 51 117 91 51 117 91 51 117 91 51 117 91 51 117 91 51 117 91 51 117 91 51 117 91 51 117 91 51 117 91 51 117 91 51 117 91 51 117 91 51 117 91 51 117 91 51 117 91 51 117 91 51 117 91 51 117 91 51 117 91 51 117 91 51 117 91 51 117 91 51 117 91 51 117 91 51 117 91 51 117 91 51 117 91 51 117 91 51 117 91 51 117 91 51 117 91 51 117 91 51 117 91 51 117 91 51 117 91 51 117 91 51 110 86 44 110 86 44 110 86 44 110 86 44 110 86 44 110 86 44 110 86 44 110 86 44 110 86 44 110 86 44 110 86 44 110 86 44 110 86 44 110 86 44 110 86 44 110 86 44 99 78 38 99 78 38 99 78 38 99 78 38 99 78 38 99 78 38 99 78 38 99 78 38 99 78 38 99 78 38 99 78 38 99 78 38 99 78 38 99 78 38 99 78 38 99 78 38 99 78 38 99 78 38 99 78 38 99 78 38 99 78 38 99 78 38 99 78 38 99 78 38 99 78 38 99 78 38 99 78 38 99 78 38 99 78 38 99 78 38 99 78 38 99 78 38 99 78 38 99 78 38 99 78 38 99 78 38 99 78 38 99 78 38 99 78 38 99 78 38 99 78 38 99 78 38 99 78 38 99 78 38 99 78 38 99 78 38 99 78 38 110 86 44 110 86 44 110 86 44 110 86 44 110 86 44 110 86 44 110 86 44 110 86 44 110 86 44 110 86 44 110 86 44 110 86 44 110 86 44 110 86 44 110 86 44 110 86 44 99 78 38 99 78 38 99 78 38 99 78 38 99 78 38 99 78 38 99 78 38 99 78 38 99 78 38 99 78 38 99 78 38 99 78 38 99 78 38 99 78 38 99 78 38 99 78 38 110 86 44 110 86 44 110 86 44 110 86 44 110 86 44 110 86 44 110 86 44 110 86 44 110 86 44 110 86 44 110 86 44 110 86 44 110 86 44 110 86 44 110 86 44 110 86 44 99 78 38 99 78 38 99 78 38 99 78 38 99 78 38 99 78 38 99 78 38 99 78 38 99 78 38 99 78 38 99 78 38 99 78 38 99 78 38 99 78 38 99 78 38 99 78 38 99 78 38 99 78 38 99 78 38 99 78 38 99 78 38 99 78 38 99 78 38 99 78 38 99 78 38 99 78 38 99 78 38 99 78 38 99 78 38 99 78 38 99 78 38 99 78 38 139 193 205 139 193 205 139 193 205 139 193 205 139 193 205 139 193 205 139 193 205 139 193 205 139 193 205 139 193 205 139 193 205 139 193 205 139 193 205 139 193 205 139 193 205 139 193 205 208 234 233 208 234 233 208 234 233 208 234 233 208 234 233 208 234 233 208 234 233 208 234 233 208 234 233 208 234 233 208 234 233 208 234 233 208 234 233 208 234 233 208 234 233 117 91 51 110 86 44 110 86 44 110 86 44 110 86 44 110 86 44 110 86 44 110 86 44 110 86 44 110 86 44 110 86 44 110 86 44 110 86 44 110 86 44 110 86 44 110 86 44 110 86 44 117 91 51 117 91 51 117 91 51 117 91 51 117 91 51 117 91 51 117 91 51 117 91 51 117 91 51 117 91 51 117 91 51 117 91 51 117 91 51 117 91 51 117 91 51 117 91 51 117 91 51 117 91 51 117 91 51 117 91 51 117 91 51 117 91 51 117 91 51 117 91 51 117 91 51 117 91 51 117 91 51 117 91 51 117 91 51 117 91 51 117 91 51 117 91 51 117 91 51 117 91 51 117 91 51 117 91 51 117 91 51 117 91 51 117 91 51 117 91 51 117 91 51 117 91 51 117 91 51 117 91 51 117 91 51 117 91 51 117 91 51 117 91 51 117 91 51 117 91 51 117 91 51 117 91 51 117 91 51 117 91 51 117 91 51 117 91 51 117 91 51 117 91 51 117 91 51 117 91 51 117 91 51 117 91 51 117 91 51 117 91 51 110 86 44 110 86 44 110 86 44 110 86 44 110 86 44 110 86 44 110 86 44 110 86 44 110 86 44 110 86 44 110 86 44 110 86 44 110 86 44 110 86 44 110 86 44 110 86 44 99 78 38 99 78 38 99 78 38 99 78 38 99 78 38 99 78 38 99 78 38 99 78 38 99 78 38 99 78 38 99 78 38 99 78 38 99 78 38 99 78 38 99 78 38 99 78 38 99 78 38 99 78 38 99 78 38 99 78 38 99 78 38 99 78 38 99 78 38 99 78 38 99 78 38 99 78 38 99 78 38 99 78 38 99 78 38 99 78 38 99 78 38 99 78 38 99 78 38 99 78 38 99 78 38 99 78 38 99 78 38 99 78 38 99 78 38 99 78 38 99 78 38 99 78 38 99 78 38 99 78 38 99 78 38 99 78 38 99 78 38 110 86 44 110 86 44 110 86 44 110 86 44 110 86 44 110 86 44 110 86 44 110 86 44 110 86 44 110 86 44 110 86 44 110 86 44 110 86 44 110 86 44 110 86 44 110 86 44 99 78 38 99 78 38 99 78 38 99 78 38 99 78 38 99 78 38 99 78 38 99 78 38 99 78 38 99 78 38 99 78 38 99 78 38 99 78 38 99 78 38 99 78 38 99 78 38 110 86 44 110 86 44 110 86 44 110 86 44 110 86 44 110 86 44 110 86 44 110 86 44 110 86 44 110 86 44 110 86 44 110 86 44 110 86 44 110 86 44 110 86 44 110 86 44 99 78 38 99 78 38 99 78 38 99 78 38 99 78 38 99 78 38 99 78 38 99 78 38 99 78 38 99 78 38 99 78 38 99 78 38 99 78 38 99 78 38 99 78 38 99 78 38 99 78 38 99 78 38 99 78 38 99 78 38 99 78 38 99 78 38 99 78 38 99 78 38 99 78 38 99 78 38 99 78 38 99 78 38 99 78 38 99 78 38 99 78 38 99 78 38 139 193 205 139 193 205 139 193 205 139 193 205 139 193 205 139 193 205 139 193 205 139 193 205 139 193 205 139 193 205 139 193 205 139 193 205 139 193 205 139 193 205 139 193 205 139 193 205 208 234 233 208 234 233 208 234 233 208 234 233 208 234 233 208 234 233 208 234 233 208 234 233 208 234 233 208 234 233 208 234 233 208 234 233 208 234 233 208 234 233 208 234 233 117 91 51 110 86 44 110 86 44 110 86 44 110 86 44 110 86 44 110 86 44 110 86 44 110 86 44 110 86 44 110 86 44 110 86 44 110 86 44 110 86 44 110 86 44 110 86 44 110 86 44 117 91 51 117 91 51 117 91 51 117 91 51 117 91 51 117 91 51 117 91 51 117 91 51 117 91 51 117 91 51 117 91 51 117 91 51 117 91 51 117 91 51 117 91 51 117 91 51 117 91 51 117 91 51 117 91 51 117 91 51 117 91 51 117 91 51 117 91 51 117 91 51 117 91 51 117 91 51 117 91 51 117 91 51 117 91 51 117 91 51 117 91 51 117 91 51 117 91 51 117 91 51 117 91 51 117 91 51 117 91 51 117 91 51 117 91 51 117 91 51 117 91 51 117 91 51 117 91 51 117 91 51 117 91 51 117 91 51 117 91 51 117 91 51 117 91 51 117 91 51 117 91 51 117 91 51 117 91 51 117 91 51 117 91 51 117 91 51 117 91 51 117 91 51 117 91 51 117 91 51 117 91 51 117 91 51 117 91 51 117 91 51 110 86 44 110 86 44 110 86 44 110 86 44 110 86 44 110 86 44 110 86 44 110 86 44 110 86 44 110 86 44 110 86 44 110 86 44 110 86 44 110 86 44 110 86 44 110 86 44 99 78 38 99 78 38 99 78 38 99 78 38 99 78 38 99 78 38 99 78 38 99 78 38 99 78 38 99 78 38 99 78 38 99 78 38 99 78 38 99 78 38 99 78 38 99 78 38 99 78 38 99 78 38 99 78 38 99 78 38 99 78 38 99 78 38 99 78 38 99 78 38 99 78 38 99 78 38 99 78 38 99 78 38 99 78 38 99 78 38 99 78 38 99 78 38 99 78 38 99 78 38 99 78 38 99 78 38 99 78 38 99 78 38 99 78 38 99 78 38 99 78 38 99 78 38 99 78 38 99 78 38 99 78 38 99 78 38 99 78 38 110 86 44 110 86 44 110 86 44 110 86 44 110 86 44 110 86 44 110 86 44 110 86 44 110 86 44 110 86 44 110 86 44 110 86 44 110 86 44 110 86 44 110 86 44 110 86 44 99 78 38 99 78 38 99 78 38 99 78 38 99 78 38 99 78 38 99 78 38 99 78 38 99 78 38 99 78 38 99 78 38 99 78 38 99 78 38 99 78 38 99 78 38 99 78 38 110 86 44 110 86 44 110 86 44 110 86 44 110 86 44 110 86 44 110 86 44 110 86 44 110 86 44 110 86 44 110 86 44 110 86 44 110 86 44 110 86 44 110 86 44 110 86 44 99 78 38 99 78 38 99 78 38 99 78 38 99 78 38 99 78 38 99 78 38 99 78 38 99 78 38 99 78 38 99 78 38 99 78 38 99 78 38 99 78 38 99 78 38 99 78 38 99 78 38 99 78 38 99 78 38 99 78 38 99 78 38 99 78 38 99 78 38 99 78 38 99 78 38 99 78 38 99 78 38 99 78 38 99 78 38 99 78 38 99 78 38 99 78 38 139 193 205 139 193 205 139 193 205 139 193 205 139 193 205 139 193 205 139 193 205 139 193 205 139 193 205 139 193 205 139 193 205 139 193 205 139 193 205 139 193 205 139 193 205 139 193 205 208 234 233 208 234 233 208 234 233 208 234 233 208 234 233 208 234 233 208 234 233 208 234 233 208 234 233 208 234 233 208 234 233 208 234 233 208 234 233 208 234 233 208 234 233 117 91 51 110 86 44 110 86 44 110 86 44 110 86 44 110 86 44 110 86 44 110 86 44 110 86 44 110 86 44 110 86 44 110 86 44 110 86 44 110 86 44 110 86 44 110 86 44 110 86 44 117 91 51 117 91 51 117 91 51 117 91 51 117 91 51 117 91 51 117 91 51 117 91 51 117 91 51 117 91 51 117 91 51 117 91 51 117 91 51 117 91 51 117 91 51 117 91 51 117 91 51 117 91 51 117 91 51 117 91 51 117 91 51 117 91 51 117 91 51 117 91 51 117 91 51 117 91 51 117 91 51 117 91 51 117 91 51 117 91 51 117 91 51 117 91 51 117 91 51 117 91 51 117 91 51 117 91 51 117 91 51 117 91 51 117 91 51 117 91 51 117 91 51 117 91 51 117 91 51 117 91 51 117 91 51 117 91 51 117 91 51 117 91 51 117 91 51 117 91 51 117 91 51 117 91 51 117 91 51 117 91 51 117 91 51 117 91 51 117 91 51 117 91 51 117 91 51 117 91 51 117 91 51 117 91 51 117 91 51 117 91 51 110 86 44 110 86 44 110 86 44 110 86 44 110 86 44 110 86 44 110 86 44 110 86 44 110 86 44 110 86 44 110 86 44 110 86 44 110 86 44 110 86 44 110 86 44 110 86 44 99 78 38 99 78 38 99 78 38 99 78 38 99 78 38 99 78 38 99 78 38 99 78 38 99 78 38 99 78 38 99 78 38 99 78 38 99 78 38 99 78 38 99 78 38 99 78 38 99 78 38 99 78 38 99 78 38 99 78 38 99 78 38 99 78 38 99 78 38 99 78 38 99 78 38 99 78 38 99 78 38 99 78 38 99 78 38 99 78 38 99 78 38 99 78 38 99 78 38 99 78 38 99 78 38 99 78 38 99 78 38 99 78 38 99 78 38 99 78 38 99 78 38 99 78 38 99 78 38 99 78 38 99 78 38 99 78 38 99 78 38 110 86 44 110 86 44 110 86 44 110 86 44 110 86 44 110 86 44 110 86 44 110 86 44 110 86 44 110 86 44 110 86 44 110 86 44 110 86 44 110 86 44 110 86 44 110 86 44 99 78 38 99 78 38 99 78 38 99 78 38 99 78 38 99 78 38 99 78 38 99 78 38 99 78 38 99 78 38 99 78 38 99 78 38 99 78 38 99 78 38 99 78 38 99 78 38 110 86 44 110 86 44 110 86 44 110 86 44 110 86 44 110 86 44 110 86 44 110 86 44 110 86 44 110 86 44 110 86 44 110 86 44 110 86 44 110 86 44 110 86 44 110 86 44 99 78 38 99 78 38 99 78 38 99 78 38 99 78 38 99 78 38 99 78 38 99 78 38 99 78 38 99 78 38 99 78 38 99 78 38 99 78 38 99 78 38 99 78 38 99 78 38 99 78 38 99 78 38 99 78 38 99 78 38 99 78 38 99 78 38 99 78 38 99 78 38 99 78 38 99 78 38 99 78 38 99 78 38 99 78 38 99 78 38 99 78 38 99 78 38 139 193 205 139 193 205 139 193 205 139 193 205 139 193 205 139 193 205 139 193 205 139 193 205 139 193 205 139 193 205 139 193 205 139 193 205 139 193 205 139 193 205 139 193 205 139 193 205 208 234 233 208 234 233 208 234 233 208 234 233 208 234 233 208 234 233 208 234 233 208 234 233 208 234 233 208 234 233 208 234 233 208 234 233 208 234 233 208 234 233 208 234 233 117 91 51 110 86 44 110 86 44 110 86 44 110 86 44 110 86 44 110 86 44 110 86 44 110 86 44 110 86 44 110 86 44 110 86 44 110 86 44 110 86 44 110 86 44 110 86 44 110 86 44 117 91 51 117 91 51 117 91 51 117 91 51 117 91 51 117 91 51 117 91 51 117 91 51 117 91 51 117 91 51 117 91 51 117 91 51 117 91 51 117 91 51 117 91 51 117 91 51 117 91 51 117 91 51 117 91 51 117 91 51 117 91 51 117 91 51 117 91 51 117 91 51 117 91 51 117 91 51 117 91 51 117 91 51 117 91 51 117 91 51 117 91 51 117 91 51 117 91 51 117 91 51 117 91 51 117 91 51 117 91 51 117 91 51 117 91 51 117 91 51 117 91 51 117 91 51 117 91 51 117 91 51 117 91 51 117 91 51 117 91 51 117 91 51 117 91 51 117 91 51 117 91 51 117 91 51 117 91 51 117 91 51 117 91 51 117 91 51 117 91 51 117 91 51 117 91 51 117 91 51 117 91 51 117 91 51 117 91 51 117 91 51 110 86 44 110 86 44 110 86 44 110 86 44 110 86 44 110 86 44 110 86 44 110 86 44 110 86 44 110 86 44 110 86 44 110 86 44 110 86 44 110 86 44 110 86 44 110 86 44 99 78 38 99 78 38 99 78 38 99 78 38 99 78 38 99 78 38 99 78 38 99 78 38 99 78 38 99 78 38 99 78 38 99 78 38 99 78 38 99 78 38 99 78 38 99 78 38 99 78 38 99 78 38 99 78 38 99 78 38 99 78 38 99 78 38 99 78 38 99 78 38 99 78 38 99 78 38 99 78 38 99 78 38 99 78 38 99 78 38 99 78 38 99 78 38 99 78 38 99 78 38 99 78 38 99 78 38 99 78 38 99 78 38 99 78 38 99 78 38 99 78 38 99 78 38 99 78 38 99 78 38 99 78 38 99 78 38 99 78 38 110 86 44 110 86 44 110 86 44 110 86 44 110 86 44 110 86 44 110 86 44 110 86 44 110 86 44 110 86 44 110 86 44 110 86 44 110 86 44 110 86 44 110 86 44 110 86 44 99 78 38 99 78 38 99 78 38 99 78 38 99 78 38 99 78 38 99 78 38 99 78 38 99 78 38 99 78 38 99 78 38 99 78 38 99 78 38 99 78 38 99 78 38 99 78 38 110 86 44 110 86 44 110 86 44 110 86 44 110 86 44 110 86 44 110 86 44 110 86 44 110 86 44 110 86 44 110 86 44 110 86 44 110 86 44 110 86 44 110 86 44 110 86 44 99 78 38 99 78 38 99 78 38 99 78 38 99 78 38 99 78 38 99 78 38 99 78 38 99 78 38 99 78 38 99 78 38 99 78 38 99 78 38 99 78 38 99 78 38 99 78 38 99 78 38 99 78 38 99 78 38 99 78 38 99 78 38 99 78 38 99 78 38 99 78 38 99 78 38 99 78 38 99 78 38 99 78 38 99 78 38 99 78 38 99 78 38 99 78 38 139 193 205 139 193 205 139 193 205 139 193 205 139 193 205 139 193 205 139 193 205 139 193 205 139 193 205 139 193 205 139 193 205 139 193 205 139 193 205 139 193 205 139 193 205 139 193 205 208 234 233 208 234 233 208 234 233 208 234 233 208 234 233 208 234 233 208 234 233 208 234 233 208 234 233 208 234 233 208 234 233 208 234 233 208 234 233 208 234 233 208 234 233 117 91 51 110 86 44 110 86 44 110 86 44 110 86 44 110 86 44 110 86 44 110 86 44 110 86 44 110 86 44 110 86 44 110 86 44 110 86 44 110 86 44 110 86 44 110 86 44 110 86 44 117 91 51 117 91 51 117 91 51 117 91 51 117 91 51 117 91 51 117 91 51 117 91 51 117 91 51 117 91 51 117 91 51 117 91 51 117 91 51 117 91 51 117 91 51 117 91 51 117 91 51 117 91 51 117 91 51 117 91 51 117 91 51 117 91 51 117 91 51 117 91 51 117 91 51 117 91 51 117 91 51 117 91 51 117 91 51 117 91 51 117 91 51 117 91 51 117 91 51 117 91 51 117 91 51 117 91 51 117 91 51 117 91 51 117 91 51 117 91 51 117 91 51 117 91 51 117 91 51 117 91 51 117 91 51 117 91 51 117 91 51 117 91 51 117 91 51 117 91 51 117 91 51 117 91 51 117 91 51 117 91 51 117 91 51 117 91 51 117 91 51 117 91 51 117 91 51 117 91 51 117 91 51 117 91 51 117 91 51 117 91 51 110 86 44 110 86 44 110 86 44 110 86 44 110 86 44 110 86 44 110 86 44 110 86 44 110 86 44 110 86 44 110 86 44 110 86 44 110 86 44 110 86 44 110 86 44 110 86 44 99 78 38 99 78 38 99 78 38 99 78 38 99 78 38 99 78 38 99 78 38 99 78 38 99 78 38 99 78 38 99 78 38 99 78 38 99 78 38 99 78 38 99 78 38 99 78 38 99 78 38 99 78 38 99 78 38 99 78 38 99 78 38 99 78 38 99 78 38 99 78 38 99 78 38 99 78 38 99 78 38 99 78 38 99 78 38 99 78 38 99 78 38 99 78 38 99 78 38 99 78 38 99 78 38 99 78 38 99 78 38 99 78 38 99 78 38 99 78 38 99 78 38 99 78 38 99 78 38 99 78 38 99 78 38 99 78 38 99 78 38 110 86 44 110 86 44 110 86 44 110 86 44 110 86 44 110 86 44 110 86 44 110 86 44 110 86 44 110 86 44 110 86 44 110 86 44 110 86 44 110 86 44 110 86 44 110 86 44 99 78 38 99 78 38 99 78 38 99 78 38 99 78 38 99 78 38 99 78 38 99 78 38 99 78 38 99 78 38 99 78 38 99 78 38 99 78 38 99 78 38 99 78 38 99 78 38 110 86 44 110 86 44 110 86 44 110 86 44 110 86 44 110 86 44 110 86 44 110 86 44 110 86 44 110 86 44 110 86 44 110 86 44 110 86 44 110 86 44 110 86 44 110 86 44 99 78 38 99 78 38 99 78 38 99 78 38 99 78 38 99 78 38 99 78 38 99 78 38 99 78 38 99 78 38 99 78 38 99 78 38 99 78 38 99 78 38 99 78 38 99 78 38 99 78 38 99 78 38 99 78 38 99 78 38 99 78 38 99 78 38 99 78 38 99 78 38 99 78 38 99 78 38 99 78 38 99 78 38 99 78 38 99 78 38 99 78 38 99 78 38 139 193 205 139 193 205 139 193 205 139 193 205 139 193 205 139 193 205 139 193 205 139 193 205 139 193 205 139 193 205 139 193 205 139 193 205 139 193 205 139 193 205 139 193 205 139 193 205 208 234 233 208 234 233 208 234 233 208 234 233 208 234 233 208 234 233 208 234 233 208 234 233 208 234 233 208 234 233 208 234 233 208 234 233 208 234 233 208 234 233 208 234 233 117 91 51 110 86 44 110 86 44 110 86 44 110 86 44 110 86 44 110 86 44 110 86 44 110 86 44 110 86 44 110 86 44 110 86 44 110 86 44 110 86 44 110 86 44 110 86 44 110 86 44 117 91 51 117 91 51 117 91 51 117 91 51 117 91 51 117 91 51 117 91 51 117 91 51 117 91 51 117 91 51 117 91 51 117 91 51 117 91 51 117 91 51 117 91 51 117 91 51 117 91 51 117 91 51 117 91 51 117 91 51 117 91 51 117 91 51 117 91 51 117 91 51 117 91 51 117 91 51 117 91 51 117 91 51 117 91 51 117 91 51 117 91 51 117 91 51 117 91 51 117 91 51 117 91 51 117 91 51 117 91 51 117 91 51 117 91 51 117 91 51 117 91 51 117 91 51 117 91 51 117 91 51 117 91 51 117 91 51 117 91 51 117 91 51 117 91 51 117 91 51 117 91 51 117 91 51 117 91 51 117 91 51 117 91 51 117 91 51 117 91 51 117 91 51 117 91 51 117 91 51 117 91 51 117 91 51 117 91 51 117 91 51 110 86 44 110 86 44 110 86 44 110 86 44 110 86 44 110 86 44 110 86 44 110 86 44 110 86 44 110 86 44 110 86 44 110 86 44 110 86 44 110 86 44 110 86 44 110 86 44 99 78 38 99 78 38 99 78 38 99 78 38 99 78 38 99 78 38 99 78 38 99 78 38 99 78 38 99 78 38 99 78 38 99 78 38 99 78 38 99 78 38 99 78 38 99 78 38 99 78 38 99 78 38 99 78 38 99 78 38 99 78 38 99 78 38 99 78 38 99 78 38 99 78 38 99 78 38 99 78 38 99 78 38 99 78 38 99 78 38 99 78 38 99 78 38 99 78 38 99 78 38 99 78 38 99 78 38 99 78 38 99 78 38 99 78 38 99 78 38 99 78 38 99 78 38 99 78 38 99 78 38 99 78 38 99 78 38 99 78 38 110 86 44 110 86 44 110 86 44 110 86 44 110 86 44 110 86 44 110 86 44 110 86 44 110 86 44 110 86 44 110 86 44 110 86 44 110 86 44 110 86 44 110 86 44 110 86 44 99 78 38 99 78 38 99 78 38 99 78 38 99 78 38 99 78 38 99 78 38 99 78 38 99 78 38 99 78 38 99 78 38 99 78 38 99 78 38 99 78 38 99 78 38 99 78 38 110 86 44 110 86 44 110 86 44 110 86 44 110 86 44 110 86 44 110 86 44 110 86 44 110 86 44 110 86 44 110 86 44 110 86 44 110 86 44 110 86 44 110 86 44 110 86 44 99 78 38 99 78 38 99 78 38 99 78 38 99 78 38 99 78 38 99 78 38 99 78 38 99 78 38 99 78 38 99 78 38 99 78 38 99 78 38 99 78 38 99 78 38 99 78 38 99 78 38 99 78 38 99 78 38 99 78 38 99 78 38 99 78 38 99 78 38 99 78 38 99 78 38 99 78 38 99 78 38 99 78 38 99 78 38 99 78 38 99 78 38 99 78 38 139 193 205 139 193 205 139 193 205 139 193 205 139 193 205 139 193 205 139 193 205 139 193 205 139 193 205 139 193 205 139 193 205 139 193 205 139 193 205 139 193 205 139 193 205 139 193 205 208 234 233 208 234 233 208 234 233 208 234 233 208 234 233 208 234 233 208 234 233 208 234 233 208 234 233 208 234 233 208 234 233 208 234 233 208 234 233 208 234 233 208 234 233 117 91 51 110 86 44 110 86 44 110 86 44 110 86 44 110 86 44 110 86 44 110 86 44 110 86 44 110 86 44 110 86 44 110 86 44 110 86 44 110 86 44 110 86 44 110 86 44 110 86 44 117 91 51 117 91 51 117 91 51 117 91 51 117 91 51 117 91 51 117 91 51 117 91 51 117 91 51 117 91 51 117 91 51 117 91 51 117 91 51 117 91 51 117 91 51 117 91 51 117 91 51 117 91 51 117 91 51 117 91 51 117 91 51 117 91 51 117 91 51 117 91 51 117 91 51 117 91 51 117 91 51 117 91 51 117 91 51 117 91 51 117 91 51 117 91 51 117 91 51 117 91 51 117 91 51 117 91 51 117 91 51 117 91 51 117 91 51 117 91 51 117 91 51 117 91 51 117 91 51 117 91 51 117 91 51 117 91 51 117 91 51 117 91 51 117 91 51 117 91 51 117 91 51 117 91 51 117 91 51 117 91 51 117 91 51 117 91 51 117 91 51 117 91 51 117 91 51 117 91 51 117 91 51 117 91 51 117 91 51 117 91 51 110 86 44 110 86 44 110 86 44 110 86 44 110 86 44 110 86 44 110 86 44 110 86 44 110 86 44 110 86 44 110 86 44 110 86 44 110 86 44 110 86 44 110 86 44 110 86 44 99 78 38 99 78 38 99 78 38 99 78 38 99 78 38 99 78 38 99 78 38 99 78 38 99 78 38 99 78 38 99 78 38 99 78 38 99 78 38 99 78 38 99 78 38 99 78 38 99 78 38 99 78 38 99 78 38 99 78 38 99 78 38 99 78 38 99 78 38 99 78 38 99 78 38 99 78 38 99 78 38 99 78 38 99 78 38 99 78 38 99 78 38 99 78 38 99 78 38 99 78 38 99 78 38 99 78 38 99 78 38 99 78 38 99 78 38 99 78 38 99 78 38 99 78 38 99 78 38 99 78 38 99 78 38 99 78 38 99 78 38 110 86 44 110 86 44 110 86 44 110 86 44 110 86 44 110 86 44 110 86 44 110 86 44 110 86 44 110 86 44 110 86 44 110 86 44 110 86 44 110 86 44 110 86 44 110 86 44 99 78 38 99 78 38 99 78 38 99 78 38 99 78 38 99 78 38 99 78 38 99 78 38 99 78 38 99 78 38 99 78 38 99 78 38 99 78 38 99 78 38 99 78 38 99 78 38 110 86 44 110 86 44 110 86 44 110 86 44 110 86 44 110 86 44 110 86 44 110 86 44 110 86 44 110 86 44 110 86 44 110 86 44 110 86 44 110 86 44 110 86 44 110 86 44 99 78 38 99 78 38 99 78 38 99 78 38 99 78 38 99 78 38 99 78 38 99 78 38 99 78 38 99 78 38 99 78 38 99 78 38 99 78 38 99 78 38 99 78 38 99 78 38 99 78 38 99 78 38 99 78 38 99 78 38 99 78 38 99 78 38 99 78 38 99 78 38 99 78 38 99 78 38 99 78 38 99 78 38 99 78 38 99 78 38 99 78 38 99 78 38 139 193 205 139 193 205 139 193 205 139 193 205 139 193 205 139 193 205 139 193 205 139 193 205 139 193 205 139 193 205 139 193 205 139 193 205 139 193 205 139 193 205 139 193 205 139 193 205 208 234 233 208 234 233 208 234 233 208 234 233 208 234 233 208 234 233 208 234 233 208 234 233 208 234 233 208 234 233 208 234 233 208 234 233 208 234 233 208 234 233 208 234 233 117 91 51 110 86 44 110 86 44 110 86 44 110 86 44 110 86 44 110 86 44 110 86 44 110 86 44 110 86 44 110 86 44 110 86 44 110 86 44 110 86 44 110 86 44 110 86 44 110 86 44 117 91 51 117 91 51 117 91 51 117 91 51 117 91 51 117 91 51 117 91 51 117 91 51 117 91 51 117 91 51 117 91 51 117 91 51 117 91 51 117 91 51 117 91 51 117 91 51 117 91 51 117 91 51 117 91 51 117 91 51 117 91 51 117 91 51 117 91 51 117 91 51 117 91 51 117 91 51 117 91 51 117 91 51 117 91 51 117 91 51 117 91 51 117 91 51 117 91 51 117 91 51 117 91 51 117 91 51 117 91 51 117 91 51 117 91 51 117 91 51 117 91 51 117 91 51 117 91 51 117 91 51 117 91 51 117 91 51 117 91 51 117 91 51 117 91 51 117 91 51 117 91 51 117 91 51 117 91 51 117 91 51 117 91 51 117 91 51 117 91 51 117 91 51 117 91 51 117 91 51 117 91 51 117 91 51 117 91 51 117 91 51 110 86 44 110 86 44 110 86 44 110 86 44 110 86 44 110 86 44 110 86 44 110 86 44 110 86 44 110 86 44 110 86 44 110 86 44 110 86 44 110 86 44 110 86 44 110 86 44 99 78 38 99 78 38 99 78 38 99 78 38 99 78 38 99 78 38 99 78 38 99 78 38 99 78 38 99 78 38 99 78 38 99 78 38 99 78 38 99 78 38 99 78 38 99 78 38 99 78 38 99 78 38 99 78 38 99 78 38 99 78 38 99 78 38 99 78 38 99 78 38 99 78 38 99 78 38 99 78 38 99 78 38 99 78 38 99 78 38 99 78 38 99 78 38 99 78 38 99 78 38 99 78 38 99 78 38 99 78 38 99 78 38 99 78 38 99 78 38 99 78 38 99 78 38 99 78 38 99 78 38 99 78 38 99 78 38 99 78 38 110 86 44 110 86 44 110 86 44 110 86 44 110 86 44 110 86 44 110 86 44 110 86 44 110 86 44 110 86 44 110 86 44 110 86 44 110 86 44 110 86 44 110 86 44 110 86 44 99 78 38 99 78 38 99 78 38 99 78 38 99 78 38 99 78 38 99 78 38 99 78 38 99 78 38 99 78 38 99 78 38 99 78 38 99 78 38 99 78 38 99 78 38 99 78 38 110 86 44 110 86 44 110 86 44 110 86 44 110 86 44 110 86 44 110 86 44 110 86 44 110 86 44 110 86 44 110 86 44 110 86 44 110 86 44 110 86 44 110 86 44 110 86 44 99 78 38 99 78 38 99 78 38 99 78 38 99 78 38 99 78 38 99 78 38 99 78 38 99 78 38 99 78 38 99 78 38 99 78 38 99 78 38 99 78 38 99 78 38 99 78 38 99 78 38 99 78 38 99 78 38 99 78 38 99 78 38 99 78 38 99 78 38 99 78 38 99 78 38 99 78 38 99 78 38 99 78 38 99 78 38 99 78 38 99 78 38 99 78 38 139 193 205 139 193 205 139 193 205 139 193 205 139 193 205 139 193 205 139 193 205 139 193 205 139 193 205 139 193 205 139 193 205 139 193 205 139 193 205 139 193 205 139 193 205 139 193 205 208 234 233 208 234 233 208 234 233 208 234 233 208 234 233 208 234 233 208 234 233 208 234 233 208 234 233 208 234 233 208 234 233 208 234 233 208 234 233 208 234 233 208 234 233 117 91 51 110 86 44 110 86 44 110 86 44 110 86 44 110 86 44 110 86 44 110 86 44 110 86 44 110 86 44 110 86 44 110 86 44 110 86 44 110 86 44 110 86 44 110 86 44 110 86 44 117 91 51 117 91 51 117 91 51 117 91 51 117 91 51 117 91 51 117 91 51 117 91 51 117 91 51 117 91 51 117 91 51 117 91 51 117 91 51 117 91 51 117 91 51 117 91 51 117 91 51 117 91 51 117 91 51 117 91 51 117 91 51 117 91 51 117 91 51 117 91 51 117 91 51 117 91 51 117 91 51 117 91 51 117 91 51 117 91 51 117 91 51 117 91 51 117 91 51 117 91 51 117 91 51 117 91 51 117 91 51 117 91 51 117 91 51 117 91 51 117 91 51 117 91 51 117 91 51 117 91 51 117 91 51 117 91 51 117 91 51 117 91 51 117 91 51 117 91 51 117 91 51 117 91 51 117 91 51 117 91 51 117 91 51 117 91 51 117 91 51 117 91 51 117 91 51 117 91 51 117 91 51 117 91 51 117 91 51 117 91 51 110 86 44 110 86 44 110 86 44 110 86 44 110 86 44 110 86 44 110 86 44 110 86 44 110 86 44 110 86 44 110 86 44 110 86 44 110 86 44 110 86 44 110 86 44 110 86 44 99 78 38 99 78 38 99 78 38 99 78 38 99 78 38 99 78 38 99 78 38 99 78 38 99 78 38 99 78 38 99 78 38 99 78 38 99 78 38 99 78 38 99 78 38 99 78 38 99 78 38 99 78 38 99 78 38 99 78 38 99 78 38 99 78 38 99 78 38 99 78 38 99 78 38 99 78 38 99 78 38 99 78 38 99 78 38 99 78 38 99 78 38 99 78 38 99 78 38 99 78 38 99 78 38 99 78 38 99 78 38 99 78 38 99 78 38 99 78 38 99 78 38 99 78 38 99 78 38 99 78 38 99 78 38 99 78 38 99 78 38 110 86 44 110 86 44 110 86 44 110 86 44 110 86 44 110 86 44 110 86 44 110 86 44 110 86 44 110 86 44 110 86 44 110 86 44 110 86 44 110 86 44 110 86 44 110 86 44 99 78 38 99 78 38 99 78 38 99 78 38 99 78 38 99 78 38 99 78 38 99 78 38 99 78 38 99 78 38 99 78 38 99 78 38 99 78 38 99 78 38 99 78 38 99 78 38 110 86 44 110 86 44 110 86 44 110 86 44 110 86 44 110 86 44 110 86 44 110 86 44 110 86 44 110 86 44 110 86 44 110 86 44 110 86 44 110 86 44 110 86 44 110 86 44 99 78 38 99 78 38 99 78 38 99 78 38 99 78 38 99 78 38 99 78 38 99 78 38 99 78 38 99 78 38 99 78 38 99 78 38 99 78 38 99 78 38 99 78 38 99 78 38 99 78 38 99 78 38 99 78 38 99 78 38 99 78 38 99 78 38 99 78 38 99 78 38 99 78 38 99 78 38 99 78 38 99 78 38 99 78 38 99 78 38 99 78 38 99 78 38 139 193 205 139 193 205 139 193 205 139 193 205 139 193 205 139 193 205 139 193 205 139 193 205 139 193 205 139 193 205 139 193 205 139 193 205 139 193 205 139 193 205 139 193 205 139 193 205 208 234 233 208 234 233 208 234 233 208 234 233 208 234 233 208 234 233 208 234 233 208 234 233 208 234 233 208 234 233 208 234 233 208 234 233 208 234 233 208 234 233 208 234 233 117 91 51 110 86 44 110 86 44 110 86 44 110 86 44 110 86 44 110 86 44 110 86 44 110 86 44 110 86 44 110 86 44 110 86 44 110 86 44 110 86 44 110 86 44 110 86 44 110 86 44 117 91 51 117 91 51 117 91 51 117 91 51 117 91 51 117 91 51 117 91 51 117 91 51 117 91 51 117 91 51 117 91 51 117 91 51 117 91 51 117 91 51 117 91 51 117 91 51 117 91 51 117 91 51 117 91 51 117 91 51 117 91 51 117 91 51 117 91 51 117 91 51 117 91 51 117 91 51 117 91 51 117 91 51 117 91 51 117 91 51 117 91 51 117 91 51 117 91 51 117 91 51 117 91 51 117 91 51 117 91 51 117 91 51 117 91 51 117 91 51 117 91 51 117 91 51 117 91 51 117 91 51 117 91 51 117 91 51 117 91 51 117 91 51 117 91 51 117 91 51 117 91 51 117 91 51 117 91 51 117 91 51 117 91 51 117 91 51 117 91 51 117 91 51 117 91 51 117 91 51 117 91 51 117 91 51 117 91 51 117 91 51 110 86 44 110 86 44 110 86 44 110 86 44 110 86 44 110 86 44 110 86 44 110 86 44 110 86 44 110 86 44 110 86 44 110 86 44 110 86 44 110 86 44 110 86 44 110 86 44 99 78 38 99 78 38 99 78 38 99 78 38 99 78 38 99 78 38 99 78 38 99 78 38 99 78 38 99 78 38 99 78 38 99 78 38 99 78 38 99 78 38 99 78 38 99 78 38 99 78 38 99 78 38 99 78 38 99 78 38 99 78 38 99 78 38 99 78 38 99 78 38 99 78 38 99 78 38 99 78 38 99 78 38 99 78 38 99 78 38 99 78 38 99 78 38 99 78 38 99 78 38 99 78 38 99 78 38 99 78 38 99 78 38 99 78 38 99 78 38 99 78 38 99 78 38 99 78 38 99 78 38 99 78 38 99 78 38 99 78 38 110 86 44 110 86 44 110 86 44 110 86 44 110 86 44 110 86 44 110 86 44 110 86 44 110 86 44 110 86 44 110 86 44 110 86 44 110 86 44 110 86 44 110 86 44 110 86 44 99 78 38 99 78 38 99 78 38 99 78 38 99 78 38 99 78 38 99 78 38 99 78 38 99 78 38 99 78 38 99 78 38 99 78 38 99 78 38 99 78 38 99 78 38 99 78 38 110 86 44 110 86 44 110 86 44 110 86 44 110 86 44 110 86 44 110 86 44 110 86 44 110 86 44 110 86 44 110 86 44 110 86 44 110 86 44 110 86 44 110 86 44 110 86 44 99 78 38 99 78 38 99 78 38 99 78 38 99 78 38 99 78 38 99 78 38 99 78 38 99 78 38 99 78 38 99 78 38 99 78 38 99 78 38 99 78 38 99 78 38 99 78 38 99 78 38 99 78 38 99 78 38 99 78 38 99 78 38 99 78 38 99 78 38 99 78 38 99 78 38 99 78 38 99 78 38 99 78 38 99 78 38 99 78 38 99 78 38 99 78 38 139 193 205 139 193 205 139 193 205 139 193 205 139 193 205 139 193 205 139 193 205 139 193 205 139 193 205 139 193 205 139 193 205 139 193 205 139 193 205 139 193 205 139 193 205 139 193 205 208 234 233 208 234 233 208 234 233 208 234 233 208 234 233 208 234 233 208 234 233 208 234 233 208 234 233 208 234 233 208 234 233 208 234 233 208 234 233 208 234 233 208 234 233 117 91 51 110 86 44 110 86 44 110 86 44 110 86 44 110 86 44 110 86 44 110 86 44 110 86 44 110 86 44 110 86 44 110 86 44 110 86 44 110 86 44 110 86 44 110 86 44 110 86 44 117 91 51 117 91 51 117 91 51 117 91 51 117 91 51 117 91 51 117 91 51 117 91 51 117 91 51 117 91 51 117 91 51 117 91 51 117 91 51 117 91 51 117 91 51 117 91 51 117 91 51 117 91 51 117 91 51 117 91 51 117 91 51 117 91 51 117 91 51 117 91 51 117 91 51 117 91 51 117 91 51 117 91 51 117 91 51 117 91 51 117 91 51 117 91 51 117 91 51 117 91 51 117 91 51 117 91 51 117 91 51 117 91 51 117 91 51 117 91 51 117 91 51 117 91 51 117 91 51 117 91 51 117 91 51 117 91 51 117 91 51 117 91 51 117 91 51 117 91 51 117 91 51 117 91 51 117 91 51 117 91 51 117 91 51 117 91 51 117 91 51 117 91 51 117 91 51 117 91 51 117 91 51 117 91 51 117 91 51 117 91 51 110 86 44 110 86 44 110 86 44 110 86 44 110 86 44 110 86 44 110 86 44 110 86 44 110 86 44 110 86 44 110 86 44 110 86 44 110 86 44 110 86 44 110 86 44 110 86 44 99 78 38 99 78 38 99 78 38 99 78 38 99 78 38 99 78 38 99 78 38 99 78 38 99 78 38 99 78 38 99 78 38 99 78 38 99 78 38 99 78 38 99 78 38 99 78 38 99 78 38 99 78 38 99 78 38 99 78 38 99 78 38 99 78 38 99 78 38 99 78 38 99 78 38 99 78 38 99 78 38 99 78 38 99 78 38 99 78 38 99 78 38 99 78 38 99 78 38 99 78 38 99 78 38 99 78 38 99 78 38 99 78 38 99 78 38 99 78 38 99 78 38 99 78 38 99 78 38 99 78 38 99 78 38 99 78 38 99 78 38 110 86 44 110 86 44 110 86 44 110 86 44 110 86 44 110 86 44 110 86 44 110 86 44 110 86 44 110 86 44 110 86 44 110 86 44 110 86 44 110 86 44 110 86 44 110 86 44 99 78 38 99 78 38 99 78 38 99 78 38 99 78 38 99 78 38 99 78 38 99 78 38 99 78 38 99 78 38 99 78 38 99 78 38 99 78 38 99 78 38 99 78 38 99 78 38 110 86 44 110 86 44 110 86 44 110 86 44 110 86 44 110 86 44 110 86 44 110 86 44 110 86 44 110 86 44 110 86 44 110 86 44 110 86 44 110 86 44 110 86 44 110 86 44 99 78 38 99 78 38 99 78 38 99 78 38 99 78 38 99 78 38 99 78 38 99 78 38 99 78 38 99 78 38 99 78 38 99 78 38 99 78 38 99 78 38 99 78 38 99 78 38 99 78 38 99 78 38 99 78 38 99 78 38 99 78 38 99 78 38 99 78 38 99 78 38 99 78 38 99 78 38 99 78 38 99 78 38 99 78 38 99 78 38 99 78 38 99 78 38 139 193 205 139 193 205 139 193 205 139 193 205 139 193 205 139 193 205 139 193 205 139 193 205 139 193 205 139 193 205 139 193 205 139 193 205 139 193 205 139 193 205 139 193 205 139 193 205 208 234 233 208 234 233 208 234 233 208 234 233 208 234 233 208 234 233 208 234 233 208 234 233 208 234 233 208 234 233 208 234 233 208 234 233 208 234 233 208 234 233 208 234 233 125 98 53 117 91 51 117 91 51 117 91 51 117 91 51 117 91 51 117 91 51 117 91 51 117 91 51 117 91 51 117 91 51 117 91 51 117 91 51 117 91 51 117 91 51 117 91 51 117 91 51 110 86 44 110 86 44 110 86 44 110 86 44 110 86 44 110 86 44 110 86 44 110 86 44 110 86 44 110 86 44 110 86 44 110 86 44 110 86 44 110 86 44 110 86 44 110 86 44 110 86 44 110 86 44 110 86 44 110 86 44 110 86 44 110 86 44 110 86 44 110 86 44 110 86 44 110 86 44 110 86 44 110 86 44 110 86 44 110 86 44 110 86 44 110 86 44 99 78 38 99 78 38 99 78 38 99 78 38 99 78 38 99 78 38 99 78 38 99 78 38 99 78 38 99 78 38 99 78 38 99 78 38 99 78 38 99 78 38 99 78 38 99 78 38 99 78 38 99 78 38 99 78 38 99 78 38 99 78 38 99 78 38 99 78 38 99 78 38 99 78 38 99 78 38 99 78 38 99 78 38 99 78 38 99 78 38 99 78 38 99 78 38 99 78 38 99 78 38 99 78 38 99 78 38 99 78 38 99 78 38 99 78 38 99 78 38 99 78 38 99 78 38 99 78 38 99 78 38 99 78 38 99 78 38 99 78 38 99 78 38 99 78 38 99 78 38 99 78 38 99 78 38 99 78 38 99 78 38 99 78 38 99 78 38 99 78 38 99 78 38 99 78 38 99 78 38 99 78 38 99 78 38 99 78 38 99 78 38 110 86 44 110 86 44 110 86 44 110 86 44 110 86 44 110 86 44 110 86 44 110 86 44 110 86 44 110 86 44 110 86 44 110 86 44 110 86 44 110 86 44 110 86 44 110 86 44 110 86 44 110 86 44 110 86 44 110 86 44 110 86 44 110 86 44 110 86 44 110 86 44 110 86 44 110 86 44 110 86 44 110 86 44 110 86 44 110 86 44 110 86 44 110 86 44 110 86 44 110 86 44 110 86 44 110 86 44 110 86 44 110 86 44 110 86 44 110 86 44 110 86 44 110 86 44 110 86 44 110 86 44 110 86 44 110 86 44 110 86 44 110 86 44 110 86 44 110 86 44 110 86 44 110 86 44 110 86 44 110 86 44 110 86 44 110 86 44 110 86 44 110 86 44 110 86 44 110 86 44 110 86 44 110 86 44 110 86 44 99 78 38 99 78 38 99 78 38 99 78 38 99 78 38 99 78 38 99 78 38 99 78 38 99 78 38 99 78 38 99 78 38 99 78 38 99 78 38 99 78 38 99 78 38 99 78 38 99 78 38 99 78 38 99 78 38 99 78 38 99 78 38 99 78 38 99 78 38 99 78 38 99 78 38 99 78 38 99 78 38 99 78 38 99 78 38 99 78 38 99 78 38 99 78 38 117 91 51 117 91 51 117 91 51 117 91 51 117 91 51 117 91 51 117 91 51 117 91 51 117 91 51 117 91 51 117 91 51 117 91 51 117 91 51 117 91 51 117 91 51 117 91 51 139 193 205 139 193 205 139 193 205 139 193 205 139 193 205 139 193 205 139 193 205 139 193 205 139 193 205 139 193 205 139 193 205 139 193 205 139 193 205 139 193 205 139 193 205 139 193 205 208 234 233 208 234 233 208 234 233 208 234 233 208 234 233 208 234 233 208 234 233 208 234 233 208 234 233 208 234 233 208 234 233 208 234 233 208 234 233 208 234 233 208 234 233 125 98 53 117 91 51 117 91 51 117 91 51 117 91 51 117 91 51 117 91 51 117 91 51 117 91 51 117 91 51 117 91 51 117 91 51 117 91 51 117 91 51 117 91 51 117 91 51 117 91 51 110 86 44 110 86 44 110 86 44 110 86 44 110 86 44 110 86 44 110 86 44 110 86 44 110 86 44 110 86 44 110 86 44 110 86 44 110 86 44 110 86 44 110 86 44 110 86 44 110 86 44 110 86 44 110 86 44 110 86 44 110 86 44 110 86 44 110 86 44 110 86 44 110 86 44 110 86 44 110 86 44 110 86 44 110 86 44 110 86 44 110 86 44 110 86 44 99 78 38 99 78 38 99 78 38 99 78 38 99 78 38 99 78 38 99 78 38 99 78 38 99 78 38 99 78 38 99 78 38 99 78 38 99 78 38 99 78 38 99 78 38 99 78 38 99 78 38 99 78 38 99 78 38 99 78 38 99 78 38 99 78 38 99 78 38 99 78 38 99 78 38 99 78 38 99 78 38 99 78 38 99 78 38 99 78 38 99 78 38 99 78 38 99 78 38 99 78 38 99 78 38 99 78 38 99 78 38 99 78 38 99 78 38 99 78 38 99 78 38 99 78 38 99 78 38 99 78 38 99 78 38 99 78 38 99 78 38 99 78 38 99 78 38 99 78 38 99 78 38 99 78 38 99 78 38 99 78 38 99 78 38 99 78 38 99 78 38 99 78 38 99 78 38 99 78 38 99 78 38 99 78 38 99 78 38 99 78 38 110 86 44 110 86 44 110 86 44 110 86 44 110 86 44 110 86 44 110 86 44 110 86 44 110 86 44 110 86 44 110 86 44 110 86 44 110 86 44 110 86 44 110 86 44 110 86 44 110 86 44 110 86 44 110 86 44 110 86 44 110 86 44 110 86 44 110 86 44 110 86 44 110 86 44 110 86 44 110 86 44 110 86 44 110 86 44 110 86 44 110 86 44 110 86 44 110 86 44 110 86 44 110 86 44 110 86 44 110 86 44 110 86 44 110 86 44 110 86 44 110 86 44 110 86 44 110 86 44 110 86 44 110 86 44 110 86 44 110 86 44 110 86 44 110 86 44 110 86 44 110 86 44 110 86 44 110 86 44 110 86 44 110 86 44 110 86 44 110 86 44 110 86 44 110 86 44 110 86 44 110 86 44 110 86 44 110 86 44 99 78 38 99 78 38 99 78 38 99 78 38 99 78 38 99 78 38 99 78 38 99 78 38 99 78 38 99 78 38 99 78 38 99 78 38 99 78 38 99 78 38 99 78 38 99 78 38 99 78 38 99 78 38 99 78 38 99 78 38 99 78 38 99 78 38 99 78 38 99 78 38 99 78 38 99 78 38 99 78 38 99 78 38 99 78 38 99 78 38 99 78 38 99 78 38 117 91 51 117 91 51 117 91 51 117 91 51 117 91 51 117 91 51 117 91 51 117 91 51 117 91 51 117 91 51 117 91 51 117 91 51 117 91 51 117 91 51 117 91 51 117 91 51 139 193 205 139 193 205 139 193 205 139 193 205 139 193 205 139 193 205 139 193 205 139 193 205 139 193 205 139 193 205 139 193 205 139 193 205 139 193 205 139 193 205 139 193 205 139 193 205 208 234 233 208 234 233 208 234 233 208 234 233 208 234 233 208 234 233 208 234 233 208 234 233 208 234 233 208 234 233 208 234 233 208 234 233 208 234 233 208 234 233 208 234 233 125 98 53 117 91 51 117 91 51 117 91 51 117 91 51 117 91 51 117 91 51 117 91 51 117 91 51 117 91 51 117 91 51 117 91 51 117 91 51 117 91 51 117 91 51 117 91 51 117 91 51 110 86 44 110 86 44 110 86 44 110 86 44 110 86 44 110 86 44 110 86 44 110 86 44 110 86 44 110 86 44 110 86 44 110 86 44 110 86 44 110 86 44 110 86 44 110 86 44 110 86 44 110 86 44 110 86 44 110 86 44 110 86 44 110 86 44 110 86 44 110 86 44 110 86 44 110 86 44 110 86 44 110 86 44 110 86 44 110 86 44 110 86 44 110 86 44 99 78 38 99 78 38 99 78 38 99 78 38 99 78 38 99 78 38 99 78 38 99 78 38 99 78 38 99 78 38 99 78 38 99 78 38 99 78 38 99 78 38 99 78 38 99 78 38 99 78 38 99 78 38 99 78 38 99 78 38 99 78 38 99 78 38 99 78 38 99 78 38 99 78 38 99 78 38 99 78 38 99 78 38 99 78 38 99 78 38 99 78 38 99 78 38 99 78 38 99 78 38 99 78 38 99 78 38 99 78 38 99 78 38 99 78 38 99 78 38 99 78 38 99 78 38 99 78 38 99 78 38 99 78 38 99 78 38 99 78 38 99 78 38 99 78 38 99 78 38 99 78 38 99 78 38 99 78 38 99 78 38 99 78 38 99 78 38 99 78 38 99 78 38 99 78 38 99 78 38 99 78 38 99 78 38 99 78 38 99 78 38 110 86 44 110 86 44 110 86 44 110 86 44 110 86 44 110 86 44 110 86 44 110 86 44 110 86 44 110 86 44 110 86 44 110 86 44 110 86 44 110 86 44 110 86 44 110 86 44 110 86 44 110 86 44 110 86 44 110 86 44 110 86 44 110 86 44 110 86 44 110 86 44 110 86 44 110 86 44 110 86 44 110 86 44 110 86 44 110 86 44 110 86 44 110 86 44 110 86 44 110 86 44 110 86 44 110 86 44 110 86 44 110 86 44 110 86 44 110 86 44 110 86 44 110 86 44 110 86 44 110 86 44 110 86 44 110 86 44 110 86 44 110 86 44 110 86 44 110 86 44 110 86 44 110 86 44 110 86 44 110 86 44 110 86 44 110 86 44 110 86 44 110 86 44 110 86 44 110 86 44 110 86 44 110 86 44 110 86 44 99 78 38 99 78 38 99 78 38 99 78 38 99 78 38 99 78 38 99 78 38 99 78 38 99 78 38 99 78 38 99 78 38 99 78 38 99 78 38 99 78 38 99 78 38 99 78 38 99 78 38 99 78 38 99 78 38 99 78 38 99 78 38 99 78 38 99 78 38 99 78 38 99 78 38 99 78 38 99 78 38 99 78 38 99 78 38 99 78 38 99 78 38 99 78 38 117 91 51 117 91 51 117 91 51 117 91 51 117 91 51 117 91 51 117 91 51 117 91 51 117 91 51 117 91 51 117 91 51 117 91 51 117 91 51 117 91 51 117 91 51 117 91 51 139 193 205 139 193 205 139 193 205 139 193 205 139 193 205 139 193 205 139 193 205 139 193 205 139 193 205 139 193 205 139 193 205 139 193 205 139 193 205 139 193 205 139 193 205 139 193 205 208 234 233 208 234 233 208 234 233 208 234 233 208 234 233 208 234 233 208 234 233 208 234 233 208 234 233 208 234 233 208 234 233 208 234 233 208 234 233 208 234 233 208 234 233 125 98 53 117 91 51 117 91 51 117 91 51 117 91 51 117 91 51 117 91 51 117 91 51 117 91 51 117 91 51 117 91 51 117 91 51 117 91 51 117 91 51 117 91 51 117 91 51 117 91 51 110 86 44 110 86 44 110 86 44 110 86 44 110 86 44 110 86 44 110 86 44 110 86 44 110 86 44 110 86 44 110 86 44 110 86 44 110 86 44 110 86 44 110 86 44 110 86 44 110 86 44 110 86 44 110 86 44 110 86 44 110 86 44 110 86 44 110 86 44 110 86 44 110 86 44 110 86 44 110 86 44 110 86 44 110 86 44 110 86 44 110 86 44 110 86 44 99 78 38 99 78 38 99 78 38 99 78 38 99 78 38 99 78 38 99 78 38 99 78 38 99 78 38 99 78 38 99 78 38 99 78 38 99 78 38 99 78 38 99 78 38 99 78 38 99 78 38 99 78 38 99 78 38 99 78 38 99 78 38 99 78 38 99 78 38 99 78 38 99 78 38 99 78 38 99 78 38 99 78 38 99 78 38 99 78 38 99 78 38 99 78 38 99 78 38 99 78 38 99 78 38 99 78 38 99 78 38 99 78 38 99 78 38 99 78 38 99 78 38 99 78 38 99 78 38 99 78 38 99 78 38 99 78 38 99 78 38 99 78 38 99 78 38 99 78 38 99 78 38 99 78 38 99 78 38 99 78 38 99 78 38 99 78 38 99 78 38 99 78 38 99 78 38 99 78 38 99 78 38 99 78 38 99 78 38 99 78 38 110 86 44 110 86 44 110 86 44 110 86 44 110 86 44 110 86 44 110 86 44 110 86 44 110 86 44 110 86 44 110 86 44 110 86 44 110 86 44 110 86 44 110 86 44 110 86 44 110 86 44 110 86 44 110 86 44 110 86 44 110 86 44 110 86 44 110 86 44 110 86 44 110 86 44 110 86 44 110 86 44 110 86 44 110 86 44 110 86 44 110 86 44 110 86 44 110 86 44 110 86 44 110 86 44 110 86 44 110 86 44 110 86 44 110 86 44 110 86 44 110 86 44 110 86 44 110 86 44 110 86 44 110 86 44 110 86 44 110 86 44 110 86 44 110 86 44 110 86 44 110 86 44 110 86 44 110 86 44 110 86 44 110 86 44 110 86 44 110 86 44 110 86 44 110 86 44 110 86 44 110 86 44 110 86 44 110 86 44 99 78 38 99 78 38 99 78 38 99 78 38 99 78 38 99 78 38 99 78 38 99 78 38 99 78 38 99 78 38 99 78 38 99 78 38 99 78 38 99 78 38 99 78 38 99 78 38 99 78 38 99 78 38 99 78 38 99 78 38 99 78 38 99 78 38 99 78 38 99 78 38 99 78 38 99 78 38 99 78 38 99 78 38 99 78 38 99 78 38 99 78 38 99 78 38 117 91 51 117 91 51 117 91 51 117 91 51 117 91 51 117 91 51 117 91 51 117 91 51 117 91 51 117 91 51 117 91 51 117 91 51 117 91 51 117 91 51 117 91 51 117 91 51 139 193 205 139 193 205 139 193 205 139 193 205 139 193 205 139 193 205 139 193 205 139 193 205 139 193 205 139 193 205 139 193 205 139 193 205 139 193 205 139 193 205 139 193 205 139 193 205 208 234 233 208 234 233 208 234 233 208 234 233 208 234 233 208 234 233 208 234 233 208 234 233 208 234 233 208 234 233 208 234 233 208 234 233 208 234 233 208 234 233 208 234 233 125 98 53 117 91 51 117 91 51 117 91 51 117 91 51 117 91 51 117 91 51 117 91 51 117 91 51 117 91 51 117 91 51 117 91 51 117 91 51 117 91 51 117 91 51 117 91 51 117 91 51 110 86 44 110 86 44 110 86 44 110 86 44 110 86 44 110 86 44 110 86 44 110 86 44 110 86 44 110 86 44 110 86 44 110 86 44 110 86 44 110 86 44 110 86 44 110 86 44 110 86 44 110 86 44 110 86 44 110 86 44 110 86 44 110 86 44 110 86 44 110 86 44 110 86 44 110 86 44 110 86 44 110 86 44 110 86 44 110 86 44 110 86 44 110 86 44 99 78 38 99 78 38 99 78 38 99 78 38 99 78 38 99 78 38 99 78 38 99 78 38 99 78 38 99 78 38 99 78 38 99 78 38 99 78 38 99 78 38 99 78 38 99 78 38 99 78 38 99 78 38 99 78 38 99 78 38 99 78 38 99 78 38 99 78 38 99 78 38 99 78 38 99 78 38 99 78 38 99 78 38 99 78 38 99 78 38 99 78 38 99 78 38 99 78 38 99 78 38 99 78 38 99 78 38 99 78 38 99 78 38 99 78 38 99 78 38 99 78 38 99 78 38 99 78 38 99 78 38 99 78 38 99 78 38 99 78 38 99 78 38 99 78 38 99 78 38 99 78 38 99 78 38 99 78 38 99 78 38 99 78 38 99 78 38 99 78 38 99 78 38 99 78 38 99 78 38 99 78 38 99 78 38 99 78 38 99 78 38 110 86 44 110 86 44 110 86 44 110 86 44 110 86 44 110 86 44 110 86 44 110 86 44 110 86 44 110 86 44 110 86 44 110 86 44 110 86 44 110 86 44 110 86 44 110 86 44 110 86 44 110 86 44 110 86 44 110 86 44 110 86 44 110 86 44 110 86 44 110 86 44 110 86 44 110 86 44 110 86 44 110 86 44 110 86 44 110 86 44 110 86 44 110 86 44 110 86 44 110 86 44 110 86 44 110 86 44 110 86 44 110 86 44 110 86 44 110 86 44 110 86 44 110 86 44 110 86 44 110 86 44 110 86 44 110 86 44 110 86 44 110 86 44 110 86 44 110 86 44 110 86 44 110 86 44 110 86 44 110 86 44 110 86 44 110 86 44 110 86 44 110 86 44 110 86 44 110 86 44 110 86 44 110 86 44 110 86 44 99 78 38 99 78 38 99 78 38 99 78 38 99 78 38 99 78 38 99 78 38 99 78 38 99 78 38 99 78 38 99 78 38 99 78 38 99 78 38 99 78 38 99 78 38 99 78 38 99 78 38 99 78 38 99 78 38 99 78 38 99 78 38 99 78 38 99 78 38 99 78 38 99 78 38 99 78 38 99 78 38 99 78 38 99 78 38 99 78 38 99 78 38 99 78 38 117 91 51 117 91 51 117 91 51 117 91 51 117 91 51 117 91 51 117 91 51 117 91 51 117 91 51 117 91 51 117 91 51 117 91 51 117 91 51 117 91 51 117 91 51 117 91 51 139 193 205 139 193 205 139 193 205 139 193 205 139 193 205 139 193 205 139 193 205 139 193 205 139 193 205 139 193 205 139 193 205 139 193 205 139 193 205 139 193 205 139 193 205 139 193 205 208 234 233 208 234 233 208 234 233 208 234 233 208 234 233 208 234 233 208 234 233 208 234 233 208 234 233 208 234 233 208 234 233 208 234 233 208 234 233 208 234 233 208 234 233 125 98 53 117 91 51 117 91 51 117 91 51 117 91 51 117 91 51 117 91 51 117 91 51 117 91 51 117 91 51 117 91 51 117 91 51 117 91 51 117 91 51 117 91 51 117 91 51 117 91 51 110 86 44 110 86 44 110 86 44 110 86 44 110 86 44 110 86 44 110 86 44 110 86 44 110 86 44 110 86 44 110 86 44 110 86 44 110 86 44 110 86 44 110 86 44 110 86 44 110 86 44 110 86 44 110 86 44 110 86 44 110 86 44 110 86 44 110 86 44 110 86 44 110 86 44 110 86 44 110 86 44 110 86 44 110 86 44 110 86 44 110 86 44 110 86 44 99 78 38 99 78 38 99 78 38 99 78 38 99 78 38 99 78 38 99 78 38 99 78 38 99 78 38 99 78 38 99 78 38 99 78 38 99 78 38 99 78 38 99 78 38 99 78 38 99 78 38 99 78 38 99 78 38 99 78 38 99 78 38 99 78 38 99 78 38 99 78 38 99 78 38 99 78 38 99 78 38 99 78 38 99 78 38 99 78 38 99 78 38 99 78 38 99 78 38 99 78 38 99 78 38 99 78 38 99 78 38 99 78 38 99 78 38 99 78 38 99 78 38 99 78 38 99 78 38 99 78 38 99 78 38 99 78 38 99 78 38 99 78 38 99 78 38 99 78 38 99 78 38 99 78 38 99 78 38 99 78 38 99 78 38 99 78 38 99 78 38 99 78 38 99 78 38 99 78 38 99 78 38 99 78 38 99 78 38 99 78 38 110 86 44 110 86 44 110 86 44 110 86 44 110 86 44 110 86 44 110 86 44 110 86 44 110 86 44 110 86 44 110 86 44 110 86 44 110 86 44 110 86 44 110 86 44 110 86 44 110 86 44 110 86 44 110 86 44 110 86 44 110 86 44 110 86 44 110 86 44 110 86 44 110 86 44 110 86 44 110 86 44 110 86 44 110 86 44 110 86 44 110 86 44 110 86 44 110 86 44 110 86 44 110 86 44 110 86 44 110 86 44 110 86 44 110 86 44 110 86 44 110 86 44 110 86 44 110 86 44 110 86 44 110 86 44 110 86 44 110 86 44 110 86 44 110 86 44 110 86 44 110 86 44 110 86 44 110 86 44 110 86 44 110 86 44 110 86 44 110 86 44 110 86 44 110 86 44 110 86 44 110 86 44 110 86 44 110 86 44 99 78 38 99 78 38 99 78 38 99 78 38 99 78 38 99 78 38 99 78 38 99 78 38 99 78 38 99 78 38 99 78 38 99 78 38 99 78 38 99 78 38 99 78 38 99 78 38 99 78 38 99 78 38 99 78 38 99 78 38 99 78 38 99 78 38 99 78 38 99 78 38 99 78 38 99 78 38 99 78 38 99 78 38 99 78 38 99 78 38 99 78 38 99 78 38 117 91 51 117 91 51 117 91 51 117 91 51 117 91 51 117 91 51 117 91 51 117 91 51 117 91 51 117 91 51 117 91 51 117 91 51 117 91 51 117 91 51 117 91 51 117 91 51 139 193 205 139 193 205 139 193 205 139 193 205 139 193 205 139 193 205 139 193 205 139 193 205 139 193 205 139 193 205 139 193 205 139 193 205 139 193 205 139 193 205 139 193 205 139 193 205 208 234 233 208 234 233 208 234 233 208 234 233 208 234 233 208 234 233 208 234 233 208 234 233 208 234 233 208 234 233 208 234 233 208 234 233 208 234 233 208 234 233 208 234 233 125 98 53 117 91 51 117 91 51 117 91 51 117 91 51 117 91 51 117 91 51 117 91 51 117 91 51 117 91 51 117 91 51 117 91 51 117 91 51 117 91 51 117 91 51 117 91 51 117 91 51 110 86 44 110 86 44 110 86 44 110 86 44 110 86 44 110 86 44 110 86 44 110 86 44 110 86 44 110 86 44 110 86 44 110 86 44 110 86 44 110 86 44 110 86 44 110 86 44 110 86 44 110 86 44 110 86 44 110 86 44 110 86 44 110 86 44 110 86 44 110 86 44 110 86 44 110 86 44 110 86 44 110 86 44 110 86 44 110 86 44 110 86 44 110 86 44 99 78 38 99 78 38 99 78 38 99 78 38 99 78 38 99 78 38 99 78 38 99 78 38 99 78 38 99 78 38 99 78 38 99 78 38 99 78 38 99 78 38 99 78 38 99 78 38 99 78 38 99 78 38 99 78 38 99 78 38 99 78 38 99 78 38 99 78 38 99 78 38 99 78 38 99 78 38 99 78 38 99 78 38 99 78 38 99 78 38 99 78 38 99 78 38 99 78 38 99 78 38 99 78 38 99 78 38 99 78 38 99 78 38 99 78 38 99 78 38 99 78 38 99 78 38 99 78 38 99 78 38 99 78 38 99 78 38 99 78 38 99 78 38 99 78 38 99 78 38 99 78 38 99 78 38 99 78 38 99 78 38 99 78 38 99 78 38 99 78 38 99 78 38 99 78 38 99 78 38 99 78 38 99 78 38 99 78 38 99 78 38 110 86 44 110 86 44 110 86 44 110 86 44 110 86 44 110 86 44 110 86 44 110 86 44 110 86 44 110 86 44 110 86 44 110 86 44 110 86 44 110 86 44 110 86 44 110 86 44 110 86 44 110 86 44 110 86 44 110 86 44 110 86 44 110 86 44 110 86 44 110 86 44 110 86 44 110 86 44 110 86 44 110 86 44 110 86 44 110 86 44 110 86 44 110 86 44 110 86 44 110 86 44 110 86 44 110 86 44 110 86 44 110 86 44 110 86 44 110 86 44 110 86 44 110 86 44 110 86 44 110 86 44 110 86 44 110 86 44 110 86 44 110 86 44 110 86 44 110 86 44 110 86 44 110 86 44 110 86 44 110 86 44 110 86 44 110 86 44 110 86 44 110 86 44 110 86 44 110 86 44 110 86 44 110 86 44 110 86 44 99 78 38 99 78 38 99 78 38 99 78 38 99 78 38 99 78 38 99 78 38 99 78 38 99 78 38 99 78 38 99 78 38 99 78 38 99 78 38 99 78 38 99 78 38 99 78 38 99 78 38 99 78 38 99 78 38 99 78 38 99 78 38 99 78 38 99 78 38 99 78 38 99 78 38 99 78 38 99 78 38 99 78 38 99 78 38 99 78 38 99 78 38 99 78 38 117 91 51 117 91 51 117 91 51 117 91 51 117 91 51 117 91 51 117 91 51 117 91 51 117 91 51 117 91 51 117 91 51 117 91 51 117 91 51 117 91 51 117 91 51 117 91 51 139 193 205 139 193 205 139 193 205 139 193 205 139 193 205 139 193 205 139 193 205 139 193 205 139 193 205 139 193 205 139 193 205 139 193 205 139 193 205 139 193 205 139 193 205 139 193 205 208 234 233 208 234 233 208 234 233 208 234 233 208 234 233 208 234 233 208 234 233 208 234 233 208 234 233 208 234 233 208 234 233 208 234 233 208 234 233 208 234 233 208 234 233 125 98 53 117 91 51 117 91 51 117 91 51 117 91 51 117 91 51 117 91 51 117 91 51 117 91 51 117 91 51 117 91 51 117 91 51 117 91 51 117 91 51 117 91 51 117 91 51 117 91 51 110 86 44 110 86 44 110 86 44 110 86 44 110 86 44 110 86 44 110 86 44 110 86 44 110 86 44 110 86 44 110 86 44 110 86 44 110 86 44 110 86 44 110 86 44 110 86 44 110 86 44 110 86 44 110 86 44 110 86 44 110 86 44 110 86 44 110 86 44 110 86 44 110 86 44 110 86 44 110 86 44 110 86 44 110 86 44 110 86 44 110 86 44 110 86 44 99 78 38 99 78 38 99 78 38 99 78 38 99 78 38 99 78 38 99 78 38 99 78 38 99 78 38 99 78 38 99 78 38 99 78 38 99 78 38 99 78 38 99 78 38 99 78 38 99 78 38 99 78 38 99 78 38 99 78 38 99 78 38 99 78 38 99 78 38 99 78 38 99 78 38 99 78 38 99 78 38 99 78 38 99 78 38 99 78 38 99 78 38 99 78 38 99 78 38 99 78 38 99 78 38 99 78 38 99 78 38 99 78 38 99 78 38 99 78 38 99 78 38 99 78 38 99 78 38 99 78 38 99 78 38 99 78 38 99 78 38 99 78 38 99 78 38 99 78 38 99 78 38 99 78 38 99 78 38 99 78 38 99 78 38 99 78 38 99 78 38 99 78 38 99 78 38 99 78 38 99 78 38 99 78 38 99 78 38 99 78 38 110 86 44 110 86 44 110 86 44 110 86 44 110 86 44 110 86 44 110 86 44 110 86 44 110 86 44 110 86 44 110 86 44 110 86 44 110 86 44 110 86 44 110 86 44 110 86 44 110 86 44 110 86 44 110 86 44 110 86 44 110 86 44 110 86 44 110 86 44 110 86 44 110 86 44 110 86 44 110 86 44 110 86 44 110 86 44 110 86 44 110 86 44 110 86 44 110 86 44 110 86 44 110 86 44 110 86 44 110 86 44 110 86 44 110 86 44 110 86 44 110 86 44 110 86 44 110 86 44 110 86 44 110 86 44 110 86 44 110 86 44 110 86 44 110 86 44 110 86 44 110 86 44 110 86 44 110 86 44 110 86 44 110 86 44 110 86 44 110 86 44 110 86 44 110 86 44 110 86 44 110 86 44 110 86 44 110 86 44 99 78 38 99 78 38 99 78 38 99 78 38 99 78 38 99 78 38 99 78 38 99 78 38 99 78 38 99 78 38 99 78 38 99 78 38 99 78 38 99 78 38 99 78 38 99 78 38 99 78 38 99 78 38 99 78 38 99 78 38 99 78 38 99 78 38 99 78 38 99 78 38 99 78 38 99 78 38 99 78 38 99 78 38 99 78 38 99 78 38 99 78 38 99 78 38 117 91 51 117 91 51 117 91 51 117 91 51 117 91 51 117 91 51 117 91 51 117 91 51 117 91 51 117 91 51 117 91 51 117 91 51 117 91 51 117 91 51 117 91 51 117 91 51 139 193 205 139 193 205 139 193 205 139 193 205 139 193 205 139 193 205 139 193 205 139 193 205 139 193 205 139 193 205 139 193 205 139 193 205 139 193 205 139 193 205 139 193 205 139 193 205 208 234 233 208 234 233 208 234 233 208 234 233 208 234 233 208 234 233 208 234 233 208 234 233 208 234 233 208 234 233 208 234 233 208 234 233 208 234 233 208 234 233 208 234 233 125 98 53 117 91 51 117 91 51 117 91 51 117 91 51 117 91 51 117 91 51 117 91 51 117 91 51 117 91 51 117 91 51 117 91 51 117 91 51 117 91 51 117 91 51 117 91 51 117 91 51 110 86 44 110 86 44 110 86 44 110 86 44 110 86 44 110 86 44 110 86 44 110 86 44 110 86 44 110 86 44 110 86 44 110 86 44 110 86 44 110 86 44 110 86 44 110 86 44 110 86 44 110 86 44 110 86 44 110 86 44 110 86 44 110 86 44 110 86 44 110 86 44 110 86 44 110 86 44 110 86 44 110 86 44 110 86 44 110 86 44 110 86 44 110 86 44 99 78 38 99 78 38 99 78 38 99 78 38 99 78 38 99 78 38 99 78 38 99 78 38 99 78 38 99 78 38 99 78 38 99 78 38 99 78 38 99 78 38 99 78 38 99 78 38 99 78 38 99 78 38 99 78 38 99 78 38 99 78 38 99 78 38 99 78 38 99 78 38 99 78 38 99 78 38 99 78 38 99 78 38 99 78 38 99 78 38 99 78 38 99 78 38 99 78 38 99 78 38 99 78 38 99 78 38 99 78 38 99 78 38 99 78 38 99 78 38 99 78 38 99 78 38 99 78 38 99 78 38 99 78 38 99 78 38 99 78 38 99 78 38 99 78 38 99 78 38 99 78 38 99 78 38 99 78 38 99 78 38 99 78 38 99 78 38 99 78 38 99 78 38 99 78 38 99 78 38 99 78 38 99 78 38 99 78 38 99 78 38 110 86 44 110 86 44 110 86 44 110 86 44 110 86 44 110 86 44 110 86 44 110 86 44 110 86 44 110 86 44 110 86 44 110 86 44 110 86 44 110 86 44 110 86 44 110 86 44 110 86 44 110 86 44 110 86 44 110 86 44 110 86 44 110 86 44 110 86 44 110 86 44 110 86 44 110 86 44 110 86 44 110 86 44 110 86 44 110 86 44 110 86 44 110 86 44 110 86 44 110 86 44 110 86 44 110 86 44 110 86 44 110 86 44 110 86 44 110 86 44 110 86 44 110 86 44 110 86 44 110 86 44 110 86 44 110 86 44 110 86 44 110 86 44 110 86 44 110 86 44 110 86 44 110 86 44 110 86 44 110 86 44 110 86 44 110 86 44 110 86 44 110 86 44 110 86 44 110 86 44 110 86 44 110 86 44 110 86 44 99 78 38 99 78 38 99 78 38 99 78 38 99 78 38 99 78 38 99 78 38 99 78 38 99 78 38 99 78 38 99 78 38 99 78 38 99 78 38 99 78 38 99 78 38 99 78 38 99 78 38 99 78 38 99 78 38 99 78 38 99 78 38 99 78 38 99 78 38 99 78 38 99 78 38 99 78 38 99 78 38 99 78 38 99 78 38 99 78 38 99 78 38 99 78 38 117 91 51 117 91 51 117 91 51 117 91 51 117 91 51 117 91 51 117 91 51 117 91 51 117 91 51 117 91 51 117 91 51 117 91 51 117 91 51 117 91 51 117 91 51 117 91 51 139 193 205 139 193 205 139 193 205 139 193 205 139 193 205 139 193 205 139 193 205 139 193 205 139 193 205 139 193 205 139 193 205 139 193 205 139 193 205 139 193 205 139 193 205 139 193 205 208 234 233 208 234 233 208 234 233 208 234 233 208 234 233 208 234 233 208 234 233 208 234 233 208 234 233 208 234 233 208 234 233 208 234 233 208 234 233 208 234 233 208 234 233 125 98 53 117 91 51 117 91 51 117 91 51 117 91 51 117 91 51 117 91 51 117 91 51 117 91 51 117 91 51 117 91 51 117 91 51 117 91 51 117 91 51 117 91 51 117 91 51 117 91 51 110 86 44 110 86 44 110 86 44 110 86 44 110 86 44 110 86 44 110 86 44 110 86 44 110 86 44 110 86 44 110 86 44 110 86 44 110 86 44 110 86 44 110 86 44 110 86 44 110 86 44 110 86 44 110 86 44 110 86 44 110 86 44 110 86 44 110 86 44 110 86 44 110 86 44 110 86 44 110 86 44 110 86 44 110 86 44 110 86 44 110 86 44 110 86 44 99 78 38 99 78 38 99 78 38 99 78 38 99 78 38 99 78 38 99 78 38 99 78 38 99 78 38 99 78 38 99 78 38 99 78 38 99 78 38 99 78 38 99 78 38 99 78 38 99 78 38 99 78 38 99 78 38 99 78 38 99 78 38 99 78 38 99 78 38 99 78 38 99 78 38 99 78 38 99 78 38 99 78 38 99 78 38 99 78 38 99 78 38 99 78 38 99 78 38 99 78 38 99 78 38 99 78 38 99 78 38 99 78 38 99 78 38 99 78 38 99 78 38 99 78 38 99 78 38 99 78 38 99 78 38 99 78 38 99 78 38 99 78 38 99 78 38 99 78 38 99 78 38 99 78 38 99 78 38 99 78 38 99 78 38 99 78 38 99 78 38 99 78 38 99 78 38 99 78 38 99 78 38 99 78 38 99 78 38 99 78 38 110 86 44 110 86 44 110 86 44 110 86 44 110 86 44 110 86 44 110 86 44 110 86 44 110 86 44 110 86 44 110 86 44 110 86 44 110 86 44 110 86 44 110 86 44 110 86 44 110 86 44 110 86 44 110 86 44 110 86 44 110 86 44 110 86 44 110 86 44 110 86 44 110 86 44 110 86 44 110 86 44 110 86 44 110 86 44 110 86 44 110 86 44 110 86 44 110 86 44 110 86 44 110 86 44 110 86 44 110 86 44 110 86 44 110 86 44 110 86 44 110 86 44 110 86 44 110 86 44 110 86 44 110 86 44 110 86 44 110 86 44 110 86 44 110 86 44 110 86 44 110 86 44 110 86 44 110 86 44 110 86 44 110 86 44 110 86 44 110 86 44 110 86 44 110 86 44 110 86 44 110 86 44 110 86 44 110 86 44 99 78 38 99 78 38 99 78 38 99 78 38 99 78 38 99 78 38 99 78 38 99 78 38 99 78 38 99 78 38 99 78 38 99 78 38 99 78 38 99 78 38 99 78 38 99 78 38 99 78 38 99 78 38 99 78 38 99 78 38 99 78 38 99 78 38 99 78 38 99 78 38 99 78 38 99 78 38 99 78 38 99 78 38 99 78 38 99 78 38 99 78 38 99 78 38 117 91 51 117 91 51 117 91 51 117 91 51 117 91 51 117 91 51 117 91 51 117 91 51 117 91 51 117 91 51 117 91 51 117 91 51 117 91 51 117 91 51 117 91 51 117 91 51 139 193 205 139 193 205 139 193 205 139 193 205 139 193 205 139 193 205 139 193 205 139 193 205 139 193 205 139 193 205 139 193 205 139 193 205 139 193 205 139 193 205 139 193 205 139 193 205 208 234 233 208 234 233 208 234 233 208 234 233 208 234 233 208 234 233 208 234 233 208 234 233 208 234 233 208 234 233 208 234 233 208 234 233 208 234 233 208 234 233 208 234 233 125 98 53 117 91 51 117 91 51 117 91 51 117 91 51 117 91 51 117 91 51 117 91 51 117 91 51 117 91 51 117 91 51 117 91 51 117 91 51 117 91 51 117 91 51 117 91 51 117 91 51 110 86 44 110 86 44 110 86 44 110 86 44 110 86 44 110 86 44 110 86 44 110 86 44 110 86 44 110 86 44 110 86 44 110 86 44 110 86 44 110 86 44 110 86 44 110 86 44 110 86 44 110 86 44 110 86 44 110 86 44 110 86 44 110 86 44 110 86 44 110 86 44 110 86 44 110 86 44 110 86 44 110 86 44 110 86 44 110 86 44 110 86 44 110 86 44 99 78 38 99 78 38 99 78 38 99 78 38 99 78 38 99 78 38 99 78 38 99 78 38 99 78 38 99 78 38 99 78 38 99 78 38 99 78 38 99 78 38 99 78 38 99 78 38 99 78 38 99 78 38 99 78 38 99 78 38 99 78 38 99 78 38 99 78 38 99 78 38 99 78 38 99 78 38 99 78 38 99 78 38 99 78 38 99 78 38 99 78 38 99 78 38 99 78 38 99 78 38 99 78 38 99 78 38 99 78 38 99 78 38 99 78 38 99 78 38 99 78 38 99 78 38 99 78 38 99 78 38 99 78 38 99 78 38 99 78 38 99 78 38 99 78 38 99 78 38 99 78 38 99 78 38 99 78 38 99 78 38 99 78 38 99 78 38 99 78 38 99 78 38 99 78 38 99 78 38 99 78 38 99 78 38 99 78 38 99 78 38 110 86 44 110 86 44 110 86 44 110 86 44 110 86 44 110 86 44 110 86 44 110 86 44 110 86 44 110 86 44 110 86 44 110 86 44 110 86 44 110 86 44 110 86 44 110 86 44 110 86 44 110 86 44 110 86 44 110 86 44 110 86 44 110 86 44 110 86 44 110 86 44 110 86 44 110 86 44 110 86 44 110 86 44 110 86 44 110 86 44 110 86 44 110 86 44 110 86 44 110 86 44 110 86 44 110 86 44 110 86 44 110 86 44 110 86 44 110 86 44 110 86 44 110 86 44 110 86 44 110 86 44 110 86 44 110 86 44 110 86 44 110 86 44 110 86 44 110 86 44 110 86 44 110 86 44 110 86 44 110 86 44 110 86 44 110 86 44 110 86 44 110 86 44 110 86 44 110 86 44 110 86 44 110 86 44 110 86 44 99 78 38 99 78 38 99 78 38 99 78 38 99 78 38 99 78 38 99 78 38 99 78 38 99 78 38 99 78 38 99 78 38 99 78 38 99 78 38 99 78 38 99 78 38 99 78 38 99 78 38 99 78 38 99 78 38 99 78 38 99 78 38 99 78 38 99 78 38 99 78 38 99 78 38 99 78 38 99 78 38 99 78 38 99 78 38 99 78 38 99 78 38 99 78 38 117 91 51 117 91 51 117 91 51 117 91 51 117 91 51 117 91 51 117 91 51 117 91 51 117 91 51 117 91 51 117 91 51 117 91 51 117 91 51 117 91 51 117 91 51 117 91 51 139 193 205 139 193 205 139 193 205 139 193 205 139 193 205 139 193 205 139 193 205 139 193 205 139 193 205 139 193 205 139 193 205 139 193 205 139 193 205 139 193 205 139 193 205 139 193 205 208 234 233 208 234 233 208 234 233 208 234 233 208 234 233 208 234 233 208 234 233 208 234 233 208 234 233 208 234 233 208 234 233 208 234 233 208 234 233 208 234 233 208 234 233 125 98 53 117 91 51 117 91 51 117 91 51 117 91 51 117 91 51 117 91 51 117 91 51 117 91 51 117 91 51 117 91 51 117 91 51 117 91 51 117 91 51 117 91 51 117 91 51 117 91 51 110 86 44 110 86 44 110 86 44 110 86 44 110 86 44 110 86 44 110 86 44 110 86 44 110 86 44 110 86 44 110 86 44 110 86 44 110 86 44 110 86 44 110 86 44 110 86 44 110 86 44 110 86 44 110 86 44 110 86 44 110 86 44 110 86 44 110 86 44 110 86 44 110 86 44 110 86 44 110 86 44 110 86 44 110 86 44 110 86 44 110 86 44 110 86 44 99 78 38 99 78 38 99 78 38 99 78 38 99 78 38 99 78 38 99 78 38 99 78 38 99 78 38 99 78 38 99 78 38 99 78 38 99 78 38 99 78 38 99 78 38 99 78 38 99 78 38 99 78 38 99 78 38 99 78 38 99 78 38 99 78 38 99 78 38 99 78 38 99 78 38 99 78 38 99 78 38 99 78 38 99 78 38 99 78 38 99 78 38 99 78 38 99 78 38 99 78 38 99 78 38 99 78 38 99 78 38 99 78 38 99 78 38 99 78 38 99 78 38 99 78 38 99 78 38 99 78 38 99 78 38 99 78 38 99 78 38 99 78 38 99 78 38 99 78 38 99 78 38 99 78 38 99 78 38 99 78 38 99 78 38 99 78 38 99 78 38 99 78 38 99 78 38 99 78 38 99 78 38 99 78 38 99 78 38 99 78 38 110 86 44 110 86 44 110 86 44 110 86 44 110 86 44 110 86 44 110 86 44 110 86 44 110 86 44 110 86 44 110 86 44 110 86 44 110 86 44 110 86 44 110 86 44 110 86 44 110 86 44 110 86 44 110 86 44 110 86 44 110 86 44 110 86 44 110 86 44 110 86 44 110 86 44 110 86 44 110 86 44 110 86 44 110 86 44 110 86 44 110 86 44 110 86 44 110 86 44 110 86 44 110 86 44 110 86 44 110 86 44 110 86 44 110 86 44 110 86 44 110 86 44 110 86 44 110 86 44 110 86 44 110 86 44 110 86 44 110 86 44 110 86 44 110 86 44 110 86 44 110 86 44 110 86 44 110 86 44 110 86 44 110 86 44 110 86 44 110 86 44 110 86 44 110 86 44 110 86 44 110 86 44 110 86 44 110 86 44 99 78 38 99 78 38 99 78 38 99 78 38 99 78 38 99 78 38 99 78 38 99 78 38 99 78 38 99 78 38 99 78 38 99 78 38 99 78 38 99 78 38 99 78 38 99 78 38 99 78 38 99 78 38 99 78 38 99 78 38 99 78 38 99 78 38 99 78 38 99 78 38 99 78 38 99 78 38 99 78 38 99 78 38 99 78 38 99 78 38 99 78 38 99 78 38 117 91 51 117 91 51 117 91 51 117 91 51 117 91 51 117 91 51 117 91 51 117 91 51 117 91 51 117 91 51 117 91 51 117 91 51 117 91 51 117 91 51 117 91 51 117 91 51 139 193 205 139 193 205 139 193 205 139 193 205 139 193 205 139 193 205 139 193 205 139 193 205 139 193 205 139 193 205 139 193 205 139 193 205 139 193 205 139 193 205 139 193 205 139 193 205 208 234 233 208 234 233 208 234 233 208 234 233 208 234 233 208 234 233 208 234 233 208 234 233 208 234 233 208 234 233 208 234 233 208 234 233 208 234 233 208 234 233 208 234 233 125 98 53 117 91 51 117 91 51 117 91 51 117 91 51 117 91 51 117 91 51 117 91 51 117 91 51 117 91 51 117 91 51 117 91 51 117 91 51 117 91 51 117 91 51 117 91 51 117 91 51 110 86 44 110 86 44 110 86 44 110 86 44 110 86 44 110 86 44 110 86 44 110 86 44 110 86 44 110 86 44 110 86 44 110 86 44 110 86 44 110 86 44 110 86 44 110 86 44 110 86 44 110 86 44 110 86 44 110 86 44 110 86 44 110 86 44 110 86 44 110 86 44 110 86 44 110 86 44 110 86 44 110 86 44 110 86 44 110 86 44 110 86 44 110 86 44 99 78 38 99 78 38 99 78 38 99 78 38 99 78 38 99 78 38 99 78 38 99 78 38 99 78 38 99 78 38 99 78 38 99 78 38 99 78 38 99 78 38 99 78 38 99 78 38 99 78 38 99 78 38 99 78 38 99 78 38 99 78 38 99 78 38 99 78 38 99 78 38 99 78 38 99 78 38 99 78 38 99 78 38 99 78 38 99 78 38 99 78 38 99 78 38 99 78 38 99 78 38 99 78 38 99 78 38 99 78 38 99 78 38 99 78 38 99 78 38 99 78 38 99 78 38 99 78 38 99 78 38 99 78 38 99 78 38 99 78 38 99 78 38 99 78 38 99 78 38 99 78 38 99 78 38 99 78 38 99 78 38 99 78 38 99 78 38 99 78 38 99 78 38 99 78 38 99 78 38 99 78 38 99 78 38 99 78 38 99 78 38 110 86 44 110 86 44 110 86 44 110 86 44 110 86 44 110 86 44 110 86 44 110 86 44 110 86 44 110 86 44 110 86 44 110 86 44 110 86 44 110 86 44 110 86 44 110 86 44 110 86 44 110 86 44 110 86 44 110 86 44 110 86 44 110 86 44 110 86 44 110 86 44 110 86 44 110 86 44 110 86 44 110 86 44 110 86 44 110 86 44 110 86 44 110 86 44 110 86 44 110 86 44 110 86 44 110 86 44 110 86 44 110 86 44 110 86 44 110 86 44 110 86 44 110 86 44 110 86 44 110 86 44 110 86 44 110 86 44 110 86 44 110 86 44 110 86 44 110 86 44 110 86 44 110 86 44 110 86 44 110 86 44 110 86 44 110 86 44 110 86 44 110 86 44 110 86 44 110 86 44 110 86 44 110 86 44 110 86 44 99 78 38 99 78 38 99 78 38 99 78 38 99 78 38 99 78 38 99 78 38 99 78 38 99 78 38 99 78 38 99 78 38 99 78 38 99 78 38 99 78 38 99 78 38 99 78 38 99 78 38 99 78 38 99 78 38 99 78 38 99 78 38 99 78 38 99 78 38 99 78 38 99 78 38 99 78 38 99 78 38 99 78 38 99 78 38 99 78 38 99 78 38 99 78 38 117 91 51 117 91 51 117 91 51 117 91 51 117 91 51 117 91 51 117 91 51 117 91 51 117 91 51 117 91 51 117 91 51 117 91 51 117 91 51 117 91 51 117 91 51 117 91 51 139 193 205 139 193 205 139 193 205 139 193 205 139 193 205 139 193 205 139 193 205 139 193 205 139 193 205 139 193 205 139 193 205 139 193 205 139 193 205 139 193 205 139 193 205 139 193 205 208 234 233 208 234 233 208 234 233 208 234 233 208 234 233 208 234 233 208 234 233 208 234 233 208 234 233 208 234 233 208 234 233 208 234 233 208 234 233 208 234 233 208 234 233 125 98 53 117 91 51 117 91 51 117 91 51 117 91 51 117 91 51 117 91 51 117 91 51 117 91 51 117 91 51 117 91 51 117 91 51 117 91 51 117 91 51 117 91 51 117 91 51 117 91 51 110 86 44 110 86 44 110 86 44 110 86 44 110 86 44 110 86 44 110 86 44 110 86 44 110 86 44 110 86 44 110 86 44 110 86 44 110 86 44 110 86 44 110 86 44 110 86 44 110 86 44 110 86 44 110 86 44 110 86 44 110 86 44 110 86 44 110 86 44 110 86 44 110 86 44 110 86 44 110 86 44 110 86 44 110 86 44 110 86 44 110 86 44 110 86 44 99 78 38 99 78 38 99 78 38 99 78 38 99 78 38 99 78 38 99 78 38 99 78 38 99 78 38 99 78 38 99 78 38 99 78 38 99 78 38 99 78 38 99 78 38 99 78 38 99 78 38 99 78 38 99 78 38 99 78 38 99 78 38 99 78 38 99 78 38 99 78 38 99 78 38 99 78 38 99 78 38 99 78 38 99 78 38 99 78 38 99 78 38 99 78 38 99 78 38 99 78 38 99 78 38 99 78 38 99 78 38 99 78 38 99 78 38 99 78 38 99 78 38 99 78 38 99 78 38 99 78 38 99 78 38 99 78 38 99 78 38 99 78 38 99 78 38 99 78 38 99 78 38 99 78 38 99 78 38 99 78 38 99 78 38 99 78 38 99 78 38 99 78 38 99 78 38 99 78 38 99 78 38 99 78 38 99 78 38 99 78 38 110 86 44 110 86 44 110 86 44 110 86 44 110 86 44 110 86 44 110 86 44 110 86 44 110 86 44 110 86 44 110 86 44 110 86 44 110 86 44 110 86 44 110 86 44 110 86 44 110 86 44 110 86 44 110 86 44 110 86 44 110 86 44 110 86 44 110 86 44 110 86 44 110 86 44 110 86 44 110 86 44 110 86 44 110 86 44 110 86 44 110 86 44 110 86 44 110 86 44 110 86 44 110 86 44 110 86 44 110 86 44 110 86 44 110 86 44 110 86 44 110 86 44 110 86 44 110 86 44 110 86 44 110 86 44 110 86 44 110 86 44 110 86 44 110 86 44 110 86 44 110 86 44 110 86 44 110 86 44 110 86 44 110 86 44 110 86 44 110 86 44 110 86 44 110 86 44 110 86 44 110 86 44 110 86 44 110 86 44 99 78 38 99 78 38 99 78 38 99 78 38 99 78 38 99 78 38 99 78 38 99 78 38 99 78 38 99 78 38 99 78 38 99 78 38 99 78 38 99 78 38 99 78 38 99 78 38 99 78 38 99 78 38 99 78 38 99 78 38 99 78 38 99 78 38 99 78 38 99 78 38 99 78 38 99 78 38 99 78 38 99 78 38 99 78 38 99 78 38 99 78 38 99 78 38 117 91 51 117 91 51 117 91 51 117 91 51 117 91 51 117 91 51 117 91 51 117 91 51 117 91 51 117 91 51 117 91 51 117 91 51 117 91 51 117 91 51 117 91 51 117 91 51 139 193 205 139 193 205 139 193 205 139 193 205 139 193 205 139 193 205 139 193 205 139 193 205 139 193 205 139 193 205 139 193 205 139 193 205 139 193 205 139 193 205 139 193 205 139 193 205 208 234 233 208 234 233 208 234 233 208 234 233 208 234 233 208 234 233 208 234 233 208 234 233 208 234 233 208 234 233 208 234 233 208 234 233 208 234 233 208 234 233 208 234 233 125 98 53 117 91 51 117 91 51 117 91 51 117 91 51 117 91 51 117 91 51 117 91 51 117 91 51 117 91 51 117 91 51 117 91 51 117 91 51 117 91 51 117 91 51 117 91 51 117 91 51 110 86 44 110 86 44 110 86 44 110 86 44 110 86 44 110 86 44 110 86 44 110 86 44 110 86 44 110 86 44 110 86 44 110 86 44 110 86 44 110 86 44 110 86 44 110 86 44 110 86 44 110 86 44 110 86 44 110 86 44 110 86 44 110 86 44 110 86 44 110 86 44 110 86 44 110 86 44 110 86 44 110 86 44 110 86 44 110 86 44 110 86 44 110 86 44 99 78 38 99 78 38 99 78 38 99 78 38 99 78 38 99 78 38 99 78 38 99 78 38 99 78 38 99 78 38 99 78 38 99 78 38 99 78 38 99 78 38 99 78 38 99 78 38 99 78 38 99 78 38 99 78 38 99 78 38 99 78 38 99 78 38 99 78 38 99 78 38 99 78 38 99 78 38 99 78 38 99 78 38 99 78 38 99 78 38 99 78 38 99 78 38 99 78 38 99 78 38 99 78 38 99 78 38 99 78 38 99 78 38 99 78 38 99 78 38 99 78 38 99 78 38 99 78 38 99 78 38 99 78 38 99 78 38 99 78 38 99 78 38 99 78 38 99 78 38 99 78 38 99 78 38 99 78 38 99 78 38 99 78 38 99 78 38 99 78 38 99 78 38 99 78 38 99 78 38 99 78 38 99 78 38 99 78 38 99 78 38 110 86 44 110 86 44 110 86 44 110 86 44 110 86 44 110 86 44 110 86 44 110 86 44 110 86 44 110 86 44 110 86 44 110 86 44 110 86 44 110 86 44 110 86 44 110 86 44 110 86 44 110 86 44 110 86 44 110 86 44 110 86 44 110 86 44 110 86 44 110 86 44 110 86 44 110 86 44 110 86 44 110 86 44 110 86 44 110 86 44 110 86 44 110 86 44 110 86 44 110 86 44 110 86 44 110 86 44 110 86 44 110 86 44 110 86 44 110 86 44 110 86 44 110 86 44 110 86 44 110 86 44 110 86 44 110 86 44 110 86 44 110 86 44 110 86 44 110 86 44 110 86 44 110 86 44 110 86 44 110 86 44 110 86 44 110 86 44 110 86 44 110 86 44 110 86 44 110 86 44 110 86 44 110 86 44 110 86 44 99 78 38 99 78 38 99 78 38 99 78 38 99 78 38 99 78 38 99 78 38 99 78 38 99 78 38 99 78 38 99 78 38 99 78 38 99 78 38 99 78 38 99 78 38 99 78 38 99 78 38 99 78 38 99 78 38 99 78 38 99 78 38 99 78 38 99 78 38 99 78 38 99 78 38 99 78 38 99 78 38 99 78 38 99 78 38 99 78 38 99 78 38 99 78 38 117 91 51 117 91 51 117 91 51 117 91 51 117 91 51 117 91 51 117 91 51 117 91 51 117 91 51 117 91 51 117 91 51 117 91 51 117 91 51 117 91 51 117 91 51 117 91 51 139 193 205 139 193 205 139 193 205 139 193 205 139 193 205 139 193 205 139 193 205 139 193 205 139 193 205 139 193 205 139 193 205 139 193 205 139 193 205 139 193 205 139 193 205 139 193 205 208 234 233 208 234 233 208 234 233 208 234 233 208 234 233 208 234 233 208 234 233 208 234 233 208 234 233 208 234 233 208 234 233 208 234 233 208 234 233 208 234 233 208 234 233 125 98 53 117 91 51 117 91 51 117 91 51 117 91 51 117 91 51 117 91 51 117 91 51 117 91 51 117 91 51 117 91 51 117 91 51 117 91 51 117 91 51 117 91 51 117 91 51 117 91 51 110 86 44 110 86 44 110 86 44 110 86 44 110 86 44 110 86 44 110 86 44 110 86 44 110 86 44 110 86 44 110 86 44 110 86 44 110 86 44 110 86 44 110 86 44 110 86 44 110 86 44 110 86 44 110 86 44 110 86 44 110 86 44 110 86 44 110 86 44 110 86 44 110 86 44 110 86 44 110 86 44 110 86 44 110 86 44 110 86 44 110 86 44 110 86 44 99 78 38 99 78 38 99 78 38 99 78 38 99 78 38 99 78 38 99 78 38 99 78 38 99 78 38 99 78 38 99 78 38 99 78 38 99 78 38 99 78 38 99 78 38 99 78 38 99 78 38 99 78 38 99 78 38 99 78 38 99 78 38 99 78 38 99 78 38 99 78 38 99 78 38 99 78 38 99 78 38 99 78 38 99 78 38 99 78 38 99 78 38 99 78 38 99 78 38 99 78 38 99 78 38 99 78 38 99 78 38 99 78 38 99 78 38 99 78 38 99 78 38 99 78 38 99 78 38 99 78 38 99 78 38 99 78 38 99 78 38 99 78 38 99 78 38 99 78 38 99 78 38 99 78 38 99 78 38 99 78 38 99 78 38 99 78 38 99 78 38 99 78 38 99 78 38 99 78 38 99 78 38 99 78 38 99 78 38 99 78 38 110 86 44 110 86 44 110 86 44 110 86 44 110 86 44 110 86 44 110 86 44 110 86 44 110 86 44 110 86 44 110 86 44 110 86 44 110 86 44 110 86 44 110 86 44 110 86 44 110 86 44 110 86 44 110 86 44 110 86 44 110 86 44 110 86 44 110 86 44 110 86 44 110 86 44 110 86 44 110 86 44 110 86 44 110 86 44 110 86 44 110 86 44 110 86 44 110 86 44 110 86 44 110 86 44 110 86 44 110 86 44 110 86 44 110 86 44 110 86 44 110 86 44 110 86 44 110 86 44 110 86 44 110 86 44 110 86 44 110 86 44 110 86 44 110 86 44 110 86 44 110 86 44 110 86 44 110 86 44 110 86 44 110 86 44 110 86 44 110 86 44 110 86 44 110 86 44 110 86 44 110 86 44 110 86 44 110 86 44 99 78 38 99 78 38 99 78 38 99 78 38 99 78 38 99 78 38 99 78 38 99 78 38 99 78 38 99 78 38 99 78 38 99 78 38 99 78 38 99 78 38 99 78 38 99 78 38 99 78 38 99 78 38 99 78 38 99 78 38 99 78 38 99 78 38 99 78 38 99 78 38 99 78 38 99 78 38 99 78 38 99 78 38 99 78 38 99 78 38 99 78 38 99 78 38 117 91 51 117 91 51 117 91 51 117 91 51 117 91 51 117 91 51 117 91 51 117 91 51 117 91 51 117 91 51 117 91 51 117 91 51 117 91 51 117 91 51 117 91 51 117 91 51 139 193 205 139 193 205 139 193 205 139 193 205 139 193 205 139 193 205 139 193 205 139 193 205 139 193 205 139 193 205 139 193 205 139 193 205 139 193 205 139 193 205 139 193 205 139 193 205 208 234 233 208 234 233 208 234 233 208 234 233 208 234 233 208 234 233 208 234 233 208 234 233 208 234 233 208 234 233 208 234 233 208 234 233 208 234 233 208 234 233 208 234 233 56 40 13 56 40 13 56 40 13 56 40 13 56 40 13 56 40 13 56 40 13 56 40 13 56 40 13 56 40 13 56 40 13 56 40 13 56 40 13 56 40 13 56 40 13 56 40 13 56 40 13 74 53 21 74 53 21 74 53 21 74 53 21 74 53 21 74 53 21 74 53 21 74 53 21 74 53 21 74 53 21 74 53 21 74 53 21 74 53 21 74 53 21 74 53 21 74 53 21 92 67 29 92 67 29 92 67 29 92 67 29 92 67 29 92 67 29 92 67 29 92 67 29 92 67 29 92 67 29 92 67 29 92 67 29 92 67 29 92 67 29 92 67 29 92 67 29 92 67 29 92 67 29 92 67 29 92 67 29 92 67 29 92 67 29 92 67 29 92 67 29 92 67 29 92 67 29 92 67 29 92 67 29 92 67 29 92 67 29 92 67 29 92 67 29 74 53 21 74 53 21 74 53 21 74 53 21 74 53 21 74 53 21 74 53 21 74 53 21 74 53 21 74 53 21 74 53 21 74 53 21 74 53 21 74 53 21 74 53 21 74 53 21 56 40 13 56 40 13 56 40 13 56 40 13 56 40 13 56 40 13 56 40 13 56 40 13 56 40 13 56 40 13 56 40 13 56 40 13 56 40 13 56 40 13 56 40 13 56 40 13 56 40 13 56 40 13 56 40 13 56 40 13 56 40 13 56 40 13 56 40 13 56 40 13 56 40 13 56 40 13 56 40 13 56 40 13 56 40 13 56 40 13 56 40 13 56 40 13 56 40 13 56 40 13 56 40 13 56 40 13 56 40 13 56 40 13 56 40 13 56 40 13 56 40 13 56 40 13 56 40 13 56 40 13 56 40 13 56 40 13 56 40 13 74 53 21 74 53 21 74 53 21 74 53 21 74 53 21 74 53 21 74 53 21 74 53 21 74 53 21 74 53 21 74 53 21 74 53 21 74 53 21 74 53 21 74 53 21 74 53 21 92 67 29 92 67 29 92 67 29 92 67 29 92 67 29 92 67 29 92 67 29 92 67 29 92 67 29 92 67 29 92 67 29 92 67 29 92 67 29 92 67 29 92 67 29 92 67 29 74 53 21 74 53 21 74 53 21 74 53 21 74 53 21 74 53 21 74 53 21 74 53 21 74 53 21 74 53 21 74 53 21 74 53 21 74 53 21 74 53 21 74 53 21 74 53 21 74 53 21 74 53 21 74 53 21 74 53 21 74 53 21 74 53 21 74 53 21 74 53 21 74 53 21 74 53 21 74 53 21 74 53 21 74 53 21 74 53 21 74 53 21 74 53 21 56 40 13 56 40 13 56 40 13 56 40 13 56 40 13 56 40 13 56 40 13 56 40 13 56 40 13 56 40 13 56 40 13 56 40 13 56 40 13 56 40 13 56 40 13 56 40 13 56 40 13 56 40 13 56 40 13 56 40 13 56 40 13 56 40 13 56 40 13 56 40 13 56 40 13 56 40 13 56 40 13 56 40 13 56 40 13 56 40 13 56 40 13 56 40 13 139 193 205 139 193 205 139 193 205 139 193 205 139 193 205 139 193 205 139 193 205 139 193 205 139 193 205 139 193 205 139 193 205 139 193 205 139 193 205 139 193 205 139 193 205 139 193 205 208 234 233 208 234 233 208 234 233 208 234 233 208 234 233 208 234 233 208 234 233 208 234 233 208 234 233 208 234 233 208 234 233 208 234 233 208 234 233 208 234 233 208 234 233 56 40 13 56 40 13 56 40 13 56 40 13 56 40 13 56 40 13 56 40 13 56 40 13 56 40 13 56 40 13 56 40 13 56 40 13 56 40 13 56 40 13 56 40 13 56 40 13 56 40 13 74 53 21 74 53 21 74 53 21 74 53 21 74 53 21 74 53 21 74 53 21 74 53 21 74 53 21 74 53 21 74 53 21 74 53 21 74 53 21 74 53 21 74 53 21 74 53 21 92 67 29 92 67 29 92 67 29 92 67 29 92 67 29 92 67 29 92 67 29 92 67 29 92 67 29 92 67 29 92 67 29 92 67 29 92 67 29 92 67 29 92 67 29 92 67 29 92 67 29 92 67 29 92 67 29 92 67 29 92 67 29 92 67 29 92 67 29 92 67 29 92 67 29 92 67 29 92 67 29 92 67 29 92 67 29 92 67 29 92 67 29 92 67 29 74 53 21 74 53 21 74 53 21 74 53 21 74 53 21 74 53 21 74 53 21 74 53 21 74 53 21 74 53 21 74 53 21 74 53 21 74 53 21 74 53 21 74 53 21 74 53 21 56 40 13 56 40 13 56 40 13 56 40 13 56 40 13 56 40 13 56 40 13 56 40 13 56 40 13 56 40 13 56 40 13 56 40 13 56 40 13 56 40 13 56 40 13 56 40 13 56 40 13 56 40 13 56 40 13 56 40 13 56 40 13 56 40 13 56 40 13 56 40 13 56 40 13 56 40 13 56 40 13 56 40 13 56 40 13 56 40 13 56 40 13 56 40 13 56 40 13 56 40 13 56 40 13 56 40 13 56 40 13 56 40 13 56 40 13 56 40 13 56 40 13 56 40 13 56 40 13 56 40 13 56 40 13 56 40 13 56 40 13 74 53 21 74 53 21 74 53 21 74 53 21 74 53 21 74 53 21 74 53 21 74 53 21 74 53 21 74 53 21 74 53 21 74 53 21 74 53 21 74 53 21 74 53 21 74 53 21 92 67 29 92 67 29 92 67 29 92 67 29 92 67 29 92 67 29 92 67 29 92 67 29 92 67 29 92 67 29 92 67 29 92 67 29 92 67 29 92 67 29 92 67 29 92 67 29 74 53 21 74 53 21 74 53 21 74 53 21 74 53 21 74 53 21 74 53 21 74 53 21 74 53 21 74 53 21 74 53 21 74 53 21 74 53 21 74 53 21 74 53 21 74 53 21 74 53 21 74 53 21 74 53 21 74 53 21 74 53 21 74 53 21 74 53 21 74 53 21 74 53 21 74 53 21 74 53 21 74 53 21 74 53 21 74 53 21 74 53 21 74 53 21 56 40 13 56 40 13 56 40 13 56 40 13 56 40 13 56 40 13 56 40 13 56 40 13 56 40 13 56 40 13 56 40 13 56 40 13 56 40 13 56 40 13 56 40 13 56 40 13 56 40 13 56 40 13 56 40 13 56 40 13 56 40 13 56 40 13 56 40 13 56 40 13 56 40 13 56 40 13 56 40 13 56 40 13 56 40 13 56 40 13 56 40 13 56 40 13 139 193 205 139 193 205 139 193 205 139 193 205 139 193 205 139 193 205 139 193 205 139 193 205 139 193 205 139 193 205 139 193 205 139 193 205 139 193 205 139 193 205 139 193 205 139 193 205 208 234 233 208 234 233 208 234 233 208 234 233 208 234 233 208 234 233 208 234 233 208 234 233 208 234 233 208 234 233 208 234 233 208 234 233 208 234 233 208 234 233 208 234 233 56 40 13 56 40 13 56 40 13 56 40 13 56 40 13 56 40 13 56 40 13 56 40 13 56 40 13 56 40 13 56 40 13 56 40 13 56 40 13 56 40 13 56 40 13 56 40 13 56 40 13 74 53 21 74 53 21 74 53 21 74 53 21 74 53 21 74 53 21 74 53 21 74 53 21 74 53 21 74 53 21 74 53 21 74 53 21 74 53 21 74 53 21 74 53 21 74 53 21 92 67 29 92 67 29 92 67 29 92 67 29 92 67 29 92 67 29 92 67 29 92 67 29 92 67 29 92 67 29 92 67 29 92 67 29 92 67 29 92 67 29 92 67 29 92 67 29 92 67 29 92 67 29 92 67 29 92 67 29 92 67 29 92 67 29 92 67 29 92 67 29 92 67 29 92 67 29 92 67 29 92 67 29 92 67 29 92 67 29 92 67 29 92 67 29 74 53 21 74 53 21 74 53 21 74 53 21 74 53 21 74 53 21 74 53 21 74 53 21 74 53 21 74 53 21 74 53 21 74 53 21 74 53 21 74 53 21 74 53 21 74 53 21 56 40 13 56 40 13 56 40 13 56 40 13 56 40 13 56 40 13 56 40 13 56 40 13 56 40 13 56 40 13 56 40 13 56 40 13 56 40 13 56 40 13 56 40 13 56 40 13 56 40 13 56 40 13 56 40 13 56 40 13 56 40 13 56 40 13 56 40 13 56 40 13 56 40 13 56 40 13 56 40 13 56 40 13 56 40 13 56 40 13 56 40 13 56 40 13 56 40 13 56 40 13 56 40 13 56 40 13 56 40 13 56 40 13 56 40 13 56 40 13 56 40 13 56 40 13 56 40 13 56 40 13 56 40 13 56 40 13 56 40 13 74 53 21 74 53 21 74 53 21 74 53 21 74 53 21 74 53 21 74 53 21 74 53 21 74 53 21 74 53 21 74 53 21 74 53 21 74 53 21 74 53 21 74 53 21 74 53 21 92 67 29 92 67 29 92 67 29 92 67 29 92 67 29 92 67 29 92 67 29 92 67 29 92 67 29 92 67 29 92 67 29 92 67 29 92 67 29 92 67 29 92 67 29 92 67 29 74 53 21 74 53 21 74 53 21 74 53 21 74 53 21 74 53 21 74 53 21 74 53 21 74 53 21 74 53 21 74 53 21 74 53 21 74 53 21 74 53 21 74 53 21 74 53 21 74 53 21 74 53 21 74 53 21 74 53 21 74 53 21 74 53 21 74 53 21 74 53 21 74 53 21 74 53 21 74 53 21 74 53 21 74 53 21 74 53 21 74 53 21 74 53 21 56 40 13 56 40 13 56 40 13 56 40 13 56 40 13 56 40 13 56 40 13 56 40 13 56 40 13 56 40 13 56 40 13 56 40 13 56 40 13 56 40 13 56 40 13 56 40 13 56 40 13 56 40 13 56 40 13 56 40 13 56 40 13 56 40 13 56 40 13 56 40 13 56 40 13 56 40 13 56 40 13 56 40 13 56 40 13 56 40 13 56 40 13 56 40 13 139 193 205 139 193 205 139 193 205 139 193 205 139 193 205 139 193 205 139 193 205 139 193 205 139 193 205 139 193 205 139 193 205 139 193 205 139 193 205 139 193 205 139 193 205 139 193 205 208 234 233 208 234 233 208 234 233 208 234 233 208 234 233 208 234 233 208 234 233 208 234 233 208 234 233 208 234 233 208 234 233 208 234 233 208 234 233 208 234 233 208 234 233 56 40 13 56 40 13 56 40 13 56 40 13 56 40 13 56 40 13 56 40 13 56 40 13 56 40 13 56 40 13 56 40 13 56 40 13 56 40 13 56 40 13 56 40 13 56 40 13 56 40 13 74 53 21 74 53 21 74 53 21 74 53 21 74 53 21 74 53 21 74 53 21 74 53 21 74 53 21 74 53 21 74 53 21 74 53 21 74 53 21 74 53 21 74 53 21 74 53 21 92 67 29 92 67 29 92 67 29 92 67 29 92 67 29 92 67 29 92 67 29 92 67 29 92 67 29 92 67 29 92 67 29 92 67 29 92 67 29 92 67 29 92 67 29 92 67 29 92 67 29 92 67 29 92 67 29 92 67 29 92 67 29 92 67 29 92 67 29 92 67 29 92 67 29 92 67 29 92 67 29 92 67 29 92 67 29 92 67 29 92 67 29 92 67 29 74 53 21 74 53 21 74 53 21 74 53 21 74 53 21 74 53 21 74 53 21 74 53 21 74 53 21 74 53 21 74 53 21 74 53 21 74 53 21 74 53 21 74 53 21 74 53 21 56 40 13 56 40 13 56 40 13 56 40 13 56 40 13 56 40 13 56 40 13 56 40 13 56 40 13 56 40 13 56 40 13 56 40 13 56 40 13 56 40 13 56 40 13 56 40 13 56 40 13 56 40 13 56 40 13 56 40 13 56 40 13 56 40 13 56 40 13 56 40 13 56 40 13 56 40 13 56 40 13 56 40 13 56 40 13 56 40 13 56 40 13 56 40 13 56 40 13 56 40 13 56 40 13 56 40 13 56 40 13 56 40 13 56 40 13 56 40 13 56 40 13 56 40 13 56 40 13 56 40 13 56 40 13 56 40 13 56 40 13 74 53 21 74 53 21 74 53 21 74 53 21 74 53 21 74 53 21 74 53 21 74 53 21 74 53 21 74 53 21 74 53 21 74 53 21 74 53 21 74 53 21 74 53 21 74 53 21 92 67 29 92 67 29 92 67 29 92 67 29 92 67 29 92 67 29 92 67 29 92 67 29 92 67 29 92 67 29 92 67 29 92 67 29 92 67 29 92 67 29 92 67 29 92 67 29 74 53 21 74 53 21 74 53 21 74 53 21 74 53 21 74 53 21 74 53 21 74 53 21 74 53 21 74 53 21 74 53 21 74 53 21 74 53 21 74 53 21 74 53 21 74 53 21 74 53 21 74 53 21 74 53 21 74 53 21 74 53 21 74 53 21 74 53 21 74 53 21 74 53 21 74 53 21 74 53 21 74 53 21 74 53 21 74 53 21 74 53 21 74 53 21 56 40 13 56 40 13 56 40 13 56 40 13 56 40 13 56 40 13 56 40 13 56 40 13 56 40 13 56 40 13 56 40 13 56 40 13 56 40 13 56 40 13 56 40 13 56 40 13 56 40 13 56 40 13 56 40 13 56 40 13 56 40 13 56 40 13 56 40 13 56 40 13 56 40 13 56 40 13 56 40 13 56 40 13 56 40 13 56 40 13 56 40 13 56 40 13 139 193 205 139 193 205 139 193 205 139 193 205 139 193 205 139 193 205 139 193 205 139 193 205 139 193 205 139 193 205 139 193 205 139 193 205 139 193 205 139 193 205 139 193 205 139 193 205 208 234 233 208 234 233 208 234 233 208 234 233 208 234 233 208 234 233 208 234 233 208 234 233 208 234 233 208 234 233 208 234 233 208 234 233 208 234 233 208 234 233 208 234 233 56 40 13 56 40 13 56 40 13 56 40 13 56 40 13 56 40 13 56 40 13 56 40 13 56 40 13 56 40 13 56 40 13 56 40 13 56 40 13 56 40 13 56 40 13 56 40 13 56 40 13 74 53 21 74 53 21 74 53 21 74 53 21 74 53 21 74 53 21 74 53 21 74 53 21 74 53 21 74 53 21 74 53 21 74 53 21 74 53 21 74 53 21 74 53 21 74 53 21 92 67 29 92 67 29 92 67 29 92 67 29 92 67 29 92 67 29 92 67 29 92 67 29 92 67 29 92 67 29 92 67 29 92 67 29 92 67 29 92 67 29 92 67 29 92 67 29 92 67 29 92 67 29 92 67 29 92 67 29 92 67 29 92 67 29 92 67 29 92 67 29 92 67 29 92 67 29 92 67 29 92 67 29 92 67 29 92 67 29 92 67 29 92 67 29 74 53 21 74 53 21 74 53 21 74 53 21 74 53 21 74 53 21 74 53 21 74 53 21 74 53 21 74 53 21 74 53 21 74 53 21 74 53 21 74 53 21 74 53 21 74 53 21 56 40 13 56 40 13 56 40 13 56 40 13 56 40 13 56 40 13 56 40 13 56 40 13 56 40 13 56 40 13 56 40 13 56 40 13 56 40 13 56 40 13 56 40 13 56 40 13 56 40 13 56 40 13 56 40 13 56 40 13 56 40 13 56 40 13 56 40 13 56 40 13 56 40 13 56 40 13 56 40 13 56 40 13 56 40 13 56 40 13 56 40 13 56 40 13 56 40 13 56 40 13 56 40 13 56 40 13 56 40 13 56 40 13 56 40 13 56 40 13 56 40 13 56 40 13 56 40 13 56 40 13 56 40 13 56 40 13 56 40 13 74 53 21 74 53 21 74 53 21 74 53 21 74 53 21 74 53 21 74 53 21 74 53 21 74 53 21 74 53 21 74 53 21 74 53 21 74 53 21 74 53 21 74 53 21 74 53 21 92 67 29 92 67 29 92 67 29 92 67 29 92 67 29 92 67 29 92 67 29 92 67 29 92 67 29 92 67 29 92 67 29 92 67 29 92 67 29 92 67 29 92 67 29 92 67 29 74 53 21 74 53 21 74 53 21 74 53 21 74 53 21 74 53 21 74 53 21 74 53 21 74 53 21 74 53 21 74 53 21 74 53 21 74 53 21 74 53 21 74 53 21 74 53 21 74 53 21 74 53 21 74 53 21 74 53 21 74 53 21 74 53 21 74 53 21 74 53 21 74 53 21 74 53 21 74 53 21 74 53 21 74 53 21 74 53 21 74 53 21 74 53 21 56 40 13 56 40 13 56 40 13 56 40 13 56 40 13 56 40 13 56 40 13 56 40 13 56 40 13 56 40 13 56 40 13 56 40 13 56 40 13 56 40 13 56 40 13 56 40 13 56 40 13 56 40 13 56 40 13 56 40 13 56 40 13 56 40 13 56 40 13 56 40 13 56 40 13 56 40 13 56 40 13 56 40 13 56 40 13 56 40 13 56 40 13 56 40 13 139 193 205 139 193 205 139 193 205 139 193 205 139 193 205 139 193 205 139 193 205 139 193 205 139 193 205 139 193 205 139 193 205 139 193 205 139 193 205 139 193 205 139 193 205 139 193 205 208 234 233 208 234 233 208 234 233 208 234 233 208 234 233 208 234 233 208 234 233 208 234 233 208 234 233 208 234 233 208 234 233 208 234 233 208 234 233 208 234 233 208 234 233 56 40 13 56 40 13 56 40 13 56 40 13 56 40 13 56 40 13 56 40 13 56 40 13 56 40 13 56 40 13 56 40 13 56 40 13 56 40 13 56 40 13 56 40 13 56 40 13 56 40 13 74 53 21 74 53 21 74 53 21 74 53 21 74 53 21 74 53 21 74 53 21 74 53 21 74 53 21 74 53 21 74 53 21 74 53 21 74 53 21 74 53 21 74 53 21 74 53 21 92 67 29 92 67 29 92 67 29 92 67 29 92 67 29 92 67 29 92 67 29 92 67 29 92 67 29 92 67 29 92 67 29 92 67 29 92 67 29 92 67 29 92 67 29 92 67 29 92 67 29 92 67 29 92 67 29 92 67 29 92 67 29 92 67 29 92 67 29 92 67 29 92 67 29 92 67 29 92 67 29 92 67 29 92 67 29 92 67 29 92 67 29 92 67 29 74 53 21 74 53 21 74 53 21 74 53 21 74 53 21 74 53 21 74 53 21 74 53 21 74 53 21 74 53 21 74 53 21 74 53 21 74 53 21 74 53 21 74 53 21 74 53 21 56 40 13 56 40 13 56 40 13 56 40 13 56 40 13 56 40 13 56 40 13 56 40 13 56 40 13 56 40 13 56 40 13 56 40 13 56 40 13 56 40 13 56 40 13 56 40 13 56 40 13 56 40 13 56 40 13 56 40 13 56 40 13 56 40 13 56 40 13 56 40 13 56 40 13 56 40 13 56 40 13 56 40 13 56 40 13 56 40 13 56 40 13 56 40 13 56 40 13 56 40 13 56 40 13 56 40 13 56 40 13 56 40 13 56 40 13 56 40 13 56 40 13 56 40 13 56 40 13 56 40 13 56 40 13 56 40 13 56 40 13 74 53 21 74 53 21 74 53 21 74 53 21 74 53 21 74 53 21 74 53 21 74 53 21 74 53 21 74 53 21 74 53 21 74 53 21 74 53 21 74 53 21 74 53 21 74 53 21 92 67 29 92 67 29 92 67 29 92 67 29 92 67 29 92 67 29 92 67 29 92 67 29 92 67 29 92 67 29 92 67 29 92 67 29 92 67 29 92 67 29 92 67 29 92 67 29 74 53 21 74 53 21 74 53 21 74 53 21 74 53 21 74 53 21 74 53 21 74 53 21 74 53 21 74 53 21 74 53 21 74 53 21 74 53 21 74 53 21 74 53 21 74 53 21 74 53 21 74 53 21 74 53 21 74 53 21 74 53 21 74 53 21 74 53 21 74 53 21 74 53 21 74 53 21 74 53 21 74 53 21 74 53 21 74 53 21 74 53 21 74 53 21 56 40 13 56 40 13 56 40 13 56 40 13 56 40 13 56 40 13 56 40 13 56 40 13 56 40 13 56 40 13 56 40 13 56 40 13 56 40 13 56 40 13 56 40 13 56 40 13 56 40 13 56 40 13 56 40 13 56 40 13 56 40 13 56 40 13 56 40 13 56 40 13 56 40 13 56 40 13 56 40 13 56 40 13 56 40 13 56 40 13 56 40 13 56 40 13 139 193 205 139 193 205 139 193 205 139 193 205 139 193 205 139 193 205 139 193 205 139 193 205 139 193 205 139 193 205 139 193 205 139 193 205 139 193 205 139 193 205 139 193 205 139 193 205 208 234 233 208 234 233 208 234 233 208 234 233 208 234 233 208 234 233 208 234 233 208 234 233 208 234 233 208 234 233 208 234 233 208 234 233 208 234 233 208 234 233 208 234 233 56 40 13 56 40 13 56 40 13 56 40 13 56 40 13 56 40 13 56 40 13 56 40 13 56 40 13 56 40 13 56 40 13 56 40 13 56 40 13 56 40 13 56 40 13 56 40 13 56 40 13 74 53 21 74 53 21 74 53 21 74 53 21 74 53 21 74 53 21 74 53 21 74 53 21 74 53 21 74 53 21 74 53 21 74 53 21 74 53 21 74 53 21 74 53 21 74 53 21 92 67 29 92 67 29 92 67 29 92 67 29 92 67 29 92 67 29 92 67 29 92 67 29 92 67 29 92 67 29 92 67 29 92 67 29 92 67 29 92 67 29 92 67 29 92 67 29 92 67 29 92 67 29 92 67 29 92 67 29 92 67 29 92 67 29 92 67 29 92 67 29 92 67 29 92 67 29 92 67 29 92 67 29 92 67 29 92 67 29 92 67 29 92 67 29 74 53 21 74 53 21 74 53 21 74 53 21 74 53 21 74 53 21 74 53 21 74 53 21 74 53 21 74 53 21 74 53 21 74 53 21 74 53 21 74 53 21 74 53 21 74 53 21 56 40 13 56 40 13 56 40 13 56 40 13 56 40 13 56 40 13 56 40 13 56 40 13 56 40 13 56 40 13 56 40 13 56 40 13 56 40 13 56 40 13 56 40 13 56 40 13 56 40 13 56 40 13 56 40 13 56 40 13 56 40 13 56 40 13 56 40 13 56 40 13 56 40 13 56 40 13 56 40 13 56 40 13 56 40 13 56 40 13 56 40 13 56 40 13 56 40 13 56 40 13 56 40 13 56 40 13 56 40 13 56 40 13 56 40 13 56 40 13 56 40 13 56 40 13 56 40 13 56 40 13 56 40 13 56 40 13 56 40 13 74 53 21 74 53 21 74 53 21 74 53 21 74 53 21 74 53 21 74 53 21 74 53 21 74 53 21 74 53 21 74 53 21 74 53 21 74 53 21 74 53 21 74 53 21 74 53 21 92 67 29 92 67 29 92 67 29 92 67 29 92 67 29 92 67 29 92 67 29 92 67 29 92 67 29 92 67 29 92 67 29 92 67 29 92 67 29 92 67 29 92 67 29 92 67 29 74 53 21 74 53 21 74 53 21 74 53 21 74 53 21 74 53 21 74 53 21 74 53 21 74 53 21 74 53 21 74 53 21 74 53 21 74 53 21 74 53 21 74 53 21 74 53 21 74 53 21 74 53 21 74 53 21 74 53 21 74 53 21 74 53 21 74 53 21 74 53 21 74 53 21 74 53 21 74 53 21 74 53 21 74 53 21 74 53 21 74 53 21 74 53 21 56 40 13 56 40 13 56 40 13 56 40 13 56 40 13 56 40 13 56 40 13 56 40 13 56 40 13 56 40 13 56 40 13 56 40 13 56 40 13 56 40 13 56 40 13 56 40 13 56 40 13 56 40 13 56 40 13 56 40 13 56 40 13 56 40 13 56 40 13 56 40 13 56 40 13 56 40 13 56 40 13 56 40 13 56 40 13 56 40 13 56 40 13 56 40 13 139 193 205 139 193 205 139 193 205 139 193 205 139 193 205 139 193 205 139 193 205 139 193 205 139 193 205 139 193 205 139 193 205 139 193 205 139 193 205 139 193 205 139 193 205 139 193 205 208 234 233 208 234 233 208 234 233 208 234 233 208 234 233 208 234 233 208 234 233 208 234 233 208 234 233 208 234 233 208 234 233 208 234 233 208 234 233 208 234 233 208 234 233 56 40 13 56 40 13 56 40 13 56 40 13 56 40 13 56 40 13 56 40 13 56 40 13 56 40 13 56 40 13 56 40 13 56 40 13 56 40 13 56 40 13 56 40 13 56 40 13 56 40 13 74 53 21 74 53 21 74 53 21 74 53 21 74 53 21 74 53 21 74 53 21 74 53 21 74 53 21 74 53 21 74 53 21 74 53 21 74 53 21 74 53 21 74 53 21 74 53 21 92 67 29 92 67 29 92 67 29 92 67 29 92 67 29 92 67 29 92 67 29 92 67 29 92 67 29 92 67 29 92 67 29 92 67 29 92 67 29 92 67 29 92 67 29 92 67 29 92 67 29 92 67 29 92 67 29 92 67 29 92 67 29 92 67 29 92 67 29 92 67 29 92 67 29 92 67 29 92 67 29 92 67 29 92 67 29 92 67 29 92 67 29 92 67 29 74 53 21 74 53 21 74 53 21 74 53 21 74 53 21 74 53 21 74 53 21 74 53 21 74 53 21 74 53 21 74 53 21 74 53 21 74 53 21 74 53 21 74 53 21 74 53 21 56 40 13 56 40 13 56 40 13 56 40 13 56 40 13 56 40 13 56 40 13 56 40 13 56 40 13 56 40 13 56 40 13 56 40 13 56 40 13 56 40 13 56 40 13 56 40 13 56 40 13 56 40 13 56 40 13 56 40 13 56 40 13 56 40 13 56 40 13 56 40 13 56 40 13 56 40 13 56 40 13 56 40 13 56 40 13 56 40 13 56 40 13 56 40 13 56 40 13 56 40 13 56 40 13 56 40 13 56 40 13 56 40 13 56 40 13 56 40 13 56 40 13 56 40 13 56 40 13 56 40 13 56 40 13 56 40 13 56 40 13 74 53 21 74 53 21 74 53 21 74 53 21 74 53 21 74 53 21 74 53 21 74 53 21 74 53 21 74 53 21 74 53 21 74 53 21 74 53 21 74 53 21 74 53 21 74 53 21 92 67 29 92 67 29 92 67 29 92 67 29 92 67 29 92 67 29 92 67 29 92 67 29 92 67 29 92 67 29 92 67 29 92 67 29 92 67 29 92 67 29 92 67 29 92 67 29 74 53 21 74 53 21 74 53 21 74 53 21 74 53 21 74 53 21 74 53 21 74 53 21 74 53 21 74 53 21 74 53 21 74 53 21 74 53 21 74 53 21 74 53 21 74 53 21 74 53 21 74 53 21 74 53 21 74 53 21 74 53 21 74 53 21 74 53 21 74 53 21 74 53 21 74 53 21 74 53 21 74 53 21 74 53 21 74 53 21 74 53 21 74 53 21 56 40 13 56 40 13 56 40 13 56 40 13 56 40 13 56 40 13 56 40 13 56 40 13 56 40 13 56 40 13 56 40 13 56 40 13 56 40 13 56 40 13 56 40 13 56 40 13 56 40 13 56 40 13 56 40 13 56 40 13 56 40 13 56 40 13 56 40 13 56 40 13 56 40 13 56 40 13 56 40 13 56 40 13 56 40 13 56 40 13 56 40 13 56 40 13 139 193 205 139 193 205 139 193 205 139 193 205 139 193 205 139 193 205 139 193 205 139 193 205 139 193 205 139 193 205 139 193 205 139 193 205 139 193 205 139 193 205 139 193 205 139 193 205 208 234 233 208 234 233 208 234 233 208 234 233 208 234 233 208 234 233 208 234 233 208 234 233 208 234 233 208 234 233 208 234 233 208 234 233 208 234 233 208 234 233 208 234 233 56 40 13 56 40 13 56 40 13 56 40 13 56 40 13 56 40 13 56 40 13 56 40 13 56 40 13 56 40 13 56 40 13 56 40 13 56 40 13 56 40 13 56 40 13 56 40 13 56 40 13 74 53 21 74 53 21 74 53 21 74 53 21 74 53 21 74 53 21 74 53 21 74 53 21 74 53 21 74 53 21 74 53 21 74 53 21 74 53 21 74 53 21 74 53 21 74 53 21 92 67 29 92 67 29 92 67 29 92 67 29 92 67 29 92 67 29 92 67 29 92 67 29 92 67 29 92 67 29 92 67 29 92 67 29 92 67 29 92 67 29 92 67 29 92 67 29 92 67 29 92 67 29 92 67 29 92 67 29 92 67 29 92 67 29 92 67 29 92 67 29 92 67 29 92 67 29 92 67 29 92 67 29 92 67 29 92 67 29 92 67 29 92 67 29 74 53 21 74 53 21 74 53 21 74 53 21 74 53 21 74 53 21 74 53 21 74 53 21 74 53 21 74 53 21 74 53 21 74 53 21 74 53 21 74 53 21 74 53 21 74 53 21 56 40 13 56 40 13 56 40 13 56 40 13 56 40 13 56 40 13 56 40 13 56 40 13 56 40 13 56 40 13 56 40 13 56 40 13 56 40 13 56 40 13 56 40 13 56 40 13 56 40 13 56 40 13 56 40 13 56 40 13 56 40 13 56 40 13 56 40 13 56 40 13 56 40 13 56 40 13 56 40 13 56 40 13 56 40 13 56 40 13 56 40 13 56 40 13 56 40 13 56 40 13 56 40 13 56 40 13 56 40 13 56 40 13 56 40 13 56 40 13 56 40 13 56 40 13 56 40 13 56 40 13 56 40 13 56 40 13 56 40 13 74 53 21 74 53 21 74 53 21 74 53 21 74 53 21 74 53 21 74 53 21 74 53 21 74 53 21 74 53 21 74 53 21 74 53 21 74 53 21 74 53 21 74 53 21 74 53 21 92 67 29 92 67 29 92 67 29 92 67 29 92 67 29 92 67 29 92 67 29 92 67 29 92 67 29 92 67 29 92 67 29 92 67 29 92 67 29 92 67 29 92 67 29 92 67 29 74 53 21 74 53 21 74 53 21 74 53 21 74 53 21 74 53 21 74 53 21 74 53 21 74 53 21 74 53 21 74 53 21 74 53 21 74 53 21 74 53 21 74 53 21 74 53 21 74 53 21 74 53 21 74 53 21 74 53 21 74 53 21 74 53 21 74 53 21 74 53 21 74 53 21 74 53 21 74 53 21 74 53 21 74 53 21 74 53 21 74 53 21 74 53 21 56 40 13 56 40 13 56 40 13 56 40 13 56 40 13 56 40 13 56 40 13 56 40 13 56 40 13 56 40 13 56 40 13 56 40 13 56 40 13 56 40 13 56 40 13 56 40 13 56 40 13 56 40 13 56 40 13 56 40 13 56 40 13 56 40 13 56 40 13 56 40 13 56 40 13 56 40 13 56 40 13 56 40 13 56 40 13 56 40 13 56 40 13 56 40 13 139 193 205 139 193 205 139 193 205 139 193 205 139 193 205 139 193 205 139 193 205 139 193 205 139 193 205 139 193 205 139 193 205 139 193 205 139 193 205 139 193 205 139 193 205 139 193 205 208 234 233 208 234 233 208 234 233 208 234 233 208 234 233 208 234 233 208 234 233 208 234 233 208 234 233 208 234 233 208 234 233 208 234 233 208 234 233 208 234 233 208 234 233 56 40 13 56 40 13 56 40 13 56 40 13 56 40 13 56 40 13 56 40 13 56 40 13 56 40 13 56 40 13 56 40 13 56 40 13 56 40 13 56 40 13 56 40 13 56 40 13 56 40 13 74 53 21 74 53 21 74 53 21 74 53 21 74 53 21 74 53 21 74 53 21 74 53 21 74 53 21 74 53 21 74 53 21 74 53 21 74 53 21 74 53 21 74 53 21 74 53 21 92 67 29 92 67 29 92 67 29 92 67 29 92 67 29 92 67 29 92 67 29 92 67 29 92 67 29 92 67 29 92 67 29 92 67 29 92 67 29 92 67 29 92 67 29 92 67 29 92 67 29 92 67 29 92 67 29 92 67 29 92 67 29 92 67 29 92 67 29 92 67 29 92 67 29 92 67 29 92 67 29 92 67 29 92 67 29 92 67 29 92 67 29 92 67 29 74 53 21 74 53 21 74 53 21 74 53 21 74 53 21 74 53 21 74 53 21 74 53 21 74 53 21 74 53 21 74 53 21 74 53 21 74 53 21 74 53 21 74 53 21 74 53 21 56 40 13 56 40 13 56 40 13 56 40 13 56 40 13 56 40 13 56 40 13 56 40 13 56 40 13 56 40 13 56 40 13 56 40 13 56 40 13 56 40 13 56 40 13 56 40 13 56 40 13 56 40 13 56 40 13 56 40 13 56 40 13 56 40 13 56 40 13 56 40 13 56 40 13 56 40 13 56 40 13 56 40 13 56 40 13 56 40 13 56 40 13 56 40 13 56 40 13 56 40 13 56 40 13 56 40 13 56 40 13 56 40 13 56 40 13 56 40 13 56 40 13 56 40 13 56 40 13 56 40 13 56 40 13 56 40 13 56 40 13 74 53 21 74 53 21 74 53 21 74 53 21 74 53 21 74 53 21 74 53 21 74 53 21 74 53 21 74 53 21 74 53 21 74 53 21 74 53 21 74 53 21 74 53 21 74 53 21 92 67 29 92 67 29 92 67 29 92 67 29 92 67 29 92 67 29 92 67 29 92 67 29 92 67 29 92 67 29 92 67 29 92 67 29 92 67 29 92 67 29 92 67 29 92 67 29 74 53 21 74 53 21 74 53 21 74 53 21 74 53 21 74 53 21 74 53 21 74 53 21 74 53 21 74 53 21 74 53 21 74 53 21 74 53 21 74 53 21 74 53 21 74 53 21 74 53 21 74 53 21 74 53 21 74 53 21 74 53 21 74 53 21 74 53 21 74 53 21 74 53 21 74 53 21 74 53 21 74 53 21 74 53 21 74 53 21 74 53 21 74 53 21 56 40 13 56 40 13 56 40 13 56 40 13 56 40 13 56 40 13 56 40 13 56 40 13 56 40 13 56 40 13 56 40 13 56 40 13 56 40 13 56 40 13 56 40 13 56 40 13 56 40 13 56 40 13 56 40 13 56 40 13 56 40 13 56 40 13 56 40 13 56 40 13 56 40 13 56 40 13 56 40 13 56 40 13 56 40 13 56 40 13 56 40 13 56 40 13 139 193 205 139 193 205 139 193 205 139 193 205 139 193 205 139 193 205 139 193 205 139 193 205 139 193 205 139 193 205 139 193 205 139 193 205 139 193 205 139 193 205 139 193 205 139 193 205 208 234 233 208 234 233 208 234 233 208 234 233 208 234 233 208 234 233 208 234 233 208 234 233 208 234 233 208 234 233 208 234 233 208 234 233 208 234 233 208 234 233 208 234 233 56 40 13 56 40 13 56 40 13 56 40 13 56 40 13 56 40 13 56 40 13 56 40 13 56 40 13 56 40 13 56 40 13 56 40 13 56 40 13 56 40 13 56 40 13 56 40 13 56 40 13 74 53 21 74 53 21 74 53 21 74 53 21 74 53 21 74 53 21 74 53 21 74 53 21 74 53 21 74 53 21 74 53 21 74 53 21 74 53 21 74 53 21 74 53 21 74 53 21 92 67 29 92 67 29 92 67 29 92 67 29 92 67 29 92 67 29 92 67 29 92 67 29 92 67 29 92 67 29 92 67 29 92 67 29 92 67 29 92 67 29 92 67 29 92 67 29 92 67 29 92 67 29 92 67 29 92 67 29 92 67 29 92 67 29 92 67 29 92 67 29 92 67 29 92 67 29 92 67 29 92 67 29 92 67 29 92 67 29 92 67 29 92 67 29 74 53 21 74 53 21 74 53 21 74 53 21 74 53 21 74 53 21 74 53 21 74 53 21 74 53 21 74 53 21 74 53 21 74 53 21 74 53 21 74 53 21 74 53 21 74 53 21 56 40 13 56 40 13 56 40 13 56 40 13 56 40 13 56 40 13 56 40 13 56 40 13 56 40 13 56 40 13 56 40 13 56 40 13 56 40 13 56 40 13 56 40 13 56 40 13 56 40 13 56 40 13 56 40 13 56 40 13 56 40 13 56 40 13 56 40 13 56 40 13 56 40 13 56 40 13 56 40 13 56 40 13 56 40 13 56 40 13 56 40 13 56 40 13 56 40 13 56 40 13 56 40 13 56 40 13 56 40 13 56 40 13 56 40 13 56 40 13 56 40 13 56 40 13 56 40 13 56 40 13 56 40 13 56 40 13 56 40 13 74 53 21 74 53 21 74 53 21 74 53 21 74 53 21 74 53 21 74 53 21 74 53 21 74 53 21 74 53 21 74 53 21 74 53 21 74 53 21 74 53 21 74 53 21 74 53 21 92 67 29 92 67 29 92 67 29 92 67 29 92 67 29 92 67 29 92 67 29 92 67 29 92 67 29 92 67 29 92 67 29 92 67 29 92 67 29 92 67 29 92 67 29 92 67 29 74 53 21 74 53 21 74 53 21 74 53 21 74 53 21 74 53 21 74 53 21 74 53 21 74 53 21 74 53 21 74 53 21 74 53 21 74 53 21 74 53 21 74 53 21 74 53 21 74 53 21 74 53 21 74 53 21 74 53 21 74 53 21 74 53 21 74 53 21 74 53 21 74 53 21 74 53 21 74 53 21 74 53 21 74 53 21 74 53 21 74 53 21 74 53 21 56 40 13 56 40 13 56 40 13 56 40 13 56 40 13 56 40 13 56 40 13 56 40 13 56 40 13 56 40 13 56 40 13 56 40 13 56 40 13 56 40 13 56 40 13 56 40 13 56 40 13 56 40 13 56 40 13 56 40 13 56 40 13 56 40 13 56 40 13 56 40 13 56 40 13 56 40 13 56 40 13 56 40 13 56 40 13 56 40 13 56 40 13 56 40 13 139 193 205 139 193 205 139 193 205 139 193 205 139 193 205 139 193 205 139 193 205 139 193 205 139 193 205 139 193 205 139 193 205 139 193 205 139 193 205 139 193 205 139 193 205 139 193 205 208 234 233 208 234 233 208 234 233 208 234 233 208 234 233 208 234 233 208 234 233 208 234 233 208 234 233 208 234 233 208 234 233 208 234 233 208 234 233 208 234 233 208 234 233 56 40 13 56 40 13 56 40 13 56 40 13 56 40 13 56 40 13 56 40 13 56 40 13 56 40 13 56 40 13 56 40 13 56 40 13 56 40 13 56 40 13 56 40 13 56 40 13 56 40 13 74 53 21 74 53 21 74 53 21 74 53 21 74 53 21 74 53 21 74 53 21 74 53 21 74 53 21 74 53 21 74 53 21 74 53 21 74 53 21 74 53 21 74 53 21 74 53 21 92 67 29 92 67 29 92 67 29 92 67 29 92 67 29 92 67 29 92 67 29 92 67 29 92 67 29 92 67 29 92 67 29 92 67 29 92 67 29 92 67 29 92 67 29 92 67 29 92 67 29 92 67 29 92 67 29 92 67 29 92 67 29 92 67 29 92 67 29 92 67 29 92 67 29 92 67 29 92 67 29 92 67 29 92 67 29 92 67 29 92 67 29 92 67 29 74 53 21 74 53 21 74 53 21 74 53 21 74 53 21 74 53 21 74 53 21 74 53 21 74 53 21 74 53 21 74 53 21 74 53 21 74 53 21 74 53 21 74 53 21 74 53 21 56 40 13 56 40 13 56 40 13 56 40 13 56 40 13 56 40 13 56 40 13 56 40 13 56 40 13 56 40 13 56 40 13 56 40 13 56 40 13 56 40 13 56 40 13 56 40 13 56 40 13 56 40 13 56 40 13 56 40 13 56 40 13 56 40 13 56 40 13 56 40 13 56 40 13 56 40 13 56 40 13 56 40 13 56 40 13 56 40 13 56 40 13 56 40 13 56 40 13 56 40 13 56 40 13 56 40 13 56 40 13 56 40 13 56 40 13 56 40 13 56 40 13 56 40 13 56 40 13 56 40 13 56 40 13 56 40 13 56 40 13 74 53 21 74 53 21 74 53 21 74 53 21 74 53 21 74 53 21 74 53 21 74 53 21 74 53 21 74 53 21 74 53 21 74 53 21 74 53 21 74 53 21 74 53 21 74 53 21 92 67 29 92 67 29 92 67 29 92 67 29 92 67 29 92 67 29 92 67 29 92 67 29 92 67 29 92 67 29 92 67 29 92 67 29 92 67 29 92 67 29 92 67 29 92 67 29 74 53 21 74 53 21 74 53 21 74 53 21 74 53 21 74 53 21 74 53 21 74 53 21 74 53 21 74 53 21 74 53 21 74 53 21 74 53 21 74 53 21 74 53 21 74 53 21 74 53 21 74 53 21 74 53 21 74 53 21 74 53 21 74 53 21 74 53 21 74 53 21 74 53 21 74 53 21 74 53 21 74 53 21 74 53 21 74 53 21 74 53 21 74 53 21 56 40 13 56 40 13 56 40 13 56 40 13 56 40 13 56 40 13 56 40 13 56 40 13 56 40 13 56 40 13 56 40 13 56 40 13 56 40 13 56 40 13 56 40 13 56 40 13 56 40 13 56 40 13 56 40 13 56 40 13 56 40 13 56 40 13 56 40 13 56 40 13 56 40 13 56 40 13 56 40 13 56 40 13 56 40 13 56 40 13 56 40 13 56 40 13 139 193 205 139 193 205 139 193 205 139 193 205 139 193 205 139 193 205 139 193 205 139 193 205 139 193 205 139 193 205 139 193 205 139 193 205 139 193 205 139 193 205 139 193 205 139 193 205 208 234 233 208 234 233 208 234 233 208 234 233 208 234 233 208 234 233 208 234 233 208 234 233 208 234 233 208 234 233 208 234 233 208 234 233 208 234 233 208 234 233 208 234 233 56 40 13 56 40 13 56 40 13 56 40 13 56 40 13 56 40 13 56 40 13 56 40 13 56 40 13 56 40 13 56 40 13 56 40 13 56 40 13 56 40 13 56 40 13 56 40 13 56 40 13 74 53 21 74 53 21 74 53 21 74 53 21 74 53 21 74 53 21 74 53 21 74 53 21 74 53 21 74 53 21 74 53 21 74 53 21 74 53 21 74 53 21 74 53 21 74 53 21 92 67 29 92 67 29 92 67 29 92 67 29 92 67 29 92 67 29 92 67 29 92 67 29 92 67 29 92 67 29 92 67 29 92 67 29 92 67 29 92 67 29 92 67 29 92 67 29 92 67 29 92 67 29 92 67 29 92 67 29 92 67 29 92 67 29 92 67 29 92 67 29 92 67 29 92 67 29 92 67 29 92 67 29 92 67 29 92 67 29 92 67 29 92 67 29 74 53 21 74 53 21 74 53 21 74 53 21 74 53 21 74 53 21 74 53 21 74 53 21 74 53 21 74 53 21 74 53 21 74 53 21 74 53 21 74 53 21 74 53 21 74 53 21 56 40 13 56 40 13 56 40 13 56 40 13 56 40 13 56 40 13 56 40 13 56 40 13 56 40 13 56 40 13 56 40 13 56 40 13 56 40 13 56 40 13 56 40 13 56 40 13 56 40 13 56 40 13 56 40 13 56 40 13 56 40 13 56 40 13 56 40 13 56 40 13 56 40 13 56 40 13 56 40 13 56 40 13 56 40 13 56 40 13 56 40 13 56 40 13 56 40 13 56 40 13 56 40 13 56 40 13 56 40 13 56 40 13 56 40 13 56 40 13 56 40 13 56 40 13 56 40 13 56 40 13 56 40 13 56 40 13 56 40 13 74 53 21 74 53 21 74 53 21 74 53 21 74 53 21 74 53 21 74 53 21 74 53 21 74 53 21 74 53 21 74 53 21 74 53 21 74 53 21 74 53 21 74 53 21 74 53 21 92 67 29 92 67 29 92 67 29 92 67 29 92 67 29 92 67 29 92 67 29 92 67 29 92 67 29 92 67 29 92 67 29 92 67 29 92 67 29 92 67 29 92 67 29 92 67 29 74 53 21 74 53 21 74 53 21 74 53 21 74 53 21 74 53 21 74 53 21 74 53 21 74 53 21 74 53 21 74 53 21 74 53 21 74 53 21 74 53 21 74 53 21 74 53 21 74 53 21 74 53 21 74 53 21 74 53 21 74 53 21 74 53 21 74 53 21 74 53 21 74 53 21 74 53 21 74 53 21 74 53 21 74 53 21 74 53 21 74 53 21 74 53 21 56 40 13 56 40 13 56 40 13 56 40 13 56 40 13 56 40 13 56 40 13 56 40 13 56 40 13 56 40 13 56 40 13 56 40 13 56 40 13 56 40 13 56 40 13 56 40 13 56 40 13 56 40 13 56 40 13 56 40 13 56 40 13 56 40 13 56 40 13 56 40 13 56 40 13 56 40 13 56 40 13 56 40 13 56 40 13 56 40 13 56 40 13 56 40 13 139 193 205 139 193 205 139 193 205 139 193 205 139 193 205 139 193 205 139 193 205 139 193 205 139 193 205 139 193 205 139 193 205 139 193 205 139 193 205 139 193 205 139 193 205 139 193 205 208 234 233 208 234 233 208 234 233 208 234 233 208 234 233 208 234 233 208 234 233 208 234 233 208 234 233 208 234 233 208 234 233 208 234 233 208 234 233 208 234 233 208 234 233 56 40 13 56 40 13 56 40 13 56 40 13 56 40 13 56 40 13 56 40 13 56 40 13 56 40 13 56 40 13 56 40 13 56 40 13 56 40 13 56 40 13 56 40 13 56 40 13 56 40 13 74 53 21 74 53 21 74 53 21 74 53 21 74 53 21 74 53 21 74 53 21 74 53 21 74 53 21 74 53 21 74 53 21 74 53 21 74 53 21 74 53 21 74 53 21 74 53 21 92 67 29 92 67 29 92 67 29 92 67 29 92 67 29 92 67 29 92 67 29 92 67 29 92 67 29 92 67 29 92 67 29 92 67 29 92 67 29 92 67 29 92 67 29 92 67 29 92 67 29 92 67 29 92 67 29 92 67 29 92 67 29 92 67 29 92 67 29 92 67 29 92 67 29 92 67 29 92 67 29 92 67 29 92 67 29 92 67 29 92 67 29 92 67 29 74 53 21 74 53 21 74 53 21 74 53 21 74 53 21 74 53 21 74 53 21 74 53 21 74 53 21 74 53 21 74 53 21 74 53 21 74 53 21 74 53 21 74 53 21 74 53 21 56 40 13 56 40 13 56 40 13 56 40 13 56 40 13 56 40 13 56 40 13 56 40 13 56 40 13 56 40 13 56 40 13 56 40 13 56 40 13 56 40 13 56 40 13 56 40 13 56 40 13 56 40 13 56 40 13 56 40 13 56 40 13 56 40 13 56 40 13 56 40 13 56 40 13 56 40 13 56 40 13 56 40 13 56 40 13 56 40 13 56 40 13 56 40 13 56 40 13 56 40 13 56 40 13 56 40 13 56 40 13 56 40 13 56 40 13 56 40 13 56 40 13 56 40 13 56 40 13 56 40 13 56 40 13 56 40 13 56 40 13 74 53 21 74 53 21 74 53 21 74 53 21 74 53 21 74 53 21 74 53 21 74 53 21 74 53 21 74 53 21 74 53 21 74 53 21 74 53 21 74 53 21 74 53 21 74 53 21 92 67 29 92 67 29 92 67 29 92 67 29 92 67 29 92 67 29 92 67 29 92 67 29 92 67 29 92 67 29 92 67 29 92 67 29 92 67 29 92 67 29 92 67 29 92 67 29 74 53 21 74 53 21 74 53 21 74 53 21 74 53 21 74 53 21 74 53 21 74 53 21 74 53 21 74 53 21 74 53 21 74 53 21 74 53 21 74 53 21 74 53 21 74 53 21 74 53 21 74 53 21 74 53 21 74 53 21 74 53 21 74 53 21 74 53 21 74 53 21 74 53 21 74 53 21 74 53 21 74 53 21 74 53 21 74 53 21 74 53 21 74 53 21 56 40 13 56 40 13 56 40 13 56 40 13 56 40 13 56 40 13 56 40 13 56 40 13 56 40 13 56 40 13 56 40 13 56 40 13 56 40 13 56 40 13 56 40 13 56 40 13 56 40 13 56 40 13 56 40 13 56 40 13 56 40 13 56 40 13 56 40 13 56 40 13 56 40 13 56 40 13 56 40 13 56 40 13 56 40 13 56 40 13 56 40 13 56 40 13 139 193 205 139 193 205 139 193 205 139 193 205 139 193 205 139 193 205 139 193 205 139 193 205 139 193 205 139 193 205 139 193 205 139 193 205 139 193 205 139 193 205 139 193 205 139 193 205 208 234 233 208 234 233 208 234 233 208 234 233 208 234 233 208 234 233 208 234 233 208 234 233 208 234 233 208 234 233 208 234 233 208 234 233 208 234 233 208 234 233 208 234 233 56 40 13 56 40 13 56 40 13 56 40 13 56 40 13 56 40 13 56 40 13 56 40 13 56 40 13 56 40 13 56 40 13 56 40 13 56 40 13 56 40 13 56 40 13 56 40 13 56 40 13 74 53 21 74 53 21 74 53 21 74 53 21 74 53 21 74 53 21 74 53 21 74 53 21 74 53 21 74 53 21 74 53 21 74 53 21 74 53 21 74 53 21 74 53 21 74 53 21 92 67 29 92 67 29 92 67 29 92 67 29 92 67 29 92 67 29 92 67 29 92 67 29 92 67 29 92 67 29 92 67 29 92 67 29 92 67 29 92 67 29 92 67 29 92 67 29 92 67 29 92 67 29 92 67 29 92 67 29 92 67 29 92 67 29 92 67 29 92 67 29 92 67 29 92 67 29 92 67 29 92 67 29 92 67 29 92 67 29 92 67 29 92 67 29 74 53 21 74 53 21 74 53 21 74 53 21 74 53 21 74 53 21 74 53 21 74 53 21 74 53 21 74 53 21 74 53 21 74 53 21 74 53 21 74 53 21 74 53 21 74 53 21 56 40 13 56 40 13 56 40 13 56 40 13 56 40 13 56 40 13 56 40 13 56 40 13 56 40 13 56 40 13 56 40 13 56 40 13 56 40 13 56 40 13 56 40 13 56 40 13 56 40 13 56 40 13 56 40 13 56 40 13 56 40 13 56 40 13 56 40 13 56 40 13 56 40 13 56 40 13 56 40 13 56 40 13 56 40 13 56 40 13 56 40 13 56 40 13 56 40 13 56 40 13 56 40 13 56 40 13 56 40 13 56 40 13 56 40 13 56 40 13 56 40 13 56 40 13 56 40 13 56 40 13 56 40 13 56 40 13 56 40 13 74 53 21 74 53 21 74 53 21 74 53 21 74 53 21 74 53 21 74 53 21 74 53 21 74 53 21 74 53 21 74 53 21 74 53 21 74 53 21 74 53 21 74 53 21 74 53 21 92 67 29 92 67 29 92 67 29 92 67 29 92 67 29 92 67 29 92 67 29 92 67 29 92 67 29 92 67 29 92 67 29 92 67 29 92 67 29 92 67 29 92 67 29 92 67 29 74 53 21 74 53 21 74 53 21 74 53 21 74 53 21 74 53 21 74 53 21 74 53 21 74 53 21 74 53 21 74 53 21 74 53 21 74 53 21 74 53 21 74 53 21 74 53 21 74 53 21 74 53 21 74 53 21 74 53 21 74 53 21 74 53 21 74 53 21 74 53 21 74 53 21 74 53 21 74 53 21 74 53 21 74 53 21 74 53 21 74 53 21 74 53 21 56 40 13 56 40 13 56 40 13 56 40 13 56 40 13 56 40 13 56 40 13 56 40 13 56 40 13 56 40 13 56 40 13 56 40 13 56 40 13 56 40 13 56 40 13 56 40 13 56 40 13 56 40 13 56 40 13 56 40 13 56 40 13 56 40 13 56 40 13 56 40 13 56 40 13 56 40 13 56 40 13 56 40 13 56 40 13 56 40 13 56 40 13 56 40 13 139 193 205 139 193 205 139 193 205 139 193 205 139 193 205 139 193 205 139 193 205 139 193 205 139 193 205 139 193 205 139 193 205 139 193 205 139 193 205 139 193 205 139 193 205 139 193 205 208 234 233 208 234 233 208 234 233 208 234 233 208 234 233 208 234 233 208 234 233 208 234 233 208 234 233 208 234 233 208 234 233 208 234 233 208 234 233 208 234 233 208 234 233 56 40 13 56 40 13 56 40 13 56 40 13 56 40 13 56 40 13 56 40 13 56 40 13 56 40 13 56 40 13 56 40 13 56 40 13 56 40 13 56 40 13 56 40 13 56 40 13 56 40 13 74 53 21 74 53 21 74 53 21 74 53 21 74 53 21 74 53 21 74 53 21 74 53 21 74 53 21 74 53 21 74 53 21 74 53 21 74 53 21 74 53 21 74 53 21 74 53 21 92 67 29 92 67 29 92 67 29 92 67 29 92 67 29 92 67 29 92 67 29 92 67 29 92 67 29 92 67 29 92 67 29 92 67 29 92 67 29 92 67 29 92 67 29 92 67 29 92 67 29 92 67 29 92 67 29 92 67 29 92 67 29 92 67 29 92 67 29 92 67 29 92 67 29 92 67 29 92 67 29 92 67 29 92 67 29 92 67 29 92 67 29 92 67 29 74 53 21 74 53 21 74 53 21 74 53 21 74 53 21 74 53 21 74 53 21 74 53 21 74 53 21 74 53 21 74 53 21 74 53 21 74 53 21 74 53 21 74 53 21 74 53 21 56 40 13 56 40 13 56 40 13 56 40 13 56 40 13 56 40 13 56 40 13 56 40 13 56 40 13 56 40 13 56 40 13 56 40 13 56 40 13 56 40 13 56 40 13 56 40 13 56 40 13 56 40 13 56 40 13 56 40 13 56 40 13 56 40 13 56 40 13 56 40 13 56 40 13 56 40 13 56 40 13 56 40 13 56 40 13 56 40 13 56 40 13 56 40 13 56 40 13 56 40 13 56 40 13 56 40 13 56 40 13 56 40 13 56 40 13 56 40 13 56 40 13 56 40 13 56 40 13 56 40 13 56 40 13 56 40 13 56 40 13 74 53 21 74 53 21 74 53 21 74 53 21 74 53 21 74 53 21 74 53 21 74 53 21 74 53 21 74 53 21 74 53 21 74 53 21 74 53 21 74 53 21 74 53 21 74 53 21 92 67 29 92 67 29 92 67 29 92 67 29 92 67 29 92 67 29 92 67 29 92 67 29 92 67 29 92 67 29 92 67 29 92 67 29 92 67 29 92 67 29 92 67 29 92 67 29 74 53 21 74 53 21 74 53 21 74 53 21 74 53 21 74 53 21 74 53 21 74 53 21 74 53 21 74 53 21 74 53 21 74 53 21 74 53 21 74 53 21 74 53 21 74 53 21 74 53 21 74 53 21 74 53 21 74 53 21 74 53 21 74 53 21 74 53 21 74 53 21 74 53 21 74 53 21 74 53 21 74 53 21 74 53 21 74 53 21 74 53 21 74 53 21 56 40 13 56 40 13 56 40 13 56 40 13 56 40 13 56 40 13 56 40 13 56 40 13 56 40 13 56 40 13 56 40 13 56 40 13 56 40 13 56 40 13 56 40 13 56 40 13 56 40 13 56 40 13 56 40 13 56 40 13 56 40 13 56 40 13 56 40 13 56 40 13 56 40 13 56 40 13 56 40 13 56 40 13 56 40 13 56 40 13 56 40 13 56 40 13 139 193 205 139 193 205 139 193 205 139 193 205 139 193 205 139 193 205 139 193 205 139 193 205 139 193 205 139 193 205 139 193 205 139 193 205 139 193 205 139 193 205 139 193 205 139 193 205 208 234 233 208 234 233 208 234 233 208 234 233 208 234 233 208 234 233 208 234 233 208 234 233 208 234 233 208 234 233 208 234 233 208 234 233 208 234 233 208 234 233 208 234 233 125 98 53 99 78 38 99 78 38 99 78 38 99 78 38 99 78 38 99 78 38 99 78 38 99 78 38 99 78 38 99 78 38 99 78 38 99 78 38 99 78 38 99 78 38 99 78 38 99 78 38 117 91 51 117 91 51 117 91 51 117 91 51 117 91 51 117 91 51 117 91 51 117 91 51 117 91 51 117 91 51 117 91 51 117 91 51 117 91 51 117 91 51 117 91 51 117 91 51 125 98 53 125 98 53 125 98 53 125 98 53 125 98 53 125 98 53 125 98 53 125 98 53 125 98 53 125 98 53 125 98 53 125 98 53 125 98 53 125 98 53 125 98 53 125 98 53 125 98 53 125 98 53 125 98 53 125 98 53 125 98 53 125 98 53 125 98 53 125 98 53 125 98 53 125 98 53 125 98 53 125 98 53 125 98 53 125 98 53 125 98 53 125 98 53 117 91 51 117 91 51 117 91 51 117 91 51 117 91 51 117 91 51 117 91 51 117 91 51 117 91 51 117 91 51 117 91 51 117 91 51 117 91 51 117 91 51 117 91 51 117 91 51 117 91 51 117 91 51 117 91 51 117 91 51 117 91 51 117 91 51 117 91 51 117 91 51 117 91 51 117 91 51 117 91 51 117 91 51 117 91 51 117 91 51 117 91 51 117 91 51 99 78 38 99 78 38 99 78 38 99 78 38 99 78 38 99 78 38 99 78 38 99 78 38 99 78 38 99 78 38 99 78 38 99 78 38 99 78 38 99 78 38 99 78 38 99 78 38 125 98 53 125 98 53 125 98 53 125 98 53 125 98 53 125 98 53 125 98 53 125 98 53 125 98 53 125 98 53 125 98 53 125 98 53 125 98 53 125 98 53 125 98 53 125 98 53 125 98 53 125 98 53 125 98 53 125 98 53 125 98 53 125 98 53 125 98 53 125 98 53 125 98 53 125 98 53 125 98 53 125 98 53 125 98 53 125 98 53 125 98 53 125 98 53 125 98 53 125 98 53 125 98 53 125 98 53 125 98 53 125 98 53 125 98 53 125 98 53 125 98 53 125 98 53 125 98 53 125 98 53 125 98 53 125 98 53 125 98 53 99 78 38 99 78 38 99 78 38 99 78 38 99 78 38 99 78 38 99 78 38 99 78 38 99 78 38 99 78 38 99 78 38 99 78 38 99 78 38 99 78 38 99 78 38 99 78 38 125 98 53 125 98 53 125 98 53 125 98 53 125 98 53 125 98 53 125 98 53 125 98 53 125 98 53 125 98 53 125 98 53 125 98 53 125 98 53 125 98 53 125 98 53 125 98 53 117 91 51 117 91 51 117 91 51 117 91 51 117 91 51 117 91 51 117 91 51 117 91 51 117 91 51 117 91 51 117 91 51 117 91 51 117 91 51 117 91 51 117 91 51 117 91 51 125 98 53 125 98 53 125 98 53 125 98 53 125 98 53 125 98 53 125 98 53 125 98 53 125 98 53 125 98 53 125 98 53 125 98 53 125 98 53 125 98 53 125 98 53 125 98 53 139 193 205 139 193 205 139 193 205 139 193 205 139 193 205 139 193 205 139 193 205 139 193 205 139 193 205 139 193 205 139 193 205 139 193 205 139 193 205 139 193 205 139 193 205 139 193 205 168 208 217 168 208 217 168 208 217 168 208 217 168 208 217 168 208 217 168 208 217 168 208 217 168 208 217 168 208 217 168 208 217 168 208 217 168 208 217 168 208 217 168 208 217 125 98 53 99 78 38 99 78 38 99 78 38 99 78 38 99 78 38 99 78 38 99 78 38 99 78 38 99 78 38 99 78 38 99 78 38 99 78 38 99 78 38 99 78 38 99 78 38 99 78 38 117 91 51 117 91 51 117 91 51 117 91 51 117 91 51 117 91 51 117 91 51 117 91 51 117 91 51 117 91 51 117 91 51 117 91 51 117 91 51 117 91 51 117 91 51 117 91 51 125 98 53 125 98 53 125 98 53 125 98 53 125 98 53 125 98 53 125 98 53 125 98 53 125 98 53 125 98 53 125 98 53 125 98 53 125 98 53 125 98 53 125 98 53 125 98 53 125 98 53 125 98 53 125 98 53 125 98 53 125 98 53 125 98 53 125 98 53 125 98 53 125 98 53 125 98 53 125 98 53 125 98 53 125 98 53 125 98 53 125 98 53 125 98 53 117 91 51 117 91 51 117 91 51 117 91 51 117 91 51 117 91 51 117 91 51 117 91 51 117 91 51 117 91 51 117 91 51 117 91 51 117 91 51 117 91 51 117 91 51 117 91 51 117 91 51 117 91 51 117 91 51 117 91 51 117 91 51 117 91 51 117 91 51 117 91 51 117 91 51 117 91 51 117 91 51 117 91 51 117 91 51 117 91 51 117 91 51 117 91 51 99 78 38 99 78 38 99 78 38 99 78 38 99 78 38 99 78 38 99 78 38 99 78 38 99 78 38 99 78 38 99 78 38 99 78 38 99 78 38 99 78 38 99 78 38 99 78 38 125 98 53 125 98 53 125 98 53 125 98 53 125 98 53 125 98 53 125 98 53 125 98 53 125 98 53 125 98 53 125 98 53 125 98 53 125 98 53 125 98 53 125 98 53 125 98 53 125 98 53 125 98 53 125 98 53 125 98 53 125 98 53 125 98 53 125 98 53 125 98 53 125 98 53 125 98 53 125 98 53 125 98 53 125 98 53 125 98 53 125 98 53 125 98 53 125 98 53 125 98 53 125 98 53 125 98 53 125 98 53 125 98 53 125 98 53 125 98 53 125 98 53 125 98 53 125 98 53 125 98 53 125 98 53 125 98 53 125 98 53 99 78 38 99 78 38 99 78 38 99 78 38 99 78 38 99 78 38 99 78 38 99 78 38 99 78 38 99 78 38 99 78 38 99 78 38 99 78 38 99 78 38 99 78 38 99 78 38 125 98 53 125 98 53 125 98 53 125 98 53 125 98 53 125 98 53 125 98 53 125 98 53 125 98 53 125 98 53 125 98 53 125 98 53 125 98 53 125 98 53 125 98 53 125 98 53 208 234 233 208 234 233 208 234 233 208 234 233 208 234 233 208 234 233 208 234 233 208 234 233 208 234 233 208 234 233 208 234 233 208 234 233 208 234 233 208 234 233 208 234 233 208 234 233 125 98 53 125 98 53 125 98 53 125 98 53 125 98 53 125 98 53 125 98 53 125 98 53 125 98 53 125 98 53 125 98 53 125 98 53 125 98 53 125 98 53 125 98 53 125 98 53 139 193 205 139 193 205 139 193 205 139 193 205 139 193 205 139 193 205 139 193 205 139 193 205 139 193 205 139 193 205 139 193 205 139 193 205 139 193 205 139 193 205 139 193 205 139 193 205 168 208 217 168 208 217 168 208 217 168 208 217 168 208 217 168 208 217 168 208 217 168 208 217 168 208 217 168 208 217 168 208 217 168 208 217 168 208 217 168 208 217 168 208 217 125 98 53 99 78 38 99 78 38 99 78 38 99 78 38 99 78 38 99 78 38 99 78 38 99 78 38 99 78 38 99 78 38 99 78 38 99 78 38 99 78 38 99 78 38 99 78 38 99 78 38 117 91 51 117 91 51 117 91 51 117 91 51 117 91 51 117 91 51 117 91 51 117 91 51 117 91 51 117 91 51 117 91 51 117 91 51 117 91 51 117 91 51 117 91 51 117 91 51 125 98 53 125 98 53 125 98 53 125 98 53 125 98 53 125 98 53 125 98 53 125 98 53 125 98 53 125 98 53 125 98 53 125 98 53 125 98 53 125 98 53 125 98 53 125 98 53 125 98 53 125 98 53 125 98 53 125 98 53 125 98 53 125 98 53 125 98 53 125 98 53 125 98 53 125 98 53 125 98 53 125 98 53 125 98 53 125 98 53 125 98 53 125 98 53 117 91 51 117 91 51 117 91 51 117 91 51 117 91 51 117 91 51 117 91 51 117 91 51 117 91 51 117 91 51 117 91 51 117 91 51 117 91 51 117 91 51 117 91 51 117 91 51 117 91 51 117 91 51 117 91 51 117 91 51 117 91 51 117 91 51 117 91 51 117 91 51 117 91 51 117 91 51 117 91 51 117 91 51 117 91 51 117 91 51 117 91 51 117 91 51 99 78 38 99 78 38 99 78 38 99 78 38 99 78 38 99 78 38 99 78 38 99 78 38 99 78 38 99 78 38 99 78 38 99 78 38 99 78 38 99 78 38 99 78 38 99 78 38 125 98 53 125 98 53 125 98 53 125 98 53 125 98 53 125 98 53 125 98 53 125 98 53 125 98 53 125 98 53 125 98 53 125 98 53 125 98 53 125 98 53 125 98 53 125 98 53 125 98 53 125 98 53 125 98 53 125 98 53 125 98 53 125 98 53 125 98 53 125 98 53 125 98 53 125 98 53 125 98 53 125 98 53 125 98 53 125 98 53 125 98 53 125 98 53 125 98 53 125 98 53 125 98 53 125 98 53 125 98 53 125 98 53 125 98 53 125 98 53 125 98 53 125 98 53 125 98 53 125 98 53 125 98 53 125 98 53 125 98 53 99 78 38 99 78 38 99 78 38 99 78 38 99 78 38 99 78 38 99 78 38 99 78 38 99 78 38 99 78 38 99 78 38 99 78 38 99 78 38 99 78 38 99 78 38 99 78 38 125 98 53 125 98 53 125 98 53 125 98 53 125 98 53 125 98 53 125 98 53 125 98 53 125 98 53 125 98 53 125 98 53 125 98 53 125 98 53 125 98 53 125 98 53 125 98 53 208 234 233 208 234 233 208 234 233 208 234 233 208 234 233 208 234 233 208 234 233 208 234 233 208 234 233 208 234 233 208 234 233 208 234 233 208 234 233 208 234 233 208 234 233 208 234 233 125 98 53 125 98 53 125 98 53 125 98 53 125 98 53 125 98 53 125 98 53 125 98 53 125 98 53 125 98 53 125 98 53 125 98 53 125 98 53 125 98 53 125 98 53 125 98 53 139 193 205 139 193 205 139 193 205 139 193 205 139 193 205 139 193 205 139 193 205 139 193 205 139 193 205 139 193 205 139 193 205 139 193 205 139 193 205 139 193 205 139 193 205 139 193 205 168 208 217 168 208 217 168 208 217 168 208 217 168 208 217 168 208 217 168 208 217 168 208 217 168 208 217 168 208 217 168 208 217 168 208 217 168 208 217 168 208 217 168 208 217 125 98 53 99 78 38 99 78 38 99 78 38 99 78 38 99 78 38 99 78 38 99 78 38 99 78 38 99 78 38 99 78 38 99 78 38 99 78 38 99 78 38 99 78 38 99 78 38 99 78 38 117 91 51 117 91 51 117 91 51 117 91 51 117 91 51 117 91 51 117 91 51 117 91 51 117 91 51 117 91 51 117 91 51 117 91 51 117 91 51 117 91 51 117 91 51 117 91 51 125 98 53 125 98 53 125 98 53 125 98 53 125 98 53 125 98 53 125 98 53 125 98 53 125 98 53 125 98 53 125 98 53 125 98 53 125 98 53 125 98 53 125 98 53 125 98 53 125 98 53 125 98 53 125 98 53 125 98 53 125 98 53 125 98 53 125 98 53 125 98 53 125 98 53 125 98 53 125 98 53 125 98 53 125 98 53 125 98 53 125 98 53 125 98 53 117 91 51 117 91 51 117 91 51 117 91 51 117 91 51 117 91 51 117 91 51 117 91 51 117 91 51 117 91 51 117 91 51 117 91 51 117 91 51 117 91 51 117 91 51 117 91 51 117 91 51 117 91 51 117 91 51 117 91 51 117 91 51 117 91 51 117 91 51 117 91 51 117 91 51 117 91 51 117 91 51 117 91 51 117 91 51 117 91 51 117 91 51 117 91 51 99 78 38 99 78 38 99 78 38 99 78 38 99 78 38 99 78 38 99 78 38 99 78 38 99 78 38 99 78 38 99 78 38 99 78 38 99 78 38 99 78 38 99 78 38 99 78 38 125 98 53 125 98 53 125 98 53 125 98 53 125 98 53 125 98 53 125 98 53 125 98 53 125 98 53 125 98 53 125 98 53 125 98 53 125 98 53 125 98 53 125 98 53 125 98 53 125 98 53 125 98 53 125 98 53 125 98 53 125 98 53 125 98 53 125 98 53 125 98 53 125 98 53 125 98 53 125 98 53 125 98 53 125 98 53 125 98 53 125 98 53 125 98 53 125 98 53 125 98 53 125 98 53 125 98 53 125 98 53 125 98 53 125 98 53 125 98 53 125 98 53 125 98 53 125 98 53 125 98 53 125 98 53 125 98 53 125 98 53 99 78 38 99 78 38 99 78 38 99 78 38 99 78 38 99 78 38 99 78 38 99 78 38 99 78 38 99 78 38 99 78 38 99 78 38 99 78 38 99 78 38 99 78 38 99 78 38 125 98 53 125 98 53 125 98 53 125 98 53 125 98 53 125 98 53 125 98 53 125 98 53 125 98 53 125 98 53 125 98 53 125 98 53 125 98 53 125 98 53 125 98 53 125 98 53 208 234 233 208 234 233 208 234 233 208 234 233 208 234 233 208 234 233 208 234 233 208 234 233 208 234 233 208 234 233 208 234 233 208 234 233 208 234 233 208 234 233 208 234 233 208 234 233 125 98 53 125 98 53 125 98 53 125 98 53 125 98 53 125 98 53 125 98 53 125 98 53 125 98 53 125 98 53 125 98 53 125 98 53 125 98 53 125 98 53 125 98 53 125 98 53 139 193 205 139 193 205 139 193 205 139 193 205 139 193 205 139 193 205 139 193 205 139 193 205 139 193 205 139 193 205 139 193 205 139 193 205 139 193 205 139 193 205 139 193 205 139 193 205 168 208 217 168 208 217 168 208 217 168 208 217 168 208 217 168 208 217 168 208 217 168 208 217 168 208 217 168 208 217 168 208 217 168 208 217 168 208 217 168 208 217 168 208 217 125 98 53 99 78 38 99 78 38 99 78 38 99 78 38 99 78 38 99 78 38 99 78 38 99 78 38 99 78 38 99 78 38 99 78 38 99 78 38 99 78 38 99 78 38 99 78 38 99 78 38 117 91 51 117 91 51 117 91 51 117 91 51 117 91 51 117 91 51 117 91 51 117 91 51 117 91 51 117 91 51 117 91 51 117 91 51 117 91 51 117 91 51 117 91 51 117 91 51 125 98 53 125 98 53 125 98 53 125 98 53 125 98 53 125 98 53 125 98 53 125 98 53 125 98 53 125 98 53 125 98 53 125 98 53 125 98 53 125 98 53 125 98 53 125 98 53 125 98 53 125 98 53 125 98 53 125 98 53 125 98 53 125 98 53 125 98 53 125 98 53 125 98 53 125 98 53 125 98 53 125 98 53 125 98 53 125 98 53 125 98 53 125 98 53 117 91 51 117 91 51 117 91 51 117 91 51 117 91 51 117 91 51 117 91 51 117 91 51 117 91 51 117 91 51 117 91 51 117 91 51 117 91 51 117 91 51 117 91 51 117 91 51 117 91 51 117 91 51 117 91 51 117 91 51 117 91 51 117 91 51 117 91 51 117 91 51 117 91 51 117 91 51 117 91 51 117 91 51 117 91 51 117 91 51 117 91 51 117 91 51 99 78 38 99 78 38 99 78 38 99 78 38 99 78 38 99 78 38 99 78 38 99 78 38 99 78 38 99 78 38 99 78 38 99 78 38 99 78 38 99 78 38 99 78 38 99 78 38 125 98 53 125 98 53 125 98 53 125 98 53 125 98 53 125 98 53 125 98 53 125 98 53 125 98 53 125 98 53 125 98 53 125 98 53 125 98 53 125 98 53 125 98 53 125 98 53 125 98 53 125 98 53 125 98 53 125 98 53 125 98 53 125 98 53 125 98 53 125 98 53 125 98 53 125 98 53 125 98 53 125 98 53 125 98 53 125 98 53 125 98 53 125 98 53 125 98 53 125 98 53 125 98 53 125 98 53 125 98 53 125 98 53 125 98 53 125 98 53 125 98 53 125 98 53 125 98 53 125 98 53 125 98 53 125 98 53 125 98 53 99 78 38 99 78 38 99 78 38 99 78 38 99 78 38 99 78 38 99 78 38 99 78 38 99 78 38 99 78 38 99 78 38 99 78 38 99 78 38 99 78 38 99 78 38 99 78 38 125 98 53 125 98 53 125 98 53 125 98 53 125 98 53 125 98 53 125 98 53 125 98 53 125 98 53 125 98 53 125 98 53 125 98 53 125 98 53 125 98 53 125 98 53 125 98 53 208 234 233 208 234 233 208 234 233 208 234 233 208 234 233 208 234 233 208 234 233 208 234 233 208 234 233 208 234 233 208 234 233 208 234 233 208 234 233 208 234 233 208 234 233 208 234 233 125 98 53 125 98 53 125 98 53 125 98 53 125 98 53 125 98 53 125 98 53 125 98 53 125 98 53 125 98 53 125 98 53 125 98 53 125 98 53 125 98 53 125 98 53 125 98 53 139 193 205 139 193 205 139 193 205 139 193 205 139 193 205 139 193 205 139 193 205 139 193 205 139 193 205 139 193 205 139 193 205 139 193 205 139 193 205 139 193 205 139 193 205 139 193 205 168 208 217 168 208 217 168 208 217 168 208 217 168 208 217 168 208 217 168 208 217 168 208 217 168 208 217 168 208 217 168 208 217 168 208 217 168 208 217 168 208 217 168 208 217 125 98 53 99 78 38 99 78 38 99 78 38 99 78 38 99 78 38 99 78 38 99 78 38 99 78 38 99 78 38 99 78 38 99 78 38 99 78 38 99 78 38 99 78 38 99 78 38 99 78 38 117 91 51 117 91 51 117 91 51 117 91 51 117 91 51 117 91 51 117 91 51 117 91 51 117 91 51 117 91 51 117 91 51 117 91 51 117 91 51 117 91 51 117 91 51 117 91 51 125 98 53 125 98 53 125 98 53 125 98 53 125 98 53 125 98 53 125 98 53 125 98 53 125 98 53 125 98 53 125 98 53 125 98 53 125 98 53 125 98 53 125 98 53 125 98 53 125 98 53 125 98 53 125 98 53 125 98 53 125 98 53 125 98 53 125 98 53 125 98 53 125 98 53 125 98 53 125 98 53 125 98 53 125 98 53 125 98 53 125 98 53 125 98 53 117 91 51 117 91 51 117 91 51 117 91 51 117 91 51 117 91 51 117 91 51 117 91 51 117 91 51 117 91 51 117 91 51 117 91 51 117 91 51 117 91 51 117 91 51 117 91 51 117 91 51 117 91 51 117 91 51 117 91 51 117 91 51 117 91 51 117 91 51 117 91 51 117 91 51 117 91 51 117 91 51 117 91 51 117 91 51 117 91 51 117 91 51 117 91 51 99 78 38 99 78 38 99 78 38 99 78 38 99 78 38 99 78 38 99 78 38 99 78 38 99 78 38 99 78 38 99 78 38 99 78 38 99 78 38 99 78 38 99 78 38 99 78 38 125 98 53 125 98 53 125 98 53 125 98 53 125 98 53 125 98 53 125 98 53 125 98 53 125 98 53 125 98 53 125 98 53 125 98 53 125 98 53 125 98 53 125 98 53 125 98 53 125 98 53 125 98 53 125 98 53 125 98 53 125 98 53 125 98 53 125 98 53 125 98 53 125 98 53 125 98 53 125 98 53 125 98 53 125 98 53 125 98 53 125 98 53 125 98 53 125 98 53 125 98 53 125 98 53 125 98 53 125 98 53 125 98 53 125 98 53 125 98 53 125 98 53 125 98 53 125 98 53 125 98 53 125 98 53 125 98 53 125 98 53 99 78 38 99 78 38 99 78 38 99 78 38 99 78 38 99 78 38 99 78 38 99 78 38 99 78 38 99 78 38 99 78 38 99 78 38 99 78 38 99 78 38 99 78 38 99 78 38 125 98 53 125 98 53 125 98 53 125 98 53 125 98 53 125 98 53 125 98 53 125 98 53 125 98 53 125 98 53 125 98 53 125 98 53 125 98 53 125 98 53 125 98 53 125 98 53 208 234 233 208 234 233 208 234 233 208 234 233 208 234 233 208 234 233 208 234 233 208 234 233 208 234 233 208 234 233 208 234 233 208 234 233 208 234 233 208 234 233 208 234 233 208 234 233 125 98 53 125 98 53 125 98 53 125 98 53 125 98 53 125 98 53 125 98 53 125 98 53 125 98 53 125 98 53 125 98 53 125 98 53 125 98 53 125 98 53 125 98 53 125 98 53 139 193 205 139 193 205 139 193 205 139 193 205 139 193 205 139 193 205 139 193 205 139 193 205 139 193 205 139 193 205 139 193 205 139 193 205 139 193 205 139 193 205 139 193 205 139 193 205 168 208 217 168 208 217 168 208 217 168 208 217 168 208 217 168 208 217 168 208 217 168 208 217 168 208 217 168 208 217 168 208 217 168 208 217 168 208 217 168 208 217 168 208 217 125 98 53 99 78 38 99 78 38 99 78 38 99 78 38 99 78 38 99 78 38 99 78 38 99 78 38 99 78 38 99 78 38 99 78 38 99 78 38 99 78 38 99 78 38 99 78 38 99 78 38 117 91 51 117 91 51 117 91 51 117 91 51 117 91 51 117 91 51 117 91 51 117 91 51 117 91 51 117 91 51 117 91 51 117 91 51 117 91 51 117 91 51 117 91 51 117 91 51 125 98 53 125 98 53 125 98 53 125 98 53 125 98 53 125 98 53 125 98 53 125 98 53 125 98 53 125 98 53 125 98 53 125 98 53 125 98 53 125 98 53 125 98 53 125 98 53 125 98 53 125 98 53 125 98 53 125 98 53 125 98 53 125 98 53 125 98 53 125 98 53 125 98 53 125 98 53 125 98 53 125 98 53 125 98 53 125 98 53 125 98 53 125 98 53 117 91 51 117 91 51 117 91 51 117 91 51 117 91 51 117 91 51 117 91 51 117 91 51 117 91 51 117 91 51 117 91 51 117 91 51 117 91 51 117 91 51 117 91 51 117 91 51 117 91 51 117 91 51 117 91 51 117 91 51 117 91 51 117 91 51 117 91 51 117 91 51 117 91 51 117 91 51 117 91 51 117 91 51 117 91 51 117 91 51 117 91 51 117 91 51 99 78 38 99 78 38 99 78 38 99 78 38 99 78 38 99 78 38 99 78 38 99 78 38 99 78 38 99 78 38 99 78 38 99 78 38 99 78 38 99 78 38 99 78 38 99 78 38 125 98 53 125 98 53 125 98 53 125 98 53 125 98 53 125 98 53 125 98 53 125 98 53 125 98 53 125 98 53 125 98 53 125 98 53 125 98 53 125 98 53 125 98 53 125 98 53 125 98 53 125 98 53 125 98 53 125 98 53 125 98 53 125 98 53 125 98 53 125 98 53 125 98 53 125 98 53 125 98 53 125 98 53 125 98 53 125 98 53 125 98 53 125 98 53 125 98 53 125 98 53 125 98 53 125 98 53 125 98 53 125 98 53 125 98 53 125 98 53 125 98 53 125 98 53 125 98 53 125 98 53 125 98 53 125 98 53 125 98 53 99 78 38 99 78 38 99 78 38 99 78 38 99 78 38 99 78 38 99 78 38 99 78 38 99 78 38 99 78 38 99 78 38 99 78 38 99 78 38 99 78 38 99 78 38 99 78 38 125 98 53 125 98 53 125 98 53 125 98 53 125 98 53 125 98 53 125 98 53 125 98 53 125 98 53 125 98 53 125 98 53 125 98 53 125 98 53 125 98 53 125 98 53 125 98 53 208 234 233 208 234 233 208 234 233 208 234 233 208 234 233 208 234 233 208 234 233 208 234 233 208 234 233 208 234 233 208 234 233 208 234 233 208 234 233 208 234 233 208 234 233 208 234 233 125 98 53 125 98 53 125 98 53 125 98 53 125 98 53 125 98 53 125 98 53 125 98 53 125 98 53 125 98 53 125 98 53 125 98 53 125 98 53 125 98 53 125 98 53 125 98 53 139 193 205 139 193 205 139 193 205 139 193 205 139 193 205 139 193 205 139 193 205 139 193 205 139 193 205 139 193 205 139 193 205 139 193 205 139 193 205 139 193 205 139 193 205 139 193 205 168 208 217 168 208 217 168 208 217 168 208 217 168 208 217 168 208 217 168 208 217 168 208 217 168 208 217 168 208 217 168 208 217 168 208 217 168 208 217 168 208 217 168 208 217 125 98 53 99 78 38 99 78 38 99 78 38 99 78 38 99 78 38 99 78 38 99 78 38 99 78 38 99 78 38 99 78 38 99 78 38 99 78 38 99 78 38 99 78 38 99 78 38 99 78 38 117 91 51 117 91 51 117 91 51 117 91 51 117 91 51 117 91 51 117 91 51 117 91 51 117 91 51 117 91 51 117 91 51 117 91 51 117 91 51 117 91 51 117 91 51 117 91 51 125 98 53 125 98 53 125 98 53 125 98 53 125 98 53 125 98 53 125 98 53 125 98 53 125 98 53 125 98 53 125 98 53 125 98 53 125 98 53 125 98 53 125 98 53 125 98 53 125 98 53 125 98 53 125 98 53 125 98 53 125 98 53 125 98 53 125 98 53 125 98 53 125 98 53 125 98 53 125 98 53 125 98 53 125 98 53 125 98 53 125 98 53 125 98 53 117 91 51 117 91 51 117 91 51 117 91 51 117 91 51 117 91 51 117 91 51 117 91 51 117 91 51 117 91 51 117 91 51 117 91 51 117 91 51 117 91 51 117 91 51 117 91 51 117 91 51 117 91 51 117 91 51 117 91 51 117 91 51 117 91 51 117 91 51 117 91 51 117 91 51 117 91 51 117 91 51 117 91 51 117 91 51 117 91 51 117 91 51 117 91 51 99 78 38 99 78 38 99 78 38 99 78 38 99 78 38 99 78 38 99 78 38 99 78 38 99 78 38 99 78 38 99 78 38 99 78 38 99 78 38 99 78 38 99 78 38 99 78 38 125 98 53 125 98 53 125 98 53 125 98 53 125 98 53 125 98 53 125 98 53 125 98 53 125 98 53 125 98 53 125 98 53 125 98 53 125 98 53 125 98 53 125 98 53 125 98 53 125 98 53 125 98 53 125 98 53 125 98 53 125 98 53 125 98 53 125 98 53 125 98 53 125 98 53 125 98 53 125 98 53 125 98 53 125 98 53 125 98 53 125 98 53 125 98 53 125 98 53 125 98 53 125 98 53 125 98 53 125 98 53 125 98 53 125 98 53 125 98 53 125 98 53 125 98 53 125 98 53 125 98 53 125 98 53 125 98 53 125 98 53 99 78 38 99 78 38 99 78 38 99 78 38 99 78 38 99 78 38 99 78 38 99 78 38 99 78 38 99 78 38 99 78 38 99 78 38 99 78 38 99 78 38 99 78 38 99 78 38 125 98 53 125 98 53 125 98 53 125 98 53 125 98 53 125 98 53 125 98 53 125 98 53 125 98 53 125 98 53 125 98 53 125 98 53 125 98 53 125 98 53 125 98 53 125 98 53 208 234 233 208 234 233 208 234 233 208 234 233 208 234 233 208 234 233 208 234 233 208 234 233 208 234 233 208 234 233 208 234 233 208 234 233 208 234 233 208 234 233 208 234 233 208 234 233 125 98 53 125 98 53 125 98 53 125 98 53 125 98 53 125 98 53 125 98 53 125 98 53 125 98 53 125 98 53 125 98 53 125 98 53 125 98 53 125 98 53 125 98 53 125 98 53 139 193 205 139 193 205 139 193 205 139 193 205 139 193 205 139 193 205 139 193 205 139 193 205 139 193 205 139 193 205 139 193 205 139 193 205 139 193 205 139 193 205 139 193 205 139 193 205 168 208 217 168 208 217 168 208 217 168 208 217 168 208 217 168 208 217 168 208 217 168 208 217 168 208 217 168 208 217 168 208 217 168 208 217 168 208 217 168 208 217 168 208 217 125 98 53 99 78 38 99 78 38 99 78 38 99 78 38 99 78 38 99 78 38 99 78 38 99 78 38 99 78 38 99 78 38 99 78 38 99 78 38 99 78 38 99 78 38 99 78 38 99 78 38 117 91 51 117 91 51 117 91 51 117 91 51 117 91 51 117 91 51 117 91 51 117 91 51 117 91 51 117 91 51 117 91 51 117 91 51 117 91 51 117 91 51 117 91 51 117 91 51 125 98 53 125 98 53 125 98 53 125 98 53 125 98 53 125 98 53 125 98 53 125 98 53 125 98 53 125 98 53 125 98 53 125 98 53 125 98 53 125 98 53 125 98 53 125 98 53 125 98 53 125 98 53 125 98 53 125 98 53 125 98 53 125 98 53 125 98 53 125 98 53 125 98 53 125 98 53 125 98 53 125 98 53 125 98 53 125 98 53 125 98 53 125 98 53 117 91 51 117 91 51 117 91 51 117 91 51 117 91 51 117 91 51 117 91 51 117 91 51 117 91 51 117 91 51 117 91 51 117 91 51 117 91 51 117 91 51 117 91 51 117 91 51 117 91 51 117 91 51 117 91 51 117 91 51 117 91 51 117 91 51 117 91 51 117 91 51 117 91 51 117 91 51 117 91 51 117 91 51 117 91 51 117 91 51 117 91 51 117 91 51 99 78 38 99 78 38 99 78 38 99 78 38 99 78 38 99 78 38 99 78 38 99 78 38 99 78 38 99 78 38 99 78 38 99 78 38 99 78 38 99 78 38 99 78 38 99 78 38 125 98 53 125 98 53 125 98 53 125 98 53 125 98 53 125 98 53 125 98 53 125 98 53 125 98 53 125 98 53 125 98 53 125 98 53 125 98 53 125 98 53 125 98 53 125 98 53 125 98 53 125 98 53 125 98 53 125 98 53 125 98 53 125 98 53 125 98 53 125 98 53 125 98 53 125 98 53 125 98 53 125 98 53 125 98 53 125 98 53 125 98 53 125 98 53 125 98 53 125 98 53 125 98 53 125 98 53 125 98 53 125 98 53 125 98 53 125 98 53 125 98 53 125 98 53 125 98 53 125 98 53 125 98 53 125 98 53 125 98 53 99 78 38 99 78 38 99 78 38 99 78 38 99 78 38 99 78 38 99 78 38 99 78 38 99 78 38 99 78 38 99 78 38 99 78 38 99 78 38 99 78 38 99 78 38 99 78 38 125 98 53 125 98 53 125 98 53 125 98 53 125 98 53 125 98 53 125 98 53 125 98 53 125 98 53 125 98 53 125 98 53 125 98 53 125 98 53 125 98 53 125 98 53 125 98 53 208 234 233 208 234 233 208 234 233 208 234 233 208 234 233 208 234 233 208 234 233 208 234 233 208 234 233 208 234 233 208 234 233 208 234 233 208 234 233 208 234 233 208 234 233 208 234 233 125 98 53 125 98 53 125 98 53 125 98 53 125 98 53 125 98 53 125 98 53 125 98 53 125 98 53 125 98 53 125 98 53 125 98 53 125 98 53 125 98 53 125 98 53 125 98 53 139 193 205 139 193 205 139 193 205 139 193 205 139 193 205 139 193 205 139 193 205 139 193 205 139 193 205 139 193 205 139 193 205 139 193 205 139 193 205 139 193 205 139 193 205 139 193 205 168 208 217 168 208 217 168 208 217 168 208 217 168 208 217 168 208 217 168 208 217 168 208 217 168 208 217 168 208 217 168 208 217 168 208 217 168 208 217 168 208 217 168 208 217 125 98 53 99 78 38 99 78 38 99 78 38 99 78 38 99 78 38 99 78 38 99 78 38 99 78 38 99 78 38 99 78 38 99 78 38 99 78 38 99 78 38 99 78 38 99 78 38 99 78 38 117 91 51 117 91 51 117 91 51 117 91 51 117 91 51 117 91 51 117 91 51 117 91 51 117 91 51 117 91 51 117 91 51 117 91 51 117 91 51 117 91 51 117 91 51 117 91 51 125 98 53 125 98 53 125 98 53 125 98 53 125 98 53 125 98 53 125 98 53 125 98 53 125 98 53 125 98 53 125 98 53 125 98 53 125 98 53 125 98 53 125 98 53 125 98 53 125 98 53 125 98 53 125 98 53 125 98 53 125 98 53 125 98 53 125 98 53 125 98 53 125 98 53 125 98 53 125 98 53 125 98 53 125 98 53 125 98 53 125 98 53 125 98 53 117 91 51 117 91 51 117 91 51 117 91 51 117 91 51 117 91 51 117 91 51 117 91 51 117 91 51 117 91 51 117 91 51 117 91 51 117 91 51 117 91 51 117 91 51 117 91 51 117 91 51 117 91 51 117 91 51 117 91 51 117 91 51 117 91 51 117 91 51 117 91 51 117 91 51 117 91 51 117 91 51 117 91 51 117 91 51 117 91 51 117 91 51 117 91 51 99 78 38 99 78 38 99 78 38 99 78 38 99 78 38 99 78 38 99 78 38 99 78 38 99 78 38 99 78 38 99 78 38 99 78 38 99 78 38 99 78 38 99 78 38 99 78 38 125 98 53 125 98 53 125 98 53 125 98 53 125 98 53 125 98 53 125 98 53 125 98 53 125 98 53 125 98 53 125 98 53 125 98 53 125 98 53 125 98 53 125 98 53 125 98 53 125 98 53 125 98 53 125 98 53 125 98 53 125 98 53 125 98 53 125 98 53 125 98 53 125 98 53 125 98 53 125 98 53 125 98 53 125 98 53 125 98 53 125 98 53 125 98 53 125 98 53 125 98 53 125 98 53 125 98 53 125 98 53 125 98 53 125 98 53 125 98 53 125 98 53 125 98 53 125 98 53 125 98 53 125 98 53 125 98 53 125 98 53 99 78 38 99 78 38 99 78 38 99 78 38 99 78 38 99 78 38 99 78 38 99 78 38 99 78 38 99 78 38 99 78 38 99 78 38 99 78 38 99 78 38 99 78 38 99 78 38 125 98 53 125 98 53 125 98 53 125 98 53 125 98 53 125 98 53 125 98 53 125 98 53 125 98 53 125 98 53 125 98 53 125 98 53 125 98 53 125 98 53 125 98 53 125 98 53 208 234 233 208 234 233 208 234 233 208 234 233 208 234 233 208 234 233 208 234 233 208 234 233 208 234 233 208 234 233 208 234 233 208 234 233 208 234 233 208 234 233 208 234 233 208 234 233 125 98 53 125 98 53 125 98 53 125 98 53 125 98 53 125 98 53 125 98 53 125 98 53 125 98 53 125 98 53 125 98 53 125 98 53 125 98 53 125 98 53 125 98 53 125 98 53 139 193 205 139 193 205 139 193 205 139 193 205 139 193 205 139 193 205 139 193 205 139 193 205 139 193 205 139 193 205 139 193 205 139 193 205 139 193 205 139 193 205 139 193 205 139 193 205 168 208 217 168 208 217 168 208 217 168 208 217 168 208 217 168 208 217 168 208 217 168 208 217 168 208 217 168 208 217 168 208 217 168 208 217 168 208 217 168 208 217 168 208 217 125 98 53 99 78 38 99 78 38 99 78 38 99 78 38 99 78 38 99 78 38 99 78 38 99 78 38 99 78 38 99 78 38 99 78 38 99 78 38 99 78 38 99 78 38 99 78 38 99 78 38 117 91 51 117 91 51 117 91 51 117 91 51 117 91 51 117 91 51 117 91 51 117 91 51 117 91 51 117 91 51 117 91 51 117 91 51 117 91 51 117 91 51 117 91 51 117 91 51 125 98 53 125 98 53 125 98 53 125 98 53 125 98 53 125 98 53 125 98 53 125 98 53 125 98 53 125 98 53 125 98 53 125 98 53 125 98 53 125 98 53 125 98 53 125 98 53 125 98 53 125 98 53 125 98 53 125 98 53 125 98 53 125 98 53 125 98 53 125 98 53 125 98 53 125 98 53 125 98 53 125 98 53 125 98 53 125 98 53 125 98 53 125 98 53 117 91 51 117 91 51 117 91 51 117 91 51 117 91 51 117 91 51 117 91 51 117 91 51 117 91 51 117 91 51 117 91 51 117 91 51 117 91 51 117 91 51 117 91 51 117 91 51 117 91 51 117 91 51 117 91 51 117 91 51 117 91 51 117 91 51 117 91 51 117 91 51 117 91 51 117 91 51 117 91 51 117 91 51 117 91 51 117 91 51 117 91 51 117 91 51 99 78 38 99 78 38 99 78 38 99 78 38 99 78 38 99 78 38 99 78 38 99 78 38 99 78 38 99 78 38 99 78 38 99 78 38 99 78 38 99 78 38 99 78 38 99 78 38 125 98 53 125 98 53 125 98 53 125 98 53 125 98 53 125 98 53 125 98 53 125 98 53 125 98 53 125 98 53 125 98 53 125 98 53 125 98 53 125 98 53 125 98 53 125 98 53 125 98 53 125 98 53 125 98 53 125 98 53 125 98 53 125 98 53 125 98 53 125 98 53 125 98 53 125 98 53 125 98 53 125 98 53 125 98 53 125 98 53 125 98 53 125 98 53 125 98 53 125 98 53 125 98 53 125 98 53 125 98 53 125 98 53 125 98 53 125 98 53 125 98 53 125 98 53 125 98 53 125 98 53 125 98 53 125 98 53 125 98 53 99 78 38 99 78 38 99 78 38 99 78 38 99 78 38 99 78 38 99 78 38 99 78 38 99 78 38 99 78 38 99 78 38 99 78 38 99 78 38 99 78 38 99 78 38 99 78 38 125 98 53 125 98 53 125 98 53 125 98 53 125 98 53 125 98 53 125 98 53 125 98 53 125 98 53 125 98 53 125 98 53 125 98 53 125 98 53 125 98 53 125 98 53 125 98 53 208 234 233 208 234 233 208 234 233 208 234 233 208 234 233 208 234 233 208 234 233 208 234 233 208 234 233 208 234 233 208 234 233 208 234 233 208 234 233 208 234 233 208 234 233 208 234 233 125 98 53 125 98 53 125 98 53 125 98 53 125 98 53 125 98 53 125 98 53 125 98 53 125 98 53 125 98 53 125 98 53 125 98 53 125 98 53 125 98 53 125 98 53 125 98 53 139 193 205 139 193 205 139 193 205 139 193 205 139 193 205 139 193 205 139 193 205 139 193 205 139 193 205 139 193 205 139 193 205 139 193 205 139 193 205 139 193 205 139 193 205 139 193 205 168 208 217 168 208 217 168 208 217 168 208 217 168 208 217 168 208 217 168 208 217 168 208 217 168 208 217 168 208 217 168 208 217 168 208 217 168 208 217 168 208 217 168 208 217 125 98 53 99 78 38 99 78 38 99 78 38 99 78 38 99 78 38 99 78 38 99 78 38 99 78 38 99 78 38 99 78 38 99 78 38 99 78 38 99 78 38 99 78 38 99 78 38 99 78 38 117 91 51 117 91 51 117 91 51 117 91 51 117 91 51 117 91 51 117 91 51 117 91 51 117 91 51 117 91 51 117 91 51 117 91 51 117 91 51 117 91 51 117 91 51 117 91 51 125 98 53 125 98 53 125 98 53 125 98 53 125 98 53 125 98 53 125 98 53 125 98 53 125 98 53 125 98 53 125 98 53 125 98 53 125 98 53 125 98 53 125 98 53 125 98 53 125 98 53 125 98 53 125 98 53 125 98 53 125 98 53 125 98 53 125 98 53 125 98 53 125 98 53 125 98 53 125 98 53 125 98 53 125 98 53 125 98 53 125 98 53 125 98 53 117 91 51 117 91 51 117 91 51 117 91 51 117 91 51 117 91 51 117 91 51 117 91 51 117 91 51 117 91 51 117 91 51 117 91 51 117 91 51 117 91 51 117 91 51 117 91 51 117 91 51 117 91 51 117 91 51 117 91 51 117 91 51 117 91 51 117 91 51 117 91 51 117 91 51 117 91 51 117 91 51 117 91 51 117 91 51 117 91 51 117 91 51 117 91 51 99 78 38 99 78 38 99 78 38 99 78 38 99 78 38 99 78 38 99 78 38 99 78 38 99 78 38 99 78 38 99 78 38 99 78 38 99 78 38 99 78 38 99 78 38 99 78 38 125 98 53 125 98 53 125 98 53 125 98 53 125 98 53 125 98 53 125 98 53 125 98 53 125 98 53 125 98 53 125 98 53 125 98 53 125 98 53 125 98 53 125 98 53 125 98 53 125 98 53 125 98 53 125 98 53 125 98 53 125 98 53 125 98 53 125 98 53 125 98 53 125 98 53 125 98 53 125 98 53 125 98 53 125 98 53 125 98 53 125 98 53 125 98 53 125 98 53 125 98 53 125 98 53 125 98 53 125 98 53 125 98 53 125 98 53 125 98 53 125 98 53 125 98 53 125 98 53 125 98 53 125 98 53 125 98 53 125 98 53 99 78 38 99 78 38 99 78 38 99 78 38 99 78 38 99 78 38 99 78 38 99 78 38 99 78 38 99 78 38 99 78 38 99 78 38 99 78 38 99 78 38 99 78 38 99 78 38 125 98 53 125 98 53 125 98 53 125 98 53 125 98 53 125 98 53 125 98 53 125 98 53 125 98 53 125 98 53 125 98 53 125 98 53 125 98 53 125 98 53 125 98 53 125 98 53 208 234 233 208 234 233 208 234 233 208 234 233 208 234 233 208 234 233 208 234 233 208 234 233 208 234 233 208 234 233 208 234 233 208 234 233 208 234 233 208 234 233 208 234 233 208 234 233 125 98 53 125 98 53 125 98 53 125 98 53 125 98 53 125 98 53 125 98 53 125 98 53 125 98 53 125 98 53 125 98 53 125 98 53 125 98 53 125 98 53 125 98 53 125 98 53 139 193 205 139 193 205 139 193 205 139 193 205 139 193 205 139 193 205 139 193 205 139 193 205 139 193 205 139 193 205 139 193 205 139 193 205 139 193 205 139 193 205 139 193 205 139 193 205 168 208 217 168 208 217 168 208 217 168 208 217 168 208 217 168 208 217 168 208 217 168 208 217 168 208 217 168 208 217 168 208 217 168 208 217 168 208 217 168 208 217 168 208 217 125 98 53 99 78 38 99 78 38 99 78 38 99 78 38 99 78 38 99 78 38 99 78 38 99 78 38 99 78 38 99 78 38 99 78 38 99 78 38 99 78 38 99 78 38 99 78 38 99 78 38 117 91 51 117 91 51 117 91 51 117 91 51 117 91 51 117 91 51 117 91 51 117 91 51 117 91 51 117 91 51 117 91 51 117 91 51 117 91 51 117 91 51 117 91 51 117 91 51 125 98 53 125 98 53 125 98 53 125 98 53 125 98 53 125 98 53 125 98 53 125 98 53 125 98 53 125 98 53 125 98 53 125 98 53 125 98 53 125 98 53 125 98 53 125 98 53 125 98 53 125 98 53 125 98 53 125 98 53 125 98 53 125 98 53 125 98 53 125 98 53 125 98 53 125 98 53 125 98 53 125 98 53 125 98 53 125 98 53 125 98 53 125 98 53 117 91 51 117 91 51 117 91 51 117 91 51 117 91 51 117 91 51 117 91 51 117 91 51 117 91 51 117 91 51 117 91 51 117 91 51 117 91 51 117 91 51 117 91 51 117 91 51 117 91 51 117 91 51 117 91 51 117 91 51 117 91 51 117 91 51 117 91 51 117 91 51 117 91 51 117 91 51 117 91 51 117 91 51 117 91 51 117 91 51 117 91 51 117 91 51 99 78 38 99 78 38 99 78 38 99 78 38 99 78 38 99 78 38 99 78 38 99 78 38 99 78 38 99 78 38 99 78 38 99 78 38 99 78 38 99 78 38 99 78 38 99 78 38 125 98 53 125 98 53 125 98 53 125 98 53 125 98 53 125 98 53 125 98 53 125 98 53 125 98 53 125 98 53 125 98 53 125 98 53 125 98 53 125 98 53 125 98 53 125 98 53 125 98 53 125 98 53 125 98 53 125 98 53 125 98 53 125 98 53 125 98 53 125 98 53 125 98 53 125 98 53 125 98 53 125 98 53 125 98 53 125 98 53 125 98 53 125 98 53 125 98 53 125 98 53 125 98 53 125 98 53 125 98 53 125 98 53 125 98 53 125 98 53 125 98 53 125 98 53 125 98 53 125 98 53 125 98 53 125 98 53 125 98 53 99 78 38 99 78 38 99 78 38 99 78 38 99 78 38 99 78 38 99 78 38 99 78 38 99 78 38 99 78 38 99 78 38 99 78 38 99 78 38 99 78 38 99 78 38 99 78 38 125 98 53 125 98 53 125 98 53 125 98 53 125 98 53 125 98 53 125 98 53 125 98 53 125 98 53 125 98 53 125 98 53 125 98 53 125 98 53 125 98 53 125 98 53 125 98 53 208 234 233 208 234 233 208 234 233 208 234 233 208 234 233 208 234 233 208 234 233 208 234 233 208 234 233 208 234 233 208 234 233 208 234 233 208 234 233 208 234 233 208 234 233 208 234 233 125 98 53 125 98 53 125 98 53 125 98 53 125 98 53 125 98 53 125 98 53 125 98 53 125 98 53 125 98 53 125 98 53 125 98 53 125 98 53 125 98 53 125 98 53 125 98 53 139 193 205 139 193 205 139 193 205 139 193 205 139 193 205 139 193 205 139 193 205 139 193 205 139 193 205 139 193 205 139 193 205 139 193 205 139 193 205 139 193 205 139 193 205 139 193 205 168 208 217 168 208 217 168 208 217 168 208 217 168 208 217 168 208 217 168 208 217 168 208 217 168 208 217 168 208 217 168 208 217 168 208 217 168 208 217 168 208 217 168 208 217 125 98 53 99 78 38 99 78 38 99 78 38 99 78 38 99 78 38 99 78 38 99 78 38 99 78 38 99 78 38 99 78 38 99 78 38 99 78 38 99 78 38 99 78 38 99 78 38 99 78 38 117 91 51 117 91 51 117 91 51 117 91 51 117 91 51 117 91 51 117 91 51 117 91 51 117 91 51 117 91 51 117 91 51 117 91 51 117 91 51 117 91 51 117 91 51 117 91 51 125 98 53 125 98 53 125 98 53 125 98 53 125 98 53 125 98 53 125 98 53 125 98 53 125 98 53 125 98 53 125 98 53 125 98 53 125 98 53 125 98 53 125 98 53 125 98 53 125 98 53 125 98 53 125 98 53 125 98 53 125 98 53 125 98 53 125 98 53 125 98 53 125 98 53 125 98 53 125 98 53 125 98 53 125 98 53 125 98 53 125 98 53 125 98 53 117 91 51 117 91 51 117 91 51 117 91 51 117 91 51 117 91 51 117 91 51 117 91 51 117 91 51 117 91 51 117 91 51 117 91 51 117 91 51 117 91 51 117 91 51 117 91 51 117 91 51 117 91 51 117 91 51 117 91 51 117 91 51 117 91 51 117 91 51 117 91 51 117 91 51 117 91 51 117 91 51 117 91 51 117 91 51 117 91 51 117 91 51 117 91 51 99 78 38 99 78 38 99 78 38 99 78 38 99 78 38 99 78 38 99 78 38 99 78 38 99 78 38 99 78 38 99 78 38 99 78 38 99 78 38 99 78 38 99 78 38 99 78 38 125 98 53 125 98 53 125 98 53 125 98 53 125 98 53 125 98 53 125 98 53 125 98 53 125 98 53 125 98 53 125 98 53 125 98 53 125 98 53 125 98 53 125 98 53 125 98 53 125 98 53 125 98 53 125 98 53 125 98 53 125 98 53 125 98 53 125 98 53 125 98 53 125 98 53 125 98 53 125 98 53 125 98 53 125 98 53 125 98 53 125 98 53 125 98 53 125 98 53 125 98 53 125 98 53 125 98 53 125 98 53 125 98 53 125 98 53 125 98 53 125 98 53 125 98 53 125 98 53 125 98 53 125 98 53 125 98 53 125 98 53 99 78 38 99 78 38 99 78 38 99 78 38 99 78 38 99 78 38 99 78 38 99 78 38 99 78 38 99 78 38 99 78 38 99 78 38 99 78 38 99 78 38 99 78 38 99 78 38 125 98 53 125 98 53 125 98 53 125 98 53 125 98 53 125 98 53 125 98 53 125 98 53 125 98 53 125 98 53 125 98 53 125 98 53 125 98 53 125 98 53 125 98 53 125 98 53 208 234 233 208 234 233 208 234 233 208 234 233 208 234 233 208 234 233 208 234 233 208 234 233 208 234 233 208 234 233 208 234 233 208 234 233 208 234 233 208 234 233 208 234 233 208 234 233 125 98 53 125 98 53 125 98 53 125 98 53 125 98 53 125 98 53 125 98 53 125 98 53 125 98 53 125 98 53 125 98 53 125 98 53 125 98 53 125 98 53 125 98 53 125 98 53 139 193 205 139 193 205 139 193 205 139 193 205 139 193 205 139 193 205 139 193 205 139 193 205 139 193 205 139 193 205 139 193 205 139 193 205 139 193 205 139 193 205 139 193 205 139 193 205 168 208 217 168 208 217 168 208 217 168 208 217 168 208 217 168 208 217 168 208 217 168 208 217 168 208 217 168 208 217 168 208 217 168 208 217 168 208 217 168 208 217 168 208 217 125 98 53 99 78 38 99 78 38 99 78 38 99 78 38 99 78 38 99 78 38 99 78 38 99 78 38 99 78 38 99 78 38 99 78 38 99 78 38 99 78 38 99 78 38 99 78 38 99 78 38 117 91 51 117 91 51 117 91 51 117 91 51 117 91 51 117 91 51 117 91 51 117 91 51 117 91 51 117 91 51 117 91 51 117 91 51 117 91 51 117 91 51 117 91 51 117 91 51 125 98 53 125 98 53 125 98 53 125 98 53 125 98 53 125 98 53 125 98 53 125 98 53 125 98 53 125 98 53 125 98 53 125 98 53 125 98 53 125 98 53 125 98 53 125 98 53 125 98 53 125 98 53 125 98 53 125 98 53 125 98 53 125 98 53 125 98 53 125 98 53 125 98 53 125 98 53 125 98 53 125 98 53 125 98 53 125 98 53 125 98 53 125 98 53 117 91 51 117 91 51 117 91 51 117 91 51 117 91 51 117 91 51 117 91 51 117 91 51 117 91 51 117 91 51 117 91 51 117 91 51 117 91 51 117 91 51 117 91 51 117 91 51 117 91 51 117 91 51 117 91 51 117 91 51 117 91 51 117 91 51 117 91 51 117 91 51 117 91 51 117 91 51 117 91 51 117 91 51 117 91 51 117 91 51 117 91 51 117 91 51 99 78 38 99 78 38 99 78 38 99 78 38 99 78 38 99 78 38 99 78 38 99 78 38 99 78 38 99 78 38 99 78 38 99 78 38 99 78 38 99 78 38 99 78 38 99 78 38 125 98 53 125 98 53 125 98 53 125 98 53 125 98 53 125 98 53 125 98 53 125 98 53 125 98 53 125 98 53 125 98 53 125 98 53 125 98 53 125 98 53 125 98 53 125 98 53 125 98 53 125 98 53 125 98 53 125 98 53 125 98 53 125 98 53 125 98 53 125 98 53 125 98 53 125 98 53 125 98 53 125 98 53 125 98 53 125 98 53 125 98 53 125 98 53 125 98 53 125 98 53 125 98 53 125 98 53 125 98 53 125 98 53 125 98 53 125 98 53 125 98 53 125 98 53 125 98 53 125 98 53 125 98 53 125 98 53 125 98 53 99 78 38 99 78 38 99 78 38 99 78 38 99 78 38 99 78 38 99 78 38 99 78 38 99 78 38 99 78 38 99 78 38 99 78 38 99 78 38 99 78 38 99 78 38 99 78 38 125 98 53 125 98 53 125 98 53 125 98 53 125 98 53 125 98 53 125 98 53 125 98 53 125 98 53 125 98 53 125 98 53 125 98 53 125 98 53 125 98 53 125 98 53 125 98 53 208 234 233 208 234 233 208 234 233 208 234 233 208 234 233 208 234 233 208 234 233 208 234 233 208 234 233 208 234 233 208 234 233 208 234 233 208 234 233 208 234 233 208 234 233 208 234 233 125 98 53 125 98 53 125 98 53 125 98 53 125 98 53 125 98 53 125 98 53 125 98 53 125 98 53 125 98 53 125 98 53 125 98 53 125 98 53 125 98 53 125 98 53 125 98 53 139 193 205 139 193 205 139 193 205 139 193 205 139 193 205 139 193 205 139 193 205 139 193 205 139 193 205 139 193 205 139 193 205 139 193 205 139 193 205 139 193 205 139 193 205 139 193 205 168 208 217 168 208 217 168 208 217 168 208 217 168 208 217 168 208 217 168 208 217 168 208 217 168 208 217 168 208 217 168 208 217 168 208 217 168 208 217 168 208 217 168 208 217 125 98 53 99 78 38 99 78 38 99 78 38 99 78 38 99 78 38 99 78 38 99 78 38 99 78 38 99 78 38 99 78 38 99 78 38 99 78 38 99 78 38 99 78 38 99 78 38 99 78 38 117 91 51 117 91 51 117 91 51 117 91 51 117 91 51 117 91 51 117 91 51 117 91 51 117 91 51 117 91 51 117 91 51 117 91 51 117 91 51 117 91 51 117 91 51 117 91 51 125 98 53 125 98 53 125 98 53 125 98 53 125 98 53 125 98 53 125 98 53 125 98 53 125 98 53 125 98 53 125 98 53 125 98 53 125 98 53 125 98 53 125 98 53 125 98 53 125 98 53 125 98 53 125 98 53 125 98 53 125 98 53 125 98 53 125 98 53 125 98 53 125 98 53 125 98 53 125 98 53 125 98 53 125 98 53 125 98 53 125 98 53 125 98 53 117 91 51 117 91 51 117 91 51 117 91 51 117 91 51 117 91 51 117 91 51 117 91 51 117 91 51 117 91 51 117 91 51 117 91 51 117 91 51 117 91 51 117 91 51 117 91 51 117 91 51 117 91 51 117 91 51 117 91 51 117 91 51 117 91 51 117 91 51 117 91 51 117 91 51 117 91 51 117 91 51 117 91 51 117 91 51 117 91 51 117 91 51 117 91 51 99 78 38 99 78 38 99 78 38 99 78 38 99 78 38 99 78 38 99 78 38 99 78 38 99 78 38 99 78 38 99 78 38 99 78 38 99 78 38 99 78 38 99 78 38 99 78 38 125 98 53 125 98 53 125 98 53 125 98 53 125 98 53 125 98 53 125 98 53 125 98 53 125 98 53 125 98 53 125 98 53 125 98 53 125 98 53 125 98 53 125 98 53 125 98 53 125 98 53 125 98 53 125 98 53 125 98 53 125 98 53 125 98 53 125 98 53 125 98 53 125 98 53 125 98 53 125 98 53 125 98 53 125 98 53 125 98 53 125 98 53 125 98 53 125 98 53 125 98 53 125 98 53 125 98 53 125 98 53 125 98 53 125 98 53 125 98 53 125 98 53 125 98 53 125 98 53 125 98 53 125 98 53 125 98 53 125 98 53 99 78 38 99 78 38 99 78 38 99 78 38 99 78 38 99 78 38 99 78 38 99 78 38 99 78 38 99 78 38 99 78 38 99 78 38 99 78 38 99 78 38 99 78 38 99 78 38 125 98 53 125 98 53 125 98 53 125 98 53 125 98 53 125 98 53 125 98 53 125 98 53 125 98 53 125 98 53 125 98 53 125 98 53 125 98 53 125 98 53 125 98 53 125 98 53 208 234 233 208 234 233 208 234 233 208 234 233 208 234 233 208 234 233 208 234 233 208 234 233 208 234 233 208 234 233 208 234 233 208 234 233 208 234 233 208 234 233 208 234 233 208 234 233 125 98 53 125 98 53 125 98 53 125 98 53 125 98 53 125 98 53 125 98 53 125 98 53 125 98 53 125 98 53 125 98 53 125 98 53 125 98 53 125 98 53 125 98 53 125 98 53 139 193 205 139 193 205 139 193 205 139 193 205 139 193 205 139 193 205 139 193 205 139 193 205 139 193 205 139 193 205 139 193 205 139 193 205 139 193 205 139 193 205 139 193 205 139 193 205 168 208 217 168 208 217 168 208 217 168 208 217 168 208 217 168 208 217 168 208 217 168 208 217 168 208 217 168 208 217 168 208 217 168 208 217 168 208 217 168 208 217 168 208 217 110 86 44 110 86 44 110 86 44 110 86 44 110 86 44 110 86 44 110 86 44 110 86 44 110 86 44 110 86 44 110 86 44 110 86 44 110 86 44 110 86 44 110 86 44 110 86 44 110 86 44 117 91 51 117 91 51 117 91 51 117 91 51 117 91 51 117 91 51 117 91 51 117 91 51 117 91 51 117 91 51 117 91 51 117 91 51 117 91 51 117 91 51 117 91 51 117 91 51 117 91 51 117 91 51 117 91 51 117 91 51 117 91 51 117 91 51 117 91 51 117 91 51 117 91 51 117 91 51 117 91 51 117 91 51 117 91 51 117 91 51 117 91 51 117 91 51 99 78 38 99 78 38 99 78 38 99 78 38 99 78 38 99 78 38 99 78 38 99 78 38 99 78 38 99 78 38 99 78 38 99 78 38 99 78 38 99 78 38 99 78 38 99 78 38 99 78 38 99 78 38 99 78 38 99 78 38 99 78 38 99 78 38 99 78 38 99 78 38 99 78 38 99 78 38 99 78 38 99 78 38 99 78 38 99 78 38 99 78 38 99 78 38 110 86 44 110 86 44 110 86 44 110 86 44 110 86 44 110 86 44 110 86 44 110 86 44 110 86 44 110 86 44 110 86 44 110 86 44 110 86 44 110 86 44 110 86 44 110 86 44 99 78 38 99 78 38 99 78 38 99 78 38 99 78 38 99 78 38 99 78 38 99 78 38 99 78 38 99 78 38 99 78 38 99 78 38 99 78 38 99 78 38 99 78 38 99 78 38 99 78 38 99 78 38 99 78 38 99 78 38 99 78 38 99 78 38 99 78 38 99 78 38 99 78 38 99 78 38 99 78 38 99 78 38 99 78 38 99 78 38 99 78 38 117 91 51 117 91 51 117 91 51 117 91 51 117 91 51 117 91 51 117 91 51 117 91 51 117 91 51 117 91 51 117 91 51 117 91 51 117 91 51 117 91 51 117 91 51 117 91 51 117 91 51 117 91 51 117 91 51 117 91 51 117 91 51 117 91 51 117 91 51 117 91 51 117 91 51 117 91 51 117 91 51 117 91 51 117 91 51 117 91 51 117 91 51 117 91 51 110 86 44 110 86 44 110 86 44 110 86 44 110 86 44 110 86 44 110 86 44 110 86 44 110 86 44 110 86 44 110 86 44 110 86 44 110 86 44 110 86 44 110 86 44 110 86 44 117 91 51 117 91 51 117 91 51 117 91 51 117 91 51 117 91 51 117 91 51 117 91 51 117 91 51 117 91 51 117 91 51 117 91 51 117 91 51 117 91 51 117 91 51 117 91 51 208 234 233 208 234 233 208 234 233 208 234 233 208 234 233 208 234 233 208 234 233 208 234 233 208 234 233 208 234 233 208 234 233 208 234 233 208 234 233 208 234 233 208 234 233 208 234 233 110 86 44 110 86 44 110 86 44 110 86 44 110 86 44 110 86 44 110 86 44 110 86 44 110 86 44 110 86 44 110 86 44 110 86 44 110 86 44 110 86 44 110 86 44 110 86 44 139 193 205 139 193 205 139 193 205 139 193 205 139 193 205 139 193 205 139 193 205 139 193 205 139 193 205 139 193 205 139 193 205 139 193 205 139 193 205 139 193 205 139 193 205 139 193 205 208 234 233 208 234 233 208 234 233 208 234 233 208 234 233 208 234 233 208 234 233 208 234 233 208 234 233 208 234 233 208 234 233 208 234 233 208 234 233 208 234 233 208 234 233 110 86 44 110 86 44 110 86 44 110 86 44 110 86 44 110 86 44 110 86 44 110 86 44 110 86 44 110 86 44 110 86 44 110 86 44 110 86 44 110 86 44 110 86 44 110 86 44 110 86 44 117 91 51 117 91 51 117 91 51 117 91 51 117 91 51 117 91 51 117 91 51 117 91 51 117 91 51 117 91 51 117 91 51 117 91 51 117 91 51 117 91 51 117 91 51 117 91 51 117 91 51 117 91 51 117 91 51 117 91 51 117 91 51 117 91 51 117 91 51 117 91 51 117 91 51 117 91 51 117 91 51 117 91 51 117 91 51 117 91 51 117 91 51 117 91 51 99 78 38 99 78 38 99 78 38 99 78 38 99 78 38 99 78 38 99 78 38 99 78 38 99 78 38 99 78 38 99 78 38 99 78 38 99 78 38 99 78 38 99 78 38 99 78 38 99 78 38 99 78 38 99 78 38 99 78 38 99 78 38 99 78 38 99 78 38 99 78 38 99 78 38 99 78 38 99 78 38 99 78 38 99 78 38 99 78 38 99 78 38 99 78 38 110 86 44 110 86 44 110 86 44 110 86 44 110 86 44 110 86 44 110 86 44 110 86 44 110 86 44 110 86 44 110 86 44 110 86 44 110 86 44 110 86 44 110 86 44 110 86 44 99 78 38 99 78 38 99 78 38 99 78 38 99 78 38 99 78 38 99 78 38 99 78 38 99 78 38 99 78 38 99 78 38 99 78 38 99 78 38 99 78 38 99 78 38 99 78 38 99 78 38 99 78 38 99 78 38 99 78 38 99 78 38 99 78 38 99 78 38 99 78 38 99 78 38 99 78 38 99 78 38 99 78 38 99 78 38 99 78 38 99 78 38 117 91 51 117 91 51 117 91 51 117 91 51 117 91 51 117 91 51 117 91 51 117 91 51 117 91 51 117 91 51 117 91 51 117 91 51 117 91 51 117 91 51 117 91 51 117 91 51 117 91 51 117 91 51 117 91 51 117 91 51 117 91 51 117 91 51 117 91 51 117 91 51 117 91 51 117 91 51 117 91 51 117 91 51 117 91 51 117 91 51 117 91 51 117 91 51 110 86 44 110 86 44 110 86 44 110 86 44 110 86 44 110 86 44 110 86 44 110 86 44 110 86 44 110 86 44 110 86 44 110 86 44 110 86 44 110 86 44 110 86 44 110 86 44 208 234 233 208 234 233 208 234 233 208 234 233 208 234 233 208 234 233 208 234 233 208 234 233 208 234 233 208 234 233 208 234 233 208 234 233 208 234 233 208 234 233 208 234 233 208 234 233 110 86 44 110 86 44 110 86 44 110 86 44 110 86 44 110 86 44 110 86 44 110 86 44 110 86 44 110 86 44 110 86 44 110 86 44 110 86 44 110 86 44 110 86 44 110 86 44 110 86 44 110 86 44 110 86 44 110 86 44 110 86 44 110 86 44 110 86 44 110 86 44 110 86 44 110 86 44 110 86 44 110 86 44 110 86 44 110 86 44 110 86 44 110 86 44 139 193 205 139 193 205 139 193 205 139 193 205 139 193 205 139 193 205 139 193 205 139 193 205 139 193 205 139 193 205 139 193 205 139 193 205 139 193 205 139 193 205 139 193 205 139 193 205 208 234 233 208 234 233 208 234 233 208 234 233 208 234 233 208 234 233 208 234 233 208 234 233 208 234 233 208 234 233 208 234 233 208 234 233 208 234 233 208 234 233 208 234 233 110 86 44 110 86 44 110 86 44 110 86 44 110 86 44 110 86 44 110 86 44 110 86 44 110 86 44 110 86 44 110 86 44 110 86 44 110 86 44 110 86 44 110 86 44 110 86 44 110 86 44 117 91 51 117 91 51 117 91 51 117 91 51 117 91 51 117 91 51 117 91 51 117 91 51 117 91 51 117 91 51 117 91 51 117 91 51 117 91 51 117 91 51 117 91 51 117 91 51 117 91 51 117 91 51 117 91 51 117 91 51 117 91 51 117 91 51 117 91 51 117 91 51 117 91 51 117 91 51 117 91 51 117 91 51 117 91 51 117 91 51 117 91 51 117 91 51 99 78 38 99 78 38 99 78 38 99 78 38 99 78 38 99 78 38 99 78 38 99 78 38 99 78 38 99 78 38 99 78 38 99 78 38 99 78 38 99 78 38 99 78 38 99 78 38 99 78 38 99 78 38 99 78 38 99 78 38 99 78 38 99 78 38 99 78 38 99 78 38 99 78 38 99 78 38 99 78 38 99 78 38 99 78 38 99 78 38 99 78 38 99 78 38 110 86 44 110 86 44 110 86 44 110 86 44 110 86 44 110 86 44 110 86 44 110 86 44 110 86 44 110 86 44 110 86 44 110 86 44 110 86 44 110 86 44 110 86 44 110 86 44 99 78 38 99 78 38 99 78 38 99 78 38 99 78 38 99 78 38 99 78 38 99 78 38 99 78 38 99 78 38 99 78 38 99 78 38 99 78 38 99 78 38 99 78 38 99 78 38 99 78 38 99 78 38 99 78 38 99 78 38 99 78 38 99 78 38 99 78 38 99 78 38 99 78 38 99 78 38 99 78 38 99 78 38 99 78 38 99 78 38 99 78 38 117 91 51 117 91 51 117 91 51 117 91 51 117 91 51 117 91 51 117 91 51 117 91 51 117 91 51 117 91 51 117 91 51 117 91 51 117 91 51 117 91 51 117 91 51 117 91 51 117 91 51 117 91 51 117 91 51 117 91 51 117 91 51 117 91 51 117 91 51 117 91 51 117 91 51 117 91 51 117 91 51 117 91 51 117 91 51 117 91 51 117 91 51 117 91 51 110 86 44 110 86 44 110 86 44 110 86 44 110 86 44 110 86 44 110 86 44 110 86 44 110 86 44 110 86 44 110 86 44 110 86 44 110 86 44 110 86 44 110 86 44 110 86 44 208 234 233 208 234 233 208 234 233 208 234 233 208 234 233 208 234 233 208 234 233 208 234 233 208 234 233 208 234 233 208 234 233 208 234 233 208 234 233 208 234 233 208 234 233 208 234 233 110 86 44 110 86 44 110 86 44 110 86 44 110 86 44 110 86 44 110 86 44 110 86 44 110 86 44 110 86 44 110 86 44 110 86 44 110 86 44 110 86 44 110 86 44 110 86 44 110 86 44 110 86 44 110 86 44 110 86 44 110 86 44 110 86 44 110 86 44 110 86 44 110 86 44 110 86 44 110 86 44 110 86 44 110 86 44 110 86 44 110 86 44 110 86 44 139 193 205 139 193 205 139 193 205 139 193 205 139 193 205 139 193 205 139 193 205 139 193 205 139 193 205 139 193 205 139 193 205 139 193 205 139 193 205 139 193 205 139 193 205 139 193 205 208 234 233 208 234 233 208 234 233 208 234 233 208 234 233 208 234 233 208 234 233 208 234 233 208 234 233 208 234 233 208 234 233 208 234 233 208 234 233 208 234 233 208 234 233 110 86 44 110 86 44 110 86 44 110 86 44 110 86 44 110 86 44 110 86 44 110 86 44 110 86 44 110 86 44 110 86 44 110 86 44 110 86 44 110 86 44 110 86 44 110 86 44 110 86 44 117 91 51 117 91 51 117 91 51 117 91 51 117 91 51 117 91 51 117 91 51 117 91 51 117 91 51 117 91 51 117 91 51 117 91 51 117 91 51 117 91 51 117 91 51 117 91 51 117 91 51 117 91 51 117 91 51 117 91 51 117 91 51 117 91 51 117 91 51 117 91 51 117 91 51 117 91 51 117 91 51 117 91 51 117 91 51 117 91 51 117 91 51 117 91 51 99 78 38 99 78 38 99 78 38 99 78 38 99 78 38 99 78 38 99 78 38 99 78 38 99 78 38 99 78 38 99 78 38 99 78 38 99 78 38 99 78 38 99 78 38 99 78 38 99 78 38 99 78 38 99 78 38 99 78 38 99 78 38 99 78 38 99 78 38 99 78 38 99 78 38 99 78 38 99 78 38 99 78 38 99 78 38 99 78 38 99 78 38 99 78 38 110 86 44 110 86 44 110 86 44 110 86 44 110 86 44 110 86 44 110 86 44 110 86 44 110 86 44 110 86 44 110 86 44 110 86 44 110 86 44 110 86 44 110 86 44 110 86 44 99 78 38 99 78 38 99 78 38 99 78 38 99 78 38 99 78 38 99 78 38 99 78 38 99 78 38 99 78 38 99 78 38 99 78 38 99 78 38 99 78 38 99 78 38 99 78 38 99 78 38 99 78 38 99 78 38 99 78 38 99 78 38 99 78 38 99 78 38 99 78 38 99 78 38 99 78 38 99 78 38 99 78 38 99 78 38 99 78 38 99 78 38 117 91 51 117 91 51 117 91 51 117 91 51 117 91 51 117 91 51 117 91 51 117 91 51 117 91 51 117 91 51 117 91 51 117 91 51 117 91 51 117 91 51 117 91 51 117 91 51 117 91 51 117 91 51 117 91 51 117 91 51 117 91 51 117 91 51 117 91 51 117 91 51 117 91 51 117 91 51 117 91 51 117 91 51 117 91 51 117 91 51 117 91 51 117 91 51 110 86 44 110 86 44 110 86 44 110 86 44 110 86 44 110 86 44 110 86 44 110 86 44 110 86 44 110 86 44 110 86 44 110 86 44 110 86 44 110 86 44 110 86 44 110 86 44 208 234 233 208 234 233 208 234 233 208 234 233 208 234 233 208 234 233 208 234 233 208 234 233 208 234 233 208 234 233 208 234 233 208 234 233 208 234 233 208 234 233 208 234 233 208 234 233 110 86 44 110 86 44 110 86 44 110 86 44 110 86 44 110 86 44 110 86 44 110 86 44 110 86 44 110 86 44 110 86 44 110 86 44 110 86 44 110 86 44 110 86 44 110 86 44 110 86 44 110 86 44 110 86 44 110 86 44 110 86 44 110 86 44 110 86 44 110 86 44 110 86 44 110 86 44 110 86 44 110 86 44 110 86 44 110 86 44 110 86 44 110 86 44 139 193 205 139 193 205 139 193 205 139 193 205 139 193 205 139 193 205 139 193 205 139 193 205 139 193 205 139 193 205 139 193 205 139 193 205 139 193 205 139 193 205 139 193 205 139 193 205 208 234 233 208 234 233 208 234 233 208 234 233 208 234 233 208 234 233 208 234 233 208 234 233 208 234 233 208 234 233 208 234 233 208 234 233 208 234 233 208 234 233 208 234 233 110 86 44 110 86 44 110 86 44 110 86 44 110 86 44 110 86 44 110 86 44 110 86 44 110 86 44 110 86 44 110 86 44 110 86 44 110 86 44 110 86 44 110 86 44 110 86 44 110 86 44 117 91 51 117 91 51 117 91 51 117 91 51 117 91 51 117 91 51 117 91 51 117 91 51 117 91 51 117 91 51 117 91 51 117 91 51 117 91 51 117 91 51 117 91 51 117 91 51 117 91 51 117 91 51 117 91 51 117 91 51 117 91 51 117 91 51 117 91 51 117 91 51 117 91 51 117 91 51 117 91 51 117 91 51 117 91 51 117 91 51 117 91 51 117 91 51 99 78 38 99 78 38 99 78 38 99 78 38 99 78 38 99 78 38 99 78 38 99 78 38 99 78 38 99 78 38 99 78 38 99 78 38 99 78 38 99 78 38 99 78 38 99 78 38 99 78 38 99 78 38 99 78 38 99 78 38 99 78 38 99 78 38 99 78 38 99 78 38 99 78 38 99 78 38 99 78 38 99 78 38 99 78 38 99 78 38 99 78 38 99 78 38 110 86 44 110 86 44 110 86 44 110 86 44 110 86 44 110 86 44 110 86 44 110 86 44 110 86 44 110 86 44 110 86 44 110 86 44 110 86 44 110 86 44 110 86 44 110 86 44 99 78 38 99 78 38 99 78 38 99 78 38 99 78 38 99 78 38 99 78 38 99 78 38 99 78 38 99 78 38 99 78 38 99 78 38 99 78 38 99 78 38 99 78 38 99 78 38 99 78 38 99 78 38 99 78 38 99 78 38 99 78 38 99 78 38 99 78 38 99 78 38 99 78 38 99 78 38 99 78 38 99 78 38 99 78 38 99 78 38 99 78 38 117 91 51 117 91 51 117 91 51 117 91 51 117 91 51 117 91 51 117 91 51 117 91 51 117 91 51 117 91 51 117 91 51 117 91 51 117 91 51 117 91 51 117 91 51 117 91 51 117 91 51 117 91 51 117 91 51 117 91 51 117 91 51 117 91 51 117 91 51 117 91 51 117 91 51 117 91 51 117 91 51 117 91 51 117 91 51 117 91 51 117 91 51 117 91 51 110 86 44 110 86 44 110 86 44 110 86 44 110 86 44 110 86 44 110 86 44 110 86 44 110 86 44 110 86 44 110 86 44 110 86 44 110 86 44 110 86 44 110 86 44 110 86 44 208 234 233 208 234 233 208 234 233 208 234 233 208 234 233 208 234 233 208 234 233 208 234 233 208 234 233 208 234 233 208 234 233 208 234 233 208 234 233 208 234 233 208 234 233 208 234 233 110 86 44 110 86 44 110 86 44 110 86 44 110 86 44 110 86 44 110 86 44 110 86 44 110 86 44 110 86 44 110 86 44 110 86 44 110 86 44 110 86 44 110 86 44 110 86 44 110 86 44 110 86 44 110 86 44 110 86 44 110 86 44 110 86 44 110 86 44 110 86 44 110 86 44 110 86 44 110 86 44 110 86 44 110 86 44 110 86 44 110 86 44 110 86 44 139 193 205 139 193 205 139 193 205 139 193 205 139 193 205 139 193 205 139 193 205 139 193 205 139 193 205 139 193 205 139 193 205 139 193 205 139 193 205 139 193 205 139 193 205 139 193 205 208 234 233 208 234 233 208 234 233 208 234 233 208 234 233 208 234 233 208 234 233 208 234 233 208 234 233 208 234 233 208 234 233 208 234 233 208 234 233 208 234 233 208 234 233 110 86 44 110 86 44 110 86 44 110 86 44 110 86 44 110 86 44 110 86 44 110 86 44 110 86 44 110 86 44 110 86 44 110 86 44 110 86 44 110 86 44 110 86 44 110 86 44 110 86 44 117 91 51 117 91 51 117 91 51 117 91 51 117 91 51 117 91 51 117 91 51 117 91 51 117 91 51 117 91 51 117 91 51 117 91 51 117 91 51 117 91 51 117 91 51 117 91 51 117 91 51 117 91 51 117 91 51 117 91 51 117 91 51 117 91 51 117 91 51 117 91 51 117 91 51 117 91 51 117 91 51 117 91 51 117 91 51 117 91 51 117 91 51 117 91 51 99 78 38 99 78 38 99 78 38 99 78 38 99 78 38 99 78 38 99 78 38 99 78 38 99 78 38 99 78 38 99 78 38 99 78 38 99 78 38 99 78 38 99 78 38 99 78 38 99 78 38 99 78 38 99 78 38 99 78 38 99 78 38 99 78 38 99 78 38 99 78 38 99 78 38 99 78 38 99 78 38 99 78 38 99 78 38 99 78 38 99 78 38 99 78 38 110 86 44 110 86 44 110 86 44 110 86 44 110 86 44 110 86 44 110 86 44 110 86 44 110 86 44 110 86 44 110 86 44 110 86 44 110 86 44 110 86 44 110 86 44 110 86 44 99 78 38 99 78 38 99 78 38 99 78 38 99 78 38 99 78 38 99 78 38 99 78 38 99 78 38 99 78 38 99 78 38 99 78 38 99 78 38 99 78 38 99 78 38 99 78 38 99 78 38 99 78 38 99 78 38 99 78 38 99 78 38 99 78 38 99 78 38 99 78 38 99 78 38 99 78 38 99 78 38 99 78 38 99 78 38 99 78 38 99 78 38 117 91 51 117 91 51 117 91 51 117 91 51 117 91 51 117 91 51 117 91 51 117 91 51 117 91 51 117 91 51 117 91 51 117 91 51 117 91 51 117 91 51 117 91 51 117 91 51 117 91 51 117 91 51 117 91 51 117 91 51 117 91 51 117 91 51 117 91 51 117 91 51 117 91 51 117 91 51 117 91 51 117 91 51 117 91 51 117 91 51 117 91 51 117 91 51 110 86 44 110 86 44 110 86 44 110 86 44 110 86 44 110 86 44 110 86 44 110 86 44 110 86 44 110 86 44 110 86 44 110 86 44 110 86 44 110 86 44 110 86 44 110 86 44 208 234 233 208 234 233 208 234 233 208 234 233 208 234 233 208 234 233 208 234 233 208 234 233 208 234 233 208 234 233 208 234 233 208 234 233 208 234 233 208 234 233 208 234 233 208 234 233 110 86 44 110 86 44 110 86 44 110 86 44 110 86 44 110 86 44 110 86 44 110 86 44 110 86 44 110 86 44 110 86 44 110 86 44 110 86 44 110 86 44 110 86 44 110 86 44 110 86 44 110 86 44 110 86 44 110 86 44 110 86 44 110 86 44 110 86 44 110 86 44 110 86 44 110 86 44 110 86 44 110 86 44 110 86 44 110 86 44 110 86 44 110 86 44 139 193 205 139 193 205 139 193 205 139 193 205 139 193 205 139 193 205 139 193 205 139 193 205 139 193 205 139 193 205 139 193 205 139 193 205 139 193 205 139 193 205 139 193 205 139 193 205 208 234 233 208 234 233 208 234 233 208 234 233 208 234 233 208 234 233 208 234 233 208 234 233 208 234 233 208 234 233 208 234 233 208 234 233 208 234 233 208 234 233 208 234 233 110 86 44 110 86 44 110 86 44 110 86 44 110 86 44 110 86 44 110 86 44 110 86 44 110 86 44 110 86 44 110 86 44 110 86 44 110 86 44 110 86 44 110 86 44 110 86 44 110 86 44 117 91 51 117 91 51 117 91 51 117 91 51 117 91 51 117 91 51 117 91 51 117 91 51 117 91 51 117 91 51 117 91 51 117 91 51 117 91 51 117 91 51 117 91 51 117 91 51 117 91 51 117 91 51 117 91 51 117 91 51 117 91 51 117 91 51 117 91 51 117 91 51 117 91 51 117 91 51 117 91 51 117 91 51 117 91 51 117 91 51 117 91 51 117 91 51 99 78 38 99 78 38 99 78 38 99 78 38 99 78 38 99 78 38 99 78 38 99 78 38 99 78 38 99 78 38 99 78 38 99 78 38 99 78 38 99 78 38 99 78 38 99 78 38 99 78 38 99 78 38 99 78 38 99 78 38 99 78 38 99 78 38 99 78 38 99 78 38 99 78 38 99 78 38 99 78 38 99 78 38 99 78 38 99 78 38 99 78 38 99 78 38 110 86 44 110 86 44 110 86 44 110 86 44 110 86 44 110 86 44 110 86 44 110 86 44 110 86 44 110 86 44 110 86 44 110 86 44 110 86 44 110 86 44 110 86 44 110 86 44 99 78 38 99 78 38 99 78 38 99 78 38 99 78 38 99 78 38 99 78 38 99 78 38 99 78 38 99 78 38 99 78 38 99 78 38 99 78 38 99 78 38 99 78 38 99 78 38 99 78 38 99 78 38 99 78 38 99 78 38 99 78 38 99 78 38 99 78 38 99 78 38 99 78 38 99 78 38 99 78 38 99 78 38 99 78 38 99 78 38 99 78 38 117 91 51 117 91 51 117 91 51 117 91 51 117 91 51 117 91 51 117 91 51 117 91 51 117 91 51 117 91 51 117 91 51 117 91 51 117 91 51 117 91 51 117 91 51 117 91 51 117 91 51 117 91 51 117 91 51 117 91 51 117 91 51 117 91 51 117 91 51 117 91 51 117 91 51 117 91 51 117 91 51 117 91 51 117 91 51 117 91 51 117 91 51 117 91 51 110 86 44 110 86 44 110 86 44 110 86 44 110 86 44 110 86 44 110 86 44 110 86 44 110 86 44 110 86 44 110 86 44 110 86 44 110 86 44 110 86 44 110 86 44 110 86 44 208 234 233 208 234 233 208 234 233 208 234 233 208 234 233 208 234 233 208 234 233 208 234 233 208 234 233 208 234 233 208 234 233 208 234 233 208 234 233 208 234 233 208 234 233 208 234 233 110 86 44 110 86 44 110 86 44 110 86 44 110 86 44 110 86 44 110 86 44 110 86 44 110 86 44 110 86 44 110 86 44 110 86 44 110 86 44 110 86 44 110 86 44 110 86 44 110 86 44 110 86 44 110 86 44 110 86 44 110 86 44 110 86 44 110 86 44 110 86 44 110 86 44 110 86 44 110 86 44 110 86 44 110 86 44 110 86 44 110 86 44 110 86 44 139 193 205 139 193 205 139 193 205 139 193 205 139 193 205 139 193 205 139 193 205 139 193 205 139 193 205 139 193 205 139 193 205 139 193 205 139 193 205 139 193 205 139 193 205 139 193 205 208 234 233 208 234 233 208 234 233 208 234 233 208 234 233 208 234 233 208 234 233 208 234 233 208 234 233 208 234 233 208 234 233 208 234 233 208 234 233 208 234 233 208 234 233 110 86 44 110 86 44 110 86 44 110 86 44 110 86 44 110 86 44 110 86 44 110 86 44 110 86 44 110 86 44 110 86 44 110 86 44 110 86 44 110 86 44 110 86 44 110 86 44 110 86 44 117 91 51 117 91 51 117 91 51 117 91 51 117 91 51 117 91 51 117 91 51 117 91 51 117 91 51 117 91 51 117 91 51 117 91 51 117 91 51 117 91 51 117 91 51 117 91 51 117 91 51 117 91 51 117 91 51 117 91 51 117 91 51 117 91 51 117 91 51 117 91 51 117 91 51 117 91 51 117 91 51 117 91 51 117 91 51 117 91 51 117 91 51 117 91 51 99 78 38 99 78 38 99 78 38 99 78 38 99 78 38 99 78 38 99 78 38 99 78 38 99 78 38 99 78 38 99 78 38 99 78 38 99 78 38 99 78 38 99 78 38 99 78 38 99 78 38 99 78 38 99 78 38 99 78 38 99 78 38 99 78 38 99 78 38 99 78 38 99 78 38 99 78 38 99 78 38 99 78 38 99 78 38 99 78 38 99 78 38 99 78 38 110 86 44 110 86 44 110 86 44 110 86 44 110 86 44 110 86 44 110 86 44 110 86 44 110 86 44 110 86 44 110 86 44 110 86 44 110 86 44 110 86 44 110 86 44 110 86 44 99 78 38 99 78 38 99 78 38 99 78 38 99 78 38 99 78 38 99 78 38 99 78 38 99 78 38 99 78 38 99 78 38 99 78 38 99 78 38 99 78 38 99 78 38 99 78 38 99 78 38 99 78 38 99 78 38 99 78 38 99 78 38 99 78 38 99 78 38 99 78 38 99 78 38 99 78 38 99 78 38 99 78 38 99 78 38 99 78 38 99 78 38 117 91 51 117 91 51 117 91 51 117 91 51 117 91 51 117 91 51 117 91 51 117 91 51 117 91 51 117 91 51 117 91 51 117 91 51 117 91 51 117 91 51 117 91 51 117 91 51 117 91 51 117 91 51 117 91 51 117 91 51 117 91 51 117 91 51 117 91 51 117 91 51 117 91 51 117 91 51 117 91 51 117 91 51 117 91 51 117 91 51 117 91 51 117 91 51 110 86 44 110 86 44 110 86 44 110 86 44 110 86 44 110 86 44 110 86 44 110 86 44 110 86 44 110 86 44 110 86 44 110 86 44 110 86 44 110 86 44 110 86 44 110 86 44 208 234 233 208 234 233 208 234 233 208 234 233 208 234 233 208 234 233 208 234 233 208 234 233 208 234 233 208 234 233 208 234 233 208 234 233 208 234 233 208 234 233 208 234 233 208 234 233 110 86 44 110 86 44 110 86 44 110 86 44 110 86 44 110 86 44 110 86 44 110 86 44 110 86 44 110 86 44 110 86 44 110 86 44 110 86 44 110 86 44 110 86 44 110 86 44 110 86 44 110 86 44 110 86 44 110 86 44 110 86 44 110 86 44 110 86 44 110 86 44 110 86 44 110 86 44 110 86 44 110 86 44 110 86 44 110 86 44 110 86 44 110 86 44 139 193 205 139 193 205 139 193 205 139 193 205 139 193 205 139 193 205 139 193 205 139 193 205 139 193 205 139 193 205 139 193 205 139 193 205 139 193 205 139 193 205 139 193 205 139 193 205 208 234 233 208 234 233 208 234 233 208 234 233 208 234 233 208 234 233 208 234 233 208 234 233 208 234 233 208 234 233 208 234 233 208 234 233 208 234 233 208 234 233 208 234 233 110 86 44 110 86 44 110 86 44 110 86 44 110 86 44 110 86 44 110 86 44 110 86 44 110 86 44 110 86 44 110 86 44 110 86 44 110 86 44 110 86 44 110 86 44 110 86 44 110 86 44 117 91 51 117 91 51 117 91 51 117 91 51 117 91 51 117 91 51 117 91 51 117 91 51 117 91 51 117 91 51 117 91 51 117 91 51 117 91 51 117 91 51 117 91 51 117 91 51 117 91 51 117 91 51 117 91 51 117 91 51 117 91 51 117 91 51 117 91 51 117 91 51 117 91 51 117 91 51 117 91 51 117 91 51 117 91 51 117 91 51 117 91 51 117 91 51 99 78 38 99 78 38 99 78 38 99 78 38 99 78 38 99 78 38 99 78 38 99 78 38 99 78 38 99 78 38 99 78 38 99 78 38 99 78 38 99 78 38 99 78 38 99 78 38 99 78 38 99 78 38 99 78 38 99 78 38 99 78 38 99 78 38 99 78 38 99 78 38 99 78 38 99 78 38 99 78 38 99 78 38 99 78 38 99 78 38 99 78 38 99 78 38 110 86 44 110 86 44 110 86 44 110 86 44 110 86 44 110 86 44 110 86 44 110 86 44 110 86 44 110 86 44 110 86 44 110 86 44 110 86 44 110 86 44 110 86 44 110 86 44 99 78 38 99 78 38 99 78 38 99 78 38 99 78 38 99 78 38 99 78 38 99 78 38 99 78 38 99 78 38 99 78 38 99 78 38 99 78 38 99 78 38 99 78 38 99 78 38 99 78 38 99 78 38 99 78 38 99 78 38 99 78 38 99 78 38 99 78 38 99 78 38 99 78 38 99 78 38 99 78 38 99 78 38 99 78 38 99 78 38 99 78 38 117 91 51 117 91 51 117 91 51 117 91 51 117 91 51 117 91 51 117 91 51 117 91 51 117 91 51 117 91 51 117 91 51 117 91 51 117 91 51 117 91 51 117 91 51 117 91 51 117 91 51 117 91 51 117 91 51 117 91 51 117 91 51 117 91 51 117 91 51 117 91 51 117 91 51 117 91 51 117 91 51 117 91 51 117 91 51 117 91 51 117 91 51 117 91 51 110 86 44 110 86 44 110 86 44 110 86 44 110 86 44 110 86 44 110 86 44 110 86 44 110 86 44 110 86 44 110 86 44 110 86 44 110 86 44 110 86 44 110 86 44 110 86 44 208 234 233 208 234 233 208 234 233 208 234 233 208 234 233 208 234 233 208 234 233 208 234 233 208 234 233 208 234 233 208 234 233 208 234 233 208 234 233 208 234 233 208 234 233 208 234 233 110 86 44 110 86 44 110 86 44 110 86 44 110 86 44 110 86 44 110 86 44 110 86 44 110 86 44 110 86 44 110 86 44 110 86 44 110 86 44 110 86 44 110 86 44 110 86 44 110 86 44 110 86 44 110 86 44 110 86 44 110 86 44 110 86 44 110 86 44 110 86 44 110 86 44 110 86 44 110 86 44 110 86 44 110 86 44 110 86 44 110 86 44 110 86 44 139 193 205 139 193 205 139 193 205 139 193 205 139 193 205 139 193 205 139 193 205 139 193 205 139 193 205 139 193 205 139 193 205 139 193 205 139 193 205 139 193 205 139 193 205 139 193 205 208 234 233 208 234 233 208 234 233 208 234 233 208 234 233 208 234 233 208 234 233 208 234 233 208 234 233 208 234 233 208 234 233 208 234 233 208 234 233 208 234 233 208 234 233 110 86 44 110 86 44 110 86 44 110 86 44 110 86 44 110 86 44 110 86 44 110 86 44 110 86 44 110 86 44 110 86 44 110 86 44 110 86 44 110 86 44 110 86 44 110 86 44 110 86 44 117 91 51 117 91 51 117 91 51 117 91 51 117 91 51 117 91 51 117 91 51 117 91 51 117 91 51 117 91 51 117 91 51 117 91 51 117 91 51 117 91 51 117 91 51 117 91 51 117 91 51 117 91 51 117 91 51 117 91 51 117 91 51 117 91 51 117 91 51 117 91 51 117 91 51 117 91 51 117 91 51 117 91 51 117 91 51 117 91 51 117 91 51 117 91 51 99 78 38 99 78 38 99 78 38 99 78 38 99 78 38 99 78 38 99 78 38 99 78 38 99 78 38 99 78 38 99 78 38 99 78 38 99 78 38 99 78 38 99 78 38 99 78 38 99 78 38 99 78 38 99 78 38 99 78 38 99 78 38 99 78 38 99 78 38 99 78 38 99 78 38 99 78 38 99 78 38 99 78 38 99 78 38 99 78 38 99 78 38 99 78 38 110 86 44 110 86 44 110 86 44 110 86 44 110 86 44 110 86 44 110 86 44 110 86 44 110 86 44 110 86 44 110 86 44 110 86 44 110 86 44 110 86 44 110 86 44 110 86 44 99 78 38 99 78 38 99 78 38 99 78 38 99 78 38 99 78 38 99 78 38 99 78 38 99 78 38 99 78 38 99 78 38 99 78 38 99 78 38 99 78 38 99 78 38 99 78 38 99 78 38 99 78 38 99 78 38 99 78 38 99 78 38 99 78 38 99 78 38 99 78 38 99 78 38 99 78 38 99 78 38 99 78 38 99 78 38 99 78 38 99 78 38 117 91 51 117 91 51 117 91 51 117 91 51 117 91 51 117 91 51 117 91 51 117 91 51 117 91 51 117 91 51 117 91 51 117 91 51 117 91 51 117 91 51 117 91 51 117 91 51 117 91 51 117 91 51 117 91 51 117 91 51 117 91 51 117 91 51 117 91 51 117 91 51 117 91 51 117 91 51 117 91 51 117 91 51 117 91 51 117 91 51 117 91 51 117 91 51 110 86 44 110 86 44 110 86 44 110 86 44 110 86 44 110 86 44 110 86 44 110 86 44 110 86 44 110 86 44 110 86 44 110 86 44 110 86 44 110 86 44 110 86 44 110 86 44 208 234 233 208 234 233 208 234 233 208 234 233 208 234 233 208 234 233 208 234 233 208 234 233 208 234 233 208 234 233 208 234 233 208 234 233 208 234 233 208 234 233 208 234 233 208 234 233 110 86 44 110 86 44 110 86 44 110 86 44 110 86 44 110 86 44 110 86 44 110 86 44 110 86 44 110 86 44 110 86 44 110 86 44 110 86 44 110 86 44 110 86 44 110 86 44 110 86 44 110 86 44 110 86 44 110 86 44 110 86 44 110 86 44 110 86 44 110 86 44 110 86 44 110 86 44 110 86 44 110 86 44 110 86 44 110 86 44 110 86 44 110 86 44 139 193 205 139 193 205 139 193 205 139 193 205 139 193 205 139 193 205 139 193 205 139 193 205 139 193 205 139 193 205 139 193 205 139 193 205 139 193 205 139 193 205 139 193 205 139 193 205 208 234 233 208 234 233 208 234 233 208 234 233 208 234 233 208 234 233 208 234 233 208 234 233 208 234 233 208 234 233 208 234 233 208 234 233 208 234 233 208 234 233 208 234 233 110 86 44 110 86 44 110 86 44 110 86 44 110 86 44 110 86 44 110 86 44 110 86 44 110 86 44 110 86 44 110 86 44 110 86 44 110 86 44 110 86 44 110 86 44 110 86 44 110 86 44 117 91 51 117 91 51 117 91 51 117 91 51 117 91 51 117 91 51 117 91 51 117 91 51 117 91 51 117 91 51 117 91 51 117 91 51 117 91 51 117 91 51 117 91 51 117 91 51 117 91 51 117 91 51 117 91 51 117 91 51 117 91 51 117 91 51 117 91 51 117 91 51 117 91 51 117 91 51 117 91 51 117 91 51 117 91 51 117 91 51 117 91 51 117 91 51 99 78 38 99 78 38 99 78 38 99 78 38 99 78 38 99 78 38 99 78 38 99 78 38 99 78 38 99 78 38 99 78 38 99 78 38 99 78 38 99 78 38 99 78 38 99 78 38 99 78 38 99 78 38 99 78 38 99 78 38 99 78 38 99 78 38 99 78 38 99 78 38 99 78 38 99 78 38 99 78 38 99 78 38 99 78 38 99 78 38 99 78 38 99 78 38 110 86 44 110 86 44 110 86 44 110 86 44 110 86 44 110 86 44 110 86 44 110 86 44 110 86 44 110 86 44 110 86 44 110 86 44 110 86 44 110 86 44 110 86 44 110 86 44 99 78 38 99 78 38 99 78 38 99 78 38 99 78 38 99 78 38 99 78 38 99 78 38 99 78 38 99 78 38 99 78 38 99 78 38 99 78 38 99 78 38 99 78 38 99 78 38 99 78 38 99 78 38 99 78 38 99 78 38 99 78 38 99 78 38 99 78 38 99 78 38 99 78 38 99 78 38 99 78 38 99 78 38 99 78 38 99 78 38 99 78 38 117 91 51 117 91 51 117 91 51 117 91 51 117 91 51 117 91 51 117 91 51 117 91 51 117 91 51 117 91 51 117 91 51 117 91 51 117 91 51 117 91 51 117 91 51 117 91 51 117 91 51 117 91 51 117 91 51 117 91 51 117 91 51 117 91 51 117 91 51 117 91 51 117 91 51 117 91 51 117 91 51 117 91 51 117 91 51 117 91 51 117 91 51 117 91 51 110 86 44 110 86 44 110 86 44 110 86 44 110 86 44 110 86 44 110 86 44 110 86 44 110 86 44 110 86 44 110 86 44 110 86 44 110 86 44 110 86 44 110 86 44 110 86 44 208 234 233 208 234 233 208 234 233 208 234 233 208 234 233 208 234 233 208 234 233 208 234 233 208 234 233 208 234 233 208 234 233 208 234 233 208 234 233 208 234 233 208 234 233 208 234 233 110 86 44 110 86 44 110 86 44 110 86 44 110 86 44 110 86 44 110 86 44 110 86 44 110 86 44 110 86 44 110 86 44 110 86 44 110 86 44 110 86 44 110 86 44 110 86 44 110 86 44 110 86 44 110 86 44 110 86 44 110 86 44 110 86 44 110 86 44 110 86 44 110 86 44 110 86 44 110 86 44 110 86 44 110 86 44 110 86 44 110 86 44 110 86 44 139 193 205 139 193 205 139 193 205 139 193 205 139 193 205 139 193 205 139 193 205 139 193 205 139 193 205 139 193 205 139 193 205 139 193 205 139 193 205 139 193 205 139 193 205 139 193 205 208 234 233 208 234 233 208 234 233 208 234 233 208 234 233 208 234 233 208 234 233 208 234 233 208 234 233 208 234 233 208 234 233 208 234 233 208 234 233 208 234 233 208 234 233 110 86 44 110 86 44 110 86 44 110 86 44 110 86 44 110 86 44 110 86 44 110 86 44 110 86 44 110 86 44 110 86 44 110 86 44 110 86 44 110 86 44 110 86 44 110 86 44 110 86 44 117 91 51 117 91 51 117 91 51 117 91 51 117 91 51 117 91 51 117 91 51 117 91 51 117 91 51 117 91 51 117 91 51 117 91 51 117 91 51 117 91 51 117 91 51 117 91 51 117 91 51 117 91 51 117 91 51 117 91 51 117 91 51 117 91 51 117 91 51 117 91 51 117 91 51 117 91 51 117 91 51 117 91 51 117 91 51 117 91 51 117 91 51 117 91 51 99 78 38 99 78 38 99 78 38 99 78 38 99 78 38 99 78 38 99 78 38 99 78 38 99 78 38 99 78 38 99 78 38 99 78 38 99 78 38 99 78 38 99 78 38 99 78 38 99 78 38 99 78 38 99 78 38 99 78 38 99 78 38 99 78 38 99 78 38 99 78 38 99 78 38 99 78 38 99 78 38 99 78 38 99 78 38 99 78 38 99 78 38 99 78 38 110 86 44 110 86 44 110 86 44 110 86 44 110 86 44 110 86 44 110 86 44 110 86 44 110 86 44 110 86 44 110 86 44 110 86 44 110 86 44 110 86 44 110 86 44 110 86 44 99 78 38 99 78 38 99 78 38 99 78 38 99 78 38 99 78 38 99 78 38 99 78 38 99 78 38 99 78 38 99 78 38 99 78 38 99 78 38 99 78 38 99 78 38 99 78 38 99 78 38 99 78 38 99 78 38 99 78 38 99 78 38 99 78 38 99 78 38 99 78 38 99 78 38 99 78 38 99 78 38 99 78 38 99 78 38 99 78 38 99 78 38 117 91 51 117 91 51 117 91 51 117 91 51 117 91 51 117 91 51 117 91 51 117 91 51 117 91 51 117 91 51 117 91 51 117 91 51 117 91 51 117 91 51 117 91 51 117 91 51 117 91 51 117 91 51 117 91 51 117 91 51 117 91 51 117 91 51 117 91 51 117 91 51 117 91 51 117 91 51 117 91 51 117 91 51 117 91 51 117 91 51 117 91 51 117 91 51 110 86 44 110 86 44 110 86 44 110 86 44 110 86 44 110 86 44 110 86 44 110 86 44 110 86 44 110 86 44 110 86 44 110 86 44 110 86 44 110 86 44 110 86 44 110 86 44 208 234 233 208 234 233 208 234 233 208 234 233 208 234 233 208 234 233 208 234 233 208 234 233 208 234 233 208 234 233 208 234 233 208 234 233 208 234 233 208 234 233 208 234 233 208 234 233 110 86 44 110 86 44 110 86 44 110 86 44 110 86 44 110 86 44 110 86 44 110 86 44 110 86 44 110 86 44 110 86 44 110 86 44 110 86 44 110 86 44 110 86 44 110 86 44 110 86 44 110 86 44 110 86 44 110 86 44 110 86 44 110 86 44 110 86 44 110 86 44 110 86 44 110 86 44 110 86 44 110 86 44 110 86 44 110 86 44 110 86 44 110 86 44 139 193 205 139 193 205 139 193 205 139 193 205 139 193 205 139 193 205 139 193 205 139 193 205 139 193 205 139 193 205 139 193 205 139 193 205 139 193 205 139 193 205 139 193 205 139 193 205 208 234 233 208 234 233 208 234 233 208 234 233 208 234 233 208 234 233 208 234 233 208 234 233 208 234 233 208 234 233 208 234 233 208 234 233 208 234 233 208 234 233 208 234 233 110 86 44 110 86 44 110 86 44 110 86 44 110 86 44 110 86 44 110 86 44 110 86 44 110 86 44 110 86 44 110 86 44 110 86 44 110 86 44 110 86 44 110 86 44 110 86 44 110 86 44 117 91 51 117 91 51 117 91 51 117 91 51 117 91 51 117 91 51 117 91 51 117 91 51 117 91 51 117 91 51 117 91 51 117 91 51 117 91 51 117 91 51 117 91 51 117 91 51 117 91 51 117 91 51 117 91 51 117 91 51 117 91 51 117 91 51 117 91 51 117 91 51 117 91 51 117 91 51 117 91 51 117 91 51 117 91 51 117 91 51 117 91 51 117 91 51 99 78 38 99 78 38 99 78 38 99 78 38 99 78 38 99 78 38 99 78 38 99 78 38 99 78 38 99 78 38 99 78 38 99 78 38 99 78 38 99 78 38 99 78 38 99 78 38 99 78 38 99 78 38 99 78 38 99 78 38 99 78 38 99 78 38 99 78 38 99 78 38 99 78 38 99 78 38 99 78 38 99 78 38 99 78 38 99 78 38 99 78 38 99 78 38 110 86 44 110 86 44 110 86 44 110 86 44 110 86 44 110 86 44 110 86 44 110 86 44 110 86 44 110 86 44 110 86 44 110 86 44 110 86 44 110 86 44 110 86 44 110 86 44 99 78 38 99 78 38 99 78 38 99 78 38 99 78 38 99 78 38 99 78 38 99 78 38 99 78 38 99 78 38 99 78 38 99 78 38 99 78 38 99 78 38 99 78 38 99 78 38 99 78 38 99 78 38 99 78 38 99 78 38 99 78 38 99 78 38 99 78 38 99 78 38 99 78 38 99 78 38 99 78 38 99 78 38 99 78 38 99 78 38 99 78 38 117 91 51 117 91 51 117 91 51 117 91 51 117 91 51 117 91 51 117 91 51 117 91 51 117 91 51 117 91 51 117 91 51 117 91 51 117 91 51 117 91 51 117 91 51 117 91 51 117 91 51 117 91 51 117 91 51 117 91 51 117 91 51 117 91 51 117 91 51 117 91 51 117 91 51 117 91 51 117 91 51 117 91 51 117 91 51 117 91 51 117 91 51 117 91 51 110 86 44 110 86 44 110 86 44 110 86 44 110 86 44 110 86 44 110 86 44 110 86 44 110 86 44 110 86 44 110 86 44 110 86 44 110 86 44 110 86 44 110 86 44 110 86 44 208 234 233 208 234 233 208 234 233 208 234 233 208 234 233 208 234 233 208 234 233 208 234 233 208 234 233 208 234 233 208 234 233 208 234 233 208 234 233 208 234 233 208 234 233 208 234 233 110 86 44 110 86 44 110 86 44 110 86 44 110 86 44 110 86 44 110 86 44 110 86 44 110 86 44 110 86 44 110 86 44 110 86 44 110 86 44 110 86 44 110 86 44 110 86 44 110 86 44 110 86 44 110 86 44 110 86 44 110 86 44 110 86 44 110 86 44 110 86 44 110 86 44 110 86 44 110 86 44 110 86 44 110 86 44 110 86 44 110 86 44 110 86 44 139 193 205 139 193 205 139 193 205 139 193 205 139 193 205 139 193 205 139 193 205 139 193 205 139 193 205 139 193 205 139 193 205 139 193 205 139 193 205 139 193 205 139 193 205 139 193 205 208 234 233 208 234 233 208 234 233 208 234 233 208 234 233 208 234 233 208 234 233 208 234 233 208 234 233 208 234 233 208 234 233 208 234 233 208 234 233 208 234 233 208 234 233 110 86 44 110 86 44 110 86 44 110 86 44 110 86 44 110 86 44 110 86 44 110 86 44 110 86 44 110 86 44 110 86 44 110 86 44 110 86 44 110 86 44 110 86 44 110 86 44 110 86 44 117 91 51 117 91 51 117 91 51 117 91 51 117 91 51 117 91 51 117 91 51 117 91 51 117 91 51 117 91 51 117 91 51 117 91 51 117 91 51 117 91 51 117 91 51 117 91 51 117 91 51 117 91 51 117 91 51 117 91 51 117 91 51 117 91 51 117 91 51 117 91 51 117 91 51 117 91 51 117 91 51 117 91 51 117 91 51 117 91 51 117 91 51 117 91 51 99 78 38 99 78 38 99 78 38 99 78 38 99 78 38 99 78 38 99 78 38 99 78 38 99 78 38 99 78 38 99 78 38 99 78 38 99 78 38 99 78 38 99 78 38 99 78 38 99 78 38 99 78 38 99 78 38 99 78 38 99 78 38 99 78 38 99 78 38 99 78 38 99 78 38 99 78 38 99 78 38 99 78 38 99 78 38 99 78 38 99 78 38 99 78 38 110 86 44 110 86 44 110 86 44 110 86 44 110 86 44 110 86 44 110 86 44 110 86 44 110 86 44 110 86 44 110 86 44 110 86 44 110 86 44 110 86 44 110 86 44 110 86 44 99 78 38 99 78 38 99 78 38 99 78 38 99 78 38 99 78 38 99 78 38 99 78 38 99 78 38 99 78 38 99 78 38 99 78 38 99 78 38 99 78 38 99 78 38 99 78 38 99 78 38 99 78 38 99 78 38 99 78 38 99 78 38 99 78 38 99 78 38 99 78 38 99 78 38 99 78 38 99 78 38 99 78 38 99 78 38 99 78 38 99 78 38 117 91 51 117 91 51 117 91 51 117 91 51 117 91 51 117 91 51 117 91 51 117 91 51 117 91 51 117 91 51 117 91 51 117 91 51 117 91 51 117 91 51 117 91 51 117 91 51 117 91 51 117 91 51 117 91 51 117 91 51 117 91 51 117 91 51 117 91 51 117 91 51 117 91 51 117 91 51 117 91 51 117 91 51 117 91 51 117 91 51 117 91 51 117 91 51 110 86 44 110 86 44 110 86 44 110 86 44 110 86 44 110 86 44 110 86 44 110 86 44 110 86 44 110 86 44 110 86 44 110 86 44 110 86 44 110 86 44 110 86 44 110 86 44 208 234 233 208 234 233 208 234 233 208 234 233 208 234 233 208 234 233 208 234 233 208 234 233 208 234 233 208 234 233 208 234 233 208 234 233 208 234 233 208 234 233 208 234 233 208 234 233 110 86 44 110 86 44 110 86 44 110 86 44 110 86 44 110 86 44 110 86 44 110 86 44 110 86 44 110 86 44 110 86 44 110 86 44 110 86 44 110 86 44 110 86 44 110 86 44 110 86 44 110 86 44 110 86 44 110 86 44 110 86 44 110 86 44 110 86 44 110 86 44 110 86 44 110 86 44 110 86 44 110 86 44 110 86 44 110 86 44 110 86 44 110 86 44 139 193 205 139 193 205 139 193 205 139 193 205 139 193 205 139 193 205 139 193 205 139 193 205 139 193 205 139 193 205 139 193 205 139 193 205 139 193 205 139 193 205 139 193 205 139 193 205 208 234 233 208 234 233 208 234 233 208 234 233 208 234 233 208 234 233 208 234 233 208 234 233 208 234 233 208 234 233 208 234 233 208 234 233 208 234 233 208 234 233 208 234 233 110 86 44 110 86 44 110 86 44 110 86 44 110 86 44 110 86 44 110 86 44 110 86 44 110 86 44 110 86 44 110 86 44 110 86 44 110 86 44 110 86 44 110 86 44 110 86 44 110 86 44 117 91 51 117 91 51 117 91 51 117 91 51 117 91 51 117 91 51 117 91 51 117 91 51 117 91 51 117 91 51 117 91 51 117 91 51 117 91 51 117 91 51 117 91 51 117 91 51 117 91 51 117 91 51 117 91 51 117 91 51 117 91 51 117 91 51 117 91 51 117 91 51 117 91 51 117 91 51 117 91 51 117 91 51 117 91 51 117 91 51 117 91 51 117 91 51 99 78 38 99 78 38 99 78 38 99 78 38 99 78 38 99 78 38 99 78 38 99 78 38 99 78 38 99 78 38 99 78 38 99 78 38 99 78 38 99 78 38 99 78 38 99 78 38 99 78 38 99 78 38 99 78 38 99 78 38 99 78 38 99 78 38 99 78 38 99 78 38 99 78 38 99 78 38 99 78 38 99 78 38 99 78 38 99 78 38 99 78 38 99 78 38 110 86 44 110 86 44 110 86 44 110 86 44 110 86 44 110 86 44 110 86 44 110 86 44 110 86 44 110 86 44 110 86 44 110 86 44 110 86 44 110 86 44 110 86 44 110 86 44 99 78 38 99 78 38 99 78 38 99 78 38 99 78 38 99 78 38 99 78 38 99 78 38 99 78 38 99 78 38 99 78 38 99 78 38 99 78 38 99 78 38 99 78 38 99 78 38 99 78 38 99 78 38 99 78 38 99 78 38 99 78 38 99 78 38 99 78 38 99 78 38 99 78 38 99 78 38 99 78 38 99 78 38 99 78 38 99 78 38 99 78 38 117 91 51 117 91 51 117 91 51 117 91 51 117 91 51 117 91 51 117 91 51 117 91 51 117 91 51 117 91 51 117 91 51 117 91 51 117 91 51 117 91 51 117 91 51 117 91 51 117 91 51 117 91 51 117 91 51 117 91 51 117 91 51 117 91 51 117 91 51 117 91 51 117 91 51 117 91 51 117 91 51 117 91 51 117 91 51 117 91 51 117 91 51 117 91 51 110 86 44 110 86 44 110 86 44 110 86 44 110 86 44 110 86 44 110 86 44 110 86 44 110 86 44 110 86 44 110 86 44 110 86 44 110 86 44 110 86 44 110 86 44 110 86 44 208 234 233 208 234 233 208 234 233 208 234 233 208 234 233 208 234 233 208 234 233 208 234 233 208 234 233 208 234 233 208 234 233 208 234 233 208 234 233 208 234 233 208 234 233 208 234 233 110 86 44 110 86 44 110 86 44 110 86 44 110 86 44 110 86 44 110 86 44 110 86 44 110 86 44 110 86 44 110 86 44 110 86 44 110 86 44 110 86 44 110 86 44 110 86 44 110 86 44 110 86 44 110 86 44 110 86 44 110 86 44 110 86 44 110 86 44 110 86 44 110 86 44 110 86 44 110 86 44 110 86 44 110 86 44 110 86 44 110 86 44 110 86 44 139 193 205 139 193 205 139 193 205 139 193 205 139 193 205 139 193 205 139 193 205 139 193 205 139 193 205 139 193 205 139 193 205 139 193 205 139 193 205 139 193 205 139 193 205 139 193 205 208 234 233 208 234 233 208 234 233 208 234 233 208 234 233 208 234 233 208 234 233 208 234 233 208 234 233 208 234 233 208 234 233 208 234 233 208 234 233 208 234 233 208 234 233 110 86 44 110 86 44 110 86 44 110 86 44 110 86 44 110 86 44 110 86 44 110 86 44 110 86 44 110 86 44 110 86 44 110 86 44 110 86 44 110 86 44 110 86 44 110 86 44 110 86 44 117 91 51 117 91 51 117 91 51 117 91 51 117 91 51 117 91 51 117 91 51 117 91 51 117 91 51 117 91 51 117 91 51 117 91 51 117 91 51 117 91 51 117 91 51 117 91 51 117 91 51 117 91 51 117 91 51 117 91 51 117 91 51 117 91 51 117 91 51 117 91 51 117 91 51 117 91 51 117 91 51 117 91 51 117 91 51 117 91 51 117 91 51 117 91 51 99 78 38 99 78 38 99 78 38 99 78 38 99 78 38 99 78 38 99 78 38 99 78 38 99 78 38 99 78 38 99 78 38 99 78 38 99 78 38 99 78 38 99 78 38 99 78 38 99 78 38 99 78 38 99 78 38 99 78 38 99 78 38 99 78 38 99 78 38 99 78 38 99 78 38 99 78 38 99 78 38 99 78 38 99 78 38 99 78 38 99 78 38 99 78 38 110 86 44 110 86 44 110 86 44 110 86 44 110 86 44 110 86 44 110 86 44 110 86 44 110 86 44 110 86 44 110 86 44 110 86 44 110 86 44 110 86 44 110 86 44 110 86 44 99 78 38 99 78 38 99 78 38 99 78 38 99 78 38 99 78 38 99 78 38 99 78 38 99 78 38 99 78 38 99 78 38 99 78 38 99 78 38 99 78 38 99 78 38 99 78 38 99 78 38 99 78 38 99 78 38 99 78 38 99 78 38 99 78 38 99 78 38 99 78 38 99 78 38 99 78 38 99 78 38 99 78 38 99 78 38 99 78 38 99 78 38 117 91 51 117 91 51 117 91 51 117 91 51 117 91 51 117 91 51 117 91 51 117 91 51 117 91 51 117 91 51 117 91 51 117 91 51 117 91 51 117 91 51 117 91 51 117 91 51 117 91 51 117 91 51 117 91 51 117 91 51 117 91 51 117 91 51 117 91 51 117 91 51 117 91 51 117 91 51 117 91 51 117 91 51 117 91 51 117 91 51 117 91 51 117 91 51 110 86 44 110 86 44 110 86 44 110 86 44 110 86 44 110 86 44 110 86 44 110 86 44 110 86 44 110 86 44 110 86 44 110 86 44 110 86 44 110 86 44 110 86 44 110 86 44 208 234 233 208 234 233 208 234 233 208 234 233 208 234 233 208 234 233 208 234 233 208 234 233 208 234 233 208 234 233 208 234 233 208 234 233 208 234 233 208 234 233 208 234 233 208 234 233 110 86 44 110 86 44 110 86 44 110 86 44 110 86 44 110 86 44 110 86 44 110 86 44 110 86 44 110 86 44 110 86 44 110 86 44 110 86 44 110 86 44 110 86 44 110 86 44 110 86 44 110 86 44 110 86 44 110 86 44 110 86 44 110 86 44 110 86 44 110 86 44 110 86 44 110 86 44 110 86 44 110 86 44 110 86 44 110 86 44 110 86 44 110 86 44 139 193 205 139 193 205 139 193 205 139 193 205 139 193 205 139 193 205 139 193 205 139 193 205 139 193 205 139 193 205 139 193 205 139 193 205 139 193 205 139 193 205 139 193 205 139 193 205 208 234 233 208 234 233 208 234 233 208 234 233 208 234 233 208 234 233 208 234 233 208 234 233 208 234 233 208 234 233 208 234 233 208 234 233 208 234 233 208 234 233 208 234 233 110 86 44 99 78 38 99 78 38 99 78 38 99 78 38 99 78 38 99 78 38 99 78 38 99 78 38 99 78 38 99 78 38 99 78 38 99 78 38 99 78 38 99 78 38 99 78 38 99 78 38 99 78 38 99 78 38 99 78 38 99 78 38 99 78 38 99 78 38 99 78 38 99 78 38 99 78 38 99 78 38 99 78 38 99 78 38 99 78 38 99 78 38 99 78 38 99 78 38 110 86 44 110 86 44 110 86 44 110 86 44 110 86 44 110 86 44 110 86 44 110 86 44 110 86 44 110 86 44 110 86 44 110 86 44 110 86 44 110 86 44 110 86 44 110 86 44 117 91 51 117 91 51 117 91 51 117 91 51 117 91 51 117 91 51 117 91 51 117 91 51 117 91 51 117 91 51 117 91 51 117 91 51 117 91 51 117 91 51 117 91 51 117 91 51 110 86 44 110 86 44 110 86 44 110 86 44 110 86 44 110 86 44 110 86 44 110 86 44 110 86 44 110 86 44 110 86 44 110 86 44 110 86 44 110 86 44 110 86 44 110 86 44 99 78 38 99 78 38 99 78 38 99 78 38 99 78 38 99 78 38 99 78 38 99 78 38 99 78 38 99 78 38 99 78 38 99 78 38 99 78 38 99 78 38 99 78 38 99 78 38 92 67 29 92 67 29 92 67 29 92 67 29 92 67 29 92 67 29 92 67 29 92 67 29 92 67 29 92 67 29 92 67 29 92 67 29 92 67 29 92 67 29 92 67 29 92 67 29 117 91 51 117 91 51 117 91 51 117 91 51 117 91 51 117 91 51 117 91 51 117 91 51 117 91 51 117 91 51 117 91 51 117 91 51 117 91 51 117 91 51 117 91 51 117 91 51 117 91 51 117 91 51 117 91 51 117 91 51 117 91 51 117 91 51 117 91 51 117 91 51 117 91 51 117 91 51 117 91 51 117 91 51 117 91 51 117 91 51 117 91 51 110 86 44 110 86 44 110 86 44 110 86 44 110 86 44 110 86 44 110 86 44 110 86 44 110 86 44 110 86 44 110 86 44 110 86 44 110 86 44 110 86 44 110 86 44 110 86 44 99 78 38 99 78 38 99 78 38 99 78 38 99 78 38 99 78 38 99 78 38 99 78 38 99 78 38 99 78 38 99 78 38 99 78 38 99 78 38 99 78 38 99 78 38 99 78 38 208 234 233 208 234 233 208 234 233 208 234 233 208 234 233 208 234 233 208 234 233 208 234 233 208 234 233 208 234 233 208 234 233 208 234 233 208 234 233 208 234 233 208 234 233 208 234 233 99 78 38 99 78 38 99 78 38 99 78 38 99 78 38 99 78 38 99 78 38 99 78 38 99 78 38 99 78 38 99 78 38 99 78 38 99 78 38 99 78 38 99 78 38 99 78 38 99 78 38 99 78 38 99 78 38 99 78 38 99 78 38 99 78 38 99 78 38 99 78 38 99 78 38 99 78 38 99 78 38 99 78 38 99 78 38 99 78 38 99 78 38 99 78 38 139 193 205 139 193 205 139 193 205 139 193 205 139 193 205 139 193 205 139 193 205 139 193 205 139 193 205 139 193 205 139 193 205 139 193 205 139 193 205 139 193 205 139 193 205 139 193 205 168 208 217 168 208 217 168 208 217 168 208 217 168 208 217 168 208 217 168 208 217 168 208 217 168 208 217 168 208 217 168 208 217 168 208 217 168 208 217 168 208 217 168 208 217 110 86 44 99 78 38 99 78 38 99 78 38 99 78 38 99 78 38 99 78 38 99 78 38 99 78 38 99 78 38 99 78 38 99 78 38 99 78 38 99 78 38 99 78 38 99 78 38 99 78 38 99 78 38 99 78 38 99 78 38 99 78 38 99 78 38 99 78 38 99 78 38 99 78 38 99 78 38 99 78 38 99 78 38 99 78 38 99 78 38 99 78 38 99 78 38 99 78 38 110 86 44 110 86 44 110 86 44 110 86 44 110 86 44 110 86 44 110 86 44 110 86 44 110 86 44 110 86 44 110 86 44 110 86 44 110 86 44 110 86 44 110 86 44 110 86 44 117 91 51 117 91 51 117 91 51 117 91 51 117 91 51 117 91 51 117 91 51 117 91 51 117 91 51 117 91 51 117 91 51 117 91 51 117 91 51 117 91 51 117 91 51 117 91 51 110 86 44 110 86 44 110 86 44 110 86 44 110 86 44 110 86 44 110 86 44 110 86 44 110 86 44 110 86 44 110 86 44 110 86 44 110 86 44 110 86 44 110 86 44 110 86 44 99 78 38 99 78 38 99 78 38 99 78 38 99 78 38 99 78 38 99 78 38 99 78 38 99 78 38 99 78 38 99 78 38 99 78 38 99 78 38 99 78 38 99 78 38 99 78 38 92 67 29 92 67 29 92 67 29 92 67 29 92 67 29 92 67 29 92 67 29 92 67 29 92 67 29 92 67 29 92 67 29 92 67 29 92 67 29 92 67 29 92 67 29 92 67 29 117 91 51 117 91 51 117 91 51 117 91 51 117 91 51 117 91 51 117 91 51 117 91 51 117 91 51 117 91 51 117 91 51 117 91 51 117 91 51 117 91 51 117 91 51 117 91 51 117 91 51 117 91 51 117 91 51 117 91 51 117 91 51 117 91 51 117 91 51 117 91 51 117 91 51 117 91 51 117 91 51 117 91 51 117 91 51 117 91 51 117 91 51 110 86 44 110 86 44 110 86 44 110 86 44 110 86 44 110 86 44 110 86 44 110 86 44 110 86 44 110 86 44 110 86 44 110 86 44 110 86 44 110 86 44 110 86 44 110 86 44 99 78 38 99 78 38 99 78 38 99 78 38 99 78 38 99 78 38 99 78 38 99 78 38 99 78 38 99 78 38 99 78 38 99 78 38 99 78 38 99 78 38 99 78 38 99 78 38 99 78 38 99 78 38 99 78 38 99 78 38 99 78 38 99 78 38 99 78 38 99 78 38 99 78 38 99 78 38 99 78 38 99 78 38 99 78 38 99 78 38 99 78 38 99 78 38 99 78 38 99 78 38 99 78 38 99 78 38 99 78 38 99 78 38 99 78 38 99 78 38 99 78 38 99 78 38 99 78 38 99 78 38 99 78 38 99 78 38 99 78 38 99 78 38 99 78 38 99 78 38 99 78 38 99 78 38 99 78 38 99 78 38 99 78 38 99 78 38 99 78 38 99 78 38 99 78 38 99 78 38 99 78 38 99 78 38 99 78 38 99 78 38 168 208 217 168 208 217 168 208 217 168 208 217 168 208 217 168 208 217 168 208 217 168 208 217 168 208 217 168 208 217 168 208 217 168 208 217 168 208 217 168 208 217 168 208 217 168 208 217 168 208 217 168 208 217 168 208 217 168 208 217 168 208 217 168 208 217 168 208 217 168 208 217 168 208 217 168 208 217 168 208 217 168 208 217 168 208 217 168 208 217 168 208 217 110 86 44 99 78 38 99 78 38 99 78 38 99 78 38 99 78 38 99 78 38 99 78 38 99 78 38 99 78 38 99 78 38 99 78 38 99 78 38 99 78 38 99 78 38 99 78 38 99 78 38 99 78 38 99 78 38 99 78 38 99 78 38 99 78 38 99 78 38 99 78 38 99 78 38 99 78 38 99 78 38 99 78 38 99 78 38 99 78 38 99 78 38 99 78 38 99 78 38 110 86 44 110 86 44 110 86 44 110 86 44 110 86 44 110 86 44 110 86 44 110 86 44 110 86 44 110 86 44 110 86 44 110 86 44 110 86 44 110 86 44 110 86 44 110 86 44 117 91 51 117 91 51 117 91 51 117 91 51 117 91 51 117 91 51 117 91 51 117 91 51 117 91 51 117 91 51 117 91 51 117 91 51 117 91 51 117 91 51 117 91 51 117 91 51 110 86 44 110 86 44 110 86 44 110 86 44 110 86 44 110 86 44 110 86 44 110 86 44 110 86 44 110 86 44 110 86 44 110 86 44 110 86 44 110 86 44 110 86 44 110 86 44 99 78 38 99 78 38 99 78 38 99 78 38 99 78 38 99 78 38 99 78 38 99 78 38 99 78 38 99 78 38 99 78 38 99 78 38 99 78 38 99 78 38 99 78 38 99 78 38 92 67 29 92 67 29 92 67 29 92 67 29 92 67 29 92 67 29 92 67 29 92 67 29 92 67 29 92 67 29 92 67 29 92 67 29 92 67 29 92 67 29 92 67 29 92 67 29 117 91 51 117 91 51 117 91 51 117 91 51 117 91 51 117 91 51 117 91 51 117 91 51 117 91 51 117 91 51 117 91 51 117 91 51 117 91 51 117 91 51 117 91 51 117 91 51 117 91 51 117 91 51 117 91 51 117 91 51 117 91 51 117 91 51 117 91 51 117 91 51 117 91 51 117 91 51 117 91 51 117 91 51 117 91 51 117 91 51 117 91 51 110 86 44 110 86 44 110 86 44 110 86 44 110 86 44 110 86 44 110 86 44 110 86 44 110 86 44 110 86 44 110 86 44 110 86 44 110 86 44 110 86 44 110 86 44 110 86 44 99 78 38 99 78 38 99 78 38 99 78 38 99 78 38 99 78 38 99 78 38 99 78 38 99 78 38 99 78 38 99 78 38 99 78 38 99 78 38 99 78 38 99 78 38 99 78 38 99 78 38 99 78 38 99 78 38 99 78 38 99 78 38 99 78 38 99 78 38 99 78 38 99 78 38 99 78 38 99 78 38 99 78 38 99 78 38 99 78 38 99 78 38 99 78 38 99 78 38 99 78 38 99 78 38 99 78 38 99 78 38 99 78 38 99 78 38 99 78 38 99 78 38 99 78 38 99 78 38 99 78 38 99 78 38 99 78 38 99 78 38 99 78 38 99 78 38 99 78 38 99 78 38 99 78 38 99 78 38 99 78 38 99 78 38 99 78 38 99 78 38 99 78 38 99 78 38 99 78 38 99 78 38 99 78 38 99 78 38 99 78 38 168 208 217 168 208 217 168 208 217 168 208 217 168 208 217 168 208 217 168 208 217 168 208 217 168 208 217 168 208 217 168 208 217 168 208 217 168 208 217 168 208 217 168 208 217 168 208 217 168 208 217 168 208 217 168 208 217 168 208 217 168 208 217 168 208 217 168 208 217 168 208 217 168 208 217 168 208 217 168 208 217 168 208 217 168 208 217 168 208 217 168 208 217 110 86 44 99 78 38 99 78 38 99 78 38 99 78 38 99 78 38 99 78 38 99 78 38 99 78 38 99 78 38 99 78 38 99 78 38 99 78 38 99 78 38 99 78 38 99 78 38 99 78 38 99 78 38 99 78 38 99 78 38 99 78 38 99 78 38 99 78 38 99 78 38 99 78 38 99 78 38 99 78 38 99 78 38 99 78 38 99 78 38 99 78 38 99 78 38 99 78 38 110 86 44 110 86 44 110 86 44 110 86 44 110 86 44 110 86 44 110 86 44 110 86 44 110 86 44 110 86 44 110 86 44 110 86 44 110 86 44 110 86 44 110 86 44 110 86 44 117 91 51 117 91 51 117 91 51 117 91 51 117 91 51 117 91 51 117 91 51 117 91 51 117 91 51 117 91 51 117 91 51 117 91 51 117 91 51 117 91 51 117 91 51 117 91 51 110 86 44 110 86 44 110 86 44 110 86 44 110 86 44 110 86 44 110 86 44 110 86 44 110 86 44 110 86 44 110 86 44 110 86 44 110 86 44 110 86 44 110 86 44 110 86 44 99 78 38 99 78 38 99 78 38 99 78 38 99 78 38 99 78 38 99 78 38 99 78 38 99 78 38 99 78 38 99 78 38 99 78 38 99 78 38 99 78 38 99 78 38 99 78 38 92 67 29 92 67 29 92 67 29 92 67 29 92 67 29 92 67 29 92 67 29 92 67 29 92 67 29 92 67 29 92 67 29 92 67 29 92 67 29 92 67 29 92 67 29 92 67 29 117 91 51 117 91 51 117 91 51 117 91 51 117 91 51 117 91 51 117 91 51 117 91 51 117 91 51 117 91 51 117 91 51 117 91 51 117 91 51 117 91 51 117 91 51 117 91 51 117 91 51 117 91 51 117 91 51 117 91 51 117 91 51 117 91 51 117 91 51 117 91 51 117 91 51 117 91 51 117 91 51 117 91 51 117 91 51 117 91 51 117 91 51 110 86 44 110 86 44 110 86 44 110 86 44 110 86 44 110 86 44 110 86 44 110 86 44 110 86 44 110 86 44 110 86 44 110 86 44 110 86 44 110 86 44 110 86 44 110 86 44 99 78 38 99 78 38 99 78 38 99 78 38 99 78 38 99 78 38 99 78 38 99 78 38 99 78 38 99 78 38 99 78 38 99 78 38 99 78 38 99 78 38 99 78 38 99 78 38 99 78 38 99 78 38 99 78 38 99 78 38 99 78 38 99 78 38 99 78 38 99 78 38 99 78 38 99 78 38 99 78 38 99 78 38 99 78 38 99 78 38 99 78 38 99 78 38 99 78 38 99 78 38 99 78 38 99 78 38 99 78 38 99 78 38 99 78 38 99 78 38 99 78 38 99 78 38 99 78 38 99 78 38 99 78 38 99 78 38 99 78 38 99 78 38 99 78 38 99 78 38 99 78 38 99 78 38 99 78 38 99 78 38 99 78 38 99 78 38 99 78 38 99 78 38 99 78 38 99 78 38 99 78 38 99 78 38 99 78 38 99 78 38 168 208 217 168 208 217 168 208 217 168 208 217 168 208 217 168 208 217 168 208 217 168 208 217 168 208 217 168 208 217 168 208 217 168 208 217 168 208 217 168 208 217 168 208 217 168 208 217 168 208 217 168 208 217 168 208 217 168 208 217 168 208 217 168 208 217 168 208 217 168 208 217 168 208 217 168 208 217 168 208 217 168 208 217 168 208 217 168 208 217 168 208 217 110 86 44 99 78 38 99 78 38 99 78 38 99 78 38 99 78 38 99 78 38 99 78 38 99 78 38 99 78 38 99 78 38 99 78 38 99 78 38 99 78 38 99 78 38 99 78 38 99 78 38 99 78 38 99 78 38 99 78 38 99 78 38 99 78 38 99 78 38 99 78 38 99 78 38 99 78 38 99 78 38 99 78 38 99 78 38 99 78 38 99 78 38 99 78 38 99 78 38 110 86 44 110 86 44 110 86 44 110 86 44 110 86 44 110 86 44 110 86 44 110 86 44 110 86 44 110 86 44 110 86 44 110 86 44 110 86 44 110 86 44 110 86 44 110 86 44 117 91 51 117 91 51 117 91 51 117 91 51 117 91 51 117 91 51 117 91 51 117 91 51 117 91 51 117 91 51 117 91 51 117 91 51 117 91 51 117 91 51 117 91 51 117 91 51 110 86 44 110 86 44 110 86 44 110 86 44 110 86 44 110 86 44 110 86 44 110 86 44 110 86 44 110 86 44 110 86 44 110 86 44 110 86 44 110 86 44 110 86 44 110 86 44 99 78 38 99 78 38 99 78 38 99 78 38 99 78 38 99 78 38 99 78 38 99 78 38 99 78 38 99 78 38 99 78 38 99 78 38 99 78 38 99 78 38 99 78 38 99 78 38 92 67 29 92 67 29 92 67 29 92 67 29 92 67 29 92 67 29 92 67 29 92 67 29 92 67 29 92 67 29 92 67 29 92 67 29 92 67 29 92 67 29 92 67 29 92 67 29 117 91 51 117 91 51 117 91 51 117 91 51 117 91 51 117 91 51 117 91 51 117 91 51 117 91 51 117 91 51 117 91 51 117 91 51 117 91 51 117 91 51 117 91 51 117 91 51 117 91 51 117 91 51 117 91 51 117 91 51 117 91 51 117 91 51 117 91 51 117 91 51 117 91 51 117 91 51 117 91 51 117 91 51 117 91 51 117 91 51 117 91 51 110 86 44 110 86 44 110 86 44 110 86 44 110 86 44 110 86 44 110 86 44 110 86 44 110 86 44 110 86 44 110 86 44 110 86 44 110 86 44 110 86 44 110 86 44 110 86 44 99 78 38 99 78 38 99 78 38 99 78 38 99 78 38 99 78 38 99 78 38 99 78 38 99 78 38 99 78 38 99 78 38 99 78 38 99 78 38 99 78 38 99 78 38 99 78 38 99 78 38 99 78 38 99 78 38 99 78 38 99 78 38 99 78 38 99 78 38 99 78 38 99 78 38 99 78 38 99 78 38 99 78 38 99 78 38 99 78 38 99 78 38 99 78 38 99 78 38 99 78 38 99 78 38 99 78 38 99 78 38 99 78 38 99 78 38 99 78 38 99 78 38 99 78 38 99 78 38 99 78 38 99 78 38 99 78 38 99 78 38 99 78 38 99 78 38 99 78 38 99 78 38 99 78 38 99 78 38 99 78 38 99 78 38 99 78 38 99 78 38 99 78 38 99 78 38 99 78 38 99 78 38 99 78 38 99 78 38 99 78 38 168 208 217 168 208 217 168 208 217 168 208 217 168 208 217 168 208 217 168 208 217 168 208 217 168 208 217 168 208 217 168 208 217 168 208 217 168 208 217 168 208 217 168 208 217 168 208 217 168 208 217 168 208 217 168 208 217 168 208 217 168 208 217 168 208 217 168 208 217 168 208 217 168 208 217 168 208 217 168 208 217 168 208 217 168 208 217 168 208 217 168 208 217 110 86 44 99 78 38 99 78 38 99 78 38 99 78 38 99 78 38 99 78 38 99 78 38 99 78 38 99 78 38 99 78 38 99 78 38 99 78 38 99 78 38 99 78 38 99 78 38 99 78 38 99 78 38 99 78 38 99 78 38 99 78 38 99 78 38 99 78 38 99 78 38 99 78 38 99 78 38 99 78 38 99 78 38 99 78 38 99 78 38 99 78 38 99 78 38 99 78 38 110 86 44 110 86 44 110 86 44 110 86 44 110 86 44 110 86 44 110 86 44 110 86 44 110 86 44 110 86 44 110 86 44 110 86 44 110 86 44 110 86 44 110 86 44 110 86 44 117 91 51 117 91 51 117 91 51 117 91 51 117 91 51 117 91 51 117 91 51 117 91 51 117 91 51 117 91 51 117 91 51 117 91 51 117 91 51 117 91 51 117 91 51 117 91 51 110 86 44 110 86 44 110 86 44 110 86 44 110 86 44 110 86 44 110 86 44 110 86 44 110 86 44 110 86 44 110 86 44 110 86 44 110 86 44 110 86 44 110 86 44 110 86 44 99 78 38 99 78 38 99 78 38 99 78 38 99 78 38 99 78 38 99 78 38 99 78 38 99 78 38 99 78 38 99 78 38 99 78 38 99 78 38 99 78 38 99 78 38 99 78 38 92 67 29 92 67 29 92 67 29 92 67 29 92 67 29 92 67 29 92 67 29 92 67 29 92 67 29 92 67 29 92 67 29 92 67 29 92 67 29 92 67 29 92 67 29 92 67 29 117 91 51 117 91 51 117 91 51 117 91 51 117 91 51 117 91 51 117 91 51 117 91 51 117 91 51 117 91 51 117 91 51 117 91 51 117 91 51 117 91 51 117 91 51 117 91 51 117 91 51 117 91 51 117 91 51 117 91 51 117 91 51 117 91 51 117 91 51 117 91 51 117 91 51 117 91 51 117 91 51 117 91 51 117 91 51 117 91 51 117 91 51 110 86 44 110 86 44 110 86 44 110 86 44 110 86 44 110 86 44 110 86 44 110 86 44 110 86 44 110 86 44 110 86 44 110 86 44 110 86 44 110 86 44 110 86 44 110 86 44 99 78 38 99 78 38 99 78 38 99 78 38 99 78 38 99 78 38 99 78 38 99 78 38 99 78 38 99 78 38 99 78 38 99 78 38 99 78 38 99 78 38 99 78 38 99 78 38 99 78 38 99 78 38 99 78 38 99 78 38 99 78 38 99 78 38 99 78 38 99 78 38 99 78 38 99 78 38 99 78 38 99 78 38 99 78 38 99 78 38 99 78 38 99 78 38 99 78 38 99 78 38 99 78 38 99 78 38 99 78 38 99 78 38 99 78 38 99 78 38 99 78 38 99 78 38 99 78 38 99 78 38 99 78 38 99 78 38 99 78 38 99 78 38 99 78 38 99 78 38 99 78 38 99 78 38 99 78 38 99 78 38 99 78 38 99 78 38 99 78 38 99 78 38 99 78 38 99 78 38 99 78 38 99 78 38 99 78 38 99 78 38 168 208 217 168 208 217 168 208 217 168 208 217 168 208 217 168 208 217 168 208 217 168 208 217 168 208 217 168 208 217 168 208 217 168 208 217 168 208 217 168 208 217 168 208 217 168 208 217 168 208 217 168 208 217 168 208 217 168 208 217 168 208 217 168 208 217 168 208 217 168 208 217 168 208 217 168 208 217 168 208 217 168 208 217 168 208 217 168 208 217 168 208 217 110 86 44 99 78 38 99 78 38 99 78 38 99 78 38 99 78 38 99 78 38 99 78 38 99 78 38 99 78 38 99 78 38 99 78 38 99 78 38 99 78 38 99 78 38 99 78 38 99 78 38 99 78 38 99 78 38 99 78 38 99 78 38 99 78 38 99 78 38 99 78 38 99 78 38 99 78 38 99 78 38 99 78 38 99 78 38 99 78 38 99 78 38 99 78 38 99 78 38 110 86 44 110 86 44 110 86 44 110 86 44 110 86 44 110 86 44 110 86 44 110 86 44 110 86 44 110 86 44 110 86 44 110 86 44 110 86 44 110 86 44 110 86 44 110 86 44 117 91 51 117 91 51 117 91 51 117 91 51 117 91 51 117 91 51 117 91 51 117 91 51 117 91 51 117 91 51 117 91 51 117 91 51 117 91 51 117 91 51 117 91 51 117 91 51 110 86 44 110 86 44 110 86 44 110 86 44 110 86 44 110 86 44 110 86 44 110 86 44 110 86 44 110 86 44 110 86 44 110 86 44 110 86 44 110 86 44 110 86 44 110 86 44 99 78 38 99 78 38 99 78 38 99 78 38 99 78 38 99 78 38 99 78 38 99 78 38 99 78 38 99 78 38 99 78 38 99 78 38 99 78 38 99 78 38 99 78 38 99 78 38 92 67 29 92 67 29 92 67 29 92 67 29 92 67 29 92 67 29 92 67 29 92 67 29 92 67 29 92 67 29 92 67 29 92 67 29 92 67 29 92 67 29 92 67 29 92 67 29 117 91 51 117 91 51 117 91 51 117 91 51 117 91 51 117 91 51 117 91 51 117 91 51 117 91 51 117 91 51 117 91 51 117 91 51 117 91 51 117 91 51 117 91 51 117 91 51 117 91 51 117 91 51 117 91 51 117 91 51 117 91 51 117 91 51 117 91 51 117 91 51 117 91 51 117 91 51 117 91 51 117 91 51 117 91 51 117 91 51 117 91 51 110 86 44 110 86 44 110 86 44 110 86 44 110 86 44 110 86 44 110 86 44 110 86 44 110 86 44 110 86 44 110 86 44 110 86 44 110 86 44 110 86 44 110 86 44 110 86 44 99 78 38 99 78 38 99 78 38 99 78 38 99 78 38 99 78 38 99 78 38 99 78 38 99 78 38 99 78 38 99 78 38 99 78 38 99 78 38 99 78 38 99 78 38 99 78 38 99 78 38 99 78 38 99 78 38 99 78 38 99 78 38 99 78 38 99 78 38 99 78 38 99 78 38 99 78 38 99 78 38 99 78 38 99 78 38 99 78 38 99 78 38 99 78 38 99 78 38 99 78 38 99 78 38 99 78 38 99 78 38 99 78 38 99 78 38 99 78 38 99 78 38 99 78 38 99 78 38 99 78 38 99 78 38 99 78 38 99 78 38 99 78 38 99 78 38 99 78 38 99 78 38 99 78 38 99 78 38 99 78 38 99 78 38 99 78 38 99 78 38 99 78 38 99 78 38 99 78 38 99 78 38 99 78 38 99 78 38 99 78 38 168 208 217 168 208 217 168 208 217 168 208 217 168 208 217 168 208 217 168 208 217 168 208 217 168 208 217 168 208 217 168 208 217 168 208 217 168 208 217 168 208 217 168 208 217 168 208 217 168 208 217 168 208 217 168 208 217 168 208 217 168 208 217 168 208 217 168 208 217 168 208 217 168 208 217 168 208 217 168 208 217 168 208 217 168 208 217 168 208 217 168 208 217 110 86 44 99 78 38 99 78 38 99 78 38 99 78 38 99 78 38 99 78 38 99 78 38 99 78 38 99 78 38 99 78 38 99 78 38 99 78 38 99 78 38 99 78 38 99 78 38 99 78 38 99 78 38 99 78 38 99 78 38 99 78 38 99 78 38 99 78 38 99 78 38 99 78 38 99 78 38 99 78 38 99 78 38 99 78 38 99 78 38 99 78 38 99 78 38 99 78 38 110 86 44 110 86 44 110 86 44 110 86 44 110 86 44 110 86 44 110 86 44 110 86 44 110 86 44 110 86 44 110 86 44 110 86 44 110 86 44 110 86 44 110 86 44 110 86 44 117 91 51 117 91 51 117 91 51 117 91 51 117 91 51 117 91 51 117 91 51 117 91 51 117 91 51 117 91 51 117 91 51 117 91 51 117 91 51 117 91 51 117 91 51 117 91 51 110 86 44 110 86 44 110 86 44 110 86 44 110 86 44 110 86 44 110 86 44 110 86 44 110 86 44 110 86 44 110 86 44 110 86 44 110 86 44 110 86 44 110 86 44 110 86 44 99 78 38 99 78 38 99 78 38 99 78 38 99 78 38 99 78 38 99 78 38 99 78 38 99 78 38 99 78 38 99 78 38 99 78 38 99 78 38 99 78 38 99 78 38 99 78 38 92 67 29 92 67 29 92 67 29 92 67 29 92 67 29 92 67 29 92 67 29 92 67 29 92 67 29 92 67 29 92 67 29 92 67 29 92 67 29 92 67 29 92 67 29 92 67 29 117 91 51 117 91 51 117 91 51 117 91 51 117 91 51 117 91 51 117 91 51 117 91 51 117 91 51 117 91 51 117 91 51 117 91 51 117 91 51 117 91 51 117 91 51 117 91 51 117 91 51 117 91 51 117 91 51 117 91 51 117 91 51 117 91 51 117 91 51 117 91 51 117 91 51 117 91 51 117 91 51 117 91 51 117 91 51 117 91 51 117 91 51 110 86 44 110 86 44 110 86 44 110 86 44 110 86 44 110 86 44 110 86 44 110 86 44 110 86 44 110 86 44 110 86 44 110 86 44 110 86 44 110 86 44 110 86 44 110 86 44 99 78 38 99 78 38 99 78 38 99 78 38 99 78 38 99 78 38 99 78 38 99 78 38 99 78 38 99 78 38 99 78 38 99 78 38 99 78 38 99 78 38 99 78 38 99 78 38 99 78 38 99 78 38 99 78 38 99 78 38 99 78 38 99 78 38 99 78 38 99 78 38 99 78 38 99 78 38 99 78 38 99 78 38 99 78 38 99 78 38 99 78 38 99 78 38 99 78 38 99 78 38 99 78 38 99 78 38 99 78 38 99 78 38 99 78 38 99 78 38 99 78 38 99 78 38 99 78 38 99 78 38 99 78 38 99 78 38 99 78 38 99 78 38 99 78 38 99 78 38 99 78 38 99 78 38 99 78 38 99 78 38 99 78 38 99 78 38 99 78 38 99 78 38 99 78 38 99 78 38 99 78 38 99 78 38 99 78 38 99 78 38 168 208 217 168 208 217 168 208 217 168 208 217 168 208 217 168 208 217 168 208 217 168 208 217 168 208 217 168 208 217 168 208 217 168 208 217 168 208 217 168 208 217 168 208 217 168 208 217 168 208 217 168 208 217 168 208 217 168 208 217 168 208 217 168 208 217 168 208 217 168 208 217 168 208 217 168 208 217 168 208 217 168 208 217 168 208 217 168 208 217 168 208 217 110 86 44 99 78 38 99 78 38 99 78 38 99 78 38 99 78 38 99 78 38 99 78 38 99 78 38 99 78 38 99 78 38 99 78 38 99 78 38 99 78 38 99 78 38 99 78 38 99 78 38 99 78 38 99 78 38 99 78 38 99 78 38 99 78 38 99 78 38 99 78 38 99 78 38 99 78 38 99 78 38 99 78 38 99 78 38 99 78 38 99 78 38 99 78 38 99 78 38 110 86 44 110 86 44 110 86 44 110 86 44 110 86 44 110 86 44 110 86 44 110 86 44 110 86 44 110 86 44 110 86 44 110 86 44 110 86 44 110 86 44 110 86 44 110 86 44 117 91 51 117 91 51 117 91 51 117 91 51 117 91 51 117 91 51 117 91 51 117 91 51 117 91 51 117 91 51 117 91 51 117 91 51 117 91 51 117 91 51 117 91 51 117 91 51 110 86 44 110 86 44 110 86 44 110 86 44 110 86 44 110 86 44 110 86 44 110 86 44 110 86 44 110 86 44 110 86 44 110 86 44 110 86 44 110 86 44 110 86 44 110 86 44 99 78 38 99 78 38 99 78 38 99 78 38 99 78 38 99 78 38 99 78 38 99 78 38 99 78 38 99 78 38 99 78 38 99 78 38 99 78 38 99 78 38 99 78 38 99 78 38 92 67 29 92 67 29 92 67 29 92 67 29 92 67 29 92 67 29 92 67 29 92 67 29 92 67 29 92 67 29 92 67 29 92 67 29 92 67 29 92 67 29 92 67 29 92 67 29 117 91 51 117 91 51 117 91 51 117 91 51 117 91 51 117 91 51 117 91 51 117 91 51 117 91 51 117 91 51 117 91 51 117 91 51 117 91 51 117 91 51 117 91 51 117 91 51 117 91 51 117 91 51 117 91 51 117 91 51 117 91 51 117 91 51 117 91 51 117 91 51 117 91 51 117 91 51 117 91 51 117 91 51 117 91 51 117 91 51 117 91 51 110 86 44 110 86 44 110 86 44 110 86 44 110 86 44 110 86 44 110 86 44 110 86 44 110 86 44 110 86 44 110 86 44 110 86 44 110 86 44 110 86 44 110 86 44 110 86 44 99 78 38 99 78 38 99 78 38 99 78 38 99 78 38 99 78 38 99 78 38 99 78 38 99 78 38 99 78 38 99 78 38 99 78 38 99 78 38 99 78 38 99 78 38 99 78 38 99 78 38 99 78 38 99 78 38 99 78 38 99 78 38 99 78 38 99 78 38 99 78 38 99 78 38 99 78 38 99 78 38 99 78 38 99 78 38 99 78 38 99 78 38 99 78 38 99 78 38 99 78 38 99 78 38 99 78 38 99 78 38 99 78 38 99 78 38 99 78 38 99 78 38 99 78 38 99 78 38 99 78 38 99 78 38 99 78 38 99 78 38 99 78 38 99 78 38 99 78 38 99 78 38 99 78 38 99 78 38 99 78 38 99 78 38 99 78 38 99 78 38 99 78 38 99 78 38 99 78 38 99 78 38 99 78 38 99 78 38 99 78 38 168 208 217 168 208 217 168 208 217 168 208 217 168 208 217 168 208 217 168 208 217 168 208 217 168 208 217 168 208 217 168 208 217 168 208 217 168 208 217 168 208 217 168 208 217 168 208 217 168 208 217 168 208 217 168 208 217 168 208 217 168 208 217 168 208 217 168 208 217 168 208 217 168 208 217 168 208 217 168 208 217 168 208 217 168 208 217 168 208 217 168 208 217 110 86 44 99 78 38 99 78 38 99 78 38 99 78 38 99 78 38 99 78 38 99 78 38 99 78 38 99 78 38 99 78 38 99 78 38 99 78 38 99 78 38 99 78 38 99 78 38 99 78 38 99 78 38 99 78 38 99 78 38 99 78 38 99 78 38 99 78 38 99 78 38 99 78 38 99 78 38 99 78 38 99 78 38 99 78 38 99 78 38 99 78 38 99 78 38 99 78 38 110 86 44 110 86 44 110 86 44 110 86 44 110 86 44 110 86 44 110 86 44 110 86 44 110 86 44 110 86 44 110 86 44 110 86 44 110 86 44 110 86 44 110 86 44 110 86 44 117 91 51 117 91 51 117 91 51 117 91 51 117 91 51 117 91 51 117 91 51 117 91 51 117 91 51 117 91 51 117 91 51 117 91 51 117 91 51 117 91 51 117 91 51 117 91 51 110 86 44 110 86 44 110 86 44 110 86 44 110 86 44 110 86 44 110 86 44 110 86 44 110 86 44 110 86 44 110 86 44 110 86 44 110 86 44 110 86 44 110 86 44 110 86 44 99 78 38 99 78 38 99 78 38 99 78 38 99 78 38 99 78 38 99 78 38 99 78 38 99 78 38 99 78 38 99 78 38 99 78 38 99 78 38 99 78 38 99 78 38 99 78 38 92 67 29 92 67 29 92 67 29 92 67 29 92 67 29 92 67 29 92 67 29 92 67 29 92 67 29 92 67 29 92 67 29 92 67 29 92 67 29 92 67 29 92 67 29 92 67 29 117 91 51 117 91 51 117 91 51 117 91 51 117 91 51 117 91 51 117 91 51 117 91 51 117 91 51 117 91 51 117 91 51 117 91 51 117 91 51 117 91 51 117 91 51 117 91 51 117 91 51 117 91 51 117 91 51 117 91 51 117 91 51 117 91 51 117 91 51 117 91 51 117 91 51 117 91 51 117 91 51 117 91 51 117 91 51 117 91 51 117 91 51 110 86 44 110 86 44 110 86 44 110 86 44 110 86 44 110 86 44 110 86 44 110 86 44 110 86 44 110 86 44 110 86 44 110 86 44 110 86 44 110 86 44 110 86 44 110 86 44 99 78 38 99 78 38 99 78 38 99 78 38 99 78 38 99 78 38 99 78 38 99 78 38 99 78 38 99 78 38 99 78 38 99 78 38 99 78 38 99 78 38 99 78 38 99 78 38 99 78 38 99 78 38 99 78 38 99 78 38 99 78 38 99 78 38 99 78 38 99 78 38 99 78 38 99 78 38 99 78 38 99 78 38 99 78 38 99 78 38 99 78 38 99 78 38 99 78 38 99 78 38 99 78 38 99 78 38 99 78 38 99 78 38 99 78 38 99 78 38 99 78 38 99 78 38 99 78 38 99 78 38 99 78 38 99 78 38 99 78 38 99 78 38 99 78 38 99 78 38 99 78 38 99 78 38 99 78 38 99 78 38 99 78 38 99 78 38 99 78 38 99 78 38 99 78 38 99 78 38 99 78 38 99 78 38 99 78 38 99 78 38 168 208 217 168 208 217 168 208 217 168 208 217 168 208 217 168 208 217 168 208 217 168 208 217 168 208 217 168 208 217 168 208 217 168 208 217 168 208 217 168 208 217 168 208 217 168 208 217 168 208 217 168 208 217 168 208 217 168 208 217 168 208 217 168 208 217 168 208 217 168 208 217 168 208 217 168 208 217 168 208 217 168 208 217 168 208 217 168 208 217 168 208 217 110 86 44 99 78 38 99 78 38 99 78 38 99 78 38 99 78 38 99 78 38 99 78 38 99 78 38 99 78 38 99 78 38 99 78 38 99 78 38 99 78 38 99 78 38 99 78 38 99 78 38 99 78 38 99 78 38 99 78 38 99 78 38 99 78 38 99 78 38 99 78 38 99 78 38 99 78 38 99 78 38 99 78 38 99 78 38 99 78 38 99 78 38 99 78 38 99 78 38 110 86 44 110 86 44 110 86 44 110 86 44 110 86 44 110 86 44 110 86 44 110 86 44 110 86 44 110 86 44 110 86 44 110 86 44 110 86 44 110 86 44 110 86 44 110 86 44 117 91 51 117 91 51 117 91 51 117 91 51 117 91 51 117 91 51 117 91 51 117 91 51 117 91 51 117 91 51 117 91 51 117 91 51 117 91 51 117 91 51 117 91 51 117 91 51 110 86 44 110 86 44 110 86 44 110 86 44 110 86 44 110 86 44 110 86 44 110 86 44 110 86 44 110 86 44 110 86 44 110 86 44 110 86 44 110 86 44 110 86 44 110 86 44 99 78 38 99 78 38 99 78 38 99 78 38 99 78 38 99 78 38 99 78 38 99 78 38 99 78 38 99 78 38 99 78 38 99 78 38 99 78 38 99 78 38 99 78 38 99 78 38 92 67 29 92 67 29 92 67 29 92 67 29 92 67 29 92 67 29 92 67 29 92 67 29 92 67 29 92 67 29 92 67 29 92 67 29 92 67 29 92 67 29 92 67 29 92 67 29 117 91 51 117 91 51 117 91 51 117 91 51 117 91 51 117 91 51 117 91 51 117 91 51 117 91 51 117 91 51 117 91 51 117 91 51 117 91 51 117 91 51 117 91 51 117 91 51 117 91 51 117 91 51 117 91 51 117 91 51 117 91 51 117 91 51 117 91 51 117 91 51 117 91 51 117 91 51 117 91 51 117 91 51 117 91 51 117 91 51 117 91 51 110 86 44 110 86 44 110 86 44 110 86 44 110 86 44 110 86 44 110 86 44 110 86 44 110 86 44 110 86 44 110 86 44 110 86 44 110 86 44 110 86 44 110 86 44 110 86 44 99 78 38 99 78 38 99 78 38 99 78 38 99 78 38 99 78 38 99 78 38 99 78 38 99 78 38 99 78 38 99 78 38 99 78 38 99 78 38 99 78 38 99 78 38 99 78 38 99 78 38 99 78 38 99 78 38 99 78 38 99 78 38 99 78 38 99 78 38 99 78 38 99 78 38 99 78 38 99 78 38 99 78 38 99 78 38 99 78 38 99 78 38 99 78 38 99 78 38 99 78 38 99 78 38 99 78 38 99 78 38 99 78 38 99 78 38 99 78 38 99 78 38 99 78 38 99 78 38 99 78 38 99 78 38 99 78 38 99 78 38 99 78 38 99 78 38 99 78 38 99 78 38 99 78 38 99 78 38 99 78 38 99 78 38 99 78 38 99 78 38 99 78 38 99 78 38 99 78 38 99 78 38 99 78 38 99 78 38 99 78 38 168 208 217 168 208 217 168 208 217 168 208 217 168 208 217 168 208 217 168 208 217 168 208 217 168 208 217 168 208 217 168 208 217 168 208 217 168 208 217 168 208 217 168 208 217 168 208 217 168 208 217 168 208 217 168 208 217 168 208 217 168 208 217 168 208 217 168 208 217 168 208 217 168 208 217 168 208 217 168 208 217 168 208 217 168 208 217 168 208 217 168 208 217 110 86 44 99 78 38 99 78 38 99 78 38 99 78 38 99 78 38 99 78 38 99 78 38 99 78 38 99 78 38 99 78 38 99 78 38 99 78 38 99 78 38 99 78 38 99 78 38 99 78 38 99 78 38 99 78 38 99 78 38 99 78 38 99 78 38 99 78 38 99 78 38 99 78 38 99 78 38 99 78 38 99 78 38 99 78 38 99 78 38 99 78 38 99 78 38 99 78 38 110 86 44 110 86 44 110 86 44 110 86 44 110 86 44 110 86 44 110 86 44 110 86 44 110 86 44 110 86 44 110 86 44 110 86 44 110 86 44 110 86 44 110 86 44 110 86 44 117 91 51 117 91 51 117 91 51 117 91 51 117 91 51 117 91 51 117 91 51 117 91 51 117 91 51 117 91 51 117 91 51 117 91 51 117 91 51 117 91 51 117 91 51 117 91 51 110 86 44 110 86 44 110 86 44 110 86 44 110 86 44 110 86 44 110 86 44 110 86 44 110 86 44 110 86 44 110 86 44 110 86 44 110 86 44 110 86 44 110 86 44 110 86 44 99 78 38 99 78 38 99 78 38 99 78 38 99 78 38 99 78 38 99 78 38 99 78 38 99 78 38 99 78 38 99 78 38 99 78 38 99 78 38 99 78 38 99 78 38 99 78 38 92 67 29 92 67 29 92 67 29 92 67 29 92 67 29 92 67 29 92 67 29 92 67 29 92 67 29 92 67 29 92 67 29 92 67 29 92 67 29 92 67 29 92 67 29 92 67 29 117 91 51 117 91 51 117 91 51 117 91 51 117 91 51 117 91 51 117 91 51 117 91 51 117 91 51 117 91 51 117 91 51 117 91 51 117 91 51 117 91 51 117 91 51 117 91 51 117 91 51 117 91 51 117 91 51 117 91 51 117 91 51 117 91 51 117 91 51 117 91 51 117 91 51 117 91 51 117 91 51 117 91 51 117 91 51 117 91 51 117 91 51 110 86 44 110 86 44 110 86 44 110 86 44 110 86 44 110 86 44 110 86 44 110 86 44 110 86 44 110 86 44 110 86 44 110 86 44 110 86 44 110 86 44 110 86 44 110 86 44 99 78 38 99 78 38 99 78 38 99 78 38 99 78 38 99 78 38 99 78 38 99 78 38 99 78 38 99 78 38 99 78 38 99 78 38 99 78 38 99 78 38 99 78 38 99 78 38 99 78 38 99 78 38 99 78 38 99 78 38 99 78 38 99 78 38 99 78 38 99 78 38 99 78 38 99 78 38 99 78 38 99 78 38 99 78 38 99 78 38 99 78 38 99 78 38 99 78 38 99 78 38 99 78 38 99 78 38 99 78 38 99 78 38 99 78 38 99 78 38 99 78 38 99 78 38 99 78 38 99 78 38 99 78 38 99 78 38 99 78 38 99 78 38 99 78 38 99 78 38 99 78 38 99 78 38 99 78 38 99 78 38 99 78 38 99 78 38 99 78 38 99 78 38 99 78 38 99 78 38 99 78 38 99 78 38 99 78 38 99 78 38 168 208 217 168 208 217 168 208 217 168 208 217 168 208 217 168 208 217 168 208 217 168 208 217 168 208 217 168 208 217 168 208 217 168 208 217 168 208 217 168 208 217 168 208 217 168 208 217 168 208 217 168 208 217 168 208 217 168 208 217 168 208 217 168 208 217 168 208 217 168 208 217 168 208 217 168 208 217 168 208 217 168 208 217 168 208 217 168 208 217 168 208 217 110 86 44 99 78 38 99 78 38 99 78 38 99 78 38 99 78 38 99 78 38 99 78 38 99 78 38 99 78 38 99 78 38 99 78 38 99 78 38 99 78 38 99 78 38 99 78 38 99 78 38 99 78 38 99 78 38 99 78 38 99 78 38 99 78 38 99 78 38 99 78 38 99 78 38 99 78 38 99 78 38 99 78 38 99 78 38 99 78 38 99 78 38 99 78 38 99 78 38 110 86 44 110 86 44 110 86 44 110 86 44 110 86 44 110 86 44 110 86 44 110 86 44 110 86 44 110 86 44 110 86 44 110 86 44 110 86 44 110 86 44 110 86 44 110 86 44 117 91 51 117 91 51 117 91 51 117 91 51 117 91 51 117 91 51 117 91 51 117 91 51 117 91 51 117 91 51 117 91 51 117 91 51 117 91 51 117 91 51 117 91 51 117 91 51 110 86 44 110 86 44 110 86 44 110 86 44 110 86 44 110 86 44 110 86 44 110 86 44 110 86 44 110 86 44 110 86 44 110 86 44 110 86 44 110 86 44 110 86 44 110 86 44 99 78 38 99 78 38 99 78 38 99 78 38 99 78 38 99 78 38 99 78 38 99 78 38 99 78 38 99 78 38 99 78 38 99 78 38 99 78 38 99 78 38 99 78 38 99 78 38 92 67 29 92 67 29 92 67 29 92 67 29 92 67 29 92 67 29 92 67 29 92 67 29 92 67 29 92 67 29 92 67 29 92 67 29 92 67 29 92 67 29 92 67 29 92 67 29 117 91 51 117 91 51 117 91 51 117 91 51 117 91 51 117 91 51 117 91 51 117 91 51 117 91 51 117 91 51 117 91 51 117 91 51 117 91 51 117 91 51 117 91 51 117 91 51 117 91 51 117 91 51 117 91 51 117 91 51 117 91 51 117 91 51 117 91 51 117 91 51 117 91 51 117 91 51 117 91 51 117 91 51 117 91 51 117 91 51 117 91 51 110 86 44 110 86 44 110 86 44 110 86 44 110 86 44 110 86 44 110 86 44 110 86 44 110 86 44 110 86 44 110 86 44 110 86 44 110 86 44 110 86 44 110 86 44 110 86 44 99 78 38 99 78 38 99 78 38 99 78 38 99 78 38 99 78 38 99 78 38 99 78 38 99 78 38 99 78 38 99 78 38 99 78 38 99 78 38 99 78 38 99 78 38 99 78 38 99 78 38 99 78 38 99 78 38 99 78 38 99 78 38 99 78 38 99 78 38 99 78 38 99 78 38 99 78 38 99 78 38 99 78 38 99 78 38 99 78 38 99 78 38 99 78 38 99 78 38 99 78 38 99 78 38 99 78 38 99 78 38 99 78 38 99 78 38 99 78 38 99 78 38 99 78 38 99 78 38 99 78 38 99 78 38 99 78 38 99 78 38 99 78 38 99 78 38 99 78 38 99 78 38 99 78 38 99 78 38 99 78 38 99 78 38 99 78 38 99 78 38 99 78 38 99 78 38 99 78 38 99 78 38 99 78 38 99 78 38 99 78 38 168 208 217 168 208 217 168 208 217 168 208 217 168 208 217 168 208 217 168 208 217 168 208 217 168 208 217 168 208 217 168 208 217 168 208 217 168 208 217 168 208 217 168 208 217 168 208 217 168 208 217 168 208 217 168 208 217 168 208 217 168 208 217 168 208 217 168 208 217 168 208 217 168 208 217 168 208 217 168 208 217 168 208 217 168 208 217 168 208 217 168 208 217 110 86 44 99 78 38 99 78 38 99 78 38 99 78 38 99 78 38 99 78 38 99 78 38 99 78 38 99 78 38 99 78 38 99 78 38 99 78 38 99 78 38 99 78 38 99 78 38 99 78 38 99 78 38 99 78 38 99 78 38 99 78 38 99 78 38 99 78 38 99 78 38 99 78 38 99 78 38 99 78 38 99 78 38 99 78 38 99 78 38 99 78 38 99 78 38 99 78 38 110 86 44 110 86 44 110 86 44 110 86 44 110 86 44 110 86 44 110 86 44 110 86 44 110 86 44 110 86 44 110 86 44 110 86 44 110 86 44 110 86 44 110 86 44 110 86 44 117 91 51 117 91 51 117 91 51 117 91 51 117 91 51 117 91 51 117 91 51 117 91 51 117 91 51 117 91 51 117 91 51 117 91 51 117 91 51 117 91 51 117 91 51 117 91 51 110 86 44 110 86 44 110 86 44 110 86 44 110 86 44 110 86 44 110 86 44 110 86 44 110 86 44 110 86 44 110 86 44 110 86 44 110 86 44 110 86 44 110 86 44 110 86 44 99 78 38 99 78 38 99 78 38 99 78 38 99 78 38 99 78 38 99 78 38 99 78 38 99 78 38 99 78 38 99 78 38 99 78 38 99 78 38 99 78 38 99 78 38 99 78 38 92 67 29 92 67 29 92 67 29 92 67 29 92 67 29 92 67 29 92 67 29 92 67 29 92 67 29 92 67 29 92 67 29 92 67 29 92 67 29 92 67 29 92 67 29 92 67 29 117 91 51 117 91 51 117 91 51 117 91 51 117 91 51 117 91 51 117 91 51 117 91 51 117 91 51 117 91 51 117 91 51 117 91 51 117 91 51 117 91 51 117 91 51 117 91 51 117 91 51 117 91 51 117 91 51 117 91 51 117 91 51 117 91 51 117 91 51 117 91 51 117 91 51 117 91 51 117 91 51 117 91 51 117 91 51 117 91 51 117 91 51 110 86 44 110 86 44 110 86 44 110 86 44 110 86 44 110 86 44 110 86 44 110 86 44 110 86 44 110 86 44 110 86 44 110 86 44 110 86 44 110 86 44 110 86 44 110 86 44 99 78 38 99 78 38 99 78 38 99 78 38 99 78 38 99 78 38 99 78 38 99 78 38 99 78 38 99 78 38 99 78 38 99 78 38 99 78 38 99 78 38 99 78 38 99 78 38 99 78 38 99 78 38 99 78 38 99 78 38 99 78 38 99 78 38 99 78 38 99 78 38 99 78 38 99 78 38 99 78 38 99 78 38 99 78 38 99 78 38 99 78 38 99 78 38 99 78 38 99 78 38 99 78 38 99 78 38 99 78 38 99 78 38 99 78 38 99 78 38 99 78 38 99 78 38 99 78 38 99 78 38 99 78 38 99 78 38 99 78 38 99 78 38 99 78 38 99 78 38 99 78 38 99 78 38 99 78 38 99 78 38 99 78 38 99 78 38 99 78 38 99 78 38 99 78 38 99 78 38 99 78 38 99 78 38 99 78 38 99 78 38 168 208 217 168 208 217 168 208 217 168 208 217 168 208 217 168 208 217 168 208 217 168 208 217 168 208 217 168 208 217 168 208 217 168 208 217 168 208 217 168 208 217 168 208 217 168 208 217 168 208 217 168 208 217 168 208 217 168 208 217 168 208 217 168 208 217 168 208 217 168 208 217 168 208 217 168 208 217 168 208 217 168 208 217 168 208 217 168 208 217 168 208 217 110 86 44 99 78 38 99 78 38 99 78 38 99 78 38 99 78 38 99 78 38 99 78 38 99 78 38 99 78 38 99 78 38 99 78 38 99 78 38 99 78 38 99 78 38 99 78 38 99 78 38 99 78 38 99 78 38 99 78 38 99 78 38 99 78 38 99 78 38 99 78 38 99 78 38 99 78 38 99 78 38 99 78 38 99 78 38 99 78 38 99 78 38 99 78 38 99 78 38 110 86 44 110 86 44 110 86 44 110 86 44 110 86 44 110 86 44 110 86 44 110 86 44 110 86 44 110 86 44 110 86 44 110 86 44 110 86 44 110 86 44 110 86 44 110 86 44 117 91 51 117 91 51 117 91 51 117 91 51 117 91 51 117 91 51 117 91 51 117 91 51 117 91 51 117 91 51 117 91 51 117 91 51 117 91 51 117 91 51 117 91 51 117 91 51 110 86 44 110 86 44 110 86 44 110 86 44 110 86 44 110 86 44 110 86 44 110 86 44 110 86 44 110 86 44 110 86 44 110 86 44 110 86 44 110 86 44 110 86 44 110 86 44 99 78 38 99 78 38 99 78 38 99 78 38 99 78 38 99 78 38 99 78 38 99 78 38 99 78 38 99 78 38 99 78 38 99 78 38 99 78 38 99 78 38 99 78 38 99 78 38 92 67 29 92 67 29 92 67 29 92 67 29 92 67 29 92 67 29 92 67 29 92 67 29 92 67 29 92 67 29 92 67 29 92 67 29 92 67 29 92 67 29 92 67 29 92 67 29 117 91 51 117 91 51 117 91 51 117 91 51 117 91 51 117 91 51 117 91 51 117 91 51 117 91 51 117 91 51 117 91 51 117 91 51 117 91 51 117 91 51 117 91 51 117 91 51 117 91 51 117 91 51 117 91 51 117 91 51 117 91 51 117 91 51 117 91 51 117 91 51 117 91 51 117 91 51 117 91 51 117 91 51 117 91 51 117 91 51 117 91 51 110 86 44 110 86 44 110 86 44 110 86 44 110 86 44 110 86 44 110 86 44 110 86 44 110 86 44 110 86 44 110 86 44 110 86 44 110 86 44 110 86 44 110 86 44 110 86 44 99 78 38 99 78 38 99 78 38 99 78 38 99 78 38 99 78 38 99 78 38 99 78 38 99 78 38 99 78 38 99 78 38 99 78 38 99 78 38 99 78 38 99 78 38 99 78 38 99 78 38 99 78 38 99 78 38 99 78 38 99 78 38 99 78 38 99 78 38 99 78 38 99 78 38 99 78 38 99 78 38 99 78 38 99 78 38 99 78 38 99 78 38 99 78 38 99 78 38 99 78 38 99 78 38 99 78 38 99 78 38 99 78 38 99 78 38 99 78 38 99 78 38 99 78 38 99 78 38 99 78 38 99 78 38 99 78 38 99 78 38 99 78 38 99 78 38 99 78 38 99 78 38 99 78 38 99 78 38 99 78 38 99 78 38 99 78 38 99 78 38 99 78 38 99 78 38 99 78 38 99 78 38 99 78 38 99 78 38 99 78 38 168 208 217 168 208 217 168 208 217 168 208 217 168 208 217 168 208 217 168 208 217 168 208 217 168 208 217 168 208 217 168 208 217 168 208 217 168 208 217 168 208 217 168 208 217 168 208 217 168 208 217 168 208 217 168 208 217 168 208 217 168 208 217 168 208 217 168 208 217 168 208 217 168 208 217 168 208 217 168 208 217 168 208 217 168 208 217 168 208 217 168 208 217 110 86 44 99 78 38 99 78 38 99 78 38 99 78 38 99 78 38 99 78 38 99 78 38 99 78 38 99 78 38 99 78 38 99 78 38 99 78 38 99 78 38 99 78 38 99 78 38 99 78 38 99 78 38 99 78 38 99 78 38 99 78 38 99 78 38 99 78 38 99 78 38 99 78 38 99 78 38 99 78 38 99 78 38 99 78 38 99 78 38 99 78 38 99 78 38 99 78 38 110 86 44 110 86 44 110 86 44 110 86 44 110 86 44 110 86 44 110 86 44 110 86 44 110 86 44 110 86 44 110 86 44 110 86 44 110 86 44 110 86 44 110 86 44 110 86 44 117 91 51 117 91 51 117 91 51 117 91 51 117 91 51 117 91 51 117 91 51 117 91 51 117 91 51 117 91 51 117 91 51 117 91 51 117 91 51 117 91 51 117 91 51 117 91 51 110 86 44 110 86 44 110 86 44 110 86 44 110 86 44 110 86 44 110 86 44 110 86 44 110 86 44 110 86 44 110 86 44 110 86 44 110 86 44 110 86 44 110 86 44 110 86 44 99 78 38 99 78 38 99 78 38 99 78 38 99 78 38 99 78 38 99 78 38 99 78 38 99 78 38 99 78 38 99 78 38 99 78 38 99 78 38 99 78 38 99 78 38 99 78 38 92 67 29 92 67 29 92 67 29 92 67 29 92 67 29 92 67 29 92 67 29 92 67 29 92 67 29 92 67 29 92 67 29 92 67 29 92 67 29 92 67 29 92 67 29 92 67 29 117 91 51 117 91 51 117 91 51 117 91 51 117 91 51 117 91 51 117 91 51 117 91 51 117 91 51 117 91 51 117 91 51 117 91 51 117 91 51 117 91 51 117 91 51 117 91 51 117 91 51 117 91 51 117 91 51 117 91 51 117 91 51 117 91 51 117 91 51 117 91 51 117 91 51 117 91 51 117 91 51 117 91 51 117 91 51 117 91 51 117 91 51 110 86 44 110 86 44 110 86 44 110 86 44 110 86 44 110 86 44 110 86 44 110 86 44 110 86 44 110 86 44 110 86 44 110 86 44 110 86 44 110 86 44 110 86 44 110 86 44 99 78 38 99 78 38 99 78 38 99 78 38 99 78 38 99 78 38 99 78 38 99 78 38 99 78 38 99 78 38 99 78 38 99 78 38 99 78 38 99 78 38 99 78 38 99 78 38 99 78 38 99 78 38 99 78 38 99 78 38 99 78 38 99 78 38 99 78 38 99 78 38 99 78 38 99 78 38 99 78 38 99 78 38 99 78 38 99 78 38 99 78 38 99 78 38 99 78 38 99 78 38 99 78 38 99 78 38 99 78 38 99 78 38 99 78 38 99 78 38 99 78 38 99 78 38 99 78 38 99 78 38 99 78 38 99 78 38 99 78 38 99 78 38 99 78 38 99 78 38 99 78 38 99 78 38 99 78 38 99 78 38 99 78 38 99 78 38 99 78 38 99 78 38 99 78 38 99 78 38 99 78 38 99 78 38 99 78 38 99 78 38 168 208 217 168 208 217 168 208 217 168 208 217 168 208 217 168 208 217 168 208 217 168 208 217 168 208 217 168 208 217 168 208 217 168 208 217 168 208 217 168 208 217 168 208 217 168 208 217 168 208 217 168 208 217 168 208 217 168 208 217 168 208 217 168 208 217 168 208 217 168 208 217 168 208 217 168 208 217 168 208 217 168 208 217 168 208 217 168 208 217 168 208 217 56 40 13 74 53 21 74 53 21 74 53 21 74 53 21 74 53 21 74 53 21 74 53 21 74 53 21 74 53 21 74 53 21 74 53 21 74 53 21 74 53 21 74 53 21 74 53 21 74 53 21 74 53 21 74 53 21 74 53 21 74 53 21 74 53 21 74 53 21 74 53 21 74 53 21 74 53 21 74 53 21 74 53 21 74 53 21 74 53 21 74 53 21 74 53 21 74 53 21 56 40 13 56 40 13 56 40 13 56 40 13 56 40 13 56 40 13 56 40 13 56 40 13 56 40 13 56 40 13 56 40 13 56 40 13 56 40 13 56 40 13 56 40 13 56 40 13 56 40 13 56 40 13 56 40 13 56 40 13 56 40 13 56 40 13 56 40 13 56 40 13 56 40 13 56 40 13 56 40 13 56 40 13 56 40 13 56 40 13 56 40 13 56 40 13 74 53 21 74 53 21 74 53 21 74 53 21 74 53 21 74 53 21 74 53 21 74 53 21 74 53 21 74 53 21 74 53 21 74 53 21 74 53 21 74 53 21 74 53 21 74 53 21 92 67 29 92 67 29 92 67 29 92 67 29 92 67 29 92 67 29 92 67 29 92 67 29 92 67 29 92 67 29 92 67 29 92 67 29 92 67 29 92 67 29 92 67 29 92 67 29 92 67 29 92 67 29 92 67 29 92 67 29 92 67 29 92 67 29 92 67 29 92 67 29 92 67 29 92 67 29 92 67 29 92 67 29 92 67 29 92 67 29 92 67 29 92 67 29 92 67 29 92 67 29 92 67 29 92 67 29 92 67 29 92 67 29 92 67 29 92 67 29 92 67 29 92 67 29 92 67 29 92 67 29 92 67 29 92 67 29 92 67 29 74 53 21 74 53 21 74 53 21 74 53 21 74 53 21 74 53 21 74 53 21 74 53 21 74 53 21 74 53 21 74 53 21 74 53 21 74 53 21 74 53 21 74 53 21 74 53 21 56 40 13 56 40 13 56 40 13 56 40 13 56 40 13 56 40 13 56 40 13 56 40 13 56 40 13 56 40 13 56 40 13 56 40 13 56 40 13 56 40 13 56 40 13 56 40 13 74 53 21 74 53 21 74 53 21 74 53 21 74 53 21 74 53 21 74 53 21 74 53 21 74 53 21 74 53 21 74 53 21 74 53 21 74 53 21 74 53 21 74 53 21 74 53 21 56 40 13 56 40 13 56 40 13 56 40 13 56 40 13 56 40 13 56 40 13 56 40 13 56 40 13 56 40 13 56 40 13 56 40 13 56 40 13 56 40 13 56 40 13 56 40 13 56 40 13 56 40 13 56 40 13 56 40 13 56 40 13 56 40 13 56 40 13 56 40 13 56 40 13 56 40 13 56 40 13 56 40 13 56 40 13 56 40 13 56 40 13 56 40 13 56 40 13 56 40 13 56 40 13 56 40 13 56 40 13 56 40 13 56 40 13 56 40 13 56 40 13 56 40 13 56 40 13 56 40 13 56 40 13 56 40 13 56 40 13 56 40 13 168 208 217 168 208 217 168 208 217 168 208 217 168 208 217 168 208 217 168 208 217 168 208 217 168 208 217 168 208 217 168 208 217 168 208 217 168 208 217 168 208 217 168 208 217 168 208 217 168 208 217 168 208 217 168 208 217 168 208 217 168 208 217 168 208 217 168 208 217 168 208 217 168 208 217 168 208 217 168 208 217 168 208 217 168 208 217 168 208 217 168 208 217 168 208 217 168 208 217 168 208 217 168 208 217 168 208 217 168 208 217 168 208 217 168 208 217 168 208 217 168 208 217 168 208 217 168 208 217 168 208 217 168 208 217 168 208 217 168 208 217 139 193 205 139 193 205 139 193 205 139 193 205 139 193 205 139 193 205 139 193 205 139 193 205 139 193 205 139 193 205 139 193 205 139 193 205 139 193 205 139 193 205 139 193 205 139 193 205 168 208 217 168 208 217 168 208 217 168 208 217 168 208 217 168 208 217 168 208 217 168 208 217 168 208 217 168 208 217 168 208 217 168 208 217 168 208 217 168 208 217 168 208 217 168 208 217 139 193 205 139 193 205 139 193 205 139 193 205 139 193 205 139 193 205 139 193 205 139 193 205 139 193 205 139 193 205 139 193 205 139 193 205 139 193 205 139 193 205 139 193 205 139 193 205 139 193 205 139 193 205 139 193 205 139 193 205 139 193 205 139 193 205 139 193 205 139 193 205 139 193 205 139 193 205 139 193 205 139 193 205 139 193 205 139 193 205 139 193 205 139 193 205 139 193 205 139 193 205 139 193 205 139 193 205 139 193 205 139 193 205 139 193 205 139 193 205 139 193 205 139 193 205 139 193 205 139 193 205 139 193 205 139 193 205 139 193 205 139 193 205 139 193 205 139 193 205 139 193 205 139 193 205 139 193 205 139 193 205 139 193 205 139 193 205 139 193 205 139 193 205 139 193 205 139 193 205 139 193 205 139 193 205 139 193 205 139 193 205 139 193 205 139 193 205 139 193 205 139 193 205 139 193 205 139 193 205 139 193 205 139 193 205 139 193 205 139 193 205 139 193 205 139 193 205 139 193 205 139 193 205 139 193 205 139 193 205 139 193 205 139 193 205 139 193 205 139 193 205 139 193 205 139 193 205 139 193 205 139 193 205 139 193 205 139 193 205 139 193 205 139 193 205 139 193 205 139 193 205 139 193 205 139 193 205 139 193 205 139 193 205 139 193 205 139 193 205 139 193 205 139 193 205 139 193 205 139 193 205 139 193 205 139 193 205 139 193 205 139 193 205 139 193 205 139 193 205 139 193 205 139 193 205 139 193 205 139 193 205 139 193 205 139 193 205 139 193 205 139 193 205 139 193 205 139 193 205 139 193 205 139 193 205 139 193 205 139 193 205 139 193 205 139 193 205 139 193 205 139 193 205 139 193 205 139 193 205 139 193 205 139 193 205 139 193 205 139 193 205 139 193 205 139 193 205 139 193 205 139 193 205 139 193 205 139 193 205 139 193 205 139 193 205 139 193 205 139 193 205 139 193 205 139 193 205 139 193 205 139 193 205 139 193 205 139 193 205 139 193 205 139 193 205 139 193 205 139 193 205 139 193 205 139 193 205 139 193 205 139 193 205 139 193 205 139 193 205 168 208 217 168 208 217 168 208 217 168 208 217 168 208 217 168 208 217 168 208 217 168 208 217 168 208 217 168 208 217 168 208 217 168 208 217 168 208 217 168 208 217 168 208 217 168 208 217 168 208 217 168 208 217 168 208 217 168 208 217 168 208 217 168 208 217 168 208 217 168 208 217 168 208 217 168 208 217 168 208 217 168 208 217 168 208 217 168 208 217 168 208 217 168 208 217 168 208 217 168 208 217 168 208 217 168 208 217 168 208 217 168 208 217 168 208 217 168 208 217 168 208 217 168 208 217 168 208 217 168 208 217 168 208 217 168 208 217 168 208 217 168 208 217 168 208 217 168 208 217 168 208 217 168 208 217 168 208 217 168 208 217 168 208 217 168 208 217 168 208 217 168 208 217 168 208 217 168 208 217 168 208 217 168 208 217 168 208 217 139 193 205 139 193 205 139 193 205 139 193 205 139 193 205 139 193 205 139 193 205 139 193 205 139 193 205 139 193 205 139 193 205 139 193 205 139 193 205 139 193 205 139 193 205 139 193 205 168 208 217 168 208 217 168 208 217 168 208 217 168 208 217 168 208 217 168 208 217 168 208 217 168 208 217 168 208 217 168 208 217 168 208 217 168 208 217 168 208 217 168 208 217 168 208 217 139 193 205 139 193 205 139 193 205 139 193 205 139 193 205 139 193 205 139 193 205 139 193 205 139 193 205 139 193 205 139 193 205 139 193 205 139 193 205 139 193 205 139 193 205 139 193 205 139 193 205 139 193 205 139 193 205 139 193 205 139 193 205 139 193 205 139 193 205 139 193 205 139 193 205 139 193 205 139 193 205 139 193 205 139 193 205 139 193 205 139 193 205 139 193 205 139 193 205 139 193 205 139 193 205 139 193 205 139 193 205 139 193 205 139 193 205 139 193 205 139 193 205 139 193 205 139 193 205 139 193 205 139 193 205 139 193 205 139 193 205 139 193 205 139 193 205 139 193 205 139 193 205 139 193 205 139 193 205 139 193 205 139 193 205 139 193 205 139 193 205 139 193 205 139 193 205 139 193 205 139 193 205 139 193 205 139 193 205 139 193 205 139 193 205 139 193 205 139 193 205 139 193 205 139 193 205 139 193 205 139 193 205 139 193 205 139 193 205 139 193 205 139 193 205 139 193 205 139 193 205 139 193 205 139 193 205 139 193 205 139 193 205 139 193 205 139 193 205 139 193 205 139 193 205 139 193 205 139 193 205 139 193 205 139 193 205 139 193 205 139 193 205 139 193 205 139 193 205 139 193 205 139 193 205 139 193 205 139 193 205 139 193 205 139 193 205 139 193 205 139 193 205 139 193 205 139 193 205 139 193 205 139 193 205 139 193 205 139 193 205 139 193 205 139 193 205 139 193 205 139 193 205 139 193 205 139 193 205 139 193 205 139 193 205 139 193 205 139 193 205 139 193 205 139 193 205 139 193 205 139 193 205 139 193 205 139 193 205 139 193 205 139 193 205 139 193 205 139 193 205 139 193 205 139 193 205 139 193 205 139 193 205 139 193 205 139 193 205 139 193 205 139 193 205 139 193 205 139 193 205 139 193 205 139 193 205 139 193 205 139 193 205 139 193 205 139 193 205 139 193 205 139 193 205 139 193 205 139 193 205 139 193 205 139 193 205 139 193 205 139 193 205 139 193 205 139 193 205 139 193 205 139 193 205 139 193 205 139 193 205 139 193 205 139 193 205 139 193 205 168 208 217 168 208 217 168 208 217 168 208 217 168 208 217 168 208 217 168 208 217 168 208 217 168 208 217 168 208 217 168 208 217 168 208 217 168 208 217 168 208 217 168 208 217 168 208 217 168 208 217 168 208 217 168 208 217 168 208 217 168 208 217 168 208 217 168 208 217 168 208 217 168 208 217 168 208 217 168 208 217 168 208 217 168 208 217 168 208 217 168 208 217 168 208 217 168 208 217 168 208 217 168 208 217 168 208 217 168 208 217 168 208 217 168 208 217 168 208 217 168 208 217 168 208 217 168 208 217 168 208 217 168 208 217 168 208 217 168 208 217 168 208 217 168 208 217 168 208 217 168 208 217 168 208 217 168 208 217 168 208 217 168 208 217 168 208 217 168 208 217 168 208 217 168 208 217 168 208 217 168 208 217 168 208 217 168 208 217 139 193 205 139 193 205 139 193 205 139 193 205 139 193 205 139 193 205 139 193 205 139 193 205 139 193 205 139 193 205 139 193 205 139 193 205 139 193 205 139 193 205 139 193 205 139 193 205 168 208 217 168 208 217 168 208 217 168 208 217 168 208 217 168 208 217 168 208 217 168 208 217 168 208 217 168 208 217 168 208 217 168 208 217 168 208 217 168 208 217 168 208 217 168 208 217 139 193 205 139 193 205 139 193 205 139 193 205 139 193 205 139 193 205 139 193 205 139 193 205 139 193 205 139 193 205 139 193 205 139 193 205 139 193 205 139 193 205 139 193 205 139 193 205 139 193 205 139 193 205 139 193 205 139 193 205 139 193 205 139 193 205 139 193 205 139 193 205 139 193 205 139 193 205 139 193 205 139 193 205 139 193 205 139 193 205 139 193 205 139 193 205 139 193 205 139 193 205 139 193 205 139 193 205 139 193 205 139 193 205 139 193 205 139 193 205 139 193 205 139 193 205 139 193 205 139 193 205 139 193 205 139 193 205 139 193 205 139 193 205 139 193 205 139 193 205 139 193 205 139 193 205 139 193 205 139 193 205 139 193 205 139 193 205 139 193 205 139 193 205 139 193 205 139 193 205 139 193 205 139 193 205 139 193 205 139 193 205 139 193 205 139 193 205 139 193 205 139 193 205 139 193 205 139 193 205 139 193 205 139 193 205 139 193 205 139 193 205 139 193 205 139 193 205 139 193 205 139 193 205 139 193 205 139 193 205 139 193 205 139 193 205 139 193 205 139 193 205 139 193 205 139 193 205 139 193 205 139 193 205 139 193 205 139 193 205 139 193 205 139 193 205 139 193 205 139 193 205 139 193 205 139 193 205 139 193 205 139 193 205 139 193 205 139 193 205 139 193 205 139 193 205 139 193 205 139 193 205 139 193 205 139 193 205 139 193 205 139 193 205 139 193 205 139 193 205 139 193 205 139 193 205 139 193 205 139 193 205 139 193 205 139 193 205 139 193 205 139 193 205 139 193 205 139 193 205 139 193 205 139 193 205 139 193 205 139 193 205 139 193 205 139 193 205 139 193 205 139 193 205 139 193 205 139 193 205 139 193 205 139 193 205 139 193 205 139 193 205 139 193 205 139 193 205 139 193 205 139 193 205 139 193 205 139 193 205 139 193 205 139 193 205 139 193 205 139 193 205 139 193 205 139 193 205 139 193 205 139 193 205 139 193 205 139 193 205 139 193 205 139 193 205 139 193 205 139 193 205 139 193 205 139 193 205 139 193 205 139 193 205 139 193 205 139 193 205 168 208 217 168 208 217 168 208 217 168 208 217 168 208 217 168 208 217 168 208 217 168 208 217 168 208 217 168 208 217 168 208 217 168 208 217 168 208 217 168 208 217 168 208 217 168 208 217 168 208 217 168 208 217 168 208 217 168 208 217 168 208 217 168 208 217 168 208 217 168 208 217 168 208 217 168 208 217 168 208 217 168 208 217 168 208 217 168 208 217 168 208 217 168 208 217 168 208 217 168 208 217 168 208 217 168 208 217 168 208 217 168 208 217 168 208 217 168 208 217 168 208 217 168 208 217 168 208 217 168 208 217 168 208 217 168 208 217 168 208 217 168 208 217 168 208 217 168 208 217 168 208 217 168 208 217 168 208 217 168 208 217 168 208 217 168 208 217 168 208 217 168 208 217 168 208 217 168 208 217 168 208 217 168 208 217 168 208 217 139 193 205 139 193 205 139 193 205 139 193 205 139 193 205 139 193 205 139 193 205 139 193 205 139 193 205 139 193 205 139 193 205 139 193 205 139 193 205 139 193 205 139 193 205 139 193 205 168 208 217 168 208 217 168 208 217 168 208 217 168 208 217 168 208 217 168 208 217 168 208 217 168 208 217 168 208 217 168 208 217 168 208 217 168 208 217 168 208 217 168 208 217 168 208 217 139 193 205 139 193 205 139 193 205 139 193 205 139 193 205 139 193 205 139 193 205 139 193 205 139 193 205 139 193 205 139 193 205 139 193 205 139 193 205 139 193 205 139 193 205 139 193 205 139 193 205 139 193 205 139 193 205 139 193 205 139 193 205 139 193 205 139 193 205 139 193 205 139 193 205 139 193 205 139 193 205 139 193 205 139 193 205 139 193 205 139 193 205 139 193 205 139 193 205 139 193 205 139 193 205 139 193 205 139 193 205 139 193 205 139 193 205 139 193 205 139 193 205 139 193 205 139 193 205 139 193 205 139 193 205 139 193 205 139 193 205 139 193 205 139 193 205 139 193 205 139 193 205 139 193 205 139 193 205 139 193 205 139 193 205 139 193 205 139 193 205 139 193 205 139 193 205 139 193 205 139 193 205 139 193 205 139 193 205 139 193 205 139 193 205 139 193 205 139 193 205 139 193 205 139 193 205 139 193 205 139 193 205 139 193 205 139 193 205 139 193 205 139 193 205 139 193 205 139 193 205 139 193 205 139 193 205 139 193 205 139 193 205 139 193 205 139 193 205 139 193 205 139 193 205 139 193 205 139 193 205 139 193 205 139 193 205 139 193 205 139 193 205 139 193 205 139 193 205 139 193 205 139 193 205 139 193 205 139 193 205 139 193 205 139 193 205 139 193 205 139 193 205 139 193 205 139 193 205 139 193 205 139 193 205 139 193 205 139 193 205 139 193 205 139 193 205 139 193 205 139 193 205 139 193 205 139 193 205 139 193 205 139 193 205 139 193 205 139 193 205 139 193 205 139 193 205 139 193 205 139 193 205 139 193 205 139 193 205 139 193 205 139 193 205 139 193 205 139 193 205 139 193 205 139 193 205 139 193 205 139 193 205 139 193 205 139 193 205 139 193 205 139 193 205 139 193 205 139 193 205 139 193 205 139 193 205 139 193 205 139 193 205 139 193 205 139 193 205 139 193 205 139 193 205 139 193 205 139 193 205 139 193 205 139 193 205 139 193 205 139 193 205 139 193 205 139 193 205 139 193 205 139 193 205 139 193 205 139 193 205 139 193 205 139 193 205 139 193 205 168 208 217 168 208 217 168 208 217 168 208 217 168 208 217 168 208 217 168 208 217 168 208 217 168 208 217 168 208 217 168 208 217 168 208 217 168 208 217 168 208 217 168 208 217 168 208 217 168 208 217 168 208 217 168 208 217 168 208 217 168 208 217 168 208 217 168 208 217 168 208 217 168 208 217 168 208 217 168 208 217 168 208 217 168 208 217 168 208 217 168 208 217 168 208 217 168 208 217 168 208 217 168 208 217 168 208 217 168 208 217 168 208 217 168 208 217 168 208 217 168 208 217 168 208 217 168 208 217 168 208 217 168 208 217 168 208 217 168 208 217 168 208 217 168 208 217 168 208 217 168 208 217 168 208 217 168 208 217 168 208 217 168 208 217 168 208 217 168 208 217 168 208 217 168 208 217 168 208 217 168 208 217 168 208 217 168 208 217 139 193 205 139 193 205 139 193 205 139 193 205 139 193 205 139 193 205 139 193 205 139 193 205 139 193 205 139 193 205 139 193 205 139 193 205 139 193 205 139 193 205 139 193 205 139 193 205 168 208 217 168 208 217 168 208 217 168 208 217 168 208 217 168 208 217 168 208 217 168 208 217 168 208 217 168 208 217 168 208 217 168 208 217 168 208 217 168 208 217 168 208 217 168 208 217 139 193 205 139 193 205 139 193 205 139 193 205 139 193 205 139 193 205 139 193 205 139 193 205 139 193 205 139 193 205 139 193 205 139 193 205 139 193 205 139 193 205 139 193 205 139 193 205 139 193 205 139 193 205 139 193 205 139 193 205 139 193 205 139 193 205 139 193 205 139 193 205 139 193 205 139 193 205 139 193 205 139 193 205 139 193 205 139 193 205 139 193 205 139 193 205 139 193 205 139 193 205 139 193 205 139 193 205 139 193 205 139 193 205 139 193 205 139 193 205 139 193 205 139 193 205 139 193 205 139 193 205 139 193 205 139 193 205 139 193 205 139 193 205 139 193 205 139 193 205 139 193 205 139 193 205 139 193 205 139 193 205 139 193 205 139 193 205 139 193 205 139 193 205 139 193 205 139 193 205 139 193 205 139 193 205 139 193 205 139 193 205 139 193 205 139 193 205 139 193 205 139 193 205 139 193 205 139 193 205 139 193 205 139 193 205 139 193 205 139 193 205 139 193 205 139 193 205 139 193 205 139 193 205 139 193 205 139 193 205 139 193 205 139 193 205 139 193 205 139 193 205 139 193 205 139 193 205 139 193 205 139 193 205 139 193 205 139 193 205 139 193 205 139 193 205 139 193 205 139 193 205 139 193 205 139 193 205 139 193 205 139 193 205 139 193 205 139 193 205 139 193 205 139 193 205 139 193 205 139 193 205 139 193 205 139 193 205 139 193 205 139 193 205 139 193 205 139 193 205 139 193 205 139 193 205 139 193 205 139 193 205 139 193 205 139 193 205 139 193 205 139 193 205 139 193 205 139 193 205 139 193 205 139 193 205 139 193 205 139 193 205 139 193 205 139 193 205 139 193 205 139 193 205 139 193 205 139 193 205 139 193 205 139 193 205 139 193 205 139 193 205 139 193 205 139 193 205 139 193 205 139 193 205 139 193 205 139 193 205 139 193 205 139 193 205 139 193 205 139 193 205 139 193 205 139 193 205 139 193 205 139 193 205 139 193 205 139 193 205 139 193 205 139 193 205 139 193 205 139 193 205 139 193 205 139 193 205 139 193 205 139 193 205 139 193 205 139 193 205 168 208 217 168 208 217 168 208 217 168 208 217 168 208 217 168 208 217 168 208 217 168 208 217 168 208 217 168 208 217 168 208 217 168 208 217 168 208 217 168 208 217 168 208 217 168 208 217 168 208 217 168 208 217 168 208 217 168 208 217 168 208 217 168 208 217 168 208 217 168 208 217 168 208 217 168 208 217 168 208 217 168 208 217 168 208 217 168 208 217 168 208 217 168 208 217 168 208 217 168 208 217 168 208 217 168 208 217 168 208 217 168 208 217 168 208 217 168 208 217 168 208 217 168 208 217 168 208 217 168 208 217 168 208 217 168 208 217 168 208 217 168 208 217 168 208 217 168 208 217 168 208 217 168 208 217 168 208 217 168 208 217 168 208 217 168 208 217 168 208 217 168 208 217 168 208 217 168 208 217 168 208 217 168 208 217 168 208 217 139 193 205 139 193 205 139 193 205 139 193 205 139 193 205 139 193 205 139 193 205 139 193 205 139 193 205 139 193 205 139 193 205 139 193 205 139 193 205 139 193 205 139 193 205 139 193 205 168 208 217 168 208 217 168 208 217 168 208 217 168 208 217 168 208 217 168 208 217 168 208 217 168 208 217 168 208 217 168 208 217 168 208 217 168 208 217 168 208 217 168 208 217 168 208 217 139 193 205 139 193 205 139 193 205 139 193 205 139 193 205 139 193 205 139 193 205 139 193 205 139 193 205 139 193 205 139 193 205 139 193 205 139 193 205 139 193 205 139 193 205 139 193 205 139 193 205 139 193 205 139 193 205 139 193 205 139 193 205 139 193 205 139 193 205 139 193 205 139 193 205 139 193 205 139 193 205 139 193 205 139 193 205 139 193 205 139 193 205 139 193 205 139 193 205 139 193 205 139 193 205 139 193 205 139 193 205 139 193 205 139 193 205 139 193 205 139 193 205 139 193 205 139 193 205 139 193 205 139 193 205 139 193 205 139 193 205 139 193 205 139 193 205 139 193 205 139 193 205 139 193 205 139 193 205 139 193 205 139 193 205 139 193 205 139 193 205 139 193 205 139 193 205 139 193 205 139 193 205 139 193 205 139 193 205 139 193 205 139 193 205 139 193 205 139 193 205 139 193 205 139 193 205 139 193 205 139 193 205 139 193 205 139 193 205 139 193 205 139 193 205 139 193 205 139 193 205 139 193 205 139 193 205 139 193 205 139 193 205 139 193 205 139 193 205 139 193 205 139 193 205 139 193 205 139 193 205 139 193 205 139 193 205 139 193 205 139 193 205 139 193 205 139 193 205 139 193 205 139 193 205 139 193 205 139 193 205 139 193 205 139 193 205 139 193 205 139 193 205 139 193 205 139 193 205 139 193 205 139 193 205 139 193 205 139 193 205 139 193 205 139 193 205 139 193 205 139 193 205 139 193 205 139 193 205 139 193 205 139 193 205 139 193 205 139 193 205 139 193 205 139 193 205 139 193 205 139 193 205 139 193 205 139 193 205 139 193 205 139 193 205 139 193 205 139 193 205 139 193 205 139 193 205 139 193 205 139 193 205 139 193 205 139 193 205 139 193 205 139 193 205 139 193 205 139 193 205 139 193 205 139 193 205 139 193 205 139 193 205 139 193 205 139 193 205 139 193 205 139 193 205 139 193 205 139 193 205 139 193 205 139 193 205 139 193 205 139 193 205 139 193 205 139 193 205 139 193 205 139 193 205 139 193 205 139 193 205 139 193 205 139 193 205 139 193 205 168 208 217 168 208 217 168 208 217 168 208 217 168 208 217 168 208 217 168 208 217 168 208 217 168 208 217 168 208 217 168 208 217 168 208 217 168 208 217 168 208 217 168 208 217 168 208 217 168 208 217 168 208 217 168 208 217 168 208 217 168 208 217 168 208 217 168 208 217 168 208 217 168 208 217 168 208 217 168 208 217 168 208 217 168 208 217 168 208 217 168 208 217 168 208 217 168 208 217 168 208 217 168 208 217 168 208 217 168 208 217 168 208 217 168 208 217 168 208 217 168 208 217 168 208 217 168 208 217 168 208 217 168 208 217 168 208 217 168 208 217 168 208 217 168 208 217 168 208 217 168 208 217 168 208 217 168 208 217 168 208 217 168 208 217 168 208 217 168 208 217 168 208 217 168 208 217 168 208 217 168 208 217 168 208 217 168 208 217 139 193 205 139 193 205 139 193 205 139 193 205 139 193 205 139 193 205 139 193 205 139 193 205 139 193 205 139 193 205 139 193 205 139 193 205 139 193 205 139 193 205 139 193 205 139 193 205 168 208 217 168 208 217 168 208 217 168 208 217 168 208 217 168 208 217 168 208 217 168 208 217 168 208 217 168 208 217 168 208 217 168 208 217 168 208 217 168 208 217 168 208 217 168 208 217 139 193 205 139 193 205 139 193 205 139 193 205 139 193 205 139 193 205 139 193 205 139 193 205 139 193 205 139 193 205 139 193 205 139 193 205 139 193 205 139 193 205 139 193 205 139 193 205 139 193 205 139 193 205 139 193 205 139 193 205 139 193 205 139 193 205 139 193 205 139 193 205 139 193 205 139 193 205 139 193 205 139 193 205 139 193 205 139 193 205 139 193 205 139 193 205 139 193 205 139 193 205 139 193 205 139 193 205 139 193 205 139 193 205 139 193 205 139 193 205 139 193 205 139 193 205 139 193 205 139 193 205 139 193 205 139 193 205 139 193 205 139 193 205 139 193 205 139 193 205 139 193 205 139 193 205 139 193 205 139 193 205 139 193 205 139 193 205 139 193 205 139 193 205 139 193 205 139 193 205 139 193 205 139 193 205 139 193 205 139 193 205 139 193 205 139 193 205 139 193 205 139 193 205 139 193 205 139 193 205 139 193 205 139 193 205 139 193 205 139 193 205 139 193 205 139 193 205 139 193 205 139 193 205 139 193 205 139 193 205 139 193 205 139 193 205 139 193 205 139 193 205 139 193 205 139 193 205 139 193 205 139 193 205 139 193 205 139 193 205 139 193 205 139 193 205 139 193 205 139 193 205 139 193 205 139 193 205 139 193 205 139 193 205 139 193 205 139 193 205 139 193 205 139 193 205 139 193 205 139 193 205 139 193 205 139 193 205 139 193 205 139 193 205 139 193 205 139 193 205 139 193 205 139 193 205 139 193 205 139 193 205 139 193 205 139 193 205 139 193 205 139 193 205 139 193 205 139 193 205 139 193 205 139 193 205 139 193 205 139 193 205 139 193 205 139 193 205 139 193 205 139 193 205 139 193 205 139 193 205 139 193 205 139 193 205 139 193 205 139 193 205 139 193 205 139 193 205 139 193 205 139 193 205 139 193 205 139 193 205 139 193 205 139 193 205 139 193 205 139 193 205 139 193 205 139 193 205 139 193 205 139 193 205 139 193 205 139 193 205 139 193 205 139 193 205 139 193 205 139 193 205 139 193 205 139 193 205 139 193 205 139 193 205 139 193 205 139 193 205 168 208 217 168 208 217 168 208 217 168 208 217 168 208 217 168 208 217 168 208 217 168 208 217 168 208 217 168 208 217 168 208 217 168 208 217 168 208 217 168 208 217 168 208 217 168 208 217 168 208 217 168 208 217 168 208 217 168 208 217 168 208 217 168 208 217 168 208 217 168 208 217 168 208 217 168 208 217 168 208 217 168 208 217 168 208 217 168 208 217 168 208 217 168 208 217 168 208 217 168 208 217 168 208 217 168 208 217 168 208 217 168 208 217 168 208 217 168 208 217 168 208 217 168 208 217 168 208 217 168 208 217 168 208 217 168 208 217 168 208 217 168 208 217 168 208 217 168 208 217 168 208 217 168 208 217 168 208 217 168 208 217 168 208 217 168 208 217 168 208 217 168 208 217 168 208 217 168 208 217 168 208 217 168 208 217 168 208 217 139 193 205 139 193 205 139 193 205 139 193 205 139 193 205 139 193 205 139 193 205 139 193 205 139 193 205 139 193 205 139 193 205 139 193 205 139 193 205 139 193 205 139 193 205 139 193 205 168 208 217 168 208 217 168 208 217 168 208 217 168 208 217 168 208 217 168 208 217 168 208 217 168 208 217 168 208 217 168 208 217 168 208 217 168 208 217 168 208 217 168 208 217 168 208 217 139 193 205 139 193 205 139 193 205 139 193 205 139 193 205 139 193 205 139 193 205 139 193 205 139 193 205 139 193 205 139 193 205 139 193 205 139 193 205 139 193 205 139 193 205 139 193 205 139 193 205 139 193 205 139 193 205 139 193 205 139 193 205 139 193 205 139 193 205 139 193 205 139 193 205 139 193 205 139 193 205 139 193 205 139 193 205 139 193 205 139 193 205 139 193 205 139 193 205 139 193 205 139 193 205 139 193 205 139 193 205 139 193 205 139 193 205 139 193 205 139 193 205 139 193 205 139 193 205 139 193 205 139 193 205 139 193 205 139 193 205 139 193 205 139 193 205 139 193 205 139 193 205 139 193 205 139 193 205 139 193 205 139 193 205 139 193 205 139 193 205 139 193 205 139 193 205 139 193 205 139 193 205 139 193 205 139 193 205 139 193 205 139 193 205 139 193 205 139 193 205 139 193 205 139 193 205 139 193 205 139 193 205 139 193 205 139 193 205 139 193 205 139 193 205 139 193 205 139 193 205 139 193 205 139 193 205 139 193 205 139 193 205 139 193 205 139 193 205 139 193 205 139 193 205 139 193 205 139 193 205 139 193 205 139 193 205 139 193 205 139 193 205 139 193 205 139 193 205 139 193 205 139 193 205 139 193 205 139 193 205 139 193 205 139 193 205 139 193 205 139 193 205 139 193 205 139 193 205 139 193 205 139 193 205 139 193 205 139 193 205 139 193 205 139 193 205 139 193 205 139 193 205 139 193 205 139 193 205 139 193 205 139 193 205 139 193 205 139 193 205 139 193 205 139 193 205 139 193 205 139 193 205 139 193 205 139 193 205 139 193 205 139 193 205 139 193 205 139 193 205 139 193 205 139 193 205 139 193 205 139 193 205 139 193 205 139 193 205 139 193 205 139 193 205 139 193 205 139 193 205 139 193 205 139 193 205 139 193 205 139 193 205 139 193 205 139 193 205 139 193 205 139 193 205 139 193 205 139 193 205 139 193 205 139 193 205 139 193 205 139 193 205 139 193 205 139 193 205 139 193 205 139 193 205 139 193 205 139 193 205 139 193 205 139 193 205 139 193 205 168 208 217 168 208 217 168 208 217 168 208 217 168 208 217 168 208 217 168 208 217 168 208 217 168 208 217 168 208 217 168 208 217 168 208 217 168 208 217 168 208 217 168 208 217 168 208 217 168 208 217 168 208 217 168 208 217 168 208 217 168 208 217 168 208 217 168 208 217 168 208 217 168 208 217 168 208 217 168 208 217 168 208 217 168 208 217 168 208 217 168 208 217 168 208 217 168 208 217 168 208 217 168 208 217 168 208 217 168 208 217 168 208 217 168 208 217 168 208 217 168 208 217 168 208 217 168 208 217 168 208 217 168 208 217 168 208 217 168 208 217 168 208 217 168 208 217 168 208 217 168 208 217 168 208 217 168 208 217 168 208 217 168 208 217 168 208 217 168 208 217 168 208 217 168 208 217 168 208 217 168 208 217 168 208 217 168 208 217 139 193 205 139 193 205 139 193 205 139 193 205 139 193 205 139 193 205 139 193 205 139 193 205 139 193 205 139 193 205 139 193 205 139 193 205 139 193 205 139 193 205 139 193 205 139 193 205 168 208 217 168 208 217 168 208 217 168 208 217 168 208 217 168 208 217 168 208 217 168 208 217 168 208 217 168 208 217 168 208 217 168 208 217 168 208 217 168 208 217 168 208 217 168 208 217 139 193 205 139 193 205 139 193 205 139 193 205 139 193 205 139 193 205 139 193 205 139 193 205 139 193 205 139 193 205 139 193 205 139 193 205 139 193 205 139 193 205 139 193 205 139 193 205 139 193 205 139 193 205 139 193 205 139 193 205 139 193 205 139 193 205 139 193 205 139 193 205 139 193 205 139 193 205 139 193 205 139 193 205 139 193 205 139 193 205 139 193 205 139 193 205 139 193 205 139 193 205 139 193 205 139 193 205 139 193 205 139 193 205 139 193 205 139 193 205 139 193 205 139 193 205 139 193 205 139 193 205 139 193 205 139 193 205 139 193 205 139 193 205 139 193 205 139 193 205 139 193 205 139 193 205 139 193 205 139 193 205 139 193 205 139 193 205 139 193 205 139 193 205 139 193 205 139 193 205 139 193 205 139 193 205 139 193 205 139 193 205 139 193 205 139 193 205 139 193 205 139 193 205 139 193 205 139 193 205 139 193 205 139 193 205 139 193 205 139 193 205 139 193 205 139 193 205 139 193 205 139 193 205 139 193 205 139 193 205 139 193 205 139 193 205 139 193 205 139 193 205 139 193 205 139 193 205 139 193 205 139 193 205 139 193 205 139 193 205 139 193 205 139 193 205 139 193 205 139 193 205 139 193 205 139 193 205 139 193 205 139 193 205 139 193 205 139 193 205 139 193 205 139 193 205 139 193 205 139 193 205 139 193 205 139 193 205 139 193 205 139 193 205 139 193 205 139 193 205 139 193 205 139 193 205 139 193 205 139 193 205 139 193 205 139 193 205 139 193 205 139 193 205 139 193 205 139 193 205 139 193 205 139 193 205 139 193 205 139 193 205 139 193 205 139 193 205 139 193 205 139 193 205 139 193 205 139 193 205 139 193 205 139 193 205 139 193 205 139 193 205 139 193 205 139 193 205 139 193 205 139 193 205 139 193 205 139 193 205 139 193 205 139 193 205 139 193 205 139 193 205 139 193 205 139 193 205 139 193 205 139 193 205 139 193 205 139 193 205 139 193 205 139 193 205 139 193 205 139 193 205 139 193 205 139 193 205 139 193 205 139 193 205 139 193 205 139 193 205 168 208 217 168 208 217 168 208 217 168 208 217 168 208 217 168 208 217 168 208 217 168 208 217 168 208 217 168 208 217 168 208 217 168 208 217 168 208 217 168 208 217 168 208 217 168 208 217 168 208 217 168 208 217 168 208 217 168 208 217 168 208 217 168 208 217 168 208 217 168 208 217 168 208 217 168 208 217 168 208 217 168 208 217 168 208 217 168 208 217 168 208 217 168 208 217 168 208 217 168 208 217 168 208 217 168 208 217 168 208 217 168 208 217 168 208 217 168 208 217 168 208 217 168 208 217 168 208 217 168 208 217 168 208 217 168 208 217 168 208 217 168 208 217 168 208 217 168 208 217 168 208 217 168 208 217 168 208 217 168 208 217 168 208 217 168 208 217 168 208 217 168 208 217 168 208 217 168 208 217 168 208 217 168 208 217 168 208 217 139 193 205 139 193 205 139 193 205 139 193 205 139 193 205 139 193 205 139 193 205 139 193 205 139 193 205 139 193 205 139 193 205 139 193 205 139 193 205 139 193 205 139 193 205 139 193 205 168 208 217 168 208 217 168 208 217 168 208 217 168 208 217 168 208 217 168 208 217 168 208 217 168 208 217 168 208 217 168 208 217 168 208 217 168 208 217 168 208 217 168 208 217 168 208 217 139 193 205 139 193 205 139 193 205 139 193 205 139 193 205 139 193 205 139 193 205 139 193 205 139 193 205 139 193 205 139 193 205 139 193 205 139 193 205 139 193 205 139 193 205 139 193 205 139 193 205 139 193 205 139 193 205 139 193 205 139 193 205 139 193 205 139 193 205 139 193 205 139 193 205 139 193 205 139 193 205 139 193 205 139 193 205 139 193 205 139 193 205 139 193 205 139 193 205 139 193 205 139 193 205 139 193 205 139 193 205 139 193 205 139 193 205 139 193 205 139 193 205 139 193 205 139 193 205 139 193 205 139 193 205 139 193 205 139 193 205 139 193 205 139 193 205 139 193 205 139 193 205 139 193 205 139 193 205 139 193 205 139 193 205 139 193 205 139 193 205 139 193 205 139 193 205 139 193 205 139 193 205 139 193 205 139 193 205 139 193 205 139 193 205 139 193 205 139 193 205 139 193 205 139 193 205 139 193 205 139 193 205 139 193 205 139 193 205 139 193 205 139 193 205 139 193 205 139 193 205 139 193 205 139 193 205 139 193 205 139 193 205 139 193 205 139 193 205 139 193 205 139 193 205 139 193 205 139 193 205 139 193 205 139 193 205 139 193 205 139 193 205 139 193 205 139 193 205 139 193 205 139 193 205 139 193 205 139 193 205 139 193 205 139 193 205 139 193 205 139 193 205 139 193 205 139 193 205 139 193 205 139 193 205 139 193 205 139 193 205 139 193 205 139 193 205 139 193 205 139 193 205 139 193 205 139 193 205 139 193 205 139 193 205 139 193 205 139 193 205 139 193 205 139 193 205 139 193 205 139 193 205 139 193 205 139 193 205 139 193 205 139 193 205 139 193 205 139 193 205 139 193 205 139 193 205 139 193 205 139 193 205 139 193 205 139 193 205 139 193 205 139 193 205 139 193 205 139 193 205 139 193 205 139 193 205 139 193 205 139 193 205 139 193 205 139 193 205 139 193 205 139 193 205 139 193 205 139 193 205 139 193 205 139 193 205 139 193 205 139 193 205 139 193 205 139 193 205 139 193 205 139 193 205 139 193 205 139 193 205 139 193 205 139 193 205 139 193 205 168 208 217 168 208 217 168 208 217 168 208 217 168 208 217 168 208 217 168 208 217 168 208 217 168 208 217 168 208 217 168 208 217 168 208 217 168 208 217 168 208 217 168 208 217 168 208 217 168 208 217 168 208 217 168 208 217 168 208 217 168 208 217 168 208 217 168 208 217 168 208 217 168 208 217 168 208 217 168 208 217 168 208 217 168 208 217 168 208 217 168 208 217 168 208 217 168 208 217 168 208 217 168 208 217 168 208 217 168 208 217 168 208 217 168 208 217 168 208 217 168 208 217 168 208 217 168 208 217 168 208 217 168 208 217 168 208 217 168 208 217 168 208 217 168 208 217 168 208 217 168 208 217 168 208 217 168 208 217 168 208 217 168 208 217 168 208 217 168 208 217 168 208 217 168 208 217 168 208 217 168 208 217 168 208 217 168 208 217 139 193 205 139 193 205 139 193 205 139 193 205 139 193 205 139 193 205 139 193 205 139 193 205 139 193 205 139 193 205 139 193 205 139 193 205 139 193 205 139 193 205 139 193 205 139 193 205 168 208 217 168 208 217 168 208 217 168 208 217 168 208 217 168 208 217 168 208 217 168 208 217 168 208 217 168 208 217 168 208 217 168 208 217 168 208 217 168 208 217 168 208 217 168 208 217 139 193 205 139 193 205 139 193 205 139 193 205 139 193 205 139 193 205 139 193 205 139 193 205 139 193 205 139 193 205 139 193 205 139 193 205 139 193 205 139 193 205 139 193 205 139 193 205 139 193 205 139 193 205 139 193 205 139 193 205 139 193 205 139 193 205 139 193 205 139 193 205 139 193 205 139 193 205 139 193 205 139 193 205 139 193 205 139 193 205 139 193 205 139 193 205 139 193 205 139 193 205 139 193 205 139 193 205 139 193 205 139 193 205 139 193 205 139 193 205 139 193 205 139 193 205 139 193 205 139 193 205 139 193 205 139 193 205 139 193 205 139 193 205 139 193 205 139 193 205 139 193 205 139 193 205 139 193 205 139 193 205 139 193 205 139 193 205 139 193 205 139 193 205 139 193 205 139 193 205 139 193 205 139 193 205 139 193 205 139 193 205 139 193 205 139 193 205 139 193 205 139 193 205 139 193 205 139 193 205 139 193 205 139 193 205 139 193 205 139 193 205 139 193 205 139 193 205 139 193 205 139 193 205 139 193 205 139 193 205 139 193 205 139 193 205 139 193 205 139 193 205 139 193 205 139 193 205 139 193 205 139 193 205 139 193 205 139 193 205 139 193 205 139 193 205 139 193 205 139 193 205 139 193 205 139 193 205 139 193 205 139 193 205 139 193 205 139 193 205 139 193 205 139 193 205 139 193 205 139 193 205 139 193 205 139 193 205 139 193 205 139 193 205 139 193 205 139 193 205 139 193 205 139 193 205 139 193 205 139 193 205 139 193 205 139 193 205 139 193 205 139 193 205 139 193 205 139 193 205 139 193 205 139 193 205 139 193 205 139 193 205 139 193 205 139 193 205 139 193 205 139 193 205 139 193 205 139 193 205 139 193 205 139 193 205 139 193 205 139 193 205 139 193 205 139 193 205 139 193 205 139 193 205 139 193 205 139 193 205 139 193 205 139 193 205 139 193 205 139 193 205 139 193 205 139 193 205 139 193 205 139 193 205 139 193 205 139 193 205 139 193 205 139 193 205 139 193 205 139 193 205 139 193 205 139 193 205 139 193 205 139 193 205 139 193 205 139 193 205 168 208 217 168 208 217 168 208 217 168 208 217 168 208 217 168 208 217 168 208 217 168 208 217 168 208 217 168 208 217 168 208 217 168 208 217 168 208 217 168 208 217 168 208 217 168 208 217 168 208 217 168 208 217 168 208 217 168 208 217 168 208 217 168 208 217 168 208 217 168 208 217 168 208 217 168 208 217 168 208 217 168 208 217 168 208 217 168 208 217 168 208 217 168 208 217 168 208 217 168 208 217 168 208 217 168 208 217 168 208 217 168 208 217 168 208 217 168 208 217 168 208 217 168 208 217 168 208 217 168 208 217 168 208 217 168 208 217 168 208 217 168 208 217 168 208 217 168 208 217 168 208 217 168 208 217 168 208 217 168 208 217 168 208 217 168 208 217 168 208 217 168 208 217 168 208 217 168 208 217 168 208 217 168 208 217 168 208 217 139 193 205 139 193 205 139 193 205 139 193 205 139 193 205 139 193 205 139 193 205 139 193 205 139 193 205 139 193 205 139 193 205 139 193 205 139 193 205 139 193 205 139 193 205 139 193 205 168 208 217 168 208 217 168 208 217 168 208 217 168 208 217 168 208 217 168 208 217 168 208 217 168 208 217 168 208 217 168 208 217 168 208 217 168 208 217 168 208 217 168 208 217 168 208 217 139 193 205 139 193 205 139 193 205 139 193 205 139 193 205 139 193 205 139 193 205 139 193 205 139 193 205 139 193 205 139 193 205 139 193 205 139 193 205 139 193 205 139 193 205 139 193 205 139 193 205 139 193 205 139 193 205 139 193 205 139 193 205 139 193 205 139 193 205 139 193 205 139 193 205 139 193 205 139 193 205 139 193 205 139 193 205 139 193 205 139 193 205 139 193 205 139 193 205 139 193 205 139 193 205 139 193 205 139 193 205 139 193 205 139 193 205 139 193 205 139 193 205 139 193 205 139 193 205 139 193 205 139 193 205 139 193 205 139 193 205 139 193 205 139 193 205 139 193 205 139 193 205 139 193 205 139 193 205 139 193 205 139 193 205 139 193 205 139 193 205 139 193 205 139 193 205 139 193 205 139 193 205 139 193 205 139 193 205 139 193 205 139 193 205 139 193 205 139 193 205 139 193 205 139 193 205 139 193 205 139 193 205 139 193 205 139 193 205 139 193 205 139 193 205 139 193 205 139 193 205 139 193 205 139 193 205 139 193 205 139 193 205 139 193 205 139 193 205 139 193 205 139 193 205 139 193 205 139 193 205 139 193 205 139 193 205 139 193 205 139 193 205 139 193 205 139 193 205 139 193 205 139 193 205 139 193 205 139 193 205 139 193 205 139 193 205 139 193 205 139 193 205 139 193 205 139 193 205 139 193 205 139 193 205 139 193 205 139 193 205 139 193 205 139 193 205 139 193 205 139 193 205 139 193 205 139 193 205 139 193 205 139 193 205 139 193 205 139 193 205 139 193 205 139 193 205 139 193 205 139 193 205 139 193 205 139 193 205 139 193 205 139 193 205 139 193 205 139 193 205 139 193 205 139 193 205 139 193 205 139 193 205 139 193 205 139 193 205 139 193 205 139 193 205 139 193 205 139 193 205 139 193 205 139 193 205 139 193 205 139 193 205 139 193 205 139 193 205 139 193 205 139 193 205 139 193 205 139 193 205 139 193 205 139 193 205 139 193 205 139 193 205 139 193 205 139 193 205 139 193 205 139 193 205 139 193 205 139 193 205 139 193 205 139 193 205 139 193 205 168 208 217 168 208 217 168 208 217 168 208 217 168 208 217 168 208 217 168 208 217 168 208 217 168 208 217 168 208 217 168 208 217 168 208 217 168 208 217 168 208 217 168 208 217 168 208 217 168 208 217 168 208 217 168 208 217 168 208 217 168 208 217 168 208 217 168 208 217 168 208 217 168 208 217 168 208 217 168 208 217 168 208 217 168 208 217 168 208 217 168 208 217 168 208 217 168 208 217 168 208 217 168 208 217 168 208 217 168 208 217 168 208 217 168 208 217 168 208 217 168 208 217 168 208 217 168 208 217 168 208 217 168 208 217 168 208 217 168 208 217 168 208 217 168 208 217 168 208 217 168 208 217 168 208 217 168 208 217 168 208 217 168 208 217 168 208 217 168 208 217 168 208 217 168 208 217 168 208 217 168 208 217 168 208 217 168 208 217 139 193 205 139 193 205 139 193 205 139 193 205 139 193 205 139 193 205 139 193 205 139 193 205 139 193 205 139 193 205 139 193 205 139 193 205 139 193 205 139 193 205 139 193 205 139 193 205 168 208 217 168 208 217 168 208 217 168 208 217 168 208 217 168 208 217 168 208 217 168 208 217 168 208 217 168 208 217 168 208 217 168 208 217 168 208 217 168 208 217 168 208 217 168 208 217 139 193 205 139 193 205 139 193 205 139 193 205 139 193 205 139 193 205 139 193 205 139 193 205 139 193 205 139 193 205 139 193 205 139 193 205 139 193 205 139 193 205 139 193 205 139 193 205 139 193 205 139 193 205 139 193 205 139 193 205 139 193 205 139 193 205 139 193 205 139 193 205 139 193 205 139 193 205 139 193 205 139 193 205 139 193 205 139 193 205 139 193 205 139 193 205 139 193 205 139 193 205 139 193 205 139 193 205 139 193 205 139 193 205 139 193 205 139 193 205 139 193 205 139 193 205 139 193 205 139 193 205 139 193 205 139 193 205 139 193 205 139 193 205 139 193 205 139 193 205 139 193 205 139 193 205 139 193 205 139 193 205 139 193 205 139 193 205 139 193 205 139 193 205 139 193 205 139 193 205 139 193 205 139 193 205 139 193 205 139 193 205 139 193 205 139 193 205 139 193 205 139 193 205 139 193 205 139 193 205 139 193 205 139 193 205 139 193 205 139 193 205 139 193 205 139 193 205 139 193 205 139 193 205 139 193 205 139 193 205 139 193 205 139 193 205 139 193 205 139 193 205 139 193 205 139 193 205 139 193 205 139 193 205 139 193 205 139 193 205 139 193 205 139 193 205 139 193 205 139 193 205 139 193 205 139 193 205 139 193 205 139 193 205 139 193 205 139 193 205 139 193 205 139 193 205 139 193 205 139 193 205 139 193 205 139 193 205 139 193 205 139 193 205 139 193 205 139 193 205 139 193 205 139 193 205 139 193 205 139 193 205 139 193 205 139 193 205 139 193 205 139 193 205 139 193 205 139 193 205 139 193 205 139 193 205 139 193 205 139 193 205 139 193 205 139 193 205 139 193 205 139 193 205 139 193 205 139 193 205 139 193 205 139 193 205 139 193 205 139 193 205 139 193 205 139 193 205 139 193 205 139 193 205 139 193 205 139 193 205 139 193 205 139 193 205 139 193 205 139 193 205 139 193 205 139 193 205 139 193 205 139 193 205 139 193 205 139 193 205 139 193 205 139 193 205 139 193 205 139 193 205 139 193 205 139 193 205 139 193 205 139 193 205 139 193 205 139 193 205 168 208 217 168 208 217 168 208 217 168 208 217 168 208 217 168 208 217 168 208 217 168 208 217 168 208 217 168 208 217 168 208 217 168 208 217 168 208 217 168 208 217 168 208 217 168 208 217 168 208 217 168 208 217 168 208 217 168 208 217 168 208 217 168 208 217 168 208 217 168 208 217 168 208 217 168 208 217 168 208 217 168 208 217 168 208 217 168 208 217 168 208 217 168 208 217 168 208 217 168 208 217 168 208 217 168 208 217 168 208 217 168 208 217 168 208 217 168 208 217 168 208 217 168 208 217 168 208 217 168 208 217 168 208 217 168 208 217 168 208 217 168 208 217 168 208 217 168 208 217 168 208 217 168 208 217 168 208 217 168 208 217 168 208 217 168 208 217 168 208 217 168 208 217 168 208 217 168 208 217 168 208 217 168 208 217 168 208 217 139 193 205 139 193 205 139 193 205 139 193 205 139 193 205 139 193 205 139 193 205 139 193 205 139 193 205 139 193 205 139 193 205 139 193 205 139 193 205 139 193 205 139 193 205 139 193 205 168 208 217 168 208 217 168 208 217 168 208 217 168 208 217 168 208 217 168 208 217 168 208 217 168 208 217 168 208 217 168 208 217 168 208 217 168 208 217 168 208 217 168 208 217 168 208 217 139 193 205 139 193 205 139 193 205 139 193 205 139 193 205 139 193 205 139 193 205 139 193 205 139 193 205 139 193 205 139 193 205 139 193 205 139 193 205 139 193 205 139 193 205 139 193 205 139 193 205 139 193 205 139 193 205 139 193 205 139 193 205 139 193 205 139 193 205 139 193 205 139 193 205 139 193 205 139 193 205 139 193 205 139 193 205 139 193 205 139 193 205 139 193 205 139 193 205 139 193 205 139 193 205 139 193 205 139 193 205 139 193 205 139 193 205 139 193 205 139 193 205 139 193 205 139 193 205 139 193 205 139 193 205 139 193 205 139 193 205 139 193 205 139 193 205 139 193 205 139 193 205 139 193 205 139 193 205 139 193 205 139 193 205 139 193 205 139 193 205 139 193 205 139 193 205 139 193 205 139 193 205 139 193 205 139 193 205 139 193 205 139 193 205 139 193 205 139 193 205 139 193 205 139 193 205 139 193 205 139 193 205 139 193 205 139 193 205 139 193 205 139 193 205 139 193 205 139 193 205 139 193 205 139 193 205 139 193 205 139 193 205 139 193 205 139 193 205 139 193 205 139 193 205 139 193 205 139 193 205 139 193 205 139 193 205 139 193 205 139 193 205 139 193 205 139 193 205 139 193 205 139 193 205 139 193 205 139 193 205 139 193 205 139 193 205 139 193 205 139 193 205 139 193 205 139 193 205 139 193 205 139 193 205 139 193 205 139 193 205 139 193 205 139 193 205 139 193 205 139 193 205 139 193 205 139 193 205 139 193 205 139 193 205 139 193 205 139 193 205 139 193 205 139 193 205 139 193 205 139 193 205 139 193 205 139 193 205 139 193 205 139 193 205 139 193 205 139 193 205 139 193 205 139 193 205 139 193 205 139 193 205 139 193 205 139 193 205 139 193 205 139 193 205 139 193 205 139 193 205 139 193 205 139 193 205 139 193 205 139 193 205 139 193 205 139 193 205 139 193 205 139 193 205 139 193 205 139 193 205 139 193 205 139 193 205 139 193 205 139 193 205 139 193 205 139 193 205 139 193 205 139 193 205 139 193 205 139 193 205 139 193 205 139 193 205 139 193 205 168 208 217 168 208 217 168 208 217 168 208 217 168 208 217 168 208 217 168 208 217 168 208 217 168 208 217 168 208 217 168 208 217 168 208 217 168 208 217 168 208 217 168 208 217 168 208 217 168 208 217 168 208 217 168 208 217 168 208 217 168 208 217 168 208 217 168 208 217 168 208 217 168 208 217 168 208 217 168 208 217 168 208 217 168 208 217 168 208 217 168 208 217 168 208 217 168 208 217 168 208 217 168 208 217 168 208 217 168 208 217 168 208 217 168 208 217 168 208 217 168 208 217 168 208 217 168 208 217 168 208 217 168 208 217 168 208 217 168 208 217 168 208 217 168 208 217 168 208 217 168 208 217 168 208 217 168 208 217 168 208 217 168 208 217 168 208 217 168 208 217 168 208 217 168 208 217 168 208 217 168 208 217 168 208 217 168 208 217 139 193 205 139 193 205 139 193 205 139 193 205 139 193 205 139 193 205 139 193 205 139 193 205 139 193 205 139 193 205 139 193 205 139 193 205 139 193 205 139 193 205 139 193 205 139 193 205 168 208 217 168 208 217 168 208 217 168 208 217 168 208 217 168 208 217 168 208 217 168 208 217 168 208 217 168 208 217 168 208 217 168 208 217 168 208 217 168 208 217 168 208 217 168 208 217 139 193 205 139 193 205 139 193 205 139 193 205 139 193 205 139 193 205 139 193 205 139 193 205 139 193 205 139 193 205 139 193 205 139 193 205 139 193 205 139 193 205 139 193 205 139 193 205 139 193 205 139 193 205 139 193 205 139 193 205 139 193 205 139 193 205 139 193 205 139 193 205 139 193 205 139 193 205 139 193 205 139 193 205 139 193 205 139 193 205 139 193 205 139 193 205 139 193 205 139 193 205 139 193 205 139 193 205 139 193 205 139 193 205 139 193 205 139 193 205 139 193 205 139 193 205 139 193 205 139 193 205 139 193 205 139 193 205 139 193 205 139 193 205 139 193 205 139 193 205 139 193 205 139 193 205 139 193 205 139 193 205 139 193 205 139 193 205 139 193 205 139 193 205 139 193 205 139 193 205 139 193 205 139 193 205 139 193 205 139 193 205 139 193 205 139 193 205 139 193 205 139 193 205 139 193 205 139 193 205 139 193 205 139 193 205 139 193 205 139 193 205 139 193 205 139 193 205 139 193 205 139 193 205 139 193 205 139 193 205 139 193 205 139 193 205 139 193 205 139 193 205 139 193 205 139 193 205 139 193 205 139 193 205 139 193 205 139 193 205 139 193 205 139 193 205 139 193 205 139 193 205 139 193 205 139 193 205 139 193 205 139 193 205 139 193 205 139 193 205 139 193 205 139 193 205 139 193 205 139 193 205 139 193 205 139 193 205 139 193 205 139 193 205 139 193 205 139 193 205 139 193 205 139 193 205 139 193 205 139 193 205 139 193 205 139 193 205 139 193 205 139 193 205 139 193 205 139 193 205 139 193 205 139 193 205 139 193 205 139 193 205 139 193 205 139 193 205 139 193 205 139 193 205 139 193 205 139 193 205 139 193 205 139 193 205 139 193 205 139 193 205 139 193 205 139 193 205 139 193 205 139 193 205 139 193 205 139 193 205 139 193 205 139 193 205 139 193 205 139 193 205 139 193 205 139 193 205 139 193 205 139 193 205 139 193 205 139 193 205 139 193 205 139 193 205 139 193 205 139 193 205 139 193 205 139 193 205 139 193 205 139 193 205 139 193 205 139 193 205 168 208 217 168 208 217 168 208 217 168 208 217 168 208 217 168 208 217 168 208 217 168 208 217 168 208 217 168 208 217 168 208 217 168 208 217 168 208 217 168 208 217 168 208 217 168 208 217 168 208 217 168 208 217 168 208 217 168 208 217 168 208 217 168 208 217 168 208 217 168 208 217 168 208 217 168 208 217 168 208 217 168 208 217 168 208 217 168 208 217 168 208 217 168 208 217 