P3
255 255
255
81 113 43 81 113 43 81 113 43 81 113 43 81 113 43 81 113 43 81 113 43 81 113 43 81 113 43 81 113 43 81 113 43 81 113 43 81 113 43 81 113 43 81 113 43 81 113 43 106 149 57 106 149 57 106 149 57 106 149 57 106 149 57 106 149 57 106 149 57 106 149 57 106 149 57 106 149 57 106 149 57 106 149 57 106 149 57 106 149 57 106 149 57 106 149 57 80 112 43 80 112 43 80 112 43 80 112 43 80 112 43 80 112 43 80 112 43 80 112 43 80 112 43 80 112 43 80 112 43 80 112 43 80 112 43 80 112 43 80 112 43 80 112 43 73 102 39 73 102 39 73 102 39 73 102 39 73 102 39 73 102 39 73 102 39 73 102 39 73 102 39 73 102 39 73 102 39 73 102 39 73 102 39 73 102 39 73 102 39 73 102 39 73 102 39 73 102 39 73 102 39 73 102 39 73 102 39 73 102 39 73 102 39 73 102 39 73 102 39 73 102 39 73 102 39 73 102 39 73 102 39 73 102 39 73 102 39 73 102 39 78 109 41 78 109 41 78 109 41 78 109 41 78 109 41 78 109 41 78 109 41 78 109 41 78 109 41 78 109 41 78 109 41 78 109 41 78 109 41 78 109 41 78 109 41 78 109 41 69 97 37 69 97 37 69 97 37 69 97 37 69 97 37 69 97 37 69 97 37 69 97 37 69 97 37 69 97 37 69 97 37 69 97 37 69 97 37 69 97 37 69 97 37 69 97 37 76 107 41 76 107 41 76 107 41 76 107 41 76 107 41 76 107 41 76 107 41 76 107 41 76 107 41 76 107 41 76 107 41 76 107 41 76 107 41 76 107 41 76 107 41 76 107 41 86 121 46 86 121 46 86 121 46 86 121 46 86 121 46 86 121 46 86 121 46 86 121 46 86 121 46 86 121 46 86 121 46 86 121 46 86 121 46 86 121 46 86 121 46 82 115 44 82 115 44 82 115 44 82 115 44 82 115 44 82 115 44 82 115 44 82 115 44 82 115 44 82 115 44 82 115 44 82 115 44 82 115 44 82 115 44 82 115 44 82 115 44 75 106 40 75 106 40 75 106 40 75 106 40 75 106 40 75 106 40 75 106 40 75 106 40 75 106 40 75 106 40 75 106 40 75 106 40 75 106 40 75 106 40 75 106 40 75 106 40 74 103 39 74 103 39 74 103 39 74 103 39 74 103 39 74 103 39 74 103 39 74 103 39 74 103 39 74 103 39 74 103 39 74 103 39 74 103 39 74 103 39 74 103 39 74 103 39 75 105 40 75 105 40 75 105 40 75 105 40 75 105 40 75 105 40 75 105 40 75 105 40 75 105 40 75 105 40 75 105 40 75 105 40 75 105 40 75 105 40 75 105 40 75 105 40 91 128 48 91 128 48 91 128 48 91 128 48 91 128 48 91 128 48 91 128 48 91 128 48 91 128 48 91 128 48 91 128 48 91 128 48 91 128 48 91 128 48 91 128 48 91 128 48 61 86 32 61 86 32 61 86 32 61 86 32 61 86 32 61 86 32 61 86 32 61 86 32 61 86 32 61 86 32 61 86 32 61 86 32 61 86 32 61 86 32 61 86 32 61 86 32 77 108 41 77 108 41 77 108 41 77 108 41 77 108 41 77 108 41 77 108 41 77 108 41 77 108 41 77 108 41 77 108 41 77 108 41 77 108 41 77 108 41 77 108 41 77 108 41 81 113 43 81 113 43 81 113 43 81 113 43 81 113 43 81 113 43 81 113 43 81 113 43 81 113 43 81 113 43 81 113 43 81 113 43 81 113 43 81 113 43 81 113 43 81 113 43 106 149 57 106 149 57 106 149 57 106 149 57 106 149 57 106 149 57 106 149 57 106 149 57 106 149 57 106 149 57 106 149 57 106 149 57 106 149 57 106 149 57 106 149 57 106 149 57 80 112 43 80 112 43 80 112 43 80 112 43 80 112 43 80 112 43 80 112 43 80 112 43 80 112 43 80 112 43 80 112 43 80 112 43 80 112 43 80 112 43 80 112 43 80 112 43 73 102 39 73 102 39 73 102 39 73 102 39 73 102 39 73 102 39 73 102 39 73 102 39 73 102 39 73 102 39 73 102 39 73 102 39 73 102 39 73 102 39 73 102 39 73 102 39 73 102 39 73 102 39 73 102 39 73 102 39 73 102 39 73 102 39 73 102 39 73 102 39 73 102 39 73 102 39 73 102 39 73 102 39 73 102 39 73 102 39 73 102 39 73 102 39 78 109 41 78 109 41 78 109 41 78 109 41 78 109 41 78 109 41 78 109 41 78 109 41 78 109 41 78 109 41 78 109 41 78 109 41 78 109 41 78 109 41 78 109 41 78 109 41 69 97 37 69 97 37 69 97 37 69 97 37 69 97 37 69 97 37 69 97 37 69 97 37 69 97 37 69 97 37 69 97 37 69 97 37 69 97 37 69 97 37 69 97 37 69 97 37 76 107 41 76 107 41 76 107 41 76 107 41 76 107 41 76 107 41 76 107 41 76 107 41 76 107 41 76 107 41 76 107 41 76 107 41 76 107 41 76 107 41 76 107 41 76 107 41 86 121 46 86 121 46 86 121 46 86 121 46 86 121 46 86 121 46 86 121 46 86 121 46 86 121 46 86 121 46 86 121 46 86 121 46 86 121 46 86 121 46 86 121 46 82 115 44 82 115 44 82 115 44 82 115 44 82 115 44 82 115 44 82 115 44 82 115 44 82 115 44 82 115 44 82 115 44 82 115 44 82 115 44 82 115 44 82 115 44 82 115 44 75 106 40 75 106 40 75 106 40 75 106 40 75 106 40 75 106 40 75 106 40 75 106 40 75 106 40 75 106 40 75 106 40 75 106 40 75 106 40 75 106 40 75 106 40 75 106 40 74 103 39 74 103 39 74 103 39 74 103 39 74 103 39 74 103 39 74 103 39 74 103 39 74 103 39 74 103 39 74 103 39 74 103 39 74 103 39 74 103 39 74 103 39 74 103 39 75 105 40 75 105 40 75 105 40 75 105 40 75 105 40 75 105 40 75 105 40 75 105 40 75 105 40 75 105 40 75 105 40 75 105 40 75 105 40 75 105 40 75 105 40 75 105 40 91 128 48 91 128 48 91 128 48 91 128 48 91 128 48 91 128 48 91 128 48 91 128 48 91 128 48 91 128 48 91 128 48 91 128 48 91 128 48 91 128 48 91 128 48 91 128 48 61 86 32 61 86 32 61 86 32 61 86 32 61 86 32 61 86 32 61 86 32 61 86 32 61 86 32 61 86 32 61 86 32 61 86 32 61 86 32 61 86 32 61 86 32 61 86 32 77 108 41 77 108 41 77 108 41 77 108 41 77 108 41 77 108 41 77 108 41 77 108 41 77 108 41 77 108 41 77 108 41 77 108 41 77 108 41 77 108 41 77 108 41 77 108 41 81 113 43 81 113 43 81 113 43 81 113 43 81 113 43 81 113 43 81 113 43 81 113 43 81 113 43 81 113 43 81 113 43 81 113 43 81 113 43 81 113 43 81 113 43 81 113 43 106 149 57 106 149 57 106 149 57 106 149 57 106 149 57 106 149 57 106 149 57 106 149 57 106 149 57 106 149 57 106 149 57 106 149 57 106 149 57 106 149 57 106 149 57 106 149 57 80 112 43 80 112 43 80 112 43 80 112 43 80 112 43 80 112 43 80 112 43 80 112 43 80 112 43 80 112 43 80 112 43 80 112 43 80 112 43 80 112 43 80 112 43 80 112 43 73 102 39 73 102 39 73 102 39 73 102 39 73 102 39 73 102 39 73 102 39 73 102 39 73 102 39 73 102 39 73 102 39 73 102 39 73 102 39 73 102 39 73 102 39 73 102 39 73 102 39 73 102 39 73 102 39 73 102 39 73 102 39 73 102 39 73 102 39 73 102 39 73 102 39 73 102 39 73 102 39 73 102 39 73 102 39 73 102 39 73 102 39 73 102 39 78 109 41 78 109 41 78 109 41 78 109 41 78 109 41 78 109 41 78 109 41 78 109 41 78 109 41 78 109 41 78 109 41 78 109 41 78 109 41 78 109 41 78 109 41 78 109 41 69 97 37 69 97 37 69 97 37 69 97 37 69 97 37 69 97 37 69 97 37 69 97 37 69 97 37 69 97 37 69 97 37 69 97 37 69 97 37 69 97 37 69 97 37 69 97 37 76 107 41 76 107 41 76 107 41 76 107 41 76 107 41 76 107 41 76 107 41 76 107 41 76 107 41 76 107 41 76 107 41 76 107 41 76 107 41 76 107 41 76 107 41 76 107 41 86 121 46 86 121 46 86 121 46 86 121 46 86 121 46 86 121 46 86 121 46 86 121 46 86 121 46 86 121 46 86 121 46 86 121 46 86 121 46 86 121 46 86 121 46 82 115 44 82 115 44 82 115 44 82 115 44 82 115 44 82 115 44 82 115 44 82 115 44 82 115 44 82 115 44 82 115 44 82 115 44 82 115 44 82 115 44 82 115 44 82 115 44 75 106 40 75 106 40 75 106 40 75 106 40 75 106 40 75 106 40 75 106 40 75 106 40 75 106 40 75 106 40 75 106 40 75 106 40 75 106 40 75 106 40 75 106 40 75 106 40 74 103 39 74 103 39 74 103 39 74 103 39 74 103 39 74 103 39 74 103 39 74 103 39 74 103 39 74 103 39 74 103 39 74 103 39 74 103 39 74 103 39 74 103 39 74 103 39 75 105 40 75 105 40 75 105 40 75 105 40 75 105 40 75 105 40 75 105 40 75 105 40 75 105 40 75 105 40 75 105 40 75 105 40 75 105 40 75 105 40 75 105 40 75 105 40 91 128 48 91 128 48 91 128 48 91 128 48 91 128 48 91 128 48 91 128 48 91 128 48 91 128 48 91 128 48 91 128 48 91 128 48 91 128 48 91 128 48 91 128 48 91 128 48 61 86 32 61 86 32 61 86 32 61 86 32 61 86 32 61 86 32 61 86 32 61 86 32 61 86 32 61 86 32 61 86 32 61 86 32 61 86 32 61 86 32 61 86 32 61 86 32 77 108 41 77 108 41 77 108 41 77 108 41 77 108 41 77 108 41 77 108 41 77 108 41 77 108 41 77 108 41 77 108 41 77 108 41 77 108 41 77 108 41 77 108 41 77 108 41 81 113 43 81 113 43 81 113 43 81 113 43 81 113 43 81 113 43 81 113 43 81 113 43 81 113 43 81 113 43 81 113 43 81 113 43 81 113 43 81 113 43 81 113 43 81 113 43 106 149 57 106 149 57 106 149 57 106 149 57 106 149 57 106 149 57 106 149 57 106 149 57 106 149 57 106 149 57 106 149 57 106 149 57 106 149 57 106 149 57 106 149 57 106 149 57 80 112 43 80 112 43 80 112 43 80 112 43 80 112 43 80 112 43 80 112 43 80 112 43 80 112 43 80 112 43 80 112 43 80 112 43 80 112 43 80 112 43 80 112 43 80 112 43 73 102 39 73 102 39 73 102 39 73 102 39 73 102 39 73 102 39 73 102 39 73 102 39 73 102 39 73 102 39 73 102 39 73 102 39 73 102 39 73 102 39 73 102 39 73 102 39 73 102 39 73 102 39 73 102 39 73 102 39 73 102 39 73 102 39 73 102 39 73 102 39 73 102 39 73 102 39 73 102 39 73 102 39 73 102 39 73 102 39 73 102 39 73 102 39 78 109 41 78 109 41 78 109 41 78 109 41 78 109 41 78 109 41 78 109 41 78 109 41 78 109 41 78 109 41 78 109 41 78 109 41 78 109 41 78 109 41 78 109 41 78 109 41 69 97 37 69 97 37 69 97 37 69 97 37 69 97 37 69 97 37 69 97 37 69 97 37 69 97 37 69 97 37 69 97 37 69 97 37 69 97 37 69 97 37 69 97 37 69 97 37 76 107 41 76 107 41 76 107 41 76 107 41 76 107 41 76 107 41 76 107 41 76 107 41 76 107 41 76 107 41 76 107 41 76 107 41 76 107 41 76 107 41 76 107 41 76 107 41 86 121 46 86 121 46 86 121 46 86 121 46 86 121 46 86 121 46 86 121 46 86 121 46 86 121 46 86 121 46 86 121 46 86 121 46 86 121 46 86 121 46 86 121 46 82 115 44 82 115 44 82 115 44 82 115 44 82 115 44 82 115 44 82 115 44 82 115 44 82 115 44 82 115 44 82 115 44 82 115 44 82 115 44 82 115 44 82 115 44 82 115 44 75 106 40 75 106 40 75 106 40 75 106 40 75 106 40 75 106 40 75 106 40 75 106 40 75 106 40 75 106 40 75 106 40 75 106 40 75 106 40 75 106 40 75 106 40 75 106 40 74 103 39 74 103 39 74 103 39 74 103 39 74 103 39 74 103 39 74 103 39 74 103 39 74 103 39 74 103 39 74 103 39 74 103 39 74 103 39 74 103 39 74 103 39 74 103 39 75 105 40 75 105 40 75 105 40 75 105 40 75 105 40 75 105 40 75 105 40 75 105 40 75 105 40 75 105 40 75 105 40 75 105 40 75 105 40 75 105 40 75 105 40 75 105 40 91 128 48 91 128 48 91 128 48 91 128 48 91 128 48 91 128 48 91 128 48 91 128 48 91 128 48 91 128 48 91 128 48 91 128 48 91 128 48 91 128 48 91 128 48 91 128 48 61 86 32 61 86 32 61 86 32 61 86 32 61 86 32 61 86 32 61 86 32 61 86 32 61 86 32 61 86 32 61 86 32 61 86 32 61 86 32 61 86 32 61 86 32 61 86 32 77 108 41 77 108 41 77 108 41 77 108 41 77 108 41 77 108 41 77 108 41 77 108 41 77 108 41 77 108 41 77 108 41 77 108 41 77 108 41 77 108 41 77 108 41 77 108 41 81 113 43 81 113 43 81 113 43 81 113 43 81 113 43 81 113 43 81 113 43 81 113 43 81 113 43 81 113 43 81 113 43 81 113 43 81 113 43 81 113 43 81 113 43 81 113 43 106 149 57 106 149 57 106 149 57 106 149 57 106 149 57 106 149 57 106 149 57 106 149 57 106 149 57 106 149 57 106 149 57 106 149 57 106 149 57 106 149 57 106 149 57 106 149 57 80 112 43 80 112 43 80 112 43 80 112 43 80 112 43 80 112 43 80 112 43 80 112 43 80 112 43 80 112 43 80 112 43 80 112 43 80 112 43 80 112 43 80 112 43 80 112 43 73 102 39 73 102 39 73 102 39 73 102 39 73 102 39 73 102 39 73 102 39 73 102 39 73 102 39 73 102 39 73 102 39 73 102 39 73 102 39 73 102 39 73 102 39 73 102 39 73 102 39 73 102 39 73 102 39 73 102 39 73 102 39 73 102 39 73 102 39 73 102 39 73 102 39 73 102 39 73 102 39 73 102 39 73 102 39 73 102 39 73 102 39 73 102 39 78 109 41 78 109 41 78 109 41 78 109 41 78 109 41 78 109 41 78 109 41 78 109 41 78 109 41 78 109 41 78 109 41 78 109 41 78 109 41 78 109 41 78 109 41 78 109 41 69 97 37 69 97 37 69 97 37 69 97 37 69 97 37 69 97 37 69 97 37 69 97 37 69 97 37 69 97 37 69 97 37 69 97 37 69 97 37 69 97 37 69 97 37 69 97 37 76 107 41 76 107 41 76 107 41 76 107 41 76 107 41 76 107 41 76 107 41 76 107 41 76 107 41 76 107 41 76 107 41 76 107 41 76 107 41 76 107 41 76 107 41 76 107 41 86 121 46 86 121 46 86 121 46 86 121 46 86 121 46 86 121 46 86 121 46 86 121 46 86 121 46 86 121 46 86 121 46 86 121 46 86 121 46 86 121 46 86 121 46 82 115 44 82 115 44 82 115 44 82 115 44 82 115 44 82 115 44 82 115 44 82 115 44 82 115 44 82 115 44 82 115 44 82 115 44 82 115 44 82 115 44 82 115 44 82 115 44 75 106 40 75 106 40 75 106 40 75 106 40 75 106 40 75 106 40 75 106 40 75 106 40 75 106 40 75 106 40 75 106 40 75 106 40 75 106 40 75 106 40 75 106 40 75 106 40 74 103 39 74 103 39 74 103 39 74 103 39 74 103 39 74 103 39 74 103 39 74 103 39 74 103 39 74 103 39 74 103 39 74 103 39 74 103 39 74 103 39 74 103 39 74 103 39 75 105 40 75 105 40 75 105 40 75 105 40 75 105 40 75 105 40 75 105 40 75 105 40 75 105 40 75 105 40 75 105 40 75 105 40 75 105 40 75 105 40 75 105 40 75 105 40 91 128 48 91 128 48 91 128 48 91 128 48 91 128 48 91 128 48 91 128 48 91 128 48 91 128 48 91 128 48 91 128 48 91 128 48 91 128 48 91 128 48 91 128 48 91 128 48 61 86 32 61 86 32 61 86 32 61 86 32 61 86 32 61 86 32 61 86 32 61 86 32 61 86 32 61 86 32 61 86 32 61 86 32 61 86 32 61 86 32 61 86 32 61 86 32 77 108 41 77 108 41 77 108 41 77 108 41 77 108 41 77 108 41 77 108 41 77 108 41 77 108 41 77 108 41 77 108 41 77 108 41 77 108 41 77 108 41 77 108 41 77 108 41 81 113 43 81 113 43 81 113 43 81 113 43 81 113 43 81 113 43 81 113 43 81 113 43 81 113 43 81 113 43 81 113 43 81 113 43 81 113 43 81 113 43 81 113 43 81 113 43 106 149 57 106 149 57 106 149 57 106 149 57 106 149 57 106 149 57 106 149 57 106 149 57 106 149 57 106 149 57 106 149 57 106 149 57 106 149 57 106 149 57 106 149 57 106 149 57 80 112 43 80 112 43 80 112 43 80 112 43 80 112 43 80 112 43 80 112 43 80 112 43 80 112 43 80 112 43 80 112 43 80 112 43 80 112 43 80 112 43 80 112 43 80 112 43 73 102 39 73 102 39 73 102 39 73 102 39 73 102 39 73 102 39 73 102 39 73 102 39 73 102 39 73 102 39 73 102 39 73 102 39 73 102 39 73 102 39 73 102 39 73 102 39 73 102 39 73 102 39 73 102 39 73 102 39 73 102 39 73 102 39 73 102 39 73 102 39 73 102 39 73 102 39 73 102 39 73 102 39 73 102 39 73 102 39 73 102 39 73 102 39 78 109 41 78 109 41 78 109 41 78 109 41 78 109 41 78 109 41 78 109 41 78 109 41 78 109 41 78 109 41 78 109 41 78 109 41 78 109 41 78 109 41 78 109 41 78 109 41 69 97 37 69 97 37 69 97 37 69 97 37 69 97 37 69 97 37 69 97 37 69 97 37 69 97 37 69 97 37 69 97 37 69 97 37 69 97 37 69 97 37 69 97 37 69 97 37 76 107 41 76 107 41 76 107 41 76 107 41 76 107 41 76 107 41 76 107 41 76 107 41 76 107 41 76 107 41 76 107 41 76 107 41 76 107 41 76 107 41 76 107 41 76 107 41 86 121 46 86 121 46 86 121 46 86 121 46 86 121 46 86 121 46 86 121 46 86 121 46 86 121 46 86 121 46 86 121 46 86 121 46 86 121 46 86 121 46 86 121 46 82 115 44 82 115 44 82 115 44 82 115 44 82 115 44 82 115 44 82 115 44 82 115 44 82 115 44 82 115 44 82 115 44 82 115 44 82 115 44 82 115 44 82 115 44 82 115 44 75 106 40 75 106 40 75 106 40 75 106 40 75 106 40 75 106 40 75 106 40 75 106 40 75 106 40 75 106 40 75 106 40 75 106 40 75 106 40 75 106 40 75 106 40 75 106 40 74 103 39 74 103 39 74 103 39 74 103 39 74 103 39 74 103 39 74 103 39 74 103 39 74 103 39 74 103 39 74 103 39 74 103 39 74 103 39 74 103 39 74 103 39 74 103 39 75 105 40 75 105 40 75 105 40 75 105 40 75 105 40 75 105 40 75 105 40 75 105 40 75 105 40 75 105 40 75 105 40 75 105 40 75 105 40 75 105 40 75 105 40 75 105 40 91 128 48 91 128 48 91 128 48 91 128 48 91 128 48 91 128 48 91 128 48 91 128 48 91 128 48 91 128 48 91 128 48 91 128 48 91 128 48 91 128 48 91 128 48 91 128 48 61 86 32 61 86 32 61 86 32 61 86 32 61 86 32 61 86 32 61 86 32 61 86 32 61 86 32 61 86 32 61 86 32 61 86 32 61 86 32 61 86 32 61 86 32 61 86 32 77 108 41 77 108 41 77 108 41 77 108 41 77 108 41 77 108 41 77 108 41 77 108 41 77 108 41 77 108 41 77 108 41 77 108 41 77 108 41 77 108 41 77 108 41 77 108 41 81 113 43 81 113 43 81 113 43 81 113 43 81 113 43 81 113 43 81 113 43 81 113 43 81 113 43 81 113 43 81 113 43 81 113 43 81 113 43 81 113 43 81 113 43 81 113 43 106 149 57 106 149 57 106 149 57 106 149 57 106 149 57 106 149 57 106 149 57 106 149 57 106 149 57 106 149 57 106 149 57 106 149 57 106 149 57 106 149 57 106 149 57 106 149 57 80 112 43 80 112 43 80 112 43 80 112 43 80 112 43 80 112 43 80 112 43 80 112 43 80 112 43 80 112 43 80 112 43 80 112 43 80 112 43 80 112 43 80 112 43 80 112 43 73 102 39 73 102 39 73 102 39 73 102 39 73 102 39 73 102 39 73 102 39 73 102 39 73 102 39 73 102 39 73 102 39 73 102 39 73 102 39 73 102 39 73 102 39 73 102 39 73 102 39 73 102 39 73 102 39 73 102 39 73 102 39 73 102 39 73 102 39 73 102 39 73 102 39 73 102 39 73 102 39 73 102 39 73 102 39 73 102 39 73 102 39 73 102 39 78 109 41 78 109 41 78 109 41 78 109 41 78 109 41 78 109 41 78 109 41 78 109 41 78 109 41 78 109 41 78 109 41 78 109 41 78 109 41 78 109 41 78 109 41 78 109 41 69 97 37 69 97 37 69 97 37 69 97 37 69 97 37 69 97 37 69 97 37 69 97 37 69 97 37 69 97 37 69 97 37 69 97 37 69 97 37 69 97 37 69 97 37 69 97 37 76 107 41 76 107 41 76 107 41 76 107 41 76 107 41 76 107 41 76 107 41 76 107 41 76 107 41 76 107 41 76 107 41 76 107 41 76 107 41 76 107 41 76 107 41 76 107 41 86 121 46 86 121 46 86 121 46 86 121 46 86 121 46 86 121 46 86 121 46 86 121 46 86 121 46 86 121 46 86 121 46 86 121 46 86 121 46 86 121 46 86 121 46 82 115 44 82 115 44 82 115 44 82 115 44 82 115 44 82 115 44 82 115 44 82 115 44 82 115 44 82 115 44 82 115 44 82 115 44 82 115 44 82 115 44 82 115 44 82 115 44 75 106 40 75 106 40 75 106 40 75 106 40 75 106 40 75 106 40 75 106 40 75 106 40 75 106 40 75 106 40 75 106 40 75 106 40 75 106 40 75 106 40 75 106 40 75 106 40 74 103 39 74 103 39 74 103 39 74 103 39 74 103 39 74 103 39 74 103 39 74 103 39 74 103 39 74 103 39 74 103 39 74 103 39 74 103 39 74 103 39 74 103 39 74 103 39 75 105 40 75 105 40 75 105 40 75 105 40 75 105 40 75 105 40 75 105 40 75 105 40 75 105 40 75 105 40 75 105 40 75 105 40 75 105 40 75 105 40 75 105 40 75 105 40 91 128 48 91 128 48 91 128 48 91 128 48 91 128 48 91 128 48 91 128 48 91 128 48 91 128 48 91 128 48 91 128 48 91 128 48 91 128 48 91 128 48 91 128 48 91 128 48 61 86 32 61 86 32 61 86 32 61 86 32 61 86 32 61 86 32 61 86 32 61 86 32 61 86 32 61 86 32 61 86 32 61 86 32 61 86 32 61 86 32 61 86 32 61 86 32 77 108 41 77 108 41 77 108 41 77 108 41 77 108 41 77 108 41 77 108 41 77 108 41 77 108 41 77 108 41 77 108 41 77 108 41 77 108 41 77 108 41 77 108 41 77 108 41 81 113 43 81 113 43 81 113 43 81 113 43 81 113 43 81 113 43 81 113 43 81 113 43 81 113 43 81 113 43 81 113 43 81 113 43 81 113 43 81 113 43 81 113 43 81 113 43 106 149 57 106 149 57 106 149 57 106 149 57 106 149 57 106 149 57 106 149 57 106 149 57 106 149 57 106 149 57 106 149 57 106 149 57 106 149 57 106 149 57 106 149 57 106 149 57 80 112 43 80 112 43 80 112 43 80 112 43 80 112 43 80 112 43 80 112 43 80 112 43 80 112 43 80 112 43 80 112 43 80 112 43 80 112 43 80 112 43 80 112 43 80 112 43 73 102 39 73 102 39 73 102 39 73 102 39 73 102 39 73 102 39 73 102 39 73 102 39 73 102 39 73 102 39 73 102 39 73 102 39 73 102 39 73 102 39 73 102 39 73 102 39 73 102 39 73 102 39 73 102 39 73 102 39 73 102 39 73 102 39 73 102 39 73 102 39 73 102 39 73 102 39 73 102 39 73 102 39 73 102 39 73 102 39 73 102 39 73 102 39 78 109 41 78 109 41 78 109 41 78 109 41 78 109 41 78 109 41 78 109 41 78 109 41 78 109 41 78 109 41 78 109 41 78 109 41 78 109 41 78 109 41 78 109 41 78 109 41 69 97 37 69 97 37 69 97 37 69 97 37 69 97 37 69 97 37 69 97 37 69 97 37 69 97 37 69 97 37 69 97 37 69 97 37 69 97 37 69 97 37 69 97 37 69 97 37 76 107 41 76 107 41 76 107 41 76 107 41 76 107 41 76 107 41 76 107 41 76 107 41 76 107 41 76 107 41 76 107 41 76 107 41 76 107 41 76 107 41 76 107 41 76 107 41 86 121 46 86 121 46 86 121 46 86 121 46 86 121 46 86 121 46 86 121 46 86 121 46 86 121 46 86 121 46 86 121 46 86 121 46 86 121 46 86 121 46 86 121 46 82 115 44 82 115 44 82 115 44 82 115 44 82 115 44 82 115 44 82 115 44 82 115 44 82 115 44 82 115 44 82 115 44 82 115 44 82 115 44 82 115 44 82 115 44 82 115 44 75 106 40 75 106 40 75 106 40 75 106 40 75 106 40 75 106 40 75 106 40 75 106 40 75 106 40 75 106 40 75 106 40 75 106 40 75 106 40 75 106 40 75 106 40 75 106 40 74 103 39 74 103 39 74 103 39 74 103 39 74 103 39 74 103 39 74 103 39 74 103 39 74 103 39 74 103 39 74 103 39 74 103 39 74 103 39 74 103 39 74 103 39 74 103 39 75 105 40 75 105 40 75 105 40 75 105 40 75 105 40 75 105 40 75 105 40 75 105 40 75 105 40 75 105 40 75 105 40 75 105 40 75 105 40 75 105 40 75 105 40 75 105 40 91 128 48 91 128 48 91 128 48 91 128 48 91 128 48 91 128 48 91 128 48 91 128 48 91 128 48 91 128 48 91 128 48 91 128 48 91 128 48 91 128 48 91 128 48 91 128 48 61 86 32 61 86 32 61 86 32 61 86 32 61 86 32 61 86 32 61 86 32 61 86 32 61 86 32 61 86 32 61 86 32 61 86 32 61 86 32 61 86 32 61 86 32 61 86 32 77 108 41 77 108 41 77 108 41 77 108 41 77 108 41 77 108 41 77 108 41 77 108 41 77 108 41 77 108 41 77 108 41 77 108 41 77 108 41 77 108 41 77 108 41 77 108 41 81 113 43 81 113 43 81 113 43 81 113 43 81 113 43 81 113 43 81 113 43 81 113 43 81 113 43 81 113 43 81 113 43 81 113 43 81 113 43 81 113 43 81 113 43 81 113 43 106 149 57 106 149 57 106 149 57 106 149 57 106 149 57 106 149 57 106 149 57 106 149 57 106 149 57 106 149 57 106 149 57 106 149 57 106 149 57 106 149 57 106 149 57 106 149 57 80 112 43 80 112 43 80 112 43 80 112 43 80 112 43 80 112 43 80 112 43 80 112 43 80 112 43 80 112 43 80 112 43 80 112 43 80 112 43 80 112 43 80 112 43 80 112 43 73 102 39 73 102 39 73 102 39 73 102 39 73 102 39 73 102 39 73 102 39 73 102 39 73 102 39 73 102 39 73 102 39 73 102 39 73 102 39 73 102 39 73 102 39 73 102 39 73 102 39 73 102 39 73 102 39 73 102 39 73 102 39 73 102 39 73 102 39 73 102 39 73 102 39 73 102 39 73 102 39 73 102 39 73 102 39 73 102 39 73 102 39 73 102 39 78 109 41 78 109 41 78 109 41 78 109 41 78 109 41 78 109 41 78 109 41 78 109 41 78 109 41 78 109 41 78 109 41 78 109 41 78 109 41 78 109 41 78 109 41 78 109 41 69 97 37 69 97 37 69 97 37 69 97 37 69 97 37 69 97 37 69 97 37 69 97 37 69 97 37 69 97 37 69 97 37 69 97 37 69 97 37 69 97 37 69 97 37 69 97 37 76 107 41 76 107 41 76 107 41 76 107 41 76 107 41 76 107 41 76 107 41 76 107 41 76 107 41 76 107 41 76 107 41 76 107 41 76 107 41 76 107 41 76 107 41 76 107 41 86 121 46 86 121 46 86 121 46 86 121 46 86 121 46 86 121 46 86 121 46 86 121 46 86 121 46 86 121 46 86 121 46 86 121 46 86 121 46 86 121 46 86 121 46 82 115 44 82 115 44 82 115 44 82 115 44 82 115 44 82 115 44 82 115 44 82 115 44 82 115 44 82 115 44 82 115 44 82 115 44 82 115 44 82 115 44 82 115 44 82 115 44 75 106 40 75 106 40 75 106 40 75 106 40 75 106 40 75 106 40 75 106 40 75 106 40 75 106 40 75 106 40 75 106 40 75 106 40 75 106 40 75 106 40 75 106 40 75 106 40 74 103 39 74 103 39 74 103 39 74 103 39 74 103 39 74 103 39 74 103 39 74 103 39 74 103 39 74 103 39 74 103 39 74 103 39 74 103 39 74 103 39 74 103 39 74 103 39 75 105 40 75 105 40 75 105 40 75 105 40 75 105 40 75 105 40 75 105 40 75 105 40 75 105 40 75 105 40 75 105 40 75 105 40 75 105 40 75 105 40 75 105 40 75 105 40 91 128 48 91 128 48 91 128 48 91 128 48 91 128 48 91 128 48 91 128 48 91 128 48 91 128 48 91 128 48 91 128 48 91 128 48 91 128 48 91 128 48 91 128 48 91 128 48 61 86 32 61 86 32 61 86 32 61 86 32 61 86 32 61 86 32 61 86 32 61 86 32 61 86 32 61 86 32 61 86 32 61 86 32 61 86 32 61 86 32 61 86 32 61 86 32 77 108 41 77 108 41 77 108 41 77 108 41 77 108 41 77 108 41 77 108 41 77 108 41 77 108 41 77 108 41 77 108 41 77 108 41 77 108 41 77 108 41 77 108 41 77 108 41 81 113 43 81 113 43 81 113 43 81 113 43 81 113 43 81 113 43 81 113 43 81 113 43 81 113 43 81 113 43 81 113 43 81 113 43 81 113 43 81 113 43 81 113 43 81 113 43 106 149 57 106 149 57 106 149 57 106 149 57 106 149 57 106 149 57 106 149 57 106 149 57 106 149 57 106 149 57 106 149 57 106 149 57 106 149 57 106 149 57 106 149 57 106 149 57 80 112 43 80 112 43 80 112 43 80 112 43 80 112 43 80 112 43 80 112 43 80 112 43 80 112 43 80 112 43 80 112 43 80 112 43 80 112 43 80 112 43 80 112 43 80 112 43 73 102 39 73 102 39 73 102 39 73 102 39 73 102 39 73 102 39 73 102 39 73 102 39 73 102 39 73 102 39 73 102 39 73 102 39 73 102 39 73 102 39 73 102 39 73 102 39 73 102 39 73 102 39 73 102 39 73 102 39 73 102 39 73 102 39 73 102 39 73 102 39 73 102 39 73 102 39 73 102 39 73 102 39 73 102 39 73 102 39 73 102 39 73 102 39 78 109 41 78 109 41 78 109 41 78 109 41 78 109 41 78 109 41 78 109 41 78 109 41 78 109 41 78 109 41 78 109 41 78 109 41 78 109 41 78 109 41 78 109 41 78 109 41 69 97 37 69 97 37 69 97 37 69 97 37 69 97 37 69 97 37 69 97 37 69 97 37 69 97 37 69 97 37 69 97 37 69 97 37 69 97 37 69 97 37 69 97 37 69 97 37 76 107 41 76 107 41 76 107 41 76 107 41 76 107 41 76 107 41 76 107 41 76 107 41 76 107 41 76 107 41 76 107 41 76 107 41 76 107 41 76 107 41 76 107 41 76 107 41 86 121 46 86 121 46 86 121 46 86 121 46 86 121 46 86 121 46 86 121 46 86 121 46 86 121 46 86 121 46 86 121 46 86 121 46 86 121 46 86 121 46 86 121 46 82 115 44 82 115 44 82 115 44 82 115 44 82 115 44 82 115 44 82 115 44 82 115 44 82 115 44 82 115 44 82 115 44 82 115 44 82 115 44 82 115 44 82 115 44 82 115 44 75 106 40 75 106 40 75 106 40 75 106 40 75 106 40 75 106 40 75 106 40 75 106 40 75 106 40 75 106 40 75 106 40 75 106 40 75 106 40 75 106 40 75 106 40 75 106 40 74 103 39 74 103 39 74 103 39 74 103 39 74 103 39 74 103 39 74 103 39 74 103 39 74 103 39 74 103 39 74 103 39 74 103 39 74 103 39 74 103 39 74 103 39 74 103 39 75 105 40 75 105 40 75 105 40 75 105 40 75 105 40 75 105 40 75 105 40 75 105 40 75 105 40 75 105 40 75 105 40 75 105 40 75 105 40 75 105 40 75 105 40 75 105 40 91 128 48 91 128 48 91 128 48 91 128 48 91 128 48 91 128 48 91 128 48 91 128 48 91 128 48 91 128 48 91 128 48 91 128 48 91 128 48 91 128 48 91 128 48 91 128 48 61 86 32 61 86 32 61 86 32 61 86 32 61 86 32 61 86 32 61 86 32 61 86 32 61 86 32 61 86 32 61 86 32 61 86 32 61 86 32 61 86 32 61 86 32 61 86 32 77 108 41 77 108 41 77 108 41 77 108 41 77 108 41 77 108 41 77 108 41 77 108 41 77 108 41 77 108 41 77 108 41 77 108 41 77 108 41 77 108 41 77 108 41 77 108 41 81 113 43 81 113 43 81 113 43 81 113 43 81 113 43 81 113 43 81 113 43 81 113 43 81 113 43 81 113 43 81 113 43 81 113 43 81 113 43 81 113 43 81 113 43 81 113 43 106 149 57 106 149 57 106 149 57 106 149 57 106 149 57 106 149 57 106 149 57 106 149 57 106 149 57 106 149 57 106 149 57 106 149 57 106 149 57 106 149 57 106 149 57 106 149 57 80 112 43 80 112 43 80 112 43 80 112 43 80 112 43 80 112 43 80 112 43 80 112 43 80 112 43 80 112 43 80 112 43 80 112 43 80 112 43 80 112 43 80 112 43 80 112 43 73 102 39 73 102 39 73 102 39 73 102 39 73 102 39 73 102 39 73 102 39 73 102 39 73 102 39 73 102 39 73 102 39 73 102 39 73 102 39 73 102 39 73 102 39 73 102 39 73 102 39 73 102 39 73 102 39 73 102 39 73 102 39 73 102 39 73 102 39 73 102 39 73 102 39 73 102 39 73 102 39 73 102 39 73 102 39 73 102 39 73 102 39 73 102 39 78 109 41 78 109 41 78 109 41 78 109 41 78 109 41 78 109 41 78 109 41 78 109 41 78 109 41 78 109 41 78 109 41 78 109 41 78 109 41 78 109 41 78 109 41 78 109 41 69 97 37 69 97 37 69 97 37 69 97 37 69 97 37 69 97 37 69 97 37 69 97 37 69 97 37 69 97 37 69 97 37 69 97 37 69 97 37 69 97 37 69 97 37 69 97 37 76 107 41 76 107 41 76 107 41 76 107 41 76 107 41 76 107 41 76 107 41 76 107 41 76 107 41 76 107 41 76 107 41 76 107 41 76 107 41 76 107 41 76 107 41 76 107 41 86 121 46 86 121 46 86 121 46 86 121 46 86 121 46 86 121 46 86 121 46 86 121 46 86 121 46 86 121 46 86 121 46 86 121 46 86 121 46 86 121 46 86 121 46 82 115 44 82 115 44 82 115 44 82 115 44 82 115 44 82 115 44 82 115 44 82 115 44 82 115 44 82 115 44 82 115 44 82 115 44 82 115 44 82 115 44 82 115 44 82 115 44 75 106 40 75 106 40 75 106 40 75 106 40 75 106 40 75 106 40 75 106 40 75 106 40 75 106 40 75 106 40 75 106 40 75 106 40 75 106 40 75 106 40 75 106 40 75 106 40 74 103 39 74 103 39 74 103 39 74 103 39 74 103 39 74 103 39 74 103 39 74 103 39 74 103 39 74 103 39 74 103 39 74 103 39 74 103 39 74 103 39 74 103 39 74 103 39 75 105 40 75 105 40 75 105 40 75 105 40 75 105 40 75 105 40 75 105 40 75 105 40 75 105 40 75 105 40 75 105 40 75 105 40 75 105 40 75 105 40 75 105 40 75 105 40 91 128 48 91 128 48 91 128 48 91 128 48 91 128 48 91 128 48 91 128 48 91 128 48 91 128 48 91 128 48 91 128 48 91 128 48 91 128 48 91 128 48 91 128 48 91 128 48 61 86 32 61 86 32 61 86 32 61 86 32 61 86 32 61 86 32 61 86 32 61 86 32 61 86 32 61 86 32 61 86 32 61 86 32 61 86 32 61 86 32 61 86 32 61 86 32 77 108 41 77 108 41 77 108 41 77 108 41 77 108 41 77 108 41 77 108 41 77 108 41 77 108 41 77 108 41 77 108 41 77 108 41 77 108 41 77 108 41 77 108 41 77 108 41 81 113 43 81 113 43 81 113 43 81 113 43 81 113 43 81 113 43 81 113 43 81 113 43 81 113 43 81 113 43 81 113 43 81 113 43 81 113 43 81 113 43 81 113 43 81 113 43 106 149 57 106 149 57 106 149 57 106 149 57 106 149 57 106 149 57 106 149 57 106 149 57 106 149 57 106 149 57 106 149 57 106 149 57 106 149 57 106 149 57 106 149 57 106 149 57 80 112 43 80 112 43 80 112 43 80 112 43 80 112 43 80 112 43 80 112 43 80 112 43 80 112 43 80 112 43 80 112 43 80 112 43 80 112 43 80 112 43 80 112 43 80 112 43 73 102 39 73 102 39 73 102 39 73 102 39 73 102 39 73 102 39 73 102 39 73 102 39 73 102 39 73 102 39 73 102 39 73 102 39 73 102 39 73 102 39 73 102 39 73 102 39 73 102 39 73 102 39 73 102 39 73 102 39 73 102 39 73 102 39 73 102 39 73 102 39 73 102 39 73 102 39 73 102 39 73 102 39 73 102 39 73 102 39 73 102 39 73 102 39 78 109 41 78 109 41 78 109 41 78 109 41 78 109 41 78 109 41 78 109 41 78 109 41 78 109 41 78 109 41 78 109 41 78 109 41 78 109 41 78 109 41 78 109 41 78 109 41 69 97 37 69 97 37 69 97 37 69 97 37 69 97 37 69 97 37 69 97 37 69 97 37 69 97 37 69 97 37 69 97 37 69 97 37 69 97 37 69 97 37 69 97 37 69 97 37 76 107 41 76 107 41 76 107 41 76 107 41 76 107 41 76 107 41 76 107 41 76 107 41 76 107 41 76 107 41 76 107 41 76 107 41 76 107 41 76 107 41 76 107 41 76 107 41 86 121 46 86 121 46 86 121 46 86 121 46 86 121 46 86 121 46 86 121 46 86 121 46 86 121 46 86 121 46 86 121 46 86 121 46 86 121 46 86 121 46 86 121 46 82 115 44 82 115 44 82 115 44 82 115 44 82 115 44 82 115 44 82 115 44 82 115 44 82 115 44 82 115 44 82 115 44 82 115 44 82 115 44 82 115 44 82 115 44 82 115 44 75 106 40 75 106 40 75 106 40 75 106 40 75 106 40 75 106 40 75 106 40 75 106 40 75 106 40 75 106 40 75 106 40 75 106 40 75 106 40 75 106 40 75 106 40 75 106 40 74 103 39 74 103 39 74 103 39 74 103 39 74 103 39 74 103 39 74 103 39 74 103 39 74 103 39 74 103 39 74 103 39 74 103 39 74 103 39 74 103 39 74 103 39 74 103 39 75 105 40 75 105 40 75 105 40 75 105 40 75 105 40 75 105 40 75 105 40 75 105 40 75 105 40 75 105 40 75 105 40 75 105 40 75 105 40 75 105 40 75 105 40 75 105 40 91 128 48 91 128 48 91 128 48 91 128 48 91 128 48 91 128 48 91 128 48 91 128 48 91 128 48 91 128 48 91 128 48 91 128 48 91 128 48 91 128 48 91 128 48 91 128 48 61 86 32 61 86 32 61 86 32 61 86 32 61 86 32 61 86 32 61 86 32 61 86 32 61 86 32 61 86 32 61 86 32 61 86 32 61 86 32 61 86 32 61 86 32 61 86 32 77 108 41 77 108 41 77 108 41 77 108 41 77 108 41 77 108 41 77 108 41 77 108 41 77 108 41 77 108 41 77 108 41 77 108 41 77 108 41 77 108 41 77 108 41 77 108 41 81 113 43 81 113 43 81 113 43 81 113 43 81 113 43 81 113 43 81 113 43 81 113 43 81 113 43 81 113 43 81 113 43 81 113 43 81 113 43 81 113 43 81 113 43 81 113 43 106 149 57 106 149 57 106 149 57 106 149 57 106 149 57 106 149 57 106 149 57 106 149 57 106 149 57 106 149 57 106 149 57 106 149 57 106 149 57 106 149 57 106 149 57 106 149 57 80 112 43 80 112 43 80 112 43 80 112 43 80 112 43 80 112 43 80 112 43 80 112 43 80 112 43 80 112 43 80 112 43 80 112 43 80 112 43 80 112 43 80 112 43 80 112 43 73 102 39 73 102 39 73 102 39 73 102 39 73 102 39 73 102 39 73 102 39 73 102 39 73 102 39 73 102 39 73 102 39 73 102 39 73 102 39 73 102 39 73 102 39 73 102 39 73 102 39 73 102 39 73 102 39 73 102 39 73 102 39 73 102 39 73 102 39 73 102 39 73 102 39 73 102 39 73 102 39 73 102 39 73 102 39 73 102 39 73 102 39 73 102 39 78 109 41 78 109 41 78 109 41 78 109 41 78 109 41 78 109 41 78 109 41 78 109 41 78 109 41 78 109 41 78 109 41 78 109 41 78 109 41 78 109 41 78 109 41 78 109 41 69 97 37 69 97 37 69 97 37 69 97 37 69 97 37 69 97 37 69 97 37 69 97 37 69 97 37 69 97 37 69 97 37 69 97 37 69 97 37 69 97 37 69 97 37 69 97 37 76 107 41 76 107 41 76 107 41 76 107 41 76 107 41 76 107 41 76 107 41 76 107 41 76 107 41 76 107 41 76 107 41 76 107 41 76 107 41 76 107 41 76 107 41 76 107 41 86 121 46 86 121 46 86 121 46 86 121 46 86 121 46 86 121 46 86 121 46 86 121 46 86 121 46 86 121 46 86 121 46 86 121 46 86 121 46 86 121 46 86 121 46 82 115 44 82 115 44 82 115 44 82 115 44 82 115 44 82 115 44 82 115 44 82 115 44 82 115 44 82 115 44 82 115 44 82 115 44 82 115 44 82 115 44 82 115 44 82 115 44 75 106 40 75 106 40 75 106 40 75 106 40 75 106 40 75 106 40 75 106 40 75 106 40 75 106 40 75 106 40 75 106 40 75 106 40 75 106 40 75 106 40 75 106 40 75 106 40 74 103 39 74 103 39 74 103 39 74 103 39 74 103 39 74 103 39 74 103 39 74 103 39 74 103 39 74 103 39 74 103 39 74 103 39 74 103 39 74 103 39 74 103 39 74 103 39 75 105 40 75 105 40 75 105 40 75 105 40 75 105 40 75 105 40 75 105 40 75 105 40 75 105 40 75 105 40 75 105 40 75 105 40 75 105 40 75 105 40 75 105 40 75 105 40 91 128 48 91 128 48 91 128 48 91 128 48 91 128 48 91 128 48 91 128 48 91 128 48 91 128 48 91 128 48 91 128 48 91 128 48 91 128 48 91 128 48 91 128 48 91 128 48 61 86 32 61 86 32 61 86 32 61 86 32 61 86 32 61 86 32 61 86 32 61 86 32 61 86 32 61 86 32 61 86 32 61 86 32 61 86 32 61 86 32 61 86 32 61 86 32 77 108 41 77 108 41 77 108 41 77 108 41 77 108 41 77 108 41 77 108 41 77 108 41 77 108 41 77 108 41 77 108 41 77 108 41 77 108 41 77 108 41 77 108 41 77 108 41 81 113 43 81 113 43 81 113 43 81 113 43 81 113 43 81 113 43 81 113 43 81 113 43 81 113 43 81 113 43 81 113 43 81 113 43 81 113 43 81 113 43 81 113 43 81 113 43 106 149 57 106 149 57 106 149 57 106 149 57 106 149 57 106 149 57 106 149 57 106 149 57 106 149 57 106 149 57 106 149 57 106 149 57 106 149 57 106 149 57 106 149 57 106 149 57 80 112 43 80 112 43 80 112 43 80 112 43 80 112 43 80 112 43 80 112 43 80 112 43 80 112 43 80 112 43 80 112 43 80 112 43 80 112 43 80 112 43 80 112 43 80 112 43 73 102 39 73 102 39 73 102 39 73 102 39 73 102 39 73 102 39 73 102 39 73 102 39 73 102 39 73 102 39 73 102 39 73 102 39 73 102 39 73 102 39 73 102 39 73 102 39 73 102 39 73 102 39 73 102 39 73 102 39 73 102 39 73 102 39 73 102 39 73 102 39 73 102 39 73 102 39 73 102 39 73 102 39 73 102 39 73 102 39 73 102 39 73 102 39 78 109 41 78 109 41 78 109 41 78 109 41 78 109 41 78 109 41 78 109 41 78 109 41 78 109 41 78 109 41 78 109 41 78 109 41 78 109 41 78 109 41 78 109 41 78 109 41 69 97 37 69 97 37 69 97 37 69 97 37 69 97 37 69 97 37 69 97 37 69 97 37 69 97 37 69 97 37 69 97 37 69 97 37 69 97 37 69 97 37 69 97 37 69 97 37 76 107 41 76 107 41 76 107 41 76 107 41 76 107 41 76 107 41 76 107 41 76 107 41 76 107 41 76 107 41 76 107 41 76 107 41 76 107 41 76 107 41 76 107 41 76 107 41 86 121 46 86 121 46 86 121 46 86 121 46 86 121 46 86 121 46 86 121 46 86 121 46 86 121 46 86 121 46 86 121 46 86 121 46 86 121 46 86 121 46 86 121 46 82 115 44 82 115 44 82 115 44 82 115 44 82 115 44 82 115 44 82 115 44 82 115 44 82 115 44 82 115 44 82 115 44 82 115 44 82 115 44 82 115 44 82 115 44 82 115 44 75 106 40 75 106 40 75 106 40 75 106 40 75 106 40 75 106 40 75 106 40 75 106 40 75 106 40 75 106 40 75 106 40 75 106 40 75 106 40 75 106 40 75 106 40 75 106 40 74 103 39 74 103 39 74 103 39 74 103 39 74 103 39 74 103 39 74 103 39 74 103 39 74 103 39 74 103 39 74 103 39 74 103 39 74 103 39 74 103 39 74 103 39 74 103 39 75 105 40 75 105 40 75 105 40 75 105 40 75 105 40 75 105 40 75 105 40 75 105 40 75 105 40 75 105 40 75 105 40 75 105 40 75 105 40 75 105 40 75 105 40 75 105 40 91 128 48 91 128 48 91 128 48 91 128 48 91 128 48 91 128 48 91 128 48 91 128 48 91 128 48 91 128 48 91 128 48 91 128 48 91 128 48 91 128 48 91 128 48 91 128 48 61 86 32 61 86 32 61 86 32 61 86 32 61 86 32 61 86 32 61 86 32 61 86 32 61 86 32 61 86 32 61 86 32 61 86 32 61 86 32 61 86 32 61 86 32 61 86 32 77 108 41 77 108 41 77 108 41 77 108 41 77 108 41 77 108 41 77 108 41 77 108 41 77 108 41 77 108 41 77 108 41 77 108 41 77 108 41 77 108 41 77 108 41 77 108 41 81 113 43 81 113 43 81 113 43 81 113 43 81 113 43 81 113 43 81 113 43 81 113 43 81 113 43 81 113 43 81 113 43 81 113 43 81 113 43 81 113 43 81 113 43 81 113 43 106 149 57 106 149 57 106 149 57 106 149 57 106 149 57 106 149 57 106 149 57 106 149 57 106 149 57 106 149 57 106 149 57 106 149 57 106 149 57 106 149 57 106 149 57 106 149 57 80 112 43 80 112 43 80 112 43 80 112 43 80 112 43 80 112 43 80 112 43 80 112 43 80 112 43 80 112 43 80 112 43 80 112 43 80 112 43 80 112 43 80 112 43 80 112 43 73 102 39 73 102 39 73 102 39 73 102 39 73 102 39 73 102 39 73 102 39 73 102 39 73 102 39 73 102 39 73 102 39 73 102 39 73 102 39 73 102 39 73 102 39 73 102 39 73 102 39 73 102 39 73 102 39 73 102 39 73 102 39 73 102 39 73 102 39 73 102 39 73 102 39 73 102 39 73 102 39 73 102 39 73 102 39 73 102 39 73 102 39 73 102 39 78 109 41 78 109 41 78 109 41 78 109 41 78 109 41 78 109 41 78 109 41 78 109 41 78 109 41 78 109 41 78 109 41 78 109 41 78 109 41 78 109 41 78 109 41 78 109 41 69 97 37 69 97 37 69 97 37 69 97 37 69 97 37 69 97 37 69 97 37 69 97 37 69 97 37 69 97 37 69 97 37 69 97 37 69 97 37 69 97 37 69 97 37 69 97 37 76 107 41 76 107 41 76 107 41 76 107 41 76 107 41 76 107 41 76 107 41 76 107 41 76 107 41 76 107 41 76 107 41 76 107 41 76 107 41 76 107 41 76 107 41 76 107 41 86 121 46 86 121 46 86 121 46 86 121 46 86 121 46 86 121 46 86 121 46 86 121 46 86 121 46 86 121 46 86 121 46 86 121 46 86 121 46 86 121 46 86 121 46 82 115 44 82 115 44 82 115 44 82 115 44 82 115 44 82 115 44 82 115 44 82 115 44 82 115 44 82 115 44 82 115 44 82 115 44 82 115 44 82 115 44 82 115 44 82 115 44 75 106 40 75 106 40 75 106 40 75 106 40 75 106 40 75 106 40 75 106 40 75 106 40 75 106 40 75 106 40 75 106 40 75 106 40 75 106 40 75 106 40 75 106 40 75 106 40 74 103 39 74 103 39 74 103 39 74 103 39 74 103 39 74 103 39 74 103 39 74 103 39 74 103 39 74 103 39 74 103 39 74 103 39 74 103 39 74 103 39 74 103 39 74 103 39 75 105 40 75 105 40 75 105 40 75 105 40 75 105 40 75 105 40 75 105 40 75 105 40 75 105 40 75 105 40 75 105 40 75 105 40 75 105 40 75 105 40 75 105 40 75 105 40 91 128 48 91 128 48 91 128 48 91 128 48 91 128 48 91 128 48 91 128 48 91 128 48 91 128 48 91 128 48 91 128 48 91 128 48 91 128 48 91 128 48 91 128 48 91 128 48 61 86 32 61 86 32 61 86 32 61 86 32 61 86 32 61 86 32 61 86 32 61 86 32 61 86 32 61 86 32 61 86 32 61 86 32 61 86 32 61 86 32 61 86 32 61 86 32 77 108 41 77 108 41 77 108 41 77 108 41 77 108 41 77 108 41 77 108 41 77 108 41 77 108 41 77 108 41 77 108 41 77 108 41 77 108 41 77 108 41 77 108 41 77 108 41 81 113 43 81 113 43 81 113 43 81 113 43 81 113 43 81 113 43 81 113 43 81 113 43 81 113 43 81 113 43 81 113 43 81 113 43 81 113 43 81 113 43 81 113 43 81 113 43 106 149 57 106 149 57 106 149 57 106 149 57 106 149 57 106 149 57 106 149 57 106 149 57 106 149 57 106 149 57 106 149 57 106 149 57 106 149 57 106 149 57 106 149 57 106 149 57 80 112 43 80 112 43 80 112 43 80 112 43 80 112 43 80 112 43 80 112 43 80 112 43 80 112 43 80 112 43 80 112 43 80 112 43 80 112 43 80 112 43 80 112 43 80 112 43 73 102 39 73 102 39 73 102 39 73 102 39 73 102 39 73 102 39 73 102 39 73 102 39 73 102 39 73 102 39 73 102 39 73 102 39 73 102 39 73 102 39 73 102 39 73 102 39 73 102 39 73 102 39 73 102 39 73 102 39 73 102 39 73 102 39 73 102 39 73 102 39 73 102 39 73 102 39 73 102 39 73 102 39 73 102 39 73 102 39 73 102 39 73 102 39 78 109 41 78 109 41 78 109 41 78 109 41 78 109 41 78 109 41 78 109 41 78 109 41 78 109 41 78 109 41 78 109 41 78 109 41 78 109 41 78 109 41 78 109 41 78 109 41 69 97 37 69 97 37 69 97 37 69 97 37 69 97 37 69 97 37 69 97 37 69 97 37 69 97 37 69 97 37 69 97 37 69 97 37 69 97 37 69 97 37 69 97 37 69 97 37 76 107 41 76 107 41 76 107 41 76 107 41 76 107 41 76 107 41 76 107 41 76 107 41 76 107 41 76 107 41 76 107 41 76 107 41 76 107 41 76 107 41 76 107 41 76 107 41 86 121 46 86 121 46 86 121 46 86 121 46 86 121 46 86 121 46 86 121 46 86 121 46 86 121 46 86 121 46 86 121 46 86 121 46 86 121 46 86 121 46 86 121 46 82 115 44 82 115 44 82 115 44 82 115 44 82 115 44 82 115 44 82 115 44 82 115 44 82 115 44 82 115 44 82 115 44 82 115 44 82 115 44 82 115 44 82 115 44 82 115 44 75 106 40 75 106 40 75 106 40 75 106 40 75 106 40 75 106 40 75 106 40 75 106 40 75 106 40 75 106 40 75 106 40 75 106 40 75 106 40 75 106 40 75 106 40 75 106 40 74 103 39 74 103 39 74 103 39 74 103 39 74 103 39 74 103 39 74 103 39 74 103 39 74 103 39 74 103 39 74 103 39 74 103 39 74 103 39 74 103 39 74 103 39 74 103 39 75 105 40 75 105 40 75 105 40 75 105 40 75 105 40 75 105 40 75 105 40 75 105 40 75 105 40 75 105 40 75 105 40 75 105 40 75 105 40 75 105 40 75 105 40 75 105 40 91 128 48 91 128 48 91 128 48 91 128 48 91 128 48 91 128 48 91 128 48 91 128 48 91 128 48 91 128 48 91 128 48 91 128 48 91 128 48 91 128 48 91 128 48 91 128 48 61 86 32 61 86 32 61 86 32 61 86 32 61 86 32 61 86 32 61 86 32 61 86 32 61 86 32 61 86 32 61 86 32 61 86 32 61 86 32 61 86 32 61 86 32 61 86 32 77 108 41 77 108 41 77 108 41 77 108 41 77 108 41 77 108 41 77 108 41 77 108 41 77 108 41 77 108 41 77 108 41 77 108 41 77 108 41 77 108 41 77 108 41 77 108 41 81 114 43 81 114 43 81 114 43 81 114 43 81 114 43 81 114 43 81 114 43 81 114 43 81 114 43 81 114 43 81 114 43 81 114 43 81 114 43 81 114 43 81 114 43 81 114 43 76 107 41 76 107 41 76 107 41 76 107 41 76 107 41 76 107 41 76 107 41 76 107 41 76 107 41 76 107 41 76 107 41 76 107 41 76 107 41 76 107 41 76 107 41 76 107 41 87 122 46 87 122 46 87 122 46 87 122 46 87 122 46 87 122 46 87 122 46 87 122 46 87 122 46 87 122 46 87 122 46 87 122 46 87 122 46 87 122 46 87 122 46 87 122 46 82 115 44 82 115 44 82 115 44 82 115 44 82 115 44 82 115 44 82 115 44 82 115 44 82 115 44 82 115 44 82 115 44 82 115 44 82 115 44 82 115 44 82 115 44 82 115 44 83 117 44 83 117 44 83 117 44 83 117 44 83 117 44 83 117 44 83 117 44 83 117 44 83 117 44 83 117 44 83 117 44 83 117 44 83 117 44 83 117 44 83 117 44 83 117 44 70 98 37 70 98 37 70 98 37 70 98 37 70 98 37 70 98 37 70 98 37 70 98 37 70 98 37 70 98 37 70 98 37 70 98 37 70 98 37 70 98 37 70 98 37 70 98 37 83 117 44 83 117 44 83 117 44 83 117 44 83 117 44 83 117 44 83 117 44 83 117 44 83 117 44 83 117 44 83 117 44 83 117 44 83 117 44 83 117 44 83 117 44 83 117 44 71 99 38 71 99 38 71 99 38 71 99 38 71 99 38 71 99 38 71 99 38 71 99 38 71 99 38 71 99 38 71 99 38 71 99 38 71 99 38 71 99 38 71 99 38 71 99 38 69 97 37 69 97 37 69 97 37 69 97 37 69 97 37 69 97 37 69 97 37 69 97 37 69 97 37 69 97 37 69 97 37 69 97 37 69 97 37 69 97 37 69 97 37 92 129 49 92 129 49 92 129 49 92 129 49 92 129 49 92 129 49 92 129 49 92 129 49 92 129 49 92 129 49 92 129 49 92 129 49 92 129 49 92 129 49 92 129 49 92 129 49 90 127 48 90 127 48 90 127 48 90 127 48 90 127 48 90 127 48 90 127 48 90 127 48 90 127 48 90 127 48 90 127 48 90 127 48 90 127 48 90 127 48 90 127 48 90 127 48 80 112 43 80 112 43 80 112 43 80 112 43 80 112 43 80 112 43 80 112 43 80 112 43 80 112 43 80 112 43 80 112 43 80 112 43 80 112 43 80 112 43 80 112 43 80 112 43 106 149 57 106 149 57 106 149 57 106 149 57 106 149 57 106 149 57 106 149 57 106 149 57 106 149 57 106 149 57 106 149 57 106 149 57 106 149 57 106 149 57 106 149 57 106 149 57 76 107 41 76 107 41 76 107 41 76 107 41 76 107 41 76 107 41 76 107 41 76 107 41 76 107 41 76 107 41 76 107 41 76 107 41 76 107 41 76 107 41 76 107 41 76 107 41 74 103 39 74 103 39 74 103 39 74 103 39 74 103 39 74 103 39 74 103 39 74 103 39 74 103 39 74 103 39 74 103 39 74 103 39 74 103 39 74 103 39 74 103 39 74 103 39 76 106 40 76 106 40 76 106 40 76 106 40 76 106 40 76 106 40 76 106 40 76 106 40 76 106 40 76 106 40 76 106 40 76 106 40 76 106 40 76 106 40 76 106 40 76 106 40 81 114 43 81 114 43 81 114 43 81 114 43 81 114 43 81 114 43 81 114 43 81 114 43 81 114 43 81 114 43 81 114 43 81 114 43 81 114 43 81 114 43 81 114 43 81 114 43 76 107 41 76 107 41 76 107 41 76 107 41 76 107 41 76 107 41 76 107 41 76 107 41 76 107 41 76 107 41 76 107 41 76 107 41 76 107 41 76 107 41 76 107 41 76 107 41 87 122 46 87 122 46 87 122 46 87 122 46 87 122 46 87 122 46 87 122 46 87 122 46 87 122 46 87 122 46 87 122 46 87 122 46 87 122 46 87 122 46 87 122 46 87 122 46 82 115 44 82 115 44 82 115 44 82 115 44 82 115 44 82 115 44 82 115 44 82 115 44 82 115 44 82 115 44 82 115 44 82 115 44 82 115 44 82 115 44 82 115 44 82 115 44 83 117 44 83 117 44 83 117 44 83 117 44 83 117 44 83 117 44 83 117 44 83 117 44 83 117 44 83 117 44 83 117 44 83 117 44 83 117 44 83 117 44 83 117 44 83 117 44 70 98 37 70 98 37 70 98 37 70 98 37 70 98 37 70 98 37 70 98 37 70 98 37 70 98 37 70 98 37 70 98 37 70 98 37 70 98 37 70 98 37 70 98 37 70 98 37 83 117 44 83 117 44 83 117 44 83 117 44 83 117 44 83 117 44 83 117 44 83 117 44 83 117 44 83 117 44 83 117 44 83 117 44 83 117 44 83 117 44 83 117 44 83 117 44 71 99 38 71 99 38 71 99 38 71 99 38 71 99 38 71 99 38 71 99 38 71 99 38 71 99 38 71 99 38 71 99 38 71 99 38 71 99 38 71 99 38 71 99 38 71 99 38 69 97 37 69 97 37 69 97 37 69 97 37 69 97 37 69 97 37 69 97 37 69 97 37 69 97 37 69 97 37 69 97 37 69 97 37 69 97 37 69 97 37 69 97 37 92 129 49 92 129 49 92 129 49 92 129 49 92 129 49 92 129 49 92 129 49 92 129 49 92 129 49 92 129 49 92 129 49 92 129 49 92 129 49 92 129 49 92 129 49 92 129 49 90 127 48 90 127 48 90 127 48 90 127 48 90 127 48 90 127 48 90 127 48 90 127 48 90 127 48 90 127 48 90 127 48 90 127 48 90 127 48 90 127 48 90 127 48 90 127 48 80 112 43 80 112 43 80 112 43 80 112 43 80 112 43 80 112 43 80 112 43 80 112 43 80 112 43 80 112 43 80 112 43 80 112 43 80 112 43 80 112 43 80 112 43 80 112 43 106 149 57 106 149 57 106 149 57 106 149 57 106 149 57 106 149 57 106 149 57 106 149 57 106 149 57 106 149 57 106 149 57 106 149 57 106 149 57 106 149 57 106 149 57 106 149 57 76 107 41 76 107 41 76 107 41 76 107 41 76 107 41 76 107 41 76 107 41 76 107 41 76 107 41 76 107 41 76 107 41 76 107 41 76 107 41 76 107 41 76 107 41 76 107 41 74 103 39 74 103 39 74 103 39 74 103 39 74 103 39 74 103 39 74 103 39 74 103 39 74 103 39 74 103 39 74 103 39 74 103 39 74 103 39 74 103 39 74 103 39 74 103 39 76 106 40 76 106 40 76 106 40 76 106 40 76 106 40 76 106 40 76 106 40 76 106 40 76 106 40 76 106 40 76 106 40 76 106 40 76 106 40 76 106 40 76 106 40 76 106 40 81 114 43 81 114 43 81 114 43 81 114 43 81 114 43 81 114 43 81 114 43 81 114 43 81 114 43 81 114 43 81 114 43 81 114 43 81 114 43 81 114 43 81 114 43 81 114 43 76 107 41 76 107 41 76 107 41 76 107 41 76 107 41 76 107 41 76 107 41 76 107 41 76 107 41 76 107 41 76 107 41 76 107 41 76 107 41 76 107 41 76 107 41 76 107 41 87 122 46 87 122 46 87 122 46 87 122 46 87 122 46 87 122 46 87 122 46 87 122 46 87 122 46 87 122 46 87 122 46 87 122 46 87 122 46 87 122 46 87 122 46 87 122 46 82 115 44 82 115 44 82 115 44 82 115 44 82 115 44 82 115 44 82 115 44 82 115 44 82 115 44 82 115 44 82 115 44 82 115 44 82 115 44 82 115 44 82 115 44 82 115 44 83 117 44 83 117 44 83 117 44 83 117 44 83 117 44 83 117 44 83 117 44 83 117 44 83 117 44 83 117 44 83 117 44 83 117 44 83 117 44 83 117 44 83 117 44 83 117 44 70 98 37 70 98 37 70 98 37 70 98 37 70 98 37 70 98 37 70 98 37 70 98 37 70 98 37 70 98 37 70 98 37 70 98 37 70 98 37 70 98 37 70 98 37 70 98 37 83 117 44 83 117 44 83 117 44 83 117 44 83 117 44 83 117 44 83 117 44 83 117 44 83 117 44 83 117 44 83 117 44 83 117 44 83 117 44 83 117 44 83 117 44 83 117 44 71 99 38 71 99 38 71 99 38 71 99 38 71 99 38 71 99 38 71 99 38 71 99 38 71 99 38 71 99 38 71 99 38 71 99 38 71 99 38 71 99 38 71 99 38 71 99 38 69 97 37 69 97 37 69 97 37 69 97 37 69 97 37 69 97 37 69 97 37 69 97 37 69 97 37 69 97 37 69 97 37 69 97 37 69 97 37 69 97 37 69 97 37 92 129 49 92 129 49 92 129 49 92 129 49 92 129 49 92 129 49 92 129 49 92 129 49 92 129 49 92 129 49 92 129 49 92 129 49 92 129 49 92 129 49 92 129 49 92 129 49 90 127 48 90 127 48 90 127 48 90 127 48 90 127 48 90 127 48 90 127 48 90 127 48 90 127 48 90 127 48 90 127 48 90 127 48 90 127 48 90 127 48 90 127 48 90 127 48 80 112 43 80 112 43 80 112 43 80 112 43 80 112 43 80 112 43 80 112 43 80 112 43 80 112 43 80 112 43 80 112 43 80 112 43 80 112 43 80 112 43 80 112 43 80 112 43 106 149 57 106 149 57 106 149 57 106 149 57 106 149 57 106 149 57 106 149 57 106 149 57 106 149 57 106 149 57 106 149 57 106 149 57 106 149 57 106 149 57 106 149 57 106 149 57 76 107 41 76 107 41 76 107 41 76 107 41 76 107 41 76 107 41 76 107 41 76 107 41 76 107 41 76 107 41 76 107 41 76 107 41 76 107 41 76 107 41 76 107 41 76 107 41 74 103 39 74 103 39 74 103 39 74 103 39 74 103 39 74 103 39 74 103 39 74 103 39 74 103 39 74 103 39 74 103 39 74 103 39 74 103 39 74 103 39 74 103 39 74 103 39 76 106 40 76 106 40 76 106 40 76 106 40 76 106 40 76 106 40 76 106 40 76 106 40 76 106 40 76 106 40 76 106 40 76 106 40 76 106 40 76 106 40 76 106 40 76 106 40 81 114 43 81 114 43 81 114 43 81 114 43 81 114 43 81 114 43 81 114 43 81 114 43 81 114 43 81 114 43 81 114 43 81 114 43 81 114 43 81 114 43 81 114 43 81 114 43 76 107 41 76 107 41 76 107 41 76 107 41 76 107 41 76 107 41 76 107 41 76 107 41 76 107 41 76 107 41 76 107 41 76 107 41 76 107 41 76 107 41 76 107 41 76 107 41 87 122 46 87 122 46 87 122 46 87 122 46 87 122 46 87 122 46 87 122 46 87 122 46 87 122 46 87 122 46 87 122 46 87 122 46 87 122 46 87 122 46 87 122 46 87 122 46 82 115 44 82 115 44 82 115 44 82 115 44 82 115 44 82 115 44 82 115 44 82 115 44 82 115 44 82 115 44 82 115 44 82 115 44 82 115 44 82 115 44 82 115 44 82 115 44 83 117 44 83 117 44 83 117 44 83 117 44 83 117 44 83 117 44 83 117 44 83 117 44 83 117 44 83 117 44 83 117 44 83 117 44 83 117 44 83 117 44 83 117 44 83 117 44 70 98 37 70 98 37 70 98 37 70 98 37 70 98 37 70 98 37 70 98 37 70 98 37 70 98 37 70 98 37 70 98 37 70 98 37 70 98 37 70 98 37 70 98 37 70 98 37 83 117 44 83 117 44 83 117 44 83 117 44 83 117 44 83 117 44 83 117 44 83 117 44 83 117 44 83 117 44 83 117 44 83 117 44 83 117 44 83 117 44 83 117 44 83 117 44 71 99 38 71 99 38 71 99 38 71 99 38 71 99 38 71 99 38 71 99 38 71 99 38 71 99 38 71 99 38 71 99 38 71 99 38 71 99 38 71 99 38 71 99 38 71 99 38 69 97 37 69 97 37 69 97 37 69 97 37 69 97 37 69 97 37 69 97 37 69 97 37 69 97 37 69 97 37 69 97 37 69 97 37 69 97 37 69 97 37 69 97 37 92 129 49 92 129 49 92 129 49 92 129 49 92 129 49 92 129 49 92 129 49 92 129 49 92 129 49 92 129 49 92 129 49 92 129 49 92 129 49 92 129 49 92 129 49 92 129 49 90 127 48 90 127 48 90 127 48 90 127 48 90 127 48 90 127 48 90 127 48 90 127 48 90 127 48 90 127 48 90 127 48 90 127 48 90 127 48 90 127 48 90 127 48 90 127 48 80 112 43 80 112 43 80 112 43 80 112 43 80 112 43 80 112 43 80 112 43 80 112 43 80 112 43 80 112 43 80 112 43 80 112 43 80 112 43 80 112 43 80 112 43 80 112 43 106 149 57 106 149 57 106 149 57 106 149 57 106 149 57 106 149 57 106 149 57 106 149 57 106 149 57 106 149 57 106 149 57 106 149 57 106 149 57 106 149 57 106 149 57 106 149 57 76 107 41 76 107 41 76 107 41 76 107 41 76 107 41 76 107 41 76 107 41 76 107 41 76 107 41 76 107 41 76 107 41 76 107 41 76 107 41 76 107 41 76 107 41 76 107 41 74 103 39 74 103 39 74 103 39 74 103 39 74 103 39 74 103 39 74 103 39 74 103 39 74 103 39 74 103 39 74 103 39 74 103 39 74 103 39 74 103 39 74 103 39 74 103 39 76 106 40 76 106 40 76 106 40 76 106 40 76 106 40 76 106 40 76 106 40 76 106 40 76 106 40 76 106 40 76 106 40 76 106 40 76 106 40 76 106 40 76 106 40 76 106 40 81 114 43 81 114 43 81 114 43 81 114 43 81 114 43 81 114 43 81 114 43 81 114 43 81 114 43 81 114 43 81 114 43 81 114 43 81 114 43 81 114 43 81 114 43 81 114 43 76 107 41 76 107 41 76 107 41 76 107 41 76 107 41 76 107 41 76 107 41 76 107 41 76 107 41 76 107 41 76 107 41 76 107 41 76 107 41 76 107 41 76 107 41 76 107 41 87 122 46 87 122 46 87 122 46 87 122 46 87 122 46 87 122 46 87 122 46 87 122 46 87 122 46 87 122 46 87 122 46 87 122 46 87 122 46 87 122 46 87 122 46 87 122 46 82 115 44 82 115 44 82 115 44 82 115 44 82 115 44 82 115 44 82 115 44 82 115 44 82 115 44 82 115 44 82 115 44 82 115 44 82 115 44 82 115 44 82 115 44 82 115 44 83 117 44 83 117 44 83 117 44 83 117 44 83 117 44 83 117 44 83 117 44 83 117 44 83 117 44 83 117 44 83 117 44 83 117 44 83 117 44 83 117 44 83 117 44 83 117 44 70 98 37 70 98 37 70 98 37 70 98 37 70 98 37 70 98 37 70 98 37 70 98 37 70 98 37 70 98 37 70 98 37 70 98 37 70 98 37 70 98 37 70 98 37 70 98 37 83 117 44 83 117 44 83 117 44 83 117 44 83 117 44 83 117 44 83 117 44 83 117 44 83 117 44 83 117 44 83 117 44 83 117 44 83 117 44 83 117 44 83 117 44 83 117 44 71 99 38 71 99 38 71 99 38 71 99 38 71 99 38 71 99 38 71 99 38 71 99 38 71 99 38 71 99 38 71 99 38 71 99 38 71 99 38 71 99 38 71 99 38 71 99 38 69 97 37 69 97 37 69 97 37 69 97 37 69 97 37 69 97 37 69 97 37 69 97 37 69 97 37 69 97 37 69 97 37 69 97 37 69 97 37 69 97 37 69 97 37 92 129 49 92 129 49 92 129 49 92 129 49 92 129 49 92 129 49 92 129 49 92 129 49 92 129 49 92 129 49 92 129 49 92 129 49 92 129 49 92 129 49 92 129 49 92 129 49 90 127 48 90 127 48 90 127 48 90 127 48 90 127 48 90 127 48 90 127 48 90 127 48 90 127 48 90 127 48 90 127 48 90 127 48 90 127 48 90 127 48 90 127 48 90 127 48 80 112 43 80 112 43 80 112 43 80 112 43 80 112 43 80 112 43 80 112 43 80 112 43 80 112 43 80 112 43 80 112 43 80 112 43 80 112 43 80 112 43 80 112 43 80 112 43 106 149 57 106 149 57 106 149 57 106 149 57 106 149 57 106 149 57 106 149 57 106 149 57 106 149 57 106 149 57 106 149 57 106 149 57 106 149 57 106 149 57 106 149 57 106 149 57 76 107 41 76 107 41 76 107 41 76 107 41 76 107 41 76 107 41 76 107 41 76 107 41 76 107 41 76 107 41 76 107 41 76 107 41 76 107 41 76 107 41 76 107 41 76 107 41 74 103 39 74 103 39 74 103 39 74 103 39 74 103 39 74 103 39 74 103 39 74 103 39 74 103 39 74 103 39 74 103 39 74 103 39 74 103 39 74 103 39 74 103 39 74 103 39 76 106 40 76 106 40 76 106 40 76 106 40 76 106 40 76 106 40 76 106 40 76 106 40 76 106 40 76 106 40 76 106 40 76 106 40 76 106 40 76 106 40 76 106 40 76 106 40 81 114 43 81 114 43 81 114 43 81 114 43 81 114 43 81 114 43 81 114 43 81 114 43 81 114 43 81 114 43 81 114 43 81 114 43 81 114 43 81 114 43 81 114 43 81 114 43 76 107 41 76 107 41 76 107 41 76 107 41 76 107 41 76 107 41 76 107 41 76 107 41 76 107 41 76 107 41 76 107 41 76 107 41 76 107 41 76 107 41 76 107 41 76 107 41 87 122 46 87 122 46 87 122 46 87 122 46 87 122 46 87 122 46 87 122 46 87 122 46 87 122 46 87 122 46 87 122 46 87 122 46 87 122 46 87 122 46 87 122 46 87 122 46 82 115 44 82 115 44 82 115 44 82 115 44 82 115 44 82 115 44 82 115 44 82 115 44 82 115 44 82 115 44 82 115 44 82 115 44 82 115 44 82 115 44 82 115 44 82 115 44 83 117 44 83 117 44 83 117 44 83 117 44 83 117 44 83 117 44 83 117 44 83 117 44 83 117 44 83 117 44 83 117 44 83 117 44 83 117 44 83 117 44 83 117 44 83 117 44 70 98 37 70 98 37 70 98 37 70 98 37 70 98 37 70 98 37 70 98 37 70 98 37 70 98 37 70 98 37 70 98 37 70 98 37 70 98 37 70 98 37 70 98 37 70 98 37 83 117 44 83 117 44 83 117 44 83 117 44 83 117 44 83 117 44 83 117 44 83 117 44 83 117 44 83 117 44 83 117 44 83 117 44 83 117 44 83 117 44 83 117 44 83 117 44 71 99 38 71 99 38 71 99 38 71 99 38 71 99 38 71 99 38 71 99 38 71 99 38 71 99 38 71 99 38 71 99 38 71 99 38 71 99 38 71 99 38 71 99 38 71 99 38 69 97 37 69 97 37 69 97 37 69 97 37 69 97 37 69 97 37 69 97 37 69 97 37 69 97 37 69 97 37 69 97 37 69 97 37 69 97 37 69 97 37 69 97 37 92 129 49 92 129 49 92 129 49 92 129 49 92 129 49 92 129 49 92 129 49 92 129 49 92 129 49 92 129 49 92 129 49 92 129 49 92 129 49 92 129 49 92 129 49 92 129 49 90 127 48 90 127 48 90 127 48 90 127 48 90 127 48 90 127 48 90 127 48 90 127 48 90 127 48 90 127 48 90 127 48 90 127 48 90 127 48 90 127 48 90 127 48 90 127 48 80 112 43 80 112 43 80 112 43 80 112 43 80 112 43 80 112 43 80 112 43 80 112 43 80 112 43 80 112 43 80 112 43 80 112 43 80 112 43 80 112 43 80 112 43 80 112 43 106 149 57 106 149 57 106 149 57 106 149 57 106 149 57 106 149 57 106 149 57 106 149 57 106 149 57 106 149 57 106 149 57 106 149 57 106 149 57 106 149 57 106 149 57 106 149 57 76 107 41 76 107 41 76 107 41 76 107 41 76 107 41 76 107 41 76 107 41 76 107 41 76 107 41 76 107 41 76 107 41 76 107 41 76 107 41 76 107 41 76 107 41 76 107 41 74 103 39 74 103 39 74 103 39 74 103 39 74 103 39 74 103 39 74 103 39 74 103 39 74 103 39 74 103 39 74 103 39 74 103 39 74 103 39 74 103 39 74 103 39 74 103 39 76 106 40 76 106 40 76 106 40 76 106 40 76 106 40 76 106 40 76 106 40 76 106 40 76 106 40 76 106 40 76 106 40 76 106 40 76 106 40 76 106 40 76 106 40 76 106 40 81 114 43 81 114 43 81 114 43 81 114 43 81 114 43 81 114 43 81 114 43 81 114 43 81 114 43 81 114 43 81 114 43 81 114 43 81 114 43 81 114 43 81 114 43 81 114 43 76 107 41 76 107 41 76 107 41 76 107 41 76 107 41 76 107 41 76 107 41 76 107 41 76 107 41 76 107 41 76 107 41 76 107 41 76 107 41 76 107 41 76 107 41 76 107 41 87 122 46 87 122 46 87 122 46 87 122 46 87 122 46 87 122 46 87 122 46 87 122 46 87 122 46 87 122 46 87 122 46 87 122 46 87 122 46 87 122 46 87 122 46 87 122 46 82 115 44 82 115 44 82 115 44 82 115 44 82 115 44 82 115 44 82 115 44 82 115 44 82 115 44 82 115 44 82 115 44 82 115 44 82 115 44 82 115 44 82 115 44 82 115 44 83 117 44 83 117 44 83 117 44 83 117 44 83 117 44 83 117 44 83 117 44 83 117 44 83 117 44 83 117 44 83 117 44 83 117 44 83 117 44 83 117 44 83 117 44 83 117 44 70 98 37 70 98 37 70 98 37 70 98 37 70 98 37 70 98 37 70 98 37 70 98 37 70 98 37 70 98 37 70 98 37 70 98 37 70 98 37 70 98 37 70 98 37 70 98 37 83 117 44 83 117 44 83 117 44 83 117 44 83 117 44 83 117 44 83 117 44 83 117 44 83 117 44 83 117 44 83 117 44 83 117 44 83 117 44 83 117 44 83 117 44 83 117 44 71 99 38 71 99 38 71 99 38 71 99 38 71 99 38 71 99 38 71 99 38 71 99 38 71 99 38 71 99 38 71 99 38 71 99 38 71 99 38 71 99 38 71 99 38 71 99 38 69 97 37 69 97 37 69 97 37 69 97 37 69 97 37 69 97 37 69 97 37 69 97 37 69 97 37 69 97 37 69 97 37 69 97 37 69 97 37 69 97 37 69 97 37 92 129 49 92 129 49 92 129 49 92 129 49 92 129 49 92 129 49 92 129 49 92 129 49 92 129 49 92 129 49 92 129 49 92 129 49 92 129 49 92 129 49 92 129 49 92 129 49 90 127 48 90 127 48 90 127 48 90 127 48 90 127 48 90 127 48 90 127 48 90 127 48 90 127 48 90 127 48 90 127 48 90 127 48 90 127 48 90 127 48 90 127 48 90 127 48 80 112 43 80 112 43 80 112 43 80 112 43 80 112 43 80 112 43 80 112 43 80 112 43 80 112 43 80 112 43 80 112 43 80 112 43 80 112 43 80 112 43 80 112 43 80 112 43 106 149 57 106 149 57 106 149 57 106 149 57 106 149 57 106 149 57 106 149 57 106 149 57 106 149 57 106 149 57 106 149 57 106 149 57 106 149 57 106 149 57 106 149 57 106 149 57 76 107 41 76 107 41 76 107 41 76 107 41 76 107 41 76 107 41 76 107 41 76 107 41 76 107 41 76 107 41 76 107 41 76 107 41 76 107 41 76 107 41 76 107 41 76 107 41 74 103 39 74 103 39 74 103 39 74 103 39 74 103 39 74 103 39 74 103 39 74 103 39 74 103 39 74 103 39 74 103 39 74 103 39 74 103 39 74 103 39 74 103 39 74 103 39 76 106 40 76 106 40 76 106 40 76 106 40 76 106 40 76 106 40 76 106 40 76 106 40 76 106 40 76 106 40 76 106 40 76 106 40 76 106 40 76 106 40 76 106 40 76 106 40 81 114 43 81 114 43 81 114 43 81 114 43 81 114 43 81 114 43 81 114 43 81 114 43 81 114 43 81 114 43 81 114 43 81 114 43 81 114 43 81 114 43 81 114 43 81 114 43 76 107 41 76 107 41 76 107 41 76 107 41 76 107 41 76 107 41 76 107 41 76 107 41 76 107 41 76 107 41 76 107 41 76 107 41 76 107 41 76 107 41 76 107 41 76 107 41 87 122 46 87 122 46 87 122 46 87 122 46 87 122 46 87 122 46 87 122 46 87 122 46 87 122 46 87 122 46 87 122 46 87 122 46 87 122 46 87 122 46 87 122 46 87 122 46 82 115 44 82 115 44 82 115 44 82 115 44 82 115 44 82 115 44 82 115 44 82 115 44 82 115 44 82 115 44 82 115 44 82 115 44 82 115 44 82 115 44 82 115 44 82 115 44 83 117 44 83 117 44 83 117 44 83 117 44 83 117 44 83 117 44 83 117 44 83 117 44 83 117 44 83 117 44 83 117 44 83 117 44 83 117 44 83 117 44 83 117 44 83 117 44 70 98 37 70 98 37 70 98 37 70 98 37 70 98 37 70 98 37 70 98 37 70 98 37 70 98 37 70 98 37 70 98 37 70 98 37 70 98 37 70 98 37 70 98 37 70 98 37 83 117 44 83 117 44 83 117 44 83 117 44 83 117 44 83 117 44 83 117 44 83 117 44 83 117 44 83 117 44 83 117 44 83 117 44 83 117 44 83 117 44 83 117 44 83 117 44 71 99 38 71 99 38 71 99 38 71 99 38 71 99 38 71 99 38 71 99 38 71 99 38 71 99 38 71 99 38 71 99 38 71 99 38 71 99 38 71 99 38 71 99 38 71 99 38 69 97 37 69 97 37 69 97 37 69 97 37 69 97 37 69 97 37 69 97 37 69 97 37 69 97 37 69 97 37 69 97 37 69 97 37 69 97 37 69 97 37 69 97 37 92 129 49 92 129 49 92 129 49 92 129 49 92 129 49 92 129 49 92 129 49 92 129 49 92 129 49 92 129 49 92 129 49 92 129 49 92 129 49 92 129 49 92 129 49 92 129 49 90 127 48 90 127 48 90 127 48 90 127 48 90 127 48 90 127 48 90 127 48 90 127 48 90 127 48 90 127 48 90 127 48 90 127 48 90 127 48 90 127 48 90 127 48 90 127 48 80 112 43 80 112 43 80 112 43 80 112 43 80 112 43 80 112 43 80 112 43 80 112 43 80 112 43 80 112 43 80 112 43 80 112 43 80 112 43 80 112 43 80 112 43 80 112 43 106 149 57 106 149 57 106 149 57 106 149 57 106 149 57 106 149 57 106 149 57 106 149 57 106 149 57 106 149 57 106 149 57 106 149 57 106 149 57 106 149 57 106 149 57 106 149 57 76 107 41 76 107 41 76 107 41 76 107 41 76 107 41 76 107 41 76 107 41 76 107 41 76 107 41 76 107 41 76 107 41 76 107 41 76 107 41 76 107 41 76 107 41 76 107 41 74 103 39 74 103 39 74 103 39 74 103 39 74 103 39 74 103 39 74 103 39 74 103 39 74 103 39 74 103 39 74 103 39 74 103 39 74 103 39 74 103 39 74 103 39 74 103 39 76 106 40 76 106 40 76 106 40 76 106 40 76 106 40 76 106 40 76 106 40 76 106 40 76 106 40 76 106 40 76 106 40 76 106 40 76 106 40 76 106 40 76 106 40 76 106 40 81 114 43 81 114 43 81 114 43 81 114 43 81 114 43 81 114 43 81 114 43 81 114 43 81 114 43 81 114 43 81 114 43 81 114 43 81 114 43 81 114 43 81 114 43 81 114 43 76 107 41 76 107 41 76 107 41 76 107 41 76 107 41 76 107 41 76 107 41 76 107 41 76 107 41 76 107 41 76 107 41 76 107 41 76 107 41 76 107 41 76 107 41 76 107 41 87 122 46 87 122 46 87 122 46 87 122 46 87 122 46 87 122 46 87 122 46 87 122 46 87 122 46 87 122 46 87 122 46 87 122 46 87 122 46 87 122 46 87 122 46 87 122 46 82 115 44 82 115 44 82 115 44 82 115 44 82 115 44 82 115 44 82 115 44 82 115 44 82 115 44 82 115 44 82 115 44 82 115 44 82 115 44 82 115 44 82 115 44 82 115 44 83 117 44 83 117 44 83 117 44 83 117 44 83 117 44 83 117 44 83 117 44 83 117 44 83 117 44 83 117 44 83 117 44 83 117 44 83 117 44 83 117 44 83 117 44 83 117 44 70 98 37 70 98 37 70 98 37 70 98 37 70 98 37 70 98 37 70 98 37 70 98 37 70 98 37 70 98 37 70 98 37 70 98 37 70 98 37 70 98 37 70 98 37 70 98 37 83 117 44 83 117 44 83 117 44 83 117 44 83 117 44 83 117 44 83 117 44 83 117 44 83 117 44 83 117 44 83 117 44 83 117 44 83 117 44 83 117 44 83 117 44 83 117 44 71 99 38 71 99 38 71 99 38 71 99 38 71 99 38 71 99 38 71 99 38 71 99 38 71 99 38 71 99 38 71 99 38 71 99 38 71 99 38 71 99 38 71 99 38 71 99 38 69 97 37 69 97 37 69 97 37 69 97 37 69 97 37 69 97 37 69 97 37 69 97 37 69 97 37 69 97 37 69 97 37 69 97 37 69 97 37 69 97 37 69 97 37 92 129 49 92 129 49 92 129 49 92 129 49 92 129 49 92 129 49 92 129 49 92 129 49 92 129 49 92 129 49 92 129 49 92 129 49 92 129 49 92 129 49 92 129 49 92 129 49 90 127 48 90 127 48 90 127 48 90 127 48 90 127 48 90 127 48 90 127 48 90 127 48 90 127 48 90 127 48 90 127 48 90 127 48 90 127 48 90 127 48 90 127 48 90 127 48 80 112 43 80 112 43 80 112 43 80 112 43 80 112 43 80 112 43 80 112 43 80 112 43 80 112 43 80 112 43 80 112 43 80 112 43 80 112 43 80 112 43 80 112 43 80 112 43 106 149 57 106 149 57 106 149 57 106 149 57 106 149 57 106 149 57 106 149 57 106 149 57 106 149 57 106 149 57 106 149 57 106 149 57 106 149 57 106 149 57 106 149 57 106 149 57 76 107 41 76 107 41 76 107 41 76 107 41 76 107 41 76 107 41 76 107 41 76 107 41 76 107 41 76 107 41 76 107 41 76 107 41 76 107 41 76 107 41 76 107 41 76 107 41 74 103 39 74 103 39 74 103 39 74 103 39 74 103 39 74 103 39 74 103 39 74 103 39 74 103 39 74 103 39 74 103 39 74 103 39 74 103 39 74 103 39 74 103 39 74 103 39 76 106 40 76 106 40 76 106 40 76 106 40 76 106 40 76 106 40 76 106 40 76 106 40 76 106 40 76 106 40 76 106 40 76 106 40 76 106 40 76 106 40 76 106 40 76 106 40 81 114 43 81 114 43 81 114 43 81 114 43 81 114 43 81 114 43 81 114 43 81 114 43 81 114 43 81 114 43 81 114 43 81 114 43 81 114 43 81 114 43 81 114 43 81 114 43 76 107 41 76 107 41 76 107 41 76 107 41 76 107 41 76 107 41 76 107 41 76 107 41 76 107 41 76 107 41 76 107 41 76 107 41 76 107 41 76 107 41 76 107 41 76 107 41 87 122 46 87 122 46 87 122 46 87 122 46 87 122 46 87 122 46 87 122 46 87 122 46 87 122 46 87 122 46 87 122 46 87 122 46 87 122 46 87 122 46 87 122 46 87 122 46 82 115 44 82 115 44 82 115 44 82 115 44 82 115 44 82 115 44 82 115 44 82 115 44 82 115 44 82 115 44 82 115 44 82 115 44 82 115 44 82 115 44 82 115 44 82 115 44 83 117 44 83 117 44 83 117 44 83 117 44 83 117 44 83 117 44 83 117 44 83 117 44 83 117 44 83 117 44 83 117 44 83 117 44 83 117 44 83 117 44 83 117 44 83 117 44 70 98 37 70 98 37 70 98 37 70 98 37 70 98 37 70 98 37 70 98 37 70 98 37 70 98 37 70 98 37 70 98 37 70 98 37 70 98 37 70 98 37 70 98 37 70 98 37 83 117 44 83 117 44 83 117 44 83 117 44 83 117 44 83 117 44 83 117 44 83 117 44 83 117 44 83 117 44 83 117 44 83 117 44 83 117 44 83 117 44 83 117 44 83 117 44 71 99 38 71 99 38 71 99 38 71 99 38 71 99 38 71 99 38 71 99 38 71 99 38 71 99 38 71 99 38 71 99 38 71 99 38 71 99 38 71 99 38 71 99 38 71 99 38 69 97 37 69 97 37 69 97 37 69 97 37 69 97 37 69 97 37 69 97 37 69 97 37 69 97 37 69 97 37 69 97 37 69 97 37 69 97 37 69 97 37 69 97 37 92 129 49 92 129 49 92 129 49 92 129 49 92 129 49 92 129 49 92 129 49 92 129 49 92 129 49 92 129 49 92 129 49 92 129 49 92 129 49 92 129 49 92 129 49 92 129 49 90 127 48 90 127 48 90 127 48 90 127 48 90 127 48 90 127 48 90 127 48 90 127 48 90 127 48 90 127 48 90 127 48 90 127 48 90 127 48 90 127 48 90 127 48 90 127 48 80 112 43 80 112 43 80 112 43 80 112 43 80 112 43 80 112 43 80 112 43 80 112 43 80 112 43 80 112 43 80 112 43 80 112 43 80 112 43 80 112 43 80 112 43 80 112 43 106 149 57 106 149 57 106 149 57 106 149 57 106 149 57 106 149 57 106 149 57 106 149 57 106 149 57 106 149 57 106 149 57 106 149 57 106 149 57 106 149 57 106 149 57 106 149 57 76 107 41 76 107 41 76 107 41 76 107 41 76 107 41 76 107 41 76 107 41 76 107 41 76 107 41 76 107 41 76 107 41 76 107 41 76 107 41 76 107 41 76 107 41 76 107 41 74 103 39 74 103 39 74 103 39 74 103 39 74 103 39 74 103 39 74 103 39 74 103 39 74 103 39 74 103 39 74 103 39 74 103 39 74 103 39 74 103 39 74 103 39 74 103 39 76 106 40 76 106 40 76 106 40 76 106 40 76 106 40 76 106 40 76 106 40 76 106 40 76 106 40 76 106 40 76 106 40 76 106 40 76 106 40 76 106 40 76 106 40 76 106 40 81 114 43 81 114 43 81 114 43 81 114 43 81 114 43 81 114 43 81 114 43 81 114 43 81 114 43 81 114 43 81 114 43 81 114 43 81 114 43 81 114 43 81 114 43 81 114 43 76 107 41 76 107 41 76 107 41 76 107 41 76 107 41 76 107 41 76 107 41 76 107 41 76 107 41 76 107 41 76 107 41 76 107 41 76 107 41 76 107 41 76 107 41 76 107 41 87 122 46 87 122 46 87 122 46 87 122 46 87 122 46 87 122 46 87 122 46 87 122 46 87 122 46 87 122 46 87 122 46 87 122 46 87 122 46 87 122 46 87 122 46 87 122 46 82 115 44 82 115 44 82 115 44 82 115 44 82 115 44 82 115 44 82 115 44 82 115 44 82 115 44 82 115 44 82 115 44 82 115 44 82 115 44 82 115 44 82 115 44 82 115 44 83 117 44 83 117 44 83 117 44 83 117 44 83 117 44 83 117 44 83 117 44 83 117 44 83 117 44 83 117 44 83 117 44 83 117 44 83 117 44 83 117 44 83 117 44 83 117 44 70 98 37 70 98 37 70 98 37 70 98 37 70 98 37 70 98 37 70 98 37 70 98 37 70 98 37 70 98 37 70 98 37 70 98 37 70 98 37 70 98 37 70 98 37 70 98 37 83 117 44 83 117 44 83 117 44 83 117 44 83 117 44 83 117 44 83 117 44 83 117 44 83 117 44 83 117 44 83 117 44 83 117 44 83 117 44 83 117 44 83 117 44 83 117 44 71 99 38 71 99 38 71 99 38 71 99 38 71 99 38 71 99 38 71 99 38 71 99 38 71 99 38 71 99 38 71 99 38 71 99 38 71 99 38 71 99 38 71 99 38 71 99 38 69 97 37 69 97 37 69 97 37 69 97 37 69 97 37 69 97 37 69 97 37 69 97 37 69 97 37 69 97 37 69 97 37 69 97 37 69 97 37 69 97 37 69 97 37 92 129 49 92 129 49 92 129 49 92 129 49 92 129 49 92 129 49 92 129 49 92 129 49 92 129 49 92 129 49 92 129 49 92 129 49 92 129 49 92 129 49 92 129 49 92 129 49 90 127 48 90 127 48 90 127 48 90 127 48 90 127 48 90 127 48 90 127 48 90 127 48 90 127 48 90 127 48 90 127 48 90 127 48 90 127 48 90 127 48 90 127 48 90 127 48 80 112 43 80 112 43 80 112 43 80 112 43 80 112 43 80 112 43 80 112 43 80 112 43 80 112 43 80 112 43 80 112 43 80 112 43 80 112 43 80 112 43 80 112 43 80 112 43 106 149 57 106 149 57 106 149 57 106 149 57 106 149 57 106 149 57 106 149 57 106 149 57 106 149 57 106 149 57 106 149 57 106 149 57 106 149 57 106 149 57 106 149 57 106 149 57 76 107 41 76 107 41 76 107 41 76 107 41 76 107 41 76 107 41 76 107 41 76 107 41 76 107 41 76 107 41 76 107 41 76 107 41 76 107 41 76 107 41 76 107 41 76 107 41 74 103 39 74 103 39 74 103 39 74 103 39 74 103 39 74 103 39 74 103 39 74 103 39 74 103 39 74 103 39 74 103 39 74 103 39 74 103 39 74 103 39 74 103 39 74 103 39 76 106 40 76 106 40 76 106 40 76 106 40 76 106 40 76 106 40 76 106 40 76 106 40 76 106 40 76 106 40 76 106 40 76 106 40 76 106 40 76 106 40 76 106 40 76 106 40 81 114 43 81 114 43 81 114 43 81 114 43 81 114 43 81 114 43 81 114 43 81 114 43 81 114 43 81 114 43 81 114 43 81 114 43 81 114 43 81 114 43 81 114 43 81 114 43 76 107 41 76 107 41 76 107 41 76 107 41 76 107 41 76 107 41 76 107 41 76 107 41 76 107 41 76 107 41 76 107 41 76 107 41 76 107 41 76 107 41 76 107 41 76 107 41 87 122 46 87 122 46 87 122 46 87 122 46 87 122 46 87 122 46 87 122 46 87 122 46 87 122 46 87 122 46 87 122 46 87 122 46 87 122 46 87 122 46 87 122 46 87 122 46 82 115 44 82 115 44 82 115 44 82 115 44 82 115 44 82 115 44 82 115 44 82 115 44 82 115 44 82 115 44 82 115 44 82 115 44 82 115 44 82 115 44 82 115 44 82 115 44 83 117 44 83 117 44 83 117 44 83 117 44 83 117 44 83 117 44 83 117 44 83 117 44 83 117 44 83 117 44 83 117 44 83 117 44 83 117 44 83 117 44 83 117 44 83 117 44 70 98 37 70 98 37 70 98 37 70 98 37 70 98 37 70 98 37 70 98 37 70 98 37 70 98 37 70 98 37 70 98 37 70 98 37 70 98 37 70 98 37 70 98 37 70 98 37 83 117 44 83 117 44 83 117 44 83 117 44 83 117 44 83 117 44 83 117 44 83 117 44 83 117 44 83 117 44 83 117 44 83 117 44 83 117 44 83 117 44 83 117 44 83 117 44 71 99 38 71 99 38 71 99 38 71 99 38 71 99 38 71 99 38 71 99 38 71 99 38 71 99 38 71 99 38 71 99 38 71 99 38 71 99 38 71 99 38 71 99 38 71 99 38 69 97 37 69 97 37 69 97 37 69 97 37 69 97 37 69 97 37 69 97 37 69 97 37 69 97 37 69 97 37 69 97 37 69 97 37 69 97 37 69 97 37 69 97 37 92 129 49 92 129 49 92 129 49 92 129 49 92 129 49 92 129 49 92 129 49 92 129 49 92 129 49 92 129 49 92 129 49 92 129 49 92 129 49 92 129 49 92 129 49 92 129 49 90 127 48 90 127 48 90 127 48 90 127 48 90 127 48 90 127 48 90 127 48 90 127 48 90 127 48 90 127 48 90 127 48 90 127 48 90 127 48 90 127 48 90 127 48 90 127 48 80 112 43 80 112 43 80 112 43 80 112 43 80 112 43 80 112 43 80 112 43 80 112 43 80 112 43 80 112 43 80 112 43 80 112 43 80 112 43 80 112 43 80 112 43 80 112 43 106 149 57 106 149 57 106 149 57 106 149 57 106 149 57 106 149 57 106 149 57 106 149 57 106 149 57 106 149 57 106 149 57 106 149 57 106 149 57 106 149 57 106 149 57 106 149 57 76 107 41 76 107 41 76 107 41 76 107 41 76 107 41 76 107 41 76 107 41 76 107 41 76 107 41 76 107 41 76 107 41 76 107 41 76 107 41 76 107 41 76 107 41 76 107 41 74 103 39 74 103 39 74 103 39 74 103 39 74 103 39 74 103 39 74 103 39 74 103 39 74 103 39 74 103 39 74 103 39 74 103 39 74 103 39 74 103 39 74 103 39 74 103 39 76 106 40 76 106 40 76 106 40 76 106 40 76 106 40 76 106 40 76 106 40 76 106 40 76 106 40 76 106 40 76 106 40 76 106 40 76 106 40 76 106 40 76 106 40 76 106 40 81 114 43 81 114 43 81 114 43 81 114 43 81 114 43 81 114 43 81 114 43 81 114 43 81 114 43 81 114 43 81 114 43 81 114 43 81 114 43 81 114 43 81 114 43 81 114 43 76 107 41 76 107 41 76 107 41 76 107 41 76 107 41 76 107 41 76 107 41 76 107 41 76 107 41 76 107 41 76 107 41 76 107 41 76 107 41 76 107 41 76 107 41 76 107 41 87 122 46 87 122 46 87 122 46 87 122 46 87 122 46 87 122 46 87 122 46 87 122 46 87 122 46 87 122 46 87 122 46 87 122 46 87 122 46 87 122 46 87 122 46 87 122 46 82 115 44 82 115 44 82 115 44 82 115 44 82 115 44 82 115 44 82 115 44 82 115 44 82 115 44 82 115 44 82 115 44 82 115 44 82 115 44 82 115 44 82 115 44 82 115 44 83 117 44 83 117 44 83 117 44 83 117 44 83 117 44 83 117 44 83 117 44 83 117 44 83 117 44 83 117 44 83 117 44 83 117 44 83 117 44 83 117 44 83 117 44 83 117 44 70 98 37 70 98 37 70 98 37 70 98 37 70 98 37 70 98 37 70 98 37 70 98 37 70 98 37 70 98 37 70 98 37 70 98 37 70 98 37 70 98 37 70 98 37 70 98 37 83 117 44 83 117 44 83 117 44 83 117 44 83 117 44 83 117 44 83 117 44 83 117 44 83 117 44 83 117 44 83 117 44 83 117 44 83 117 44 83 117 44 83 117 44 83 117 44 71 99 38 71 99 38 71 99 38 71 99 38 71 99 38 71 99 38 71 99 38 71 99 38 71 99 38 71 99 38 71 99 38 71 99 38 71 99 38 71 99 38 71 99 38 71 99 38 69 97 37 69 97 37 69 97 37 69 97 37 69 97 37 69 97 37 69 97 37 69 97 37 69 97 37 69 97 37 69 97 37 69 97 37 69 97 37 69 97 37 69 97 37 92 129 49 92 129 49 92 129 49 92 129 49 92 129 49 92 129 49 92 129 49 92 129 49 92 129 49 92 129 49 92 129 49 92 129 49 92 129 49 92 129 49 92 129 49 92 129 49 90 127 48 90 127 48 90 127 48 90 127 48 90 127 48 90 127 48 90 127 48 90 127 48 90 127 48 90 127 48 90 127 48 90 127 48 90 127 48 90 127 48 90 127 48 90 127 48 80 112 43 80 112 43 80 112 43 80 112 43 80 112 43 80 112 43 80 112 43 80 112 43 80 112 43 80 112 43 80 112 43 80 112 43 80 112 43 80 112 43 80 112 43 80 112 43 106 149 57 106 149 57 106 149 57 106 149 57 106 149 57 106 149 57 106 149 57 106 149 57 106 149 57 106 149 57 106 149 57 106 149 57 106 149 57 106 149 57 106 149 57 106 149 57 76 107 41 76 107 41 76 107 41 76 107 41 76 107 41 76 107 41 76 107 41 76 107 41 76 107 41 76 107 41 76 107 41 76 107 41 76 107 41 76 107 41 76 107 41 76 107 41 74 103 39 74 103 39 74 103 39 74 103 39 74 103 39 74 103 39 74 103 39 74 103 39 74 103 39 74 103 39 74 103 39 74 103 39 74 103 39 74 103 39 74 103 39 74 103 39 76 106 40 76 106 40 76 106 40 76 106 40 76 106 40 76 106 40 76 106 40 76 106 40 76 106 40 76 106 40 76 106 40 76 106 40 76 106 40 76 106 40 76 106 40 76 106 40 81 114 43 81 114 43 81 114 43 81 114 43 81 114 43 81 114 43 81 114 43 81 114 43 81 114 43 81 114 43 81 114 43 81 114 43 81 114 43 81 114 43 81 114 43 81 114 43 76 107 41 76 107 41 76 107 41 76 107 41 76 107 41 76 107 41 76 107 41 76 107 41 76 107 41 76 107 41 76 107 41 76 107 41 76 107 41 76 107 41 76 107 41 76 107 41 87 122 46 87 122 46 87 122 46 87 122 46 87 122 46 87 122 46 87 122 46 87 122 46 87 122 46 87 122 46 87 122 46 87 122 46 87 122 46 87 122 46 87 122 46 87 122 46 82 115 44 82 115 44 82 115 44 82 115 44 82 115 44 82 115 44 82 115 44 82 115 44 82 115 44 82 115 44 82 115 44 82 115 44 82 115 44 82 115 44 82 115 44 82 115 44 83 117 44 83 117 44 83 117 44 83 117 44 83 117 44 83 117 44 83 117 44 83 117 44 83 117 44 83 117 44 83 117 44 83 117 44 83 117 44 83 117 44 83 117 44 83 117 44 70 98 37 70 98 37 70 98 37 70 98 37 70 98 37 70 98 37 70 98 37 70 98 37 70 98 37 70 98 37 70 98 37 70 98 37 70 98 37 70 98 37 70 98 37 70 98 37 83 117 44 83 117 44 83 117 44 83 117 44 83 117 44 83 117 44 83 117 44 83 117 44 83 117 44 83 117 44 83 117 44 83 117 44 83 117 44 83 117 44 83 117 44 83 117 44 71 99 38 71 99 38 71 99 38 71 99 38 71 99 38 71 99 38 71 99 38 71 99 38 71 99 38 71 99 38 71 99 38 71 99 38 71 99 38 71 99 38 71 99 38 71 99 38 69 97 37 69 97 37 69 97 37 69 97 37 69 97 37 69 97 37 69 97 37 69 97 37 69 97 37 69 97 37 69 97 37 69 97 37 69 97 37 69 97 37 69 97 37 92 129 49 92 129 49 92 129 49 92 129 49 92 129 49 92 129 49 92 129 49 92 129 49 92 129 49 92 129 49 92 129 49 92 129 49 92 129 49 92 129 49 92 129 49 92 129 49 90 127 48 90 127 48 90 127 48 90 127 48 90 127 48 90 127 48 90 127 48 90 127 48 90 127 48 90 127 48 90 127 48 90 127 48 90 127 48 90 127 48 90 127 48 90 127 48 80 112 43 80 112 43 80 112 43 80 112 43 80 112 43 80 112 43 80 112 43 80 112 43 80 112 43 80 112 43 80 112 43 80 112 43 80 112 43 80 112 43 80 112 43 80 112 43 106 149 57 106 149 57 106 149 57 106 149 57 106 149 57 106 149 57 106 149 57 106 149 57 106 149 57 106 149 57 106 149 57 106 149 57 106 149 57 106 149 57 106 149 57 106 149 57 76 107 41 76 107 41 76 107 41 76 107 41 76 107 41 76 107 41 76 107 41 76 107 41 76 107 41 76 107 41 76 107 41 76 107 41 76 107 41 76 107 41 76 107 41 76 107 41 74 103 39 74 103 39 74 103 39 74 103 39 74 103 39 74 103 39 74 103 39 74 103 39 74 103 39 74 103 39 74 103 39 74 103 39 74 103 39 74 103 39 74 103 39 74 103 39 76 106 40 76 106 40 76 106 40 76 106 40 76 106 40 76 106 40 76 106 40 76 106 40 76 106 40 76 106 40 76 106 40 76 106 40 76 106 40 76 106 40 76 106 40 76 106 40 81 114 43 81 114 43 81 114 43 81 114 43 81 114 43 81 114 43 81 114 43 81 114 43 81 114 43 81 114 43 81 114 43 81 114 43 81 114 43 81 114 43 81 114 43 81 114 43 76 107 41 76 107 41 76 107 41 76 107 41 76 107 41 76 107 41 76 107 41 76 107 41 76 107 41 76 107 41 76 107 41 76 107 41 76 107 41 76 107 41 76 107 41 76 107 41 87 122 46 87 122 46 87 122 46 87 122 46 87 122 46 87 122 46 87 122 46 87 122 46 87 122 46 87 122 46 87 122 46 87 122 46 87 122 46 87 122 46 87 122 46 87 122 46 82 115 44 82 115 44 82 115 44 82 115 44 82 115 44 82 115 44 82 115 44 82 115 44 82 115 44 82 115 44 82 115 44 82 115 44 82 115 44 82 115 44 82 115 44 82 115 44 83 117 44 83 117 44 83 117 44 83 117 44 83 117 44 83 117 44 83 117 44 83 117 44 83 117 44 83 117 44 83 117 44 83 117 44 83 117 44 83 117 44 83 117 44 83 117 44 70 98 37 70 98 37 70 98 37 70 98 37 70 98 37 70 98 37 70 98 37 70 98 37 70 98 37 70 98 37 70 98 37 70 98 37 70 98 37 70 98 37 70 98 37 70 98 37 83 117 44 83 117 44 83 117 44 83 117 44 83 117 44 83 117 44 83 117 44 83 117 44 83 117 44 83 117 44 83 117 44 83 117 44 83 117 44 83 117 44 83 117 44 83 117 44 71 99 38 71 99 38 71 99 38 71 99 38 71 99 38 71 99 38 71 99 38 71 99 38 71 99 38 71 99 38 71 99 38 71 99 38 71 99 38 71 99 38 71 99 38 71 99 38 69 97 37 69 97 37 69 97 37 69 97 37 69 97 37 69 97 37 69 97 37 69 97 37 69 97 37 69 97 37 69 97 37 69 97 37 69 97 37 69 97 37 69 97 37 92 129 49 92 129 49 92 129 49 92 129 49 92 129 49 92 129 49 92 129 49 92 129 49 92 129 49 92 129 49 92 129 49 92 129 49 92 129 49 92 129 49 92 129 49 92 129 49 90 127 48 90 127 48 90 127 48 90 127 48 90 127 48 90 127 48 90 127 48 90 127 48 90 127 48 90 127 48 90 127 48 90 127 48 90 127 48 90 127 48 90 127 48 90 127 48 80 112 43 80 112 43 80 112 43 80 112 43 80 112 43 80 112 43 80 112 43 80 112 43 80 112 43 80 112 43 80 112 43 80 112 43 80 112 43 80 112 43 80 112 43 80 112 43 106 149 57 106 149 57 106 149 57 106 149 57 106 149 57 106 149 57 106 149 57 106 149 57 106 149 57 106 149 57 106 149 57 106 149 57 106 149 57 106 149 57 106 149 57 106 149 57 76 107 41 76 107 41 76 107 41 76 107 41 76 107 41 76 107 41 76 107 41 76 107 41 76 107 41 76 107 41 76 107 41 76 107 41 76 107 41 76 107 41 76 107 41 76 107 41 74 103 39 74 103 39 74 103 39 74 103 39 74 103 39 74 103 39 74 103 39 74 103 39 74 103 39 74 103 39 74 103 39 74 103 39 74 103 39 74 103 39 74 103 39 74 103 39 76 106 40 76 106 40 76 106 40 76 106 40 76 106 40 76 106 40 76 106 40 76 106 40 76 106 40 76 106 40 76 106 40 76 106 40 76 106 40 76 106 40 76 106 40 76 106 40 81 114 43 81 114 43 81 114 43 81 114 43 81 114 43 81 114 43 81 114 43 81 114 43 81 114 43 81 114 43 81 114 43 81 114 43 81 114 43 81 114 43 81 114 43 81 114 43 76 107 41 76 107 41 76 107 41 76 107 41 76 107 41 76 107 41 76 107 41 76 107 41 76 107 41 76 107 41 76 107 41 76 107 41 76 107 41 76 107 41 76 107 41 76 107 41 87 122 46 87 122 46 87 122 46 87 122 46 87 122 46 87 122 46 87 122 46 87 122 46 87 122 46 87 122 46 87 122 46 87 122 46 87 122 46 87 122 46 87 122 46 87 122 46 82 115 44 82 115 44 82 115 44 82 115 44 82 115 44 82 115 44 82 115 44 82 115 44 82 115 44 82 115 44 82 115 44 82 115 44 82 115 44 82 115 44 82 115 44 82 115 44 83 117 44 83 117 44 83 117 44 83 117 44 83 117 44 83 117 44 83 117 44 83 117 44 83 117 44 83 117 44 83 117 44 83 117 44 83 117 44 83 117 44 83 117 44 83 117 44 70 98 37 70 98 37 70 98 37 70 98 37 70 98 37 70 98 37 70 98 37 70 98 37 70 98 37 70 98 37 70 98 37 70 98 37 70 98 37 70 98 37 70 98 37 70 98 37 83 117 44 83 117 44 83 117 44 83 117 44 83 117 44 83 117 44 83 117 44 83 117 44 83 117 44 83 117 44 83 117 44 83 117 44 83 117 44 83 117 44 83 117 44 83 117 44 71 99 38 71 99 38 71 99 38 71 99 38 71 99 38 71 99 38 71 99 38 71 99 38 71 99 38 71 99 38 71 99 38 71 99 38 71 99 38 71 99 38 71 99 38 71 99 38 69 97 37 69 97 37 69 97 37 69 97 37 69 97 37 69 97 37 69 97 37 69 97 37 69 97 37 69 97 37 69 97 37 69 97 37 69 97 37 69 97 37 69 97 37 92 129 49 92 129 49 92 129 49 92 129 49 92 129 49 92 129 49 92 129 49 92 129 49 92 129 49 92 129 49 92 129 49 92 129 49 92 129 49 92 129 49 92 129 49 92 129 49 90 127 48 90 127 48 90 127 48 90 127 48 90 127 48 90 127 48 90 127 48 90 127 48 90 127 48 90 127 48 90 127 48 90 127 48 90 127 48 90 127 48 90 127 48 90 127 48 80 112 43 80 112 43 80 112 43 80 112 43 80 112 43 80 112 43 80 112 43 80 112 43 80 112 43 80 112 43 80 112 43 80 112 43 80 112 43 80 112 43 80 112 43 80 112 43 106 149 57 106 149 57 106 149 57 106 149 57 106 149 57 106 149 57 106 149 57 106 149 57 106 149 57 106 149 57 106 149 57 106 149 57 106 149 57 106 149 57 106 149 57 106 149 57 76 107 41 76 107 41 76 107 41 76 107 41 76 107 41 76 107 41 76 107 41 76 107 41 76 107 41 76 107 41 76 107 41 76 107 41 76 107 41 76 107 41 76 107 41 76 107 41 74 103 39 74 103 39 74 103 39 74 103 39 74 103 39 74 103 39 74 103 39 74 103 39 74 103 39 74 103 39 74 103 39 74 103 39 74 103 39 74 103 39 74 103 39 74 103 39 76 106 40 76 106 40 76 106 40 76 106 40 76 106 40 76 106 40 76 106 40 76 106 40 76 106 40 76 106 40 76 106 40 76 106 40 76 106 40 76 106 40 76 106 40 76 106 40 89 125 47 89 125 47 89 125 47 89 125 47 89 125 47 89 125 47 89 125 47 89 125 47 89 125 47 89 125 47 89 125 47 89 125 47 89 125 47 89 125 47 89 125 47 89 125 47 77 108 41 77 108 41 77 108 41 77 108 41 77 108 41 77 108 41 77 108 41 77 108 41 77 108 41 77 108 41 77 108 41 77 108 41 77 108 41 77 108 41 77 108 41 77 108 41 68 96 36 68 96 36 68 96 36 68 96 36 68 96 36 68 96 36 68 96 36 68 96 36 68 96 36 68 96 36 68 96 36 68 96 36 68 96 36 68 96 36 68 96 36 68 96 36 72 101 38 72 101 38 72 101 38 72 101 38 72 101 38 72 101 38 72 101 38 72 101 38 72 101 38 72 101 38 72 101 38 72 101 38 72 101 38 72 101 38 72 101 38 72 101 38 75 105 40 75 105 40 75 105 40 75 105 40 75 105 40 75 105 40 75 105 40 75 105 40 75 105 40 75 105 40 75 105 40 75 105 40 75 105 40 75 105 40 75 105 40 75 105 40 74 104 39 74 104 39 74 104 39 74 104 39 74 104 39 74 104 39 74 104 39 74 104 39 74 104 39 74 104 39 74 104 39 74 104 39 74 104 39 74 104 39 74 104 39 74 104 39 78 110 42 78 110 42 78 110 42 78 110 42 78 110 42 78 110 42 78 110 42 78 110 42 78 110 42 78 110 42 78 110 42 78 110 42 78 110 42 78 110 42 78 110 42 78 110 42 78 110 42 78 110 42 78 110 42 78 110 42 78 110 42 78 110 42 78 110 42 78 110 42 78 110 42 78 110 42 78 110 42 78 110 42 78 110 42 78 110 42 78 110 42 78 110 42 81 113 43 81 113 43 81 113 43 81 113 43 81 113 43 81 113 43 81 113 43 81 113 43 81 113 43 81 113 43 81 113 43 81 113 43 81 113 43 81 113 43 81 113 43 87 122 46 87 122 46 87 122 46 87 122 46 87 122 46 87 122 46 87 122 46 87 122 46 87 122 46 87 122 46 87 122 46 87 122 46 87 122 46 87 122 46 87 122 46 87 122 46 92 128 49 92 128 49 92 128 49 92 128 49 92 128 49 92 128 49 92 128 49 92 128 49 92 128 49 92 128 49 92 128 49 92 128 49 92 128 49 92 128 49 92 128 49 92 128 49 94 132 50 94 132 50 94 132 50 94 132 50 94 132 50 94 132 50 94 132 50 94 132 50 94 132 50 94 132 50 94 132 50 94 132 50 94 132 50 94 132 50 94 132 50 94 132 50 74 103 39 74 103 39 74 103 39 74 103 39 74 103 39 74 103 39 74 103 39 74 103 39 74 103 39 74 103 39 74 103 39 74 103 39 74 103 39 74 103 39 74 103 39 74 103 39 65 91 34 65 91 34 65 91 34 65 91 34 65 91 34 65 91 34 65 91 34 65 91 34 65 91 34 65 91 34 65 91 34 65 91 34 65 91 34 65 91 34 65 91 34 65 91 34 70 98 37 70 98 37 70 98 37 70 98 37 70 98 37 70 98 37 70 98 37 70 98 37 70 98 37 70 98 37 70 98 37 70 98 37 70 98 37 70 98 37 70 98 37 70 98 37 99 139 53 99 139 53 99 139 53 99 139 53 99 139 53 99 139 53 99 139 53 99 139 53 99 139 53 99 139 53 99 139 53 99 139 53 99 139 53 99 139 53 99 139 53 99 139 53 89 125 47 89 125 47 89 125 47 89 125 47 89 125 47 89 125 47 89 125 47 89 125 47 89 125 47 89 125 47 89 125 47 89 125 47 89 125 47 89 125 47 89 125 47 89 125 47 77 108 41 77 108 41 77 108 41 77 108 41 77 108 41 77 108 41 77 108 41 77 108 41 77 108 41 77 108 41 77 108 41 77 108 41 77 108 41 77 108 41 77 108 41 77 108 41 68 96 36 68 96 36 68 96 36 68 96 36 68 96 36 68 96 36 68 96 36 68 96 36 68 96 36 68 96 36 68 96 36 68 96 36 68 96 36 68 96 36 68 96 36 68 96 36 72 101 38 72 101 38 72 101 38 72 101 38 72 101 38 72 101 38 72 101 38 72 101 38 72 101 38 72 101 38 72 101 38 72 101 38 72 101 38 72 101 38 72 101 38 72 101 38 75 105 40 75 105 40 75 105 40 75 105 40 75 105 40 75 105 40 75 105 40 75 105 40 75 105 40 75 105 40 75 105 40 75 105 40 75 105 40 75 105 40 75 105 40 75 105 40 74 104 39 74 104 39 74 104 39 74 104 39 74 104 39 74 104 39 74 104 39 74 104 39 74 104 39 74 104 39 74 104 39 74 104 39 74 104 39 74 104 39 74 104 39 74 104 39 78 110 42 78 110 42 78 110 42 78 110 42 78 110 42 78 110 42 78 110 42 78 110 42 78 110 42 78 110 42 78 110 42 78 110 42 78 110 42 78 110 42 78 110 42 78 110 42 78 110 42 78 110 42 78 110 42 78 110 42 78 110 42 78 110 42 78 110 42 78 110 42 78 110 42 78 110 42 78 110 42 78 110 42 78 110 42 78 110 42 78 110 42 78 110 42 81 113 43 81 113 43 81 113 43 81 113 43 81 113 43 81 113 43 81 113 43 81 113 43 81 113 43 81 113 43 81 113 43 81 113 43 81 113 43 81 113 43 81 113 43 87 122 46 87 122 46 87 122 46 87 122 46 87 122 46 87 122 46 87 122 46 87 122 46 87 122 46 87 122 46 87 122 46 87 122 46 87 122 46 87 122 46 87 122 46 87 122 46 92 128 49 92 128 49 92 128 49 92 128 49 92 128 49 92 128 49 92 128 49 92 128 49 92 128 49 92 128 49 92 128 49 92 128 49 92 128 49 92 128 49 92 128 49 92 128 49 94 132 50 94 132 50 94 132 50 94 132 50 94 132 50 94 132 50 94 132 50 94 132 50 94 132 50 94 132 50 94 132 50 94 132 50 94 132 50 94 132 50 94 132 50 94 132 50 74 103 39 74 103 39 74 103 39 74 103 39 74 103 39 74 103 39 74 103 39 74 103 39 74 103 39 74 103 39 74 103 39 74 103 39 74 103 39 74 103 39 74 103 39 74 103 39 65 91 34 65 91 34 65 91 34 65 91 34 65 91 34 65 91 34 65 91 34 65 91 34 65 91 34 65 91 34 65 91 34 65 91 34 65 91 34 65 91 34 65 91 34 65 91 34 70 98 37 70 98 37 70 98 37 70 98 37 70 98 37 70 98 37 70 98 37 70 98 37 70 98 37 70 98 37 70 98 37 70 98 37 70 98 37 70 98 37 70 98 37 70 98 37 99 139 53 99 139 53 99 139 53 99 139 53 99 139 53 99 139 53 99 139 53 99 139 53 99 139 53 99 139 53 99 139 53 99 139 53 99 139 53 99 139 53 99 139 53 99 139 53 89 125 47 89 125 47 89 125 47 89 125 47 89 125 47 89 125 47 89 125 47 89 125 47 89 125 47 89 125 47 89 125 47 89 125 47 89 125 47 89 125 47 89 125 47 89 125 47 77 108 41 77 108 41 77 108 41 77 108 41 77 108 41 77 108 41 77 108 41 77 108 41 77 108 41 77 108 41 77 108 41 77 108 41 77 108 41 77 108 41 77 108 41 77 108 41 68 96 36 68 96 36 68 96 36 68 96 36 68 96 36 68 96 36 68 96 36 68 96 36 68 96 36 68 96 36 68 96 36 68 96 36 68 96 36 68 96 36 68 96 36 68 96 36 72 101 38 72 101 38 72 101 38 72 101 38 72 101 38 72 101 38 72 101 38 72 101 38 72 101 38 72 101 38 72 101 38 72 101 38 72 101 38 72 101 38 72 101 38 72 101 38 75 105 40 75 105 40 75 105 40 75 105 40 75 105 40 75 105 40 75 105 40 75 105 40 75 105 40 75 105 40 75 105 40 75 105 40 75 105 40 75 105 40 75 105 40 75 105 40 74 104 39 74 104 39 74 104 39 74 104 39 74 104 39 74 104 39 74 104 39 74 104 39 74 104 39 74 104 39 74 104 39 74 104 39 74 104 39 74 104 39 74 104 39 74 104 39 78 110 42 78 110 42 78 110 42 78 110 42 78 110 42 78 110 42 78 110 42 78 110 42 78 110 42 78 110 42 78 110 42 78 110 42 78 110 42 78 110 42 78 110 42 78 110 42 78 110 42 78 110 42 78 110 42 78 110 42 78 110 42 78 110 42 78 110 42 78 110 42 78 110 42 78 110 42 78 110 42 78 110 42 78 110 42 78 110 42 78 110 42 78 110 42 81 113 43 81 113 43 81 113 43 81 113 43 81 113 43 81 113 43 81 113 43 81 113 43 81 113 43 81 113 43 81 113 43 81 113 43 81 113 43 81 113 43 81 113 43 87 122 46 87 122 46 87 122 46 87 122 46 87 122 46 87 122 46 87 122 46 87 122 46 87 122 46 87 122 46 87 122 46 87 122 46 87 122 46 87 122 46 87 122 46 87 122 46 92 128 49 92 128 49 92 128 49 92 128 49 92 128 49 92 128 49 92 128 49 92 128 49 92 128 49 92 128 49 92 128 49 92 128 49 92 128 49 92 128 49 92 128 49 92 128 49 94 132 50 94 132 50 94 132 50 94 132 50 94 132 50 94 132 50 94 132 50 94 132 50 94 132 50 94 132 50 94 132 50 94 132 50 94 132 50 94 132 50 94 132 50 94 132 50 74 103 39 74 103 39 74 103 39 74 103 39 74 103 39 74 103 39 74 103 39 74 103 39 74 103 39 74 103 39 74 103 39 74 103 39 74 103 39 74 103 39 74 103 39 74 103 39 65 91 34 65 91 34 65 91 34 65 91 34 65 91 34 65 91 34 65 91 34 65 91 34 65 91 34 65 91 34 65 91 34 65 91 34 65 91 34 65 91 34 65 91 34 65 91 34 70 98 37 70 98 37 70 98 37 70 98 37 70 98 37 70 98 37 70 98 37 70 98 37 70 98 37 70 98 37 70 98 37 70 98 37 70 98 37 70 98 37 70 98 37 70 98 37 99 139 53 99 139 53 99 139 53 99 139 53 99 139 53 99 139 53 99 139 53 99 139 53 99 139 53 99 139 53 99 139 53 99 139 53 99 139 53 99 139 53 99 139 53 99 139 53 89 125 47 89 125 47 89 125 47 89 125 47 89 125 47 89 125 47 89 125 47 89 125 47 89 125 47 89 125 47 89 125 47 89 125 47 89 125 47 89 125 47 89 125 47 89 125 47 77 108 41 77 108 41 77 108 41 77 108 41 77 108 41 77 108 41 77 108 41 77 108 41 77 108 41 77 108 41 77 108 41 77 108 41 77 108 41 77 108 41 77 108 41 77 108 41 68 96 36 68 96 36 68 96 36 68 96 36 68 96 36 68 96 36 68 96 36 68 96 36 68 96 36 68 96 36 68 96 36 68 96 36 68 96 36 68 96 36 68 96 36 68 96 36 72 101 38 72 101 38 72 101 38 72 101 38 72 101 38 72 101 38 72 101 38 72 101 38 72 101 38 72 101 38 72 101 38 72 101 38 72 101 38 72 101 38 72 101 38 72 101 38 75 105 40 75 105 40 75 105 40 75 105 40 75 105 40 75 105 40 75 105 40 75 105 40 75 105 40 75 105 40 75 105 40 75 105 40 75 105 40 75 105 40 75 105 40 75 105 40 74 104 39 74 104 39 74 104 39 74 104 39 74 104 39 74 104 39 74 104 39 74 104 39 74 104 39 74 104 39 74 104 39 74 104 39 74 104 39 74 104 39 74 104 39 74 104 39 78 110 42 78 110 42 78 110 42 78 110 42 78 110 42 78 110 42 78 110 42 78 110 42 78 110 42 78 110 42 78 110 42 78 110 42 78 110 42 78 110 42 78 110 42 78 110 42 78 110 42 78 110 42 78 110 42 78 110 42 78 110 42 78 110 42 78 110 42 78 110 42 78 110 42 78 110 42 78 110 42 78 110 42 78 110 42 78 110 42 78 110 42 78 110 42 81 113 43 81 113 43 81 113 43 81 113 43 81 113 43 81 113 43 81 113 43 81 113 43 81 113 43 81 113 43 81 113 43 81 113 43 81 113 43 81 113 43 81 113 43 87 122 46 87 122 46 87 122 46 87 122 46 87 122 46 87 122 46 87 122 46 87 122 46 87 122 46 87 122 46 87 122 46 87 122 46 87 122 46 87 122 46 87 122 46 87 122 46 92 128 49 92 128 49 92 128 49 92 128 49 92 128 49 92 128 49 92 128 49 92 128 49 92 128 49 92 128 49 92 128 49 92 128 49 92 128 49 92 128 49 92 128 49 92 128 49 94 132 50 94 132 50 94 132 50 94 132 50 94 132 50 94 132 50 94 132 50 94 132 50 94 132 50 94 132 50 94 132 50 94 132 50 94 132 50 94 132 50 94 132 50 94 132 50 74 103 39 74 103 39 74 103 39 74 103 39 74 103 39 74 103 39 74 103 39 74 103 39 74 103 39 74 103 39 74 103 39 74 103 39 74 103 39 74 103 39 74 103 39 74 103 39 65 91 34 65 91 34 65 91 34 65 91 34 65 91 34 65 91 34 65 91 34 65 91 34 65 91 34 65 91 34 65 91 34 65 91 34 65 91 34 65 91 34 65 91 34 65 91 34 70 98 37 70 98 37 70 98 37 70 98 37 70 98 37 70 98 37 70 98 37 70 98 37 70 98 37 70 98 37 70 98 37 70 98 37 70 98 37 70 98 37 70 98 37 70 98 37 99 139 53 99 139 53 99 139 53 99 139 53 99 139 53 99 139 53 99 139 53 99 139 53 99 139 53 99 139 53 99 139 53 99 139 53 99 139 53 99 139 53 99 139 53 99 139 53 89 125 47 89 125 47 89 125 47 89 125 47 89 125 47 89 125 47 89 125 47 89 125 47 89 125 47 89 125 47 89 125 47 89 125 47 89 125 47 89 125 47 89 125 47 89 125 47 77 108 41 77 108 41 77 108 41 77 108 41 77 108 41 77 108 41 77 108 41 77 108 41 77 108 41 77 108 41 77 108 41 77 108 41 77 108 41 77 108 41 77 108 41 77 108 41 68 96 36 68 96 36 68 96 36 68 96 36 68 96 36 68 96 36 68 96 36 68 96 36 68 96 36 68 96 36 68 96 36 68 96 36 68 96 36 68 96 36 68 96 36 68 96 36 72 101 38 72 101 38 72 101 38 72 101 38 72 101 38 72 101 38 72 101 38 72 101 38 72 101 38 72 101 38 72 101 38 72 101 38 72 101 38 72 101 38 72 101 38 72 101 38 75 105 40 75 105 40 75 105 40 75 105 40 75 105 40 75 105 40 75 105 40 75 105 40 75 105 40 75 105 40 75 105 40 75 105 40 75 105 40 75 105 40 75 105 40 75 105 40 74 104 39 74 104 39 74 104 39 74 104 39 74 104 39 74 104 39 74 104 39 74 104 39 74 104 39 74 104 39 74 104 39 74 104 39 74 104 39 74 104 39 74 104 39 74 104 39 78 110 42 78 110 42 78 110 42 78 110 42 78 110 42 78 110 42 78 110 42 78 110 42 78 110 42 78 110 42 78 110 42 78 110 42 78 110 42 78 110 42 78 110 42 78 110 42 78 110 42 78 110 42 78 110 42 78 110 42 78 110 42 78 110 42 78 110 42 78 110 42 78 110 42 78 110 42 78 110 42 78 110 42 78 110 42 78 110 42 78 110 42 78 110 42 81 113 43 81 113 43 81 113 43 81 113 43 81 113 43 81 113 43 81 113 43 81 113 43 81 113 43 81 113 43 81 113 43 81 113 43 81 113 43 81 113 43 81 113 43 87 122 46 87 122 46 87 122 46 87 122 46 87 122 46 87 122 46 87 122 46 87 122 46 87 122 46 87 122 46 87 122 46 87 122 46 87 122 46 87 122 46 87 122 46 87 122 46 92 128 49 92 128 49 92 128 49 92 128 49 92 128 49 92 128 49 92 128 49 92 128 49 92 128 49 92 128 49 92 128 49 92 128 49 92 128 49 92 128 49 92 128 49 92 128 49 94 132 50 94 132 50 94 132 50 94 132 50 94 132 50 94 132 50 94 132 50 94 132 50 94 132 50 94 132 50 94 132 50 94 132 50 94 132 50 94 132 50 94 132 50 94 132 50 74 103 39 74 103 39 74 103 39 74 103 39 74 103 39 74 103 39 74 103 39 74 103 39 74 103 39 74 103 39 74 103 39 74 103 39 74 103 39 74 103 39 74 103 39 74 103 39 65 91 34 65 91 34 65 91 34 65 91 34 65 91 34 65 91 34 65 91 34 65 91 34 65 91 34 65 91 34 65 91 34 65 91 34 65 91 34 65 91 34 65 91 34 65 91 34 70 98 37 70 98 37 70 98 37 70 98 37 70 98 37 70 98 37 70 98 37 70 98 37 70 98 37 70 98 37 70 98 37 70 98 37 70 98 37 70 98 37 70 98 37 70 98 37 99 139 53 99 139 53 99 139 53 99 139 53 99 139 53 99 139 53 99 139 53 99 139 53 99 139 53 99 139 53 99 139 53 99 139 53 99 139 53 99 139 53 99 139 53 99 139 53 89 125 47 89 125 47 89 125 47 89 125 47 89 125 47 89 125 47 89 125 47 89 125 47 89 125 47 89 125 47 89 125 47 89 125 47 89 125 47 89 125 47 89 125 47 89 125 47 77 108 41 77 108 41 77 108 41 77 108 41 77 108 41 77 108 41 77 108 41 77 108 41 77 108 41 77 108 41 77 108 41 77 108 41 77 108 41 77 108 41 77 108 41 77 108 41 68 96 36 68 96 36 68 96 36 68 96 36 68 96 36 68 96 36 68 96 36 68 96 36 68 96 36 68 96 36 68 96 36 68 96 36 68 96 36 68 96 36 68 96 36 68 96 36 72 101 38 72 101 38 72 101 38 72 101 38 72 101 38 72 101 38 72 101 38 72 101 38 72 101 38 72 101 38 72 101 38 72 101 38 72 101 38 72 101 38 72 101 38 72 101 38 75 105 40 75 105 40 75 105 40 75 105 40 75 105 40 75 105 40 75 105 40 75 105 40 75 105 40 75 105 40 75 105 40 75 105 40 75 105 40 75 105 40 75 105 40 75 105 40 74 104 39 74 104 39 74 104 39 74 104 39 74 104 39 74 104 39 74 104 39 74 104 39 74 104 39 74 104 39 74 104 39 74 104 39 74 104 39 74 104 39 74 104 39 74 104 39 78 110 42 78 110 42 78 110 42 78 110 42 78 110 42 78 110 42 78 110 42 78 110 42 78 110 42 78 110 42 78 110 42 78 110 42 78 110 42 78 110 42 78 110 42 78 110 42 78 110 42 78 110 42 78 110 42 78 110 42 78 110 42 78 110 42 78 110 42 78 110 42 78 110 42 78 110 42 78 110 42 78 110 42 78 110 42 78 110 42 78 110 42 78 110 42 81 113 43 81 113 43 81 113 43 81 113 43 81 113 43 81 113 43 81 113 43 81 113 43 81 113 43 81 113 43 81 113 43 81 113 43 81 113 43 81 113 43 81 113 43 87 122 46 87 122 46 87 122 46 87 122 46 87 122 46 87 122 46 87 122 46 87 122 46 87 122 46 87 122 46 87 122 46 87 122 46 87 122 46 87 122 46 87 122 46 87 122 46 92 128 49 92 128 49 92 128 49 92 128 49 92 128 49 92 128 49 92 128 49 92 128 49 92 128 49 92 128 49 92 128 49 92 128 49 92 128 49 92 128 49 92 128 49 92 128 49 94 132 50 94 132 50 94 132 50 94 132 50 94 132 50 94 132 50 94 132 50 94 132 50 94 132 50 94 132 50 94 132 50 94 132 50 94 132 50 94 132 50 94 132 50 94 132 50 74 103 39 74 103 39 74 103 39 74 103 39 74 103 39 74 103 39 74 103 39 74 103 39 74 103 39 74 103 39 74 103 39 74 103 39 74 103 39 74 103 39 74 103 39 74 103 39 65 91 34 65 91 34 65 91 34 65 91 34 65 91 34 65 91 34 65 91 34 65 91 34 65 91 34 65 91 34 65 91 34 65 91 34 65 91 34 65 91 34 65 91 34 65 91 34 70 98 37 70 98 37 70 98 37 70 98 37 70 98 37 70 98 37 70 98 37 70 98 37 70 98 37 70 98 37 70 98 37 70 98 37 70 98 37 70 98 37 70 98 37 70 98 37 99 139 53 99 139 53 99 139 53 99 139 53 99 139 53 99 139 53 99 139 53 99 139 53 99 139 53 99 139 53 99 139 53 99 139 53 99 139 53 99 139 53 99 139 53 99 139 53 89 125 47 89 125 47 89 125 47 89 125 47 89 125 47 89 125 47 89 125 47 89 125 47 89 125 47 89 125 47 89 125 47 89 125 47 89 125 47 89 125 47 89 125 47 89 125 47 77 108 41 77 108 41 77 108 41 77 108 41 77 108 41 77 108 41 77 108 41 77 108 41 77 108 41 77 108 41 77 108 41 77 108 41 77 108 41 77 108 41 77 108 41 77 108 41 68 96 36 68 96 36 68 96 36 68 96 36 68 96 36 68 96 36 68 96 36 68 96 36 68 96 36 68 96 36 68 96 36 68 96 36 68 96 36 68 96 36 68 96 36 68 96 36 72 101 38 72 101 38 72 101 38 72 101 38 72 101 38 72 101 38 72 101 38 72 101 38 72 101 38 72 101 38 72 101 38 72 101 38 72 101 38 72 101 38 72 101 38 72 101 38 75 105 40 75 105 40 75 105 40 75 105 40 75 105 40 75 105 40 75 105 40 75 105 40 75 105 40 75 105 40 75 105 40 75 105 40 75 105 40 75 105 40 75 105 40 75 105 40 74 104 39 74 104 39 74 104 39 74 104 39 74 104 39 74 104 39 74 104 39 74 104 39 74 104 39 74 104 39 74 104 39 74 104 39 74 104 39 74 104 39 74 104 39 74 104 39 78 110 42 78 110 42 78 110 42 78 110 42 78 110 42 78 110 42 78 110 42 78 110 42 78 110 42 78 110 42 78 110 42 78 110 42 78 110 42 78 110 42 78 110 42 78 110 42 78 110 42 78 110 42 78 110 42 78 110 42 78 110 42 78 110 42 78 110 42 78 110 42 78 110 42 78 110 42 78 110 42 78 110 42 78 110 42 78 110 42 78 110 42 78 110 42 81 113 43 81 113 43 81 113 43 81 113 43 81 113 43 81 113 43 81 113 43 81 113 43 81 113 43 81 113 43 81 113 43 81 113 43 81 113 43 81 113 43 81 113 43 87 122 46 87 122 46 87 122 46 87 122 46 87 122 46 87 122 46 87 122 46 87 122 46 87 122 46 87 122 46 87 122 46 87 122 46 87 122 46 87 122 46 87 122 46 87 122 46 92 128 49 92 128 49 92 128 49 92 128 49 92 128 49 92 128 49 92 128 49 92 128 49 92 128 49 92 128 49 92 128 49 92 128 49 92 128 49 92 128 49 92 128 49 92 128 49 94 132 50 94 132 50 94 132 50 94 132 50 94 132 50 94 132 50 94 132 50 94 132 50 94 132 50 94 132 50 94 132 50 94 132 50 94 132 50 94 132 50 94 132 50 94 132 50 74 103 39 74 103 39 74 103 39 74 103 39 74 103 39 74 103 39 74 103 39 74 103 39 74 103 39 74 103 39 74 103 39 74 103 39 74 103 39 74 103 39 74 103 39 74 103 39 65 91 34 65 91 34 65 91 34 65 91 34 65 91 34 65 91 34 65 91 34 65 91 34 65 91 34 65 91 34 65 91 34 65 91 34 65 91 34 65 91 34 65 91 34 65 91 34 70 98 37 70 98 37 70 98 37 70 98 37 70 98 37 70 98 37 70 98 37 70 98 37 70 98 37 70 98 37 70 98 37 70 98 37 70 98 37 70 98 37 70 98 37 70 98 37 99 139 53 99 139 53 99 139 53 99 139 53 99 139 53 99 139 53 99 139 53 99 139 53 99 139 53 99 139 53 99 139 53 99 139 53 99 139 53 99 139 53 99 139 53 99 139 53 89 125 47 89 125 47 89 125 47 89 125 47 89 125 47 89 125 47 89 125 47 89 125 47 89 125 47 89 125 47 89 125 47 89 125 47 89 125 47 89 125 47 89 125 47 89 125 47 77 108 41 77 108 41 77 108 41 77 108 41 77 108 41 77 108 41 77 108 41 77 108 41 77 108 41 77 108 41 77 108 41 77 108 41 77 108 41 77 108 41 77 108 41 77 108 41 68 96 36 68 96 36 68 96 36 68 96 36 68 96 36 68 96 36 68 96 36 68 96 36 68 96 36 68 96 36 68 96 36 68 96 36 68 96 36 68 96 36 68 96 36 68 96 36 72 101 38 72 101 38 72 101 38 72 101 38 72 101 38 72 101 38 72 101 38 72 101 38 72 101 38 72 101 38 72 101 38 72 101 38 72 101 38 72 101 38 72 101 38 72 101 38 75 105 40 75 105 40 75 105 40 75 105 40 75 105 40 75 105 40 75 105 40 75 105 40 75 105 40 75 105 40 75 105 40 75 105 40 75 105 40 75 105 40 75 105 40 75 105 40 74 104 39 74 104 39 74 104 39 74 104 39 74 104 39 74 104 39 74 104 39 74 104 39 74 104 39 74 104 39 74 104 39 74 104 39 74 104 39 74 104 39 74 104 39 74 104 39 78 110 42 78 110 42 78 110 42 78 110 42 78 110 42 78 110 42 78 110 42 78 110 42 78 110 42 78 110 42 78 110 42 78 110 42 78 110 42 78 110 42 78 110 42 78 110 42 78 110 42 78 110 42 78 110 42 78 110 42 78 110 42 78 110 42 78 110 42 78 110 42 78 110 42 78 110 42 78 110 42 78 110 42 78 110 42 78 110 42 78 110 42 78 110 42 81 113 43 81 113 43 81 113 43 81 113 43 81 113 43 81 113 43 81 113 43 81 113 43 81 113 43 81 113 43 81 113 43 81 113 43 81 113 43 81 113 43 81 113 43 87 122 46 87 122 46 87 122 46 87 122 46 87 122 46 87 122 46 87 122 46 87 122 46 87 122 46 87 122 46 87 122 46 87 122 46 87 122 46 87 122 46 87 122 46 87 122 46 92 128 49 92 128 49 92 128 49 92 128 49 92 128 49 92 128 49 92 128 49 92 128 49 92 128 49 92 128 49 92 128 49 92 128 49 92 128 49 92 128 49 92 128 49 92 128 49 94 132 50 94 132 50 94 132 50 94 132 50 94 132 50 94 132 50 94 132 50 94 132 50 94 132 50 94 132 50 94 132 50 94 132 50 94 132 50 94 132 50 94 132 50 94 132 50 74 103 39 74 103 39 74 103 39 74 103 39 74 103 39 74 103 39 74 103 39 74 103 39 74 103 39 74 103 39 74 103 39 74 103 39 74 103 39 74 103 39 74 103 39 74 103 39 65 91 34 65 91 34 65 91 34 65 91 34 65 91 34 65 91 34 65 91 34 65 91 34 65 91 34 65 91 34 65 91 34 65 91 34 65 91 34 65 91 34 65 91 34 65 91 34 70 98 37 70 98 37 70 98 37 70 98 37 70 98 37 70 98 37 70 98 37 70 98 37 70 98 37 70 98 37 70 98 37 70 98 37 70 98 37 70 98 37 70 98 37 70 98 37 99 139 53 99 139 53 99 139 53 99 139 53 99 139 53 99 139 53 99 139 53 99 139 53 99 139 53 99 139 53 99 139 53 99 139 53 99 139 53 99 139 53 99 139 53 99 139 53 89 125 47 89 125 47 89 125 47 89 125 47 89 125 47 89 125 47 89 125 47 89 125 47 89 125 47 89 125 47 89 125 47 89 125 47 89 125 47 89 125 47 89 125 47 89 125 47 77 108 41 77 108 41 77 108 41 77 108 41 77 108 41 77 108 41 77 108 41 77 108 41 77 108 41 77 108 41 77 108 41 77 108 41 77 108 41 77 108 41 77 108 41 77 108 41 68 96 36 68 96 36 68 96 36 68 96 36 68 96 36 68 96 36 68 96 36 68 96 36 68 96 36 68 96 36 68 96 36 68 96 36 68 96 36 68 96 36 68 96 36 68 96 36 72 101 38 72 101 38 72 101 38 72 101 38 72 101 38 72 101 38 72 101 38 72 101 38 72 101 38 72 101 38 72 101 38 72 101 38 72 101 38 72 101 38 72 101 38 72 101 38 75 105 40 75 105 40 75 105 40 75 105 40 75 105 40 75 105 40 75 105 40 75 105 40 75 105 40 75 105 40 75 105 40 75 105 40 75 105 40 75 105 40 75 105 40 75 105 40 74 104 39 74 104 39 74 104 39 74 104 39 74 104 39 74 104 39 74 104 39 74 104 39 74 104 39 74 104 39 74 104 39 74 104 39 74 104 39 74 104 39 74 104 39 74 104 39 78 110 42 78 110 42 78 110 42 78 110 42 78 110 42 78 110 42 78 110 42 78 110 42 78 110 42 78 110 42 78 110 42 78 110 42 78 110 42 78 110 42 78 110 42 78 110 42 78 110 42 78 110 42 78 110 42 78 110 42 78 110 42 78 110 42 78 110 42 78 110 42 78 110 42 78 110 42 78 110 42 78 110 42 78 110 42 78 110 42 78 110 42 78 110 42 81 113 43 81 113 43 81 113 43 81 113 43 81 113 43 81 113 43 81 113 43 81 113 43 81 113 43 81 113 43 81 113 43 81 113 43 81 113 43 81 113 43 81 113 43 87 122 46 87 122 46 87 122 46 87 122 46 87 122 46 87 122 46 87 122 46 87 122 46 87 122 46 87 122 46 87 122 46 87 122 46 87 122 46 87 122 46 87 122 46 87 122 46 92 128 49 92 128 49 92 128 49 92 128 49 92 128 49 92 128 49 92 128 49 92 128 49 92 128 49 92 128 49 92 128 49 92 128 49 92 128 49 92 128 49 92 128 49 92 128 49 94 132 50 94 132 50 94 132 50 94 132 50 94 132 50 94 132 50 94 132 50 94 132 50 94 132 50 94 132 50 94 132 50 94 132 50 94 132 50 94 132 50 94 132 50 94 132 50 74 103 39 74 103 39 74 103 39 74 103 39 74 103 39 74 103 39 74 103 39 74 103 39 74 103 39 74 103 39 74 103 39 74 103 39 74 103 39 74 103 39 74 103 39 74 103 39 65 91 34 65 91 34 65 91 34 65 91 34 65 91 34 65 91 34 65 91 34 65 91 34 65 91 34 65 91 34 65 91 34 65 91 34 65 91 34 65 91 34 65 91 34 65 91 34 70 98 37 70 98 37 70 98 37 70 98 37 70 98 37 70 98 37 70 98 37 70 98 37 70 98 37 70 98 37 70 98 37 70 98 37 70 98 37 70 98 37 70 98 37 70 98 37 99 139 53 99 139 53 99 139 53 99 139 53 99 139 53 99 139 53 99 139 53 99 139 53 99 139 53 99 139 53 99 139 53 99 139 53 99 139 53 99 139 53 99 139 53 99 139 53 89 125 47 89 125 47 89 125 47 89 125 47 89 125 47 89 125 47 89 125 47 89 125 47 89 125 47 89 125 47 89 125 47 89 125 47 89 125 47 89 125 47 89 125 47 89 125 47 77 108 41 77 108 41 77 108 41 77 108 41 77 108 41 77 108 41 77 108 41 77 108 41 77 108 41 77 108 41 77 108 41 77 108 41 77 108 41 77 108 41 77 108 41 77 108 41 68 96 36 68 96 36 68 96 36 68 96 36 68 96 36 68 96 36 68 96 36 68 96 36 68 96 36 68 96 36 68 96 36 68 96 36 68 96 36 68 96 36 68 96 36 68 96 36 72 101 38 72 101 38 72 101 38 72 101 38 72 101 38 72 101 38 72 101 38 72 101 38 72 101 38 72 101 38 72 101 38 72 101 38 72 101 38 72 101 38 72 101 38 72 101 38 75 105 40 75 105 40 75 105 40 75 105 40 75 105 40 75 105 40 75 105 40 75 105 40 75 105 40 75 105 40 75 105 40 75 105 40 75 105 40 75 105 40 75 105 40 75 105 40 74 104 39 74 104 39 74 104 39 74 104 39 74 104 39 74 104 39 74 104 39 74 104 39 74 104 39 74 104 39 74 104 39 74 104 39 74 104 39 74 104 39 74 104 39 74 104 39 78 110 42 78 110 42 78 110 42 78 110 42 78 110 42 78 110 42 78 110 42 78 110 42 78 110 42 78 110 42 78 110 42 78 110 42 78 110 42 78 110 42 78 110 42 78 110 42 78 110 42 78 110 42 78 110 42 78 110 42 78 110 42 78 110 42 78 110 42 78 110 42 78 110 42 78 110 42 78 110 42 78 110 42 78 110 42 78 110 42 78 110 42 78 110 42 81 113 43 81 113 43 81 113 43 81 113 43 81 113 43 81 113 43 81 113 43 81 113 43 81 113 43 81 113 43 81 113 43 81 113 43 81 113 43 81 113 43 81 113 43 87 122 46 87 122 46 87 122 46 87 122 46 87 122 46 87 122 46 87 122 46 87 122 46 87 122 46 87 122 46 87 122 46 87 122 46 87 122 46 87 122 46 87 122 46 87 122 46 92 128 49 92 128 49 92 128 49 92 128 49 92 128 49 92 128 49 92 128 49 92 128 49 92 128 49 92 128 49 92 128 49 92 128 49 92 128 49 92 128 49 92 128 49 92 128 49 94 132 50 94 132 50 94 132 50 94 132 50 94 132 50 94 132 50 94 132 50 94 132 50 94 132 50 94 132 50 94 132 50 94 132 50 94 132 50 94 132 50 94 132 50 94 132 50 74 103 39 74 103 39 74 103 39 74 103 39 74 103 39 74 103 39 74 103 39 74 103 39 74 103 39 74 103 39 74 103 39 74 103 39 74 103 39 74 103 39 74 103 39 74 103 39 65 91 34 65 91 34 65 91 34 65 91 34 65 91 34 65 91 34 65 91 34 65 91 34 65 91 34 65 91 34 65 91 34 65 91 34 65 91 34 65 91 34 65 91 34 65 91 34 70 98 37 70 98 37 70 98 37 70 98 37 70 98 37 70 98 37 70 98 37 70 98 37 70 98 37 70 98 37 70 98 37 70 98 37 70 98 37 70 98 37 70 98 37 70 98 37 99 139 53 99 139 53 99 139 53 99 139 53 99 139 53 99 139 53 99 139 53 99 139 53 99 139 53 99 139 53 99 139 53 99 139 53 99 139 53 99 139 53 99 139 53 99 139 53 89 125 47 89 125 47 89 125 47 89 125 47 89 125 47 89 125 47 89 125 47 89 125 47 89 125 47 89 125 47 89 125 47 89 125 47 89 125 47 89 125 47 89 125 47 89 125 47 77 108 41 77 108 41 77 108 41 77 108 41 77 108 41 77 108 41 77 108 41 77 108 41 77 108 41 77 108 41 77 108 41 77 108 41 77 108 41 77 108 41 77 108 41 77 108 41 68 96 36 68 96 36 68 96 36 68 96 36 68 96 36 68 96 36 68 96 36 68 96 36 68 96 36 68 96 36 68 96 36 68 96 36 68 96 36 68 96 36 68 96 36 68 96 36 72 101 38 72 101 38 72 101 38 72 101 38 72 101 38 72 101 38 72 101 38 72 101 38 72 101 38 72 101 38 72 101 38 72 101 38 72 101 38 72 101 38 72 101 38 72 101 38 75 105 40 75 105 40 75 105 40 75 105 40 75 105 40 75 105 40 75 105 40 75 105 40 75 105 40 75 105 40 75 105 40 75 105 40 75 105 40 75 105 40 75 105 40 75 105 40 74 104 39 74 104 39 74 104 39 74 104 39 74 104 39 74 104 39 74 104 39 74 104 39 74 104 39 74 104 39 74 104 39 74 104 39 74 104 39 74 104 39 74 104 39 74 104 39 78 110 42 78 110 42 78 110 42 78 110 42 78 110 42 78 110 42 78 110 42 78 110 42 78 110 42 78 110 42 78 110 42 78 110 42 78 110 42 78 110 42 78 110 42 78 110 42 78 110 42 78 110 42 78 110 42 78 110 42 78 110 42 78 110 42 78 110 42 78 110 42 78 110 42 78 110 42 78 110 42 78 110 42 78 110 42 78 110 42 78 110 42 78 110 42 81 113 43 81 113 43 81 113 43 81 113 43 81 113 43 81 113 43 81 113 43 81 113 43 81 113 43 81 113 43 81 113 43 81 113 43 81 113 43 81 113 43 81 113 43 87 122 46 87 122 46 87 122 46 87 122 46 87 122 46 87 122 46 87 122 46 87 122 46 87 122 46 87 122 46 87 122 46 87 122 46 87 122 46 87 122 46 87 122 46 87 122 46 92 128 49 92 128 49 92 128 49 92 128 49 92 128 49 92 128 49 92 128 49 92 128 49 92 128 49 92 128 49 92 128 49 92 128 49 92 128 49 92 128 49 92 128 49 92 128 49 94 132 50 94 132 50 94 132 50 94 132 50 94 132 50 94 132 50 94 132 50 94 132 50 94 132 50 94 132 50 94 132 50 94 132 50 94 132 50 94 132 50 94 132 50 94 132 50 74 103 39 74 103 39 74 103 39 74 103 39 74 103 39 74 103 39 74 103 39 74 103 39 74 103 39 74 103 39 74 103 39 74 103 39 74 103 39 74 103 39 74 103 39 74 103 39 65 91 34 65 91 34 65 91 34 65 91 34 65 91 34 65 91 34 65 91 34 65 91 34 65 91 34 65 91 34 65 91 34 65 91 34 65 91 34 65 91 34 65 91 34 65 91 34 70 98 37 70 98 37 70 98 37 70 98 37 70 98 37 70 98 37 70 98 37 70 98 37 70 98 37 70 98 37 70 98 37 70 98 37 70 98 37 70 98 37 70 98 37 70 98 37 99 139 53 99 139 53 99 139 53 99 139 53 99 139 53 99 139 53 99 139 53 99 139 53 99 139 53 99 139 53 99 139 53 99 139 53 99 139 53 99 139 53 99 139 53 99 139 53 89 125 47 89 125 47 89 125 47 89 125 47 89 125 47 89 125 47 89 125 47 89 125 47 89 125 47 89 125 47 89 125 47 89 125 47 89 125 47 89 125 47 89 125 47 89 125 47 77 108 41 77 108 41 77 108 41 77 108 41 77 108 41 77 108 41 77 108 41 77 108 41 77 108 41 77 108 41 77 108 41 77 108 41 77 108 41 77 108 41 77 108 41 77 108 41 68 96 36 68 96 36 68 96 36 68 96 36 68 96 36 68 96 36 68 96 36 68 96 36 68 96 36 68 96 36 68 96 36 68 96 36 68 96 36 68 96 36 68 96 36 68 96 36 72 101 38 72 101 38 72 101 38 72 101 38 72 101 38 72 101 38 72 101 38 72 101 38 72 101 38 72 101 38 72 101 38 72 101 38 72 101 38 72 101 38 72 101 38 72 101 38 75 105 40 75 105 40 75 105 40 75 105 40 75 105 40 75 105 40 75 105 40 75 105 40 75 105 40 75 105 40 75 105 40 75 105 40 75 105 40 75 105 40 75 105 40 75 105 40 74 104 39 74 104 39 74 104 39 74 104 39 74 104 39 74 104 39 74 104 39 74 104 39 74 104 39 74 104 39 74 104 39 74 104 39 74 104 39 74 104 39 74 104 39 74 104 39 78 110 42 78 110 42 78 110 42 78 110 42 78 110 42 78 110 42 78 110 42 78 110 42 78 110 42 78 110 42 78 110 42 78 110 42 78 110 42 78 110 42 78 110 42 78 110 42 78 110 42 78 110 42 78 110 42 78 110 42 78 110 42 78 110 42 78 110 42 78 110 42 78 110 42 78 110 42 78 110 42 78 110 42 78 110 42 78 110 42 78 110 42 78 110 42 81 113 43 81 113 43 81 113 43 81 113 43 81 113 43 81 113 43 81 113 43 81 113 43 81 113 43 81 113 43 81 113 43 81 113 43 81 113 43 81 113 43 81 113 43 87 122 46 87 122 46 87 122 46 87 122 46 87 122 46 87 122 46 87 122 46 87 122 46 87 122 46 87 122 46 87 122 46 87 122 46 87 122 46 87 122 46 87 122 46 87 122 46 92 128 49 92 128 49 92 128 49 92 128 49 92 128 49 92 128 49 92 128 49 92 128 49 92 128 49 92 128 49 92 128 49 92 128 49 92 128 49 92 128 49 92 128 49 92 128 49 94 132 50 94 132 50 94 132 50 94 132 50 94 132 50 94 132 50 94 132 50 94 132 50 94 132 50 94 132 50 94 132 50 94 132 50 94 132 50 94 132 50 94 132 50 94 132 50 74 103 39 74 103 39 74 103 39 74 103 39 74 103 39 74 103 39 74 103 39 74 103 39 74 103 39 74 103 39 74 103 39 74 103 39 74 103 39 74 103 39 74 103 39 74 103 39 65 91 34 65 91 34 65 91 34 65 91 34 65 91 34 65 91 34 65 91 34 65 91 34 65 91 34 65 91 34 65 91 34 65 91 34 65 91 34 65 91 34 65 91 34 65 91 34 70 98 37 70 98 37 70 98 37 70 98 37 70 98 37 70 98 37 70 98 37 70 98 37 70 98 37 70 98 37 70 98 37 70 98 37 70 98 37 70 98 37 70 98 37 70 98 37 99 139 53 99 139 53 99 139 53 99 139 53 99 139 53 99 139 53 99 139 53 99 139 53 99 139 53 99 139 53 99 139 53 99 139 53 99 139 53 99 139 53 99 139 53 99 139 53 89 125 47 89 125 47 89 125 47 89 125 47 89 125 47 89 125 47 89 125 47 89 125 47 89 125 47 89 125 47 89 125 47 89 125 47 89 125 47 89 125 47 89 125 47 89 125 47 77 108 41 77 108 41 77 108 41 77 108 41 77 108 41 77 108 41 77 108 41 77 108 41 77 108 41 77 108 41 77 108 41 77 108 41 77 108 41 77 108 41 77 108 41 77 108 41 68 96 36 68 96 36 68 96 36 68 96 36 68 96 36 68 96 36 68 96 36 68 96 36 68 96 36 68 96 36 68 96 36 68 96 36 68 96 36 68 96 36 68 96 36 68 96 36 72 101 38 72 101 38 72 101 38 72 101 38 72 101 38 72 101 38 72 101 38 72 101 38 72 101 38 72 101 38 72 101 38 72 101 38 72 101 38 72 101 38 72 101 38 72 101 38 75 105 40 75 105 40 75 105 40 75 105 40 75 105 40 75 105 40 75 105 40 75 105 40 75 105 40 75 105 40 75 105 40 75 105 40 75 105 40 75 105 40 75 105 40 75 105 40 74 104 39 74 104 39 74 104 39 74 104 39 74 104 39 74 104 39 74 104 39 74 104 39 74 104 39 74 104 39 74 104 39 74 104 39 74 104 39 74 104 39 74 104 39 74 104 39 78 110 42 78 110 42 78 110 42 78 110 42 78 110 42 78 110 42 78 110 42 78 110 42 78 110 42 78 110 42 78 110 42 78 110 42 78 110 42 78 110 42 78 110 42 78 110 42 78 110 42 78 110 42 78 110 42 78 110 42 78 110 42 78 110 42 78 110 42 78 110 42 78 110 42 78 110 42 78 110 42 78 110 42 78 110 42 78 110 42 78 110 42 78 110 42 81 113 43 81 113 43 81 113 43 81 113 43 81 113 43 81 113 43 81 113 43 81 113 43 81 113 43 81 113 43 81 113 43 81 113 43 81 113 43 81 113 43 81 113 43 87 122 46 87 122 46 87 122 46 87 122 46 87 122 46 87 122 46 87 122 46 87 122 46 87 122 46 87 122 46 87 122 46 87 122 46 87 122 46 87 122 46 87 122 46 87 122 46 92 128 49 92 128 49 92 128 49 92 128 49 92 128 49 92 128 49 92 128 49 92 128 49 92 128 49 92 128 49 92 128 49 92 128 49 92 128 49 92 128 49 92 128 49 92 128 49 94 132 50 94 132 50 94 132 50 94 132 50 94 132 50 94 132 50 94 132 50 94 132 50 94 132 50 94 132 50 94 132 50 94 132 50 94 132 50 94 132 50 94 132 50 94 132 50 74 103 39 74 103 39 74 103 39 74 103 39 74 103 39 74 103 39 74 103 39 74 103 39 74 103 39 74 103 39 74 103 39 74 103 39 74 103 39 74 103 39 74 103 39 74 103 39 65 91 34 65 91 34 65 91 34 65 91 34 65 91 34 65 91 34 65 91 34 65 91 34 65 91 34 65 91 34 65 91 34 65 91 34 65 91 34 65 91 34 65 91 34 65 91 34 70 98 37 70 98 37 70 98 37 70 98 37 70 98 37 70 98 37 70 98 37 70 98 37 70 98 37 70 98 37 70 98 37 70 98 37 70 98 37 70 98 37 70 98 37 70 98 37 99 139 53 99 139 53 99 139 53 99 139 53 99 139 53 99 139 53 99 139 53 99 139 53 99 139 53 99 139 53 99 139 53 99 139 53 99 139 53 99 139 53 99 139 53 99 139 53 89 125 47 89 125 47 89 125 47 89 125 47 89 125 47 89 125 47 89 125 47 89 125 47 89 125 47 89 125 47 89 125 47 89 125 47 89 125 47 89 125 47 89 125 47 89 125 47 77 108 41 77 108 41 77 108 41 77 108 41 77 108 41 77 108 41 77 108 41 77 108 41 77 108 41 77 108 41 77 108 41 77 108 41 77 108 41 77 108 41 77 108 41 77 108 41 68 96 36 68 96 36 68 96 36 68 96 36 68 96 36 68 96 36 68 96 36 68 96 36 68 96 36 68 96 36 68 96 36 68 96 36 68 96 36 68 96 36 68 96 36 68 96 36 72 101 38 72 101 38 72 101 38 72 101 38 72 101 38 72 101 38 72 101 38 72 101 38 72 101 38 72 101 38 72 101 38 72 101 38 72 101 38 72 101 38 72 101 38 72 101 38 75 105 40 75 105 40 75 105 40 75 105 40 75 105 40 75 105 40 75 105 40 75 105 40 75 105 40 75 105 40 75 105 40 75 105 40 75 105 40 75 105 40 75 105 40 75 105 40 74 104 39 74 104 39 74 104 39 74 104 39 74 104 39 74 104 39 74 104 39 74 104 39 74 104 39 74 104 39 74 104 39 74 104 39 74 104 39 74 104 39 74 104 39 74 104 39 78 110 42 78 110 42 78 110 42 78 110 42 78 110 42 78 110 42 78 110 42 78 110 42 78 110 42 78 110 42 78 110 42 78 110 42 78 110 42 78 110 42 78 110 42 78 110 42 78 110 42 78 110 42 78 110 42 78 110 42 78 110 42 78 110 42 78 110 42 78 110 42 78 110 42 78 110 42 78 110 42 78 110 42 78 110 42 78 110 42 78 110 42 78 110 42 81 113 43 81 113 43 81 113 43 81 113 43 81 113 43 81 113 43 81 113 43 81 113 43 81 113 43 81 113 43 81 113 43 81 113 43 81 113 43 81 113 43 81 113 43 87 122 46 87 122 46 87 122 46 87 122 46 87 122 46 87 122 46 87 122 46 87 122 46 87 122 46 87 122 46 87 122 46 87 122 46 87 122 46 87 122 46 87 122 46 87 122 46 92 128 49 92 128 49 92 128 49 92 128 49 92 128 49 92 128 49 92 128 49 92 128 49 92 128 49 92 128 49 92 128 49 92 128 49 92 128 49 92 128 49 92 128 49 92 128 49 94 132 50 94 132 50 94 132 50 94 132 50 94 132 50 94 132 50 94 132 50 94 132 50 94 132 50 94 132 50 94 132 50 94 132 50 94 132 50 94 132 50 94 132 50 94 132 50 74 103 39 74 103 39 74 103 39 74 103 39 74 103 39 74 103 39 74 103 39 74 103 39 74 103 39 74 103 39 74 103 39 74 103 39 74 103 39 74 103 39 74 103 39 74 103 39 65 91 34 65 91 34 65 91 34 65 91 34 65 91 34 65 91 34 65 91 34 65 91 34 65 91 34 65 91 34 65 91 34 65 91 34 65 91 34 65 91 34 65 91 34 65 91 34 70 98 37 70 98 37 70 98 37 70 98 37 70 98 37 70 98 37 70 98 37 70 98 37 70 98 37 70 98 37 70 98 37 70 98 37 70 98 37 70 98 37 70 98 37 70 98 37 99 139 53 99 139 53 99 139 53 99 139 53 99 139 53 99 139 53 99 139 53 99 139 53 99 139 53 99 139 53 99 139 53 99 139 53 99 139 53 99 139 53 99 139 53 99 139 53 89 125 47 89 125 47 89 125 47 89 125 47 89 125 47 89 125 47 89 125 47 89 125 47 89 125 47 89 125 47 89 125 47 89 125 47 89 125 47 89 125 47 89 125 47 89 125 47 77 108 41 77 108 41 77 108 41 77 108 41 77 108 41 77 108 41 77 108 41 77 108 41 77 108 41 77 108 41 77 108 41 77 108 41 77 108 41 77 108 41 77 108 41 77 108 41 68 96 36 68 96 36 68 96 36 68 96 36 68 96 36 68 96 36 68 96 36 68 96 36 68 96 36 68 96 36 68 96 36 68 96 36 68 96 36 68 96 36 68 96 36 68 96 36 72 101 38 72 101 38 72 101 38 72 101 38 72 101 38 72 101 38 72 101 38 72 101 38 72 101 38 72 101 38 72 101 38 72 101 38 72 101 38 72 101 38 72 101 38 72 101 38 75 105 40 75 105 40 75 105 40 75 105 40 75 105 40 75 105 40 75 105 40 75 105 40 75 105 40 75 105 40 75 105 40 75 105 40 75 105 40 75 105 40 75 105 40 75 105 40 74 104 39 74 104 39 74 104 39 74 104 39 74 104 39 74 104 39 74 104 39 74 104 39 74 104 39 74 104 39 74 104 39 74 104 39 74 104 39 74 104 39 74 104 39 74 104 39 78 110 42 78 110 42 78 110 42 78 110 42 78 110 42 78 110 42 78 110 42 78 110 42 78 110 42 78 110 42 78 110 42 78 110 42 78 110 42 78 110 42 78 110 42 78 110 42 78 110 42 78 110 42 78 110 42 78 110 42 78 110 42 78 110 42 78 110 42 78 110 42 78 110 42 78 110 42 78 110 42 78 110 42 78 110 42 78 110 42 78 110 42 78 110 42 81 113 43 81 113 43 81 113 43 81 113 43 81 113 43 81 113 43 81 113 43 81 113 43 81 113 43 81 113 43 81 113 43 81 113 43 81 113 43 81 113 43 81 113 43 87 122 46 87 122 46 87 122 46 87 122 46 87 122 46 87 122 46 87 122 46 87 122 46 87 122 46 87 122 46 87 122 46 87 122 46 87 122 46 87 122 46 87 122 46 87 122 46 92 128 49 92 128 49 92 128 49 92 128 49 92 128 49 92 128 49 92 128 49 92 128 49 92 128 49 92 128 49 92 128 49 92 128 49 92 128 49 92 128 49 92 128 49 92 128 49 94 132 50 94 132 50 94 132 50 94 132 50 94 132 50 94 132 50 94 132 50 94 132 50 94 132 50 94 132 50 94 132 50 94 132 50 94 132 50 94 132 50 94 132 50 94 132 50 74 103 39 74 103 39 74 103 39 74 103 39 74 103 39 74 103 39 74 103 39 74 103 39 74 103 39 74 103 39 74 103 39 74 103 39 74 103 39 74 103 39 74 103 39 74 103 39 65 91 34 65 91 34 65 91 34 65 91 34 65 91 34 65 91 34 65 91 34 65 91 34 65 91 34 65 91 34 65 91 34 65 91 34 65 91 34 65 91 34 65 91 34 65 91 34 70 98 37 70 98 37 70 98 37 70 98 37 70 98 37 70 98 37 70 98 37 70 98 37 70 98 37 70 98 37 70 98 37 70 98 37 70 98 37 70 98 37 70 98 37 70 98 37 99 139 53 99 139 53 99 139 53 99 139 53 99 139 53 99 139 53 99 139 53 99 139 53 99 139 53 99 139 53 99 139 53 99 139 53 99 139 53 99 139 53 99 139 53 99 139 53 89 125 47 89 125 47 89 125 47 89 125 47 89 125 47 89 125 47 89 125 47 89 125 47 89 125 47 89 125 47 89 125 47 89 125 47 89 125 47 89 125 47 89 125 47 89 125 47 77 108 41 77 108 41 77 108 41 77 108 41 77 108 41 77 108 41 77 108 41 77 108 41 77 108 41 77 108 41 77 108 41 77 108 41 77 108 41 77 108 41 77 108 41 77 108 41 68 96 36 68 96 36 68 96 36 68 96 36 68 96 36 68 96 36 68 96 36 68 96 36 68 96 36 68 96 36 68 96 36 68 96 36 68 96 36 68 96 36 68 96 36 68 96 36 72 101 38 72 101 38 72 101 38 72 101 38 72 101 38 72 101 38 72 101 38 72 101 38 72 101 38 72 101 38 72 101 38 72 101 38 72 101 38 72 101 38 72 101 38 72 101 38 75 105 40 75 105 40 75 105 40 75 105 40 75 105 40 75 105 40 75 105 40 75 105 40 75 105 40 75 105 40 75 105 40 75 105 40 75 105 40 75 105 40 75 105 40 75 105 40 74 104 39 74 104 39 74 104 39 74 104 39 74 104 39 74 104 39 74 104 39 74 104 39 74 104 39 74 104 39 74 104 39 74 104 39 74 104 39 74 104 39 74 104 39 74 104 39 78 110 42 78 110 42 78 110 42 78 110 42 78 110 42 78 110 42 78 110 42 78 110 42 78 110 42 78 110 42 78 110 42 78 110 42 78 110 42 78 110 42 78 110 42 78 110 42 78 110 42 78 110 42 78 110 42 78 110 42 78 110 42 78 110 42 78 110 42 78 110 42 78 110 42 78 110 42 78 110 42 78 110 42 78 110 42 78 110 42 78 110 42 78 110 42 81 113 43 81 113 43 81 113 43 81 113 43 81 113 43 81 113 43 81 113 43 81 113 43 81 113 43 81 113 43 81 113 43 81 113 43 81 113 43 81 113 43 81 113 43 87 122 46 87 122 46 87 122 46 87 122 46 87 122 46 87 122 46 87 122 46 87 122 46 87 122 46 87 122 46 87 122 46 87 122 46 87 122 46 87 122 46 87 122 46 87 122 46 92 128 49 92 128 49 92 128 49 92 128 49 92 128 49 92 128 49 92 128 49 92 128 49 92 128 49 92 128 49 92 128 49 92 128 49 92 128 49 92 128 49 92 128 49 92 128 49 94 132 50 94 132 50 94 132 50 94 132 50 94 132 50 94 132 50 94 132 50 94 132 50 94 132 50 94 132 50 94 132 50 94 132 50 94 132 50 94 132 50 94 132 50 94 132 50 74 103 39 74 103 39 74 103 39 74 103 39 74 103 39 74 103 39 74 103 39 74 103 39 74 103 39 74 103 39 74 103 39 74 103 39 74 103 39 74 103 39 74 103 39 74 103 39 65 91 34 65 91 34 65 91 34 65 91 34 65 91 34 65 91 34 65 91 34 65 91 34 65 91 34 65 91 34 65 91 34 65 91 34 65 91 34 65 91 34 65 91 34 65 91 34 70 98 37 70 98 37 70 98 37 70 98 37 70 98 37 70 98 37 70 98 37 70 98 37 70 98 37 70 98 37 70 98 37 70 98 37 70 98 37 70 98 37 70 98 37 70 98 37 99 139 53 99 139 53 99 139 53 99 139 53 99 139 53 99 139 53 99 139 53 99 139 53 99 139 53 99 139 53 99 139 53 99 139 53 99 139 53 99 139 53 99 139 53 99 139 53 64 90 34 64 90 34 64 90 34 64 90 34 64 90 34 64 90 34 64 90 34 64 90 34 64 90 34 64 90 34 64 90 34 64 90 34 64 90 34 64 90 34 64 90 34 64 90 34 72 102 39 72 102 39 72 102 39 72 102 39 72 102 39 72 102 39 72 102 39 72 102 39 72 102 39 72 102 39 72 102 39 72 102 39 72 102 39 72 102 39 72 102 39 72 102 39 75 106 40 75 106 40 75 106 40 75 106 40 75 106 40 75 106 40 75 106 40 75 106 40 75 106 40 75 106 40 75 106 40 75 106 40 75 106 40 75 106 40 75 106 40 75 106 40 82 115 44 82 115 44 82 115 44 82 115 44 82 115 44 82 115 44 82 115 44 82 115 44 82 115 44 82 115 44 82 115 44 82 115 44 82 115 44 82 115 44 82 115 44 82 115 44 79 111 42 79 111 42 79 111 42 79 111 42 79 111 42 79 111 42 79 111 42 79 111 42 79 111 42 79 111 42 79 111 42 79 111 42 79 111 42 79 111 42 79 111 42 79 111 42 83 117 44 83 117 44 83 117 44 83 117 44 83 117 44 83 117 44 83 117 44 83 117 44 83 117 44 83 117 44 83 117 44 83 117 44 83 117 44 83 117 44 83 117 44 83 117 44 68 96 36 68 96 36 68 96 36 68 96 36 68 96 36 68 96 36 68 96 36 68 96 36 68 96 36 68 96 36 68 96 36 68 96 36 68 96 36 68 96 36 68 96 36 68 96 36 80 112 42 80 112 42 80 112 42 80 112 42 80 112 42 80 112 42 80 112 42 80 112 42 80 112 42 80 112 42 80 112 42 80 112 42 80 112 42 80 112 42 80 112 42 80 112 42 69 97 37 69 97 37 69 97 37 69 97 37 69 97 37 69 97 37 69 97 37 69 97 37 69 97 37 69 97 37 69 97 37 69 97 37 69 97 37 69 97 37 69 97 37 71 100 38 71 100 38 71 100 38 71 100 38 71 100 38 71 100 38 71 100 38 71 100 38 71 100 38 71 100 38 71 100 38 71 100 38 71 100 38 71 100 38 71 100 38 71 100 38 77 108 41 77 108 41 77 108 41 77 108 41 77 108 41 77 108 41 77 108 41 77 108 41 77 108 41 77 108 41 77 108 41 77 108 41 77 108 41 77 108 41 77 108 41 77 108 41 82 115 44 82 115 44 82 115 44 82 115 44 82 115 44 82 115 44 82 115 44 82 115 44 82 115 44 82 115 44 82 115 44 82 115 44 82 115 44 82 115 44 82 115 44 82 115 44 78 109 41 78 109 41 78 109 41 78 109 41 78 109 41 78 109 41 78 109 41 78 109 41 78 109 41 78 109 41 78 109 41 78 109 41 78 109 41 78 109 41 78 109 41 78 109 41 76 106 40 76 106 40 76 106 40 76 106 40 76 106 40 76 106 40 76 106 40 76 106 40 76 106 40 76 106 40 76 106 40 76 106 40 76 106 40 76 106 40 76 106 40 76 106 40 91 128 48 91 128 48 91 128 48 91 128 48 91 128 48 91 128 48 91 128 48 91 128 48 91 128 48 91 128 48 91 128 48 91 128 48 91 128 48 91 128 48 91 128 48 91 128 48 68 96 36 68 96 36 68 96 36 68 96 36 68 96 36 68 96 36 68 96 36 68 96 36 68 96 36 68 96 36 68 96 36 68 96 36 68 96 36 68 96 36 68 96 36 68 96 36 64 90 34 64 90 34 64 90 34 64 90 34 64 90 34 64 90 34 64 90 34 64 90 34 64 90 34 64 90 34 64 90 34 64 90 34 64 90 34 64 90 34 64 90 34 64 90 34 72 102 39 72 102 39 72 102 39 72 102 39 72 102 39 72 102 39 72 102 39 72 102 39 72 102 39 72 102 39 72 102 39 72 102 39 72 102 39 72 102 39 72 102 39 72 102 39 75 106 40 75 106 40 75 106 40 75 106 40 75 106 40 75 106 40 75 106 40 75 106 40 75 106 40 75 106 40 75 106 40 75 106 40 75 106 40 75 106 40 75 106 40 75 106 40 82 115 44 82 115 44 82 115 44 82 115 44 82 115 44 82 115 44 82 115 44 82 115 44 82 115 44 82 115 44 82 115 44 82 115 44 82 115 44 82 115 44 82 115 44 82 115 44 79 111 42 79 111 42 79 111 42 79 111 42 79 111 42 79 111 42 79 111 42 79 111 42 79 111 42 79 111 42 79 111 42 79 111 42 79 111 42 79 111 42 79 111 42 79 111 42 83 117 44 83 117 44 83 117 44 83 117 44 83 117 44 83 117 44 83 117 44 83 117 44 83 117 44 83 117 44 83 117 44 83 117 44 83 117 44 83 117 44 83 117 44 83 117 44 68 96 36 68 96 36 68 96 36 68 96 36 68 96 36 68 96 36 68 96 36 68 96 36 68 96 36 68 96 36 68 96 36 68 96 36 68 96 36 68 96 36 68 96 36 68 96 36 80 112 42 80 112 42 80 112 42 80 112 42 80 112 42 80 112 42 80 112 42 80 112 42 80 112 42 80 112 42 80 112 42 80 112 42 80 112 42 80 112 42 80 112 42 80 112 42 69 97 37 69 97 37 69 97 37 69 97 37 69 97 37 69 97 37 69 97 37 69 97 37 69 97 37 69 97 37 69 97 37 69 97 37 69 97 37 69 97 37 69 97 37 71 100 38 71 100 38 71 100 38 71 100 38 71 100 38 71 100 38 71 100 38 71 100 38 71 100 38 71 100 38 71 100 38 71 100 38 71 100 38 71 100 38 71 100 38 71 100 38 77 108 41 77 108 41 77 108 41 77 108 41 77 108 41 77 108 41 77 108 41 77 108 41 77 108 41 77 108 41 77 108 41 77 108 41 77 108 41 77 108 41 77 108 41 77 108 41 82 115 44 82 115 44 82 115 44 82 115 44 82 115 44 82 115 44 82 115 44 82 115 44 82 115 44 82 115 44 82 115 44 82 115 44 82 115 44 82 115 44 82 115 44 82 115 44 78 109 41 78 109 41 78 109 41 78 109 41 78 109 41 78 109 41 78 109 41 78 109 41 78 109 41 78 109 41 78 109 41 78 109 41 78 109 41 78 109 41 78 109 41 78 109 41 76 106 40 76 106 40 76 106 40 76 106 40 76 106 40 76 106 40 76 106 40 76 106 40 76 106 40 76 106 40 76 106 40 76 106 40 76 106 40 76 106 40 76 106 40 76 106 40 91 128 48 91 128 48 91 128 48 91 128 48 91 128 48 91 128 48 91 128 48 91 128 48 91 128 48 91 128 48 91 128 48 91 128 48 91 128 48 91 128 48 91 128 48 91 128 48 68 96 36 68 96 36 68 96 36 68 96 36 68 96 36 68 96 36 68 96 36 68 96 36 68 96 36 68 96 36 68 96 36 68 96 36 68 96 36 68 96 36 68 96 36 68 96 36 64 90 34 64 90 34 64 90 34 64 90 34 64 90 34 64 90 34 64 90 34 64 90 34 64 90 34 64 90 34 64 90 34 64 90 34 64 90 34 64 90 34 64 90 34 64 90 34 72 102 39 72 102 39 72 102 39 72 102 39 72 102 39 72 102 39 72 102 39 72 102 39 72 102 39 72 102 39 72 102 39 72 102 39 72 102 39 72 102 39 72 102 39 72 102 39 75 106 40 75 106 40 75 106 40 75 106 40 75 106 40 75 106 40 75 106 40 75 106 40 75 106 40 75 106 40 75 106 40 75 106 40 75 106 40 75 106 40 75 106 40 75 106 40 82 115 44 82 115 44 82 115 44 82 115 44 82 115 44 82 115 44 82 115 44 82 115 44 82 115 44 82 115 44 82 115 44 82 115 44 82 115 44 82 115 44 82 115 44 82 115 44 79 111 42 79 111 42 79 111 42 79 111 42 79 111 42 79 111 42 79 111 42 79 111 42 79 111 42 79 111 42 79 111 42 79 111 42 79 111 42 79 111 42 79 111 42 79 111 42 83 117 44 83 117 44 83 117 44 83 117 44 83 117 44 83 117 44 83 117 44 83 117 44 83 117 44 83 117 44 83 117 44 83 117 44 83 117 44 83 117 44 83 117 44 83 117 44 68 96 36 68 96 36 68 96 36 68 96 36 68 96 36 68 96 36 68 96 36 68 96 36 68 96 36 68 96 36 68 96 36 68 96 36 68 96 36 68 96 36 68 96 36 68 96 36 80 112 42 80 112 42 80 112 42 80 112 42 80 112 42 80 112 42 80 112 42 80 112 42 80 112 42 80 112 42 80 112 42 80 112 42 80 112 42 80 112 42 80 112 42 80 112 42 69 97 37 69 97 37 69 97 37 69 97 37 69 97 37 69 97 37 69 97 37 69 97 37 69 97 37 69 97 37 69 97 37 69 97 37 69 97 37 69 97 37 69 97 37 71 100 38 71 100 38 71 100 38 71 100 38 71 100 38 71 100 38 71 100 38 71 100 38 71 100 38 71 100 38 71 100 38 71 100 38 71 100 38 71 100 38 71 100 38 71 100 38 77 108 41 77 108 41 77 108 41 77 108 41 77 108 41 77 108 41 77 108 41 77 108 41 77 108 41 77 108 41 77 108 41 77 108 41 77 108 41 77 108 41 77 108 41 77 108 41 82 115 44 82 115 44 82 115 44 82 115 44 82 115 44 82 115 44 82 115 44 82 115 44 82 115 44 82 115 44 82 115 44 82 115 44 82 115 44 82 115 44 82 115 44 82 115 44 78 109 41 78 109 41 78 109 41 78 109 41 78 109 41 78 109 41 78 109 41 78 109 41 78 109 41 78 109 41 78 109 41 78 109 41 78 109 41 78 109 41 78 109 41 78 109 41 76 106 40 76 106 40 76 106 40 76 106 40 76 106 40 76 106 40 76 106 40 76 106 40 76 106 40 76 106 40 76 106 40 76 106 40 76 106 40 76 106 40 76 106 40 76 106 40 91 128 48 91 128 48 91 128 48 91 128 48 91 128 48 91 128 48 91 128 48 91 128 48 91 128 48 91 128 48 91 128 48 91 128 48 91 128 48 91 128 48 91 128 48 91 128 48 68 96 36 68 96 36 68 96 36 68 96 36 68 96 36 68 96 36 68 96 36 68 96 36 68 96 36 68 96 36 68 96 36 68 96 36 68 96 36 68 96 36 68 96 36 68 96 36 64 90 34 64 90 34 64 90 34 64 90 34 64 90 34 64 90 34 64 90 34 64 90 34 64 90 34 64 90 34 64 90 34 64 90 34 64 90 34 64 90 34 64 90 34 64 90 34 72 102 39 72 102 39 72 102 39 72 102 39 72 102 39 72 102 39 72 102 39 72 102 39 72 102 39 72 102 39 72 102 39 72 102 39 72 102 39 72 102 39 72 102 39 72 102 39 75 106 40 75 106 40 75 106 40 75 106 40 75 106 40 75 106 40 75 106 40 75 106 40 75 106 40 75 106 40 75 106 40 75 106 40 75 106 40 75 106 40 75 106 40 75 106 40 82 115 44 82 115 44 82 115 44 82 115 44 82 115 44 82 115 44 82 115 44 82 115 44 82 115 44 82 115 44 82 115 44 82 115 44 82 115 44 82 115 44 82 115 44 82 115 44 79 111 42 79 111 42 79 111 42 79 111 42 79 111 42 79 111 42 79 111 42 79 111 42 79 111 42 79 111 42 79 111 42 79 111 42 79 111 42 79 111 42 79 111 42 79 111 42 83 117 44 83 117 44 83 117 44 83 117 44 83 117 44 83 117 44 83 117 44 83 117 44 83 117 44 83 117 44 83 117 44 83 117 44 83 117 44 83 117 44 83 117 44 83 117 44 68 96 36 68 96 36 68 96 36 68 96 36 68 96 36 68 96 36 68 96 36 68 96 36 68 96 36 68 96 36 68 96 36 68 96 36 68 96 36 68 96 36 68 96 36 68 96 36 80 112 42 80 112 42 80 112 42 80 112 42 80 112 42 80 112 42 80 112 42 80 112 42 80 112 42 80 112 42 80 112 42 80 112 42 80 112 42 80 112 42 80 112 42 80 112 42 69 97 37 69 97 37 69 97 37 69 97 37 69 97 37 69 97 37 69 97 37 69 97 37 69 97 37 69 97 37 69 97 37 69 97 37 69 97 37 69 97 37 69 97 37 71 100 38 71 100 38 71 100 38 71 100 38 71 100 38 71 100 38 71 100 38 71 100 38 71 100 38 71 100 38 71 100 38 71 100 38 71 100 38 71 100 38 71 100 38 71 100 38 77 108 41 77 108 41 77 108 41 77 108 41 77 108 41 77 108 41 77 108 41 77 108 41 77 108 41 77 108 41 77 108 41 77 108 41 77 108 41 77 108 41 77 108 41 77 108 41 82 115 44 82 115 44 82 115 44 82 115 44 82 115 44 82 115 44 82 115 44 82 115 44 82 115 44 82 115 44 82 115 44 82 115 44 82 115 44 82 115 44 82 115 44 82 115 44 78 109 41 78 109 41 78 109 41 78 109 41 78 109 41 78 109 41 78 109 41 78 109 41 78 109 41 78 109 41 78 109 41 78 109 41 78 109 41 78 109 41 78 109 41 78 109 41 76 106 40 76 106 40 76 106 40 76 106 40 76 106 40 76 106 40 76 106 40 76 106 40 76 106 40 76 106 40 76 106 40 76 106 40 76 106 40 76 106 40 76 106 40 76 106 40 91 128 48 91 128 48 91 128 48 91 128 48 91 128 48 91 128 48 91 128 48 91 128 48 91 128 48 91 128 48 91 128 48 91 128 48 91 128 48 91 128 48 91 128 48 91 128 48 68 96 36 68 96 36 68 96 36 68 96 36 68 96 36 68 96 36 68 96 36 68 96 36 68 96 36 68 96 36 68 96 36 68 96 36 68 96 36 68 96 36 68 96 36 68 96 36 64 90 34 64 90 34 64 90 34 64 90 34 64 90 34 64 90 34 64 90 34 64 90 34 64 90 34 64 90 34 64 90 34 64 90 34 64 90 34 64 90 34 64 90 34 64 90 34 72 102 39 72 102 39 72 102 39 72 102 39 72 102 39 72 102 39 72 102 39 72 102 39 72 102 39 72 102 39 72 102 39 72 102 39 72 102 39 72 102 39 72 102 39 72 102 39 75 106 40 75 106 40 75 106 40 75 106 40 75 106 40 75 106 40 75 106 40 75 106 40 75 106 40 75 106 40 75 106 40 75 106 40 75 106 40 75 106 40 75 106 40 75 106 40 82 115 44 82 115 44 82 115 44 82 115 44 82 115 44 82 115 44 82 115 44 82 115 44 82 115 44 82 115 44 82 115 44 82 115 44 82 115 44 82 115 44 82 115 44 82 115 44 79 111 42 79 111 42 79 111 42 79 111 42 79 111 42 79 111 42 79 111 42 79 111 42 79 111 42 79 111 42 79 111 42 79 111 42 79 111 42 79 111 42 79 111 42 79 111 42 83 117 44 83 117 44 83 117 44 83 117 44 83 117 44 83 117 44 83 117 44 83 117 44 83 117 44 83 117 44 83 117 44 83 117 44 83 117 44 83 117 44 83 117 44 83 117 44 68 96 36 68 96 36 68 96 36 68 96 36 68 96 36 68 96 36 68 96 36 68 96 36 68 96 36 68 96 36 68 96 36 68 96 36 68 96 36 68 96 36 68 96 36 68 96 36 80 112 42 80 112 42 80 112 42 80 112 42 80 112 42 80 112 42 80 112 42 80 112 42 80 112 42 80 112 42 80 112 42 80 112 42 80 112 42 80 112 42 80 112 42 80 112 42 69 97 37 69 97 37 69 97 37 69 97 37 69 97 37 69 97 37 69 97 37 69 97 37 69 97 37 69 97 37 69 97 37 69 97 37 69 97 37 69 97 37 69 97 37 71 100 38 71 100 38 71 100 38 71 100 38 71 100 38 71 100 38 71 100 38 71 100 38 71 100 38 71 100 38 71 100 38 71 100 38 71 100 38 71 100 38 71 100 38 71 100 38 77 108 41 77 108 41 77 108 41 77 108 41 77 108 41 77 108 41 77 108 41 77 108 41 77 108 41 77 108 41 77 108 41 77 108 41 77 108 41 77 108 41 77 108 41 77 108 41 82 115 44 82 115 44 82 115 44 82 115 44 82 115 44 82 115 44 82 115 44 82 115 44 82 115 44 82 115 44 82 115 44 82 115 44 82 115 44 82 115 44 82 115 44 82 115 44 78 109 41 78 109 41 78 109 41 78 109 41 78 109 41 78 109 41 78 109 41 78 109 41 78 109 41 78 109 41 78 109 41 78 109 41 78 109 41 78 109 41 78 109 41 78 109 41 76 106 40 76 106 40 76 106 40 76 106 40 76 106 40 76 106 40 76 106 40 76 106 40 76 106 40 76 106 40 76 106 40 76 106 40 76 106 40 76 106 40 76 106 40 76 106 40 91 128 48 91 128 48 91 128 48 91 128 48 91 128 48 91 128 48 91 128 48 91 128 48 91 128 48 91 128 48 91 128 48 91 128 48 91 128 48 91 128 48 91 128 48 91 128 48 68 96 36 68 96 36 68 96 36 68 96 36 68 96 36 68 96 36 68 96 36 68 96 36 68 96 36 68 96 36 68 96 36 68 96 36 68 96 36 68 96 36 68 96 36 68 96 36 64 90 34 64 90 34 64 90 34 64 90 34 64 90 34 64 90 34 64 90 34 64 90 34 64 90 34 64 90 34 64 90 34 64 90 34 64 90 34 64 90 34 64 90 34 64 90 34 72 102 39 72 102 39 72 102 39 72 102 39 72 102 39 72 102 39 72 102 39 72 102 39 72 102 39 72 102 39 72 102 39 72 102 39 72 102 39 72 102 39 72 102 39 72 102 39 75 106 40 75 106 40 75 106 40 75 106 40 75 106 40 75 106 40 75 106 40 75 106 40 75 106 40 75 106 40 75 106 40 75 106 40 75 106 40 75 106 40 75 106 40 75 106 40 82 115 44 82 115 44 82 115 44 82 115 44 82 115 44 82 115 44 82 115 44 82 115 44 82 115 44 82 115 44 82 115 44 82 115 44 82 115 44 82 115 44 82 115 44 82 115 44 79 111 42 79 111 42 79 111 42 79 111 42 79 111 42 79 111 42 79 111 42 79 111 42 79 111 42 79 111 42 79 111 42 79 111 42 79 111 42 79 111 42 79 111 42 79 111 42 83 117 44 83 117 44 83 117 44 83 117 44 83 117 44 83 117 44 83 117 44 83 117 44 83 117 44 83 117 44 83 117 44 83 117 44 83 117 44 83 117 44 83 117 44 83 117 44 68 96 36 68 96 36 68 96 36 68 96 36 68 96 36 68 96 36 68 96 36 68 96 36 68 96 36 68 96 36 68 96 36 68 96 36 68 96 36 68 96 36 68 96 36 68 96 36 80 112 42 80 112 42 80 112 42 80 112 42 80 112 42 80 112 42 80 112 42 80 112 42 80 112 42 80 112 42 80 112 42 80 112 42 80 112 42 80 112 42 80 112 42 80 112 42 69 97 37 69 97 37 69 97 37 69 97 37 69 97 37 69 97 37 69 97 37 69 97 37 69 97 37 69 97 37 69 97 37 69 97 37 69 97 37 69 97 37 69 97 37 71 100 38 71 100 38 71 100 38 71 100 38 71 100 38 71 100 38 71 100 38 71 100 38 71 100 38 71 100 38 71 100 38 71 100 38 71 100 38 71 100 38 71 100 38 71 100 38 77 108 41 77 108 41 77 108 41 77 108 41 77 108 41 77 108 41 77 108 41 77 108 41 77 108 41 77 108 41 77 108 41 77 108 41 77 108 41 77 108 41 77 108 41 77 108 41 82 115 44 82 115 44 82 115 44 82 115 44 82 115 44 82 115 44 82 115 44 82 115 44 82 115 44 82 115 44 82 115 44 82 115 44 82 115 44 82 115 44 82 115 44 82 115 44 78 109 41 78 109 41 78 109 41 78 109 41 78 109 41 78 109 41 78 109 41 78 109 41 78 109 41 78 109 41 78 109 41 78 109 41 78 109 41 78 109 41 78 109 41 78 109 41 76 106 40 76 106 40 76 106 40 76 106 40 76 106 40 76 106 40 76 106 40 76 106 40 76 106 40 76 106 40 76 106 40 76 106 40 76 106 40 76 106 40 76 106 40 76 106 40 91 128 48 91 128 48 91 128 48 91 128 48 91 128 48 91 128 48 91 128 48 91 128 48 91 128 48 91 128 48 91 128 48 91 128 48 91 128 48 91 128 48 91 128 48 91 128 48 68 96 36 68 96 36 68 96 36 68 96 36 68 96 36 68 96 36 68 96 36 68 96 36 68 96 36 68 96 36 68 96 36 68 96 36 68 96 36 68 96 36 68 96 36 68 96 36 64 90 34 64 90 34 64 90 34 64 90 34 64 90 34 64 90 34 64 90 34 64 90 34 64 90 34 64 90 34 64 90 34 64 90 34 64 90 34 64 90 34 64 90 34 64 90 34 72 102 39 72 102 39 72 102 39 72 102 39 72 102 39 72 102 39 72 102 39 72 102 39 72 102 39 72 102 39 72 102 39 72 102 39 72 102 39 72 102 39 72 102 39 72 102 39 75 106 40 75 106 40 75 106 40 75 106 40 75 106 40 75 106 40 75 106 40 75 106 40 75 106 40 75 106 40 75 106 40 75 106 40 75 106 40 75 106 40 75 106 40 75 106 40 82 115 44 82 115 44 82 115 44 82 115 44 82 115 44 82 115 44 82 115 44 82 115 44 82 115 44 82 115 44 82 115 44 82 115 44 82 115 44 82 115 44 82 115 44 82 115 44 79 111 42 79 111 42 79 111 42 79 111 42 79 111 42 79 111 42 79 111 42 79 111 42 79 111 42 79 111 42 79 111 42 79 111 42 79 111 42 79 111 42 79 111 42 79 111 42 83 117 44 83 117 44 83 117 44 83 117 44 83 117 44 83 117 44 83 117 44 83 117 44 83 117 44 83 117 44 83 117 44 83 117 44 83 117 44 83 117 44 83 117 44 83 117 44 68 96 36 68 96 36 68 96 36 68 96 36 68 96 36 68 96 36 68 96 36 68 96 36 68 96 36 68 96 36 68 96 36 68 96 36 68 96 36 68 96 36 68 96 36 68 96 36 80 112 42 80 112 42 80 112 42 80 112 42 80 112 42 80 112 42 80 112 42 80 112 42 80 112 42 80 112 42 80 112 42 80 112 42 80 112 42 80 112 42 80 112 42 80 112 42 69 97 37 69 97 37 69 97 37 69 97 37 69 97 37 69 97 37 69 97 37 69 97 37 69 97 37 69 97 37 69 97 37 69 97 37 69 97 37 69 97 37 69 97 37 71 100 38 71 100 38 71 100 38 71 100 38 71 100 38 71 100 38 71 100 38 71 100 38 71 100 38 71 100 38 71 100 38 71 100 38 71 100 38 71 100 38 71 100 38 71 100 38 77 108 41 77 108 41 77 108 41 77 108 41 77 108 41 77 108 41 77 108 41 77 108 41 77 108 41 77 108 41 77 108 41 77 108 41 77 108 41 77 108 41 77 108 41 77 108 41 82 115 44 82 115 44 82 115 44 82 115 44 82 115 44 82 115 44 82 115 44 82 115 44 82 115 44 82 115 44 82 115 44 82 115 44 82 115 44 82 115 44 82 115 44 82 115 44 78 109 41 78 109 41 78 109 41 78 109 41 78 109 41 78 109 41 78 109 41 78 109 41 78 109 41 78 109 41 78 109 41 78 109 41 78 109 41 78 109 41 78 109 41 78 109 41 76 106 40 76 106 40 76 106 40 76 106 40 76 106 40 76 106 40 76 106 40 76 106 40 76 106 40 76 106 40 76 106 40 76 106 40 76 106 40 76 106 40 76 106 40 76 106 40 91 128 48 91 128 48 91 128 48 91 128 48 91 128 48 91 128 48 91 128 48 91 128 48 91 128 48 91 128 48 91 128 48 91 128 48 91 128 48 91 128 48 91 128 48 91 128 48 68 96 36 68 96 36 68 96 36 68 96 36 68 96 36 68 96 36 68 96 36 68 96 36 68 96 36 68 96 36 68 96 36 68 96 36 68 96 36 68 96 36 68 96 36 68 96 36 64 90 34 64 90 34 64 90 34 64 90 34 64 90 34 64 90 34 64 90 34 64 90 34 64 90 34 64 90 34 64 90 34 64 90 34 64 90 34 64 90 34 64 90 34 64 90 34 72 102 39 72 102 39 72 102 39 72 102 39 72 102 39 72 102 39 72 102 39 72 102 39 72 102 39 72 102 39 72 102 39 72 102 39 72 102 39 72 102 39 72 102 39 72 102 39 75 106 40 75 106 40 75 106 40 75 106 40 75 106 40 75 106 40 75 106 40 75 106 40 75 106 40 75 106 40 75 106 40 75 106 40 75 106 40 75 106 40 75 106 40 75 106 40 82 115 44 82 115 44 82 115 44 82 115 44 82 115 44 82 115 44 82 115 44 82 115 44 82 115 44 82 115 44 82 115 44 82 115 44 82 115 44 82 115 44 82 115 44 82 115 44 79 111 42 79 111 42 79 111 42 79 111 42 79 111 42 79 111 42 79 111 42 79 111 42 79 111 42 79 111 42 79 111 42 79 111 42 79 111 42 79 111 42 79 111 42 79 111 42 83 117 44 83 117 44 83 117 44 83 117 44 83 117 44 83 117 44 83 117 44 83 117 44 83 117 44 83 117 44 83 117 44 83 117 44 83 117 44 83 117 44 83 117 44 83 117 44 68 96 36 68 96 36 68 96 36 68 96 36 68 96 36 68 96 36 68 96 36 68 96 36 68 96 36 68 96 36 68 96 36 68 96 36 68 96 36 68 96 36 68 96 36 68 96 36 80 112 42 80 112 42 80 112 42 80 112 42 80 112 42 80 112 42 80 112 42 80 112 42 80 112 42 80 112 42 80 112 42 80 112 42 80 112 42 80 112 42 80 112 42 80 112 42 69 97 37 69 97 37 69 97 37 69 97 37 69 97 37 69 97 37 69 97 37 69 97 37 69 97 37 69 97 37 69 97 37 69 97 37 69 97 37 69 97 37 69 97 37 71 100 38 71 100 38 71 100 38 71 100 38 71 100 38 71 100 38 71 100 38 71 100 38 71 100 38 71 100 38 71 100 38 71 100 38 71 100 38 71 100 38 71 100 38 71 100 38 77 108 41 77 108 41 77 108 41 77 108 41 77 108 41 77 108 41 77 108 41 77 108 41 77 108 41 77 108 41 77 108 41 77 108 41 77 108 41 77 108 41 77 108 41 77 108 41 82 115 44 82 115 44 82 115 44 82 115 44 82 115 44 82 115 44 82 115 44 82 115 44 82 115 44 82 115 44 82 115 44 82 115 44 82 115 44 82 115 44 82 115 44 82 115 44 78 109 41 78 109 41 78 109 41 78 109 41 78 109 41 78 109 41 78 109 41 78 109 41 78 109 41 78 109 41 78 109 41 78 109 41 78 109 41 78 109 41 78 109 41 78 109 41 76 106 40 76 106 40 76 106 40 76 106 40 76 106 40 76 106 40 76 106 40 76 106 40 76 106 40 76 106 40 76 106 40 76 106 40 76 106 40 76 106 40 76 106 40 76 106 40 91 128 48 91 128 48 91 128 48 91 128 48 91 128 48 91 128 48 91 128 48 91 128 48 91 128 48 91 128 48 91 128 48 91 128 48 91 128 48 91 128 48 91 128 48 91 128 48 68 96 36 68 96 36 68 96 36 68 96 36 68 96 36 68 96 36 68 96 36 68 96 36 68 96 36 68 96 36 68 96 36 68 96 36 68 96 36 68 96 36 68 96 36 68 96 36 64 90 34 64 90 34 64 90 34 64 90 34 64 90 34 64 90 34 64 90 34 64 90 34 64 90 34 64 90 34 64 90 34 64 90 34 64 90 34 64 90 34 64 90 34 64 90 34 72 102 39 72 102 39 72 102 39 72 102 39 72 102 39 72 102 39 72 102 39 72 102 39 72 102 39 72 102 39 72 102 39 72 102 39 72 102 39 72 102 39 72 102 39 72 102 39 75 106 40 75 106 40 75 106 40 75 106 40 75 106 40 75 106 40 75 106 40 75 106 40 75 106 40 75 106 40 75 106 40 75 106 40 75 106 40 75 106 40 75 106 40 75 106 40 82 115 44 82 115 44 82 115 44 82 115 44 82 115 44 82 115 44 82 115 44 82 115 44 82 115 44 82 115 44 82 115 44 82 115 44 82 115 44 82 115 44 82 115 44 82 115 44 79 111 42 79 111 42 79 111 42 79 111 42 79 111 42 79 111 42 79 111 42 79 111 42 79 111 42 79 111 42 79 111 42 79 111 42 79 111 42 79 111 42 79 111 42 79 111 42 83 117 44 83 117 44 83 117 44 83 117 44 83 117 44 83 117 44 83 117 44 83 117 44 83 117 44 83 117 44 83 117 44 83 117 44 83 117 44 83 117 44 83 117 44 83 117 44 68 96 36 68 96 36 68 96 36 68 96 36 68 96 36 68 96 36 68 96 36 68 96 36 68 96 36 68 96 36 68 96 36 68 96 36 68 96 36 68 96 36 68 96 36 68 96 36 80 112 42 80 112 42 80 112 42 80 112 42 80 112 42 80 112 42 80 112 42 80 112 42 80 112 42 80 112 42 80 112 42 80 112 42 80 112 42 80 112 42 80 112 42 80 112 42 69 97 37 69 97 37 69 97 37 69 97 37 69 97 37 69 97 37 69 97 37 69 97 37 69 97 37 69 97 37 69 97 37 69 97 37 69 97 37 69 97 37 69 97 37 71 100 38 71 100 38 71 100 38 71 100 38 71 100 38 71 100 38 71 100 38 71 100 38 71 100 38 71 100 38 71 100 38 71 100 38 71 100 38 71 100 38 71 100 38 71 100 38 77 108 41 77 108 41 77 108 41 77 108 41 77 108 41 77 108 41 77 108 41 77 108 41 77 108 41 77 108 41 77 108 41 77 108 41 77 108 41 77 108 41 77 108 41 77 108 41 82 115 44 82 115 44 82 115 44 82 115 44 82 115 44 82 115 44 82 115 44 82 115 44 82 115 44 82 115 44 82 115 44 82 115 44 82 115 44 82 115 44 82 115 44 82 115 44 78 109 41 78 109 41 78 109 41 78 109 41 78 109 41 78 109 41 78 109 41 78 109 41 78 109 41 78 109 41 78 109 41 78 109 41 78 109 41 78 109 41 78 109 41 78 109 41 76 106 40 76 106 40 76 106 40 76 106 40 76 106 40 76 106 40 76 106 40 76 106 40 76 106 40 76 106 40 76 106 40 76 106 40 76 106 40 76 106 40 76 106 40 76 106 40 91 128 48 91 128 48 91 128 48 91 128 48 91 128 48 91 128 48 91 128 48 91 128 48 91 128 48 91 128 48 91 128 48 91 128 48 91 128 48 91 128 48 91 128 48 91 128 48 68 96 36 68 96 36 68 96 36 68 96 36 68 96 36 68 96 36 68 96 36 68 96 36 68 96 36 68 96 36 68 96 36 68 96 36 68 96 36 68 96 36 68 96 36 68 96 36 64 90 34 64 90 34 64 90 34 64 90 34 64 90 34 64 90 34 64 90 34 64 90 34 64 90 34 64 90 34 64 90 34 64 90 34 64 90 34 64 90 34 64 90 34 64 90 34 72 102 39 72 102 39 72 102 39 72 102 39 72 102 39 72 102 39 72 102 39 72 102 39 72 102 39 72 102 39 72 102 39 72 102 39 72 102 39 72 102 39 72 102 39 72 102 39 75 106 40 75 106 40 75 106 40 75 106 40 75 106 40 75 106 40 75 106 40 75 106 40 75 106 40 75 106 40 75 106 40 75 106 40 75 106 40 75 106 40 75 106 40 75 106 40 82 115 44 82 115 44 82 115 44 82 115 44 82 115 44 82 115 44 82 115 44 82 115 44 82 115 44 82 115 44 82 115 44 82 115 44 82 115 44 82 115 44 82 115 44 82 115 44 79 111 42 79 111 42 79 111 42 79 111 42 79 111 42 79 111 42 79 111 42 79 111 42 79 111 42 79 111 42 79 111 42 79 111 42 79 111 42 79 111 42 79 111 42 79 111 42 83 117 44 83 117 44 83 117 44 83 117 44 83 117 44 83 117 44 83 117 44 83 117 44 83 117 44 83 117 44 83 117 44 83 117 44 83 117 44 83 117 44 83 117 44 83 117 44 68 96 36 68 96 36 68 96 36 68 96 36 68 96 36 68 96 36 68 96 36 68 96 36 68 96 36 68 96 36 68 96 36 68 96 36 68 96 36 68 96 36 68 96 36 68 96 36 80 112 42 80 112 42 80 112 42 80 112 42 80 112 42 80 112 42 80 112 42 80 112 42 80 112 42 80 112 42 80 112 42 80 112 42 80 112 42 80 112 42 80 112 42 80 112 42 69 97 37 69 97 37 69 97 37 69 97 37 69 97 37 69 97 37 69 97 37 69 97 37 69 97 37 69 97 37 69 97 37 69 97 37 69 97 37 69 97 37 69 97 37 71 100 38 71 100 38 71 100 38 71 100 38 71 100 38 71 100 38 71 100 38 71 100 38 71 100 38 71 100 38 71 100 38 71 100 38 71 100 38 71 100 38 71 100 38 71 100 38 77 108 41 77 108 41 77 108 41 77 108 41 77 108 41 77 108 41 77 108 41 77 108 41 77 108 41 77 108 41 77 108 41 77 108 41 77 108 41 77 108 41 77 108 41 77 108 41 82 115 44 82 115 44 82 115 44 82 115 44 82 115 44 82 115 44 82 115 44 82 115 44 82 115 44 82 115 44 82 115 44 82 115 44 82 115 44 82 115 44 82 115 44 82 115 44 78 109 41 78 109 41 78 109 41 78 109 41 78 109 41 78 109 41 78 109 41 78 109 41 78 109 41 78 109 41 78 109 41 78 109 41 78 109 41 78 109 41 78 109 41 78 109 41 76 106 40 76 106 40 76 106 40 76 106 40 76 106 40 76 106 40 76 106 40 76 106 40 76 106 40 76 106 40 76 106 40 76 106 40 76 106 40 76 106 40 76 106 40 76 106 40 91 128 48 91 128 48 91 128 48 91 128 48 91 128 48 91 128 48 91 128 48 91 128 48 91 128 48 91 128 48 91 128 48 91 128 48 91 128 48 91 128 48 91 128 48 91 128 48 68 96 36 68 96 36 68 96 36 68 96 36 68 96 36 68 96 36 68 96 36 68 96 36 68 96 36 68 96 36 68 96 36 68 96 36 68 96 36 68 96 36 68 96 36 68 96 36 64 90 34 64 90 34 64 90 34 64 90 34 64 90 34 64 90 34 64 90 34 64 90 34 64 90 34 64 90 34 64 90 34 64 90 34 64 90 34 64 90 34 64 90 34 64 90 34 72 102 39 72 102 39 72 102 39 72 102 39 72 102 39 72 102 39 72 102 39 72 102 39 72 102 39 72 102 39 72 102 39 72 102 39 72 102 39 72 102 39 72 102 39 72 102 39 75 106 40 75 106 40 75 106 40 75 106 40 75 106 40 75 106 40 75 106 40 75 106 40 75 106 40 75 106 40 75 106 40 75 106 40 75 106 40 75 106 40 75 106 40 75 106 40 82 115 44 82 115 44 82 115 44 82 115 44 82 115 44 82 115 44 82 115 44 82 115 44 82 115 44 82 115 44 82 115 44 82 115 44 82 115 44 82 115 44 82 115 44 82 115 44 79 111 42 79 111 42 79 111 42 79 111 42 79 111 42 79 111 42 79 111 42 79 111 42 79 111 42 79 111 42 79 111 42 79 111 42 79 111 42 79 111 42 79 111 42 79 111 42 83 117 44 83 117 44 83 117 44 83 117 44 83 117 44 83 117 44 83 117 44 83 117 44 83 117 44 83 117 44 83 117 44 83 117 44 83 117 44 83 117 44 83 117 44 83 117 44 68 96 36 68 96 36 68 96 36 68 96 36 68 96 36 68 96 36 68 96 36 68 96 36 68 96 36 68 96 36 68 96 36 68 96 36 68 96 36 68 96 36 68 96 36 68 96 36 80 112 42 80 112 42 80 112 42 80 112 42 80 112 42 80 112 42 80 112 42 80 112 42 80 112 42 80 112 42 80 112 42 80 112 42 80 112 42 80 112 42 80 112 42 80 112 42 69 97 37 69 97 37 69 97 37 69 97 37 69 97 37 69 97 37 69 97 37 69 97 37 69 97 37 69 97 37 69 97 37 69 97 37 69 97 37 69 97 37 69 97 37 71 100 38 71 100 38 71 100 38 71 100 38 71 100 38 71 100 38 71 100 38 71 100 38 71 100 38 71 100 38 71 100 38 71 100 38 71 100 38 71 100 38 71 100 38 71 100 38 77 108 41 77 108 41 77 108 41 77 108 41 77 108 41 77 108 41 77 108 41 77 108 41 77 108 41 77 108 41 77 108 41 77 108 41 77 108 41 77 108 41 77 108 41 77 108 41 82 115 44 82 115 44 82 115 44 82 115 44 82 115 44 82 115 44 82 115 44 82 115 44 82 115 44 82 115 44 82 115 44 82 115 44 82 115 44 82 115 44 82 115 44 82 115 44 78 109 41 78 109 41 78 109 41 78 109 41 78 109 41 78 109 41 78 109 41 78 109 41 78 109 41 78 109 41 78 109 41 78 109 41 78 109 41 78 109 41 78 109 41 78 109 41 76 106 40 76 106 40 76 106 40 76 106 40 76 106 40 76 106 40 76 106 40 76 106 40 76 106 40 76 106 40 76 106 40 76 106 40 76 106 40 76 106 40 76 106 40 76 106 40 91 128 48 91 128 48 91 128 48 91 128 48 91 128 48 91 128 48 91 128 48 91 128 48 91 128 48 91 128 48 91 128 48 91 128 48 91 128 48 91 128 48 91 128 48 91 128 48 68 96 36 68 96 36 68 96 36 68 96 36 68 96 36 68 96 36 68 96 36 68 96 36 68 96 36 68 96 36 68 96 36 68 96 36 68 96 36 68 96 36 68 96 36 68 96 36 64 90 34 64 90 34 64 90 34 64 90 34 64 90 34 64 90 34 64 90 34 64 90 34 64 90 34 64 90 34 64 90 34 64 90 34 64 90 34 64 90 34 64 90 34 64 90 34 72 102 39 72 102 39 72 102 39 72 102 39 72 102 39 72 102 39 72 102 39 72 102 39 72 102 39 72 102 39 72 102 39 72 102 39 72 102 39 72 102 39 72 102 39 72 102 39 75 106 40 75 106 40 75 106 40 75 106 40 75 106 40 75 106 40 75 106 40 75 106 40 75 106 40 75 106 40 75 106 40 75 106 40 75 106 40 75 106 40 75 106 40 75 106 40 82 115 44 82 115 44 82 115 44 82 115 44 82 115 44 82 115 44 82 115 44 82 115 44 82 115 44 82 115 44 82 115 44 82 115 44 82 115 44 82 115 44 82 115 44 82 115 44 79 111 42 79 111 42 79 111 42 79 111 42 79 111 42 79 111 42 79 111 42 79 111 42 79 111 42 79 111 42 79 111 42 79 111 42 79 111 42 79 111 42 79 111 42 79 111 42 83 117 44 83 117 44 83 117 44 83 117 44 83 117 44 83 117 44 83 117 44 83 117 44 83 117 44 83 117 44 83 117 44 83 117 44 83 117 44 83 117 44 83 117 44 83 117 44 68 96 36 68 96 36 68 96 36 68 96 36 68 96 36 68 96 36 68 96 36 68 96 36 68 96 36 68 96 36 68 96 36 68 96 36 68 96 36 68 96 36 68 96 36 68 96 36 80 112 42 80 112 42 80 112 42 80 112 42 80 112 42 80 112 42 80 112 42 80 112 42 80 112 42 80 112 42 80 112 42 80 112 42 80 112 42 80 112 42 80 112 42 80 112 42 69 97 37 69 97 37 69 97 37 69 97 37 69 97 37 69 97 37 69 97 37 69 97 37 69 97 37 69 97 37 69 97 37 69 97 37 69 97 37 69 97 37 69 97 37 71 100 38 71 100 38 71 100 38 71 100 38 71 100 38 71 100 38 71 100 38 71 100 38 71 100 38 71 100 38 71 100 38 71 100 38 71 100 38 71 100 38 71 100 38 71 100 38 77 108 41 77 108 41 77 108 41 77 108 41 77 108 41 77 108 41 77 108 41 77 108 41 77 108 41 77 108 41 77 108 41 77 108 41 77 108 41 77 108 41 77 108 41 77 108 41 82 115 44 82 115 44 82 115 44 82 115 44 82 115 44 82 115 44 82 115 44 82 115 44 82 115 44 82 115 44 82 115 44 82 115 44 82 115 44 82 115 44 82 115 44 82 115 44 78 109 41 78 109 41 78 109 41 78 109 41 78 109 41 78 109 41 78 109 41 78 109 41 78 109 41 78 109 41 78 109 41 78 109 41 78 109 41 78 109 41 78 109 41 78 109 41 76 106 40 76 106 40 76 106 40 76 106 40 76 106 40 76 106 40 76 106 40 76 106 40 76 106 40 76 106 40 76 106 40 76 106 40 76 106 40 76 106 40 76 106 40 76 106 40 91 128 48 91 128 48 91 128 48 91 128 48 91 128 48 91 128 48 91 128 48 91 128 48 91 128 48 91 128 48 91 128 48 91 128 48 91 128 48 91 128 48 91 128 48 91 128 48 68 96 36 68 96 36 68 96 36 68 96 36 68 96 36 68 96 36 68 96 36 68 96 36 68 96 36 68 96 36 68 96 36 68 96 36 68 96 36 68 96 36 68 96 36 68 96 36 64 90 34 64 90 34 64 90 34 64 90 34 64 90 34 64 90 34 64 90 34 64 90 34 64 90 34 64 90 34 64 90 34 64 90 34 64 90 34 64 90 34 64 90 34 64 90 34 72 102 39 72 102 39 72 102 39 72 102 39 72 102 39 72 102 39 72 102 39 72 102 39 72 102 39 72 102 39 72 102 39 72 102 39 72 102 39 72 102 39 72 102 39 72 102 39 75 106 40 75 106 40 75 106 40 75 106 40 75 106 40 75 106 40 75 106 40 75 106 40 75 106 40 75 106 40 75 106 40 75 106 40 75 106 40 75 106 40 75 106 40 75 106 40 82 115 44 82 115 44 82 115 44 82 115 44 82 115 44 82 115 44 82 115 44 82 115 44 82 115 44 82 115 44 82 115 44 82 115 44 82 115 44 82 115 44 82 115 44 82 115 44 79 111 42 79 111 42 79 111 42 79 111 42 79 111 42 79 111 42 79 111 42 79 111 42 79 111 42 79 111 42 79 111 42 79 111 42 79 111 42 79 111 42 79 111 42 79 111 42 83 117 44 83 117 44 83 117 44 83 117 44 83 117 44 83 117 44 83 117 44 83 117 44 83 117 44 83 117 44 83 117 44 83 117 44 83 117 44 83 117 44 83 117 44 83 117 44 68 96 36 68 96 36 68 96 36 68 96 36 68 96 36 68 96 36 68 96 36 68 96 36 68 96 36 68 96 36 68 96 36 68 96 36 68 96 36 68 96 36 68 96 36 68 96 36 80 112 42 80 112 42 80 112 42 80 112 42 80 112 42 80 112 42 80 112 42 80 112 42 80 112 42 80 112 42 80 112 42 80 112 42 80 112 42 80 112 42 80 112 42 80 112 42 69 97 37 69 97 37 69 97 37 69 97 37 69 97 37 69 97 37 69 97 37 69 97 37 69 97 37 69 97 37 69 97 37 69 97 37 69 97 37 69 97 37 69 97 37 71 100 38 71 100 38 71 100 38 71 100 38 71 100 38 71 100 38 71 100 38 71 100 38 71 100 38 71 100 38 71 100 38 71 100 38 71 100 38 71 100 38 71 100 38 71 100 38 77 108 41 77 108 41 77 108 41 77 108 41 77 108 41 77 108 41 77 108 41 77 108 41 77 108 41 77 108 41 77 108 41 77 108 41 77 108 41 77 108 41 77 108 41 77 108 41 82 115 44 82 115 44 82 115 44 82 115 44 82 115 44 82 115 44 82 115 44 82 115 44 82 115 44 82 115 44 82 115 44 82 115 44 82 115 44 82 115 44 82 115 44 82 115 44 78 109 41 78 109 41 78 109 41 78 109 41 78 109 41 78 109 41 78 109 41 78 109 41 78 109 41 78 109 41 78 109 41 78 109 41 78 109 41 78 109 41 78 109 41 78 109 41 76 106 40 76 106 40 76 106 40 76 106 40 76 106 40 76 106 40 76 106 40 76 106 40 76 106 40 76 106 40 76 106 40 76 106 40 76 106 40 76 106 40 76 106 40 76 106 40 91 128 48 91 128 48 91 128 48 91 128 48 91 128 48 91 128 48 91 128 48 91 128 48 91 128 48 91 128 48 91 128 48 91 128 48 91 128 48 91 128 48 91 128 48 91 128 48 68 96 36 68 96 36 68 96 36 68 96 36 68 96 36 68 96 36 68 96 36 68 96 36 68 96 36 68 96 36 68 96 36 68 96 36 68 96 36 68 96 36 68 96 36 68 96 36 64 90 34 64 90 34 64 90 34 64 90 34 64 90 34 64 90 34 64 90 34 64 90 34 64 90 34 64 90 34 64 90 34 64 90 34 64 90 34 64 90 34 64 90 34 64 90 34 72 102 39 72 102 39 72 102 39 72 102 39 72 102 39 72 102 39 72 102 39 72 102 39 72 102 39 72 102 39 72 102 39 72 102 39 72 102 39 72 102 39 72 102 39 72 102 39 75 106 40 75 106 40 75 106 40 75 106 40 75 106 40 75 106 40 75 106 40 75 106 40 75 106 40 75 106 40 75 106 40 75 106 40 75 106 40 75 106 40 75 106 40 75 106 40 82 115 44 82 115 44 82 115 44 82 115 44 82 115 44 82 115 44 82 115 44 82 115 44 82 115 44 82 115 44 82 115 44 82 115 44 82 115 44 82 115 44 82 115 44 82 115 44 79 111 42 79 111 42 79 111 42 79 111 42 79 111 42 79 111 42 79 111 42 79 111 42 79 111 42 79 111 42 79 111 42 79 111 42 79 111 42 79 111 42 79 111 42 79 111 42 83 117 44 83 117 44 83 117 44 83 117 44 83 117 44 83 117 44 83 117 44 83 117 44 83 117 44 83 117 44 83 117 44 83 117 44 83 117 44 83 117 44 83 117 44 83 117 44 68 96 36 68 96 36 68 96 36 68 96 36 68 96 36 68 96 36 68 96 36 68 96 36 68 96 36 68 96 36 68 96 36 68 96 36 68 96 36 68 96 36 68 96 36 68 96 36 80 112 42 80 112 42 80 112 42 80 112 42 80 112 42 80 112 42 80 112 42 80 112 42 80 112 42 80 112 42 80 112 42 80 112 42 80 112 42 80 112 42 80 112 42 80 112 42 69 97 37 69 97 37 69 97 37 69 97 37 69 97 37 69 97 37 69 97 37 69 97 37 69 97 37 69 97 37 69 97 37 69 97 37 69 97 37 69 97 37 69 97 37 71 100 38 71 100 38 71 100 38 71 100 38 71 100 38 71 100 38 71 100 38 71 100 38 71 100 38 71 100 38 71 100 38 71 100 38 71 100 38 71 100 38 71 100 38 71 100 38 77 108 41 77 108 41 77 108 41 77 108 41 77 108 41 77 108 41 77 108 41 77 108 41 77 108 41 77 108 41 77 108 41 77 108 41 77 108 41 77 108 41 77 108 41 77 108 41 82 115 44 82 115 44 82 115 44 82 115 44 82 115 44 82 115 44 82 115 44 82 115 44 82 115 44 82 115 44 82 115 44 82 115 44 82 115 44 82 115 44 82 115 44 82 115 44 78 109 41 78 109 41 78 109 41 78 109 41 78 109 41 78 109 41 78 109 41 78 109 41 78 109 41 78 109 41 78 109 41 78 109 41 78 109 41 78 109 41 78 109 41 78 109 41 76 106 40 76 106 40 76 106 40 76 106 40 76 106 40 76 106 40 76 106 40 76 106 40 76 106 40 76 106 40 76 106 40 76 106 40 76 106 40 76 106 40 76 106 40 76 106 40 91 128 48 91 128 48 91 128 48 91 128 48 91 128 48 91 128 48 91 128 48 91 128 48 91 128 48 91 128 48 91 128 48 91 128 48 91 128 48 91 128 48 91 128 48 91 128 48 68 96 36 68 96 36 68 96 36 68 96 36 68 96 36 68 96 36 68 96 36 68 96 36 68 96 36 68 96 36 68 96 36 68 96 36 68 96 36 68 96 36 68 96 36 68 96 36 64 90 34 64 90 34 64 90 34 64 90 34 64 90 34 64 90 34 64 90 34 64 90 34 64 90 34 64 90 34 64 90 34 64 90 34 64 90 34 64 90 34 64 90 34 64 90 34 72 102 39 72 102 39 72 102 39 72 102 39 72 102 39 72 102 39 72 102 39 72 102 39 72 102 39 72 102 39 72 102 39 72 102 39 72 102 39 72 102 39 72 102 39 72 102 39 75 106 40 75 106 40 75 106 40 75 106 40 75 106 40 75 106 40 75 106 40 75 106 40 75 106 40 75 106 40 75 106 40 75 106 40 75 106 40 75 106 40 75 106 40 75 106 40 82 115 44 82 115 44 82 115 44 82 115 44 82 115 44 82 115 44 82 115 44 82 115 44 82 115 44 82 115 44 82 115 44 82 115 44 82 115 44 82 115 44 82 115 44 82 115 44 79 111 42 79 111 42 79 111 42 79 111 42 79 111 42 79 111 42 79 111 42 79 111 42 79 111 42 79 111 42 79 111 42 79 111 42 79 111 42 79 111 42 79 111 42 79 111 42 83 117 44 83 117 44 83 117 44 83 117 44 83 117 44 83 117 44 83 117 44 83 117 44 83 117 44 83 117 44 83 117 44 83 117 44 83 117 44 83 117 44 83 117 44 83 117 44 68 96 36 68 96 36 68 96 36 68 96 36 68 96 36 68 96 36 68 96 36 68 96 36 68 96 36 68 96 36 68 96 36 68 96 36 68 96 36 68 96 36 68 96 36 68 96 36 80 112 42 80 112 42 80 112 42 80 112 42 80 112 42 80 112 42 80 112 42 80 112 42 80 112 42 80 112 42 80 112 42 80 112 42 80 112 42 80 112 42 80 112 42 80 112 42 69 97 37 69 97 37 69 97 37 69 97 37 69 97 37 69 97 37 69 97 37 69 97 37 69 97 37 69 97 37 69 97 37 69 97 37 69 97 37 69 97 37 69 97 37 71 100 38 71 100 38 71 100 38 71 100 38 71 100 38 71 100 38 71 100 38 71 100 38 71 100 38 71 100 38 71 100 38 71 100 38 71 100 38 71 100 38 71 100 38 71 100 38 77 108 41 77 108 41 77 108 41 77 108 41 77 108 41 77 108 41 77 108 41 77 108 41 77 108 41 77 108 41 77 108 41 77 108 41 77 108 41 77 108 41 77 108 41 77 108 41 82 115 44 82 115 44 82 115 44 82 115 44 82 115 44 82 115 44 82 115 44 82 115 44 82 115 44 82 115 44 82 115 44 82 115 44 82 115 44 82 115 44 82 115 44 82 115 44 78 109 41 78 109 41 78 109 41 78 109 41 78 109 41 78 109 41 78 109 41 78 109 41 78 109 41 78 109 41 78 109 41 78 109 41 78 109 41 78 109 41 78 109 41 78 109 41 76 106 40 76 106 40 76 106 40 76 106 40 76 106 40 76 106 40 76 106 40 76 106 40 76 106 40 76 106 40 76 106 40 76 106 40 76 106 40 76 106 40 76 106 40 76 106 40 91 128 48 91 128 48 91 128 48 91 128 48 91 128 48 91 128 48 91 128 48 91 128 48 91 128 48 91 128 48 91 128 48 91 128 48 91 128 48 91 128 48 91 128 48 91 128 48 68 96 36 68 96 36 68 96 36 68 96 36 68 96 36 68 96 36 68 96 36 68 96 36 68 96 36 68 96 36 68 96 36 68 96 36 68 96 36 68 96 36 68 96 36 68 96 36 64 90 34 64 90 34 64 90 34 64 90 34 64 90 34 64 90 34 64 90 34 64 90 34 64 90 34 64 90 34 64 90 34 64 90 34 64 90 34 64 90 34 64 90 34 64 90 34 72 102 39 72 102 39 72 102 39 72 102 39 72 102 39 72 102 39 72 102 39 72 102 39 72 102 39 72 102 39 72 102 39 72 102 39 72 102 39 72 102 39 72 102 39 72 102 39 75 106 40 75 106 40 75 106 40 75 106 40 75 106 40 75 106 40 75 106 40 75 106 40 75 106 40 75 106 40 75 106 40 75 106 40 75 106 40 75 106 40 75 106 40 75 106 40 82 115 44 82 115 44 82 115 44 82 115 44 82 115 44 82 115 44 82 115 44 82 115 44 82 115 44 82 115 44 82 115 44 82 115 44 82 115 44 82 115 44 82 115 44 82 115 44 79 111 42 79 111 42 79 111 42 79 111 42 79 111 42 79 111 42 79 111 42 79 111 42 79 111 42 79 111 42 79 111 42 79 111 42 79 111 42 79 111 42 79 111 42 79 111 42 83 117 44 83 117 44 83 117 44 83 117 44 83 117 44 83 117 44 83 117 44 83 117 44 83 117 44 83 117 44 83 117 44 83 117 44 83 117 44 83 117 44 83 117 44 83 117 44 68 96 36 68 96 36 68 96 36 68 96 36 68 96 36 68 96 36 68 96 36 68 96 36 68 96 36 68 96 36 68 96 36 68 96 36 68 96 36 68 96 36 68 96 36 68 96 36 80 112 42 80 112 42 80 112 42 80 112 42 80 112 42 80 112 42 80 112 42 80 112 42 80 112 42 80 112 42 80 112 42 80 112 42 80 112 42 80 112 42 80 112 42 80 112 42 69 97 37 69 97 37 69 97 37 69 97 37 69 97 37 69 97 37 69 97 37 69 97 37 69 97 37 69 97 37 69 97 37 69 97 37 69 97 37 69 97 37 69 97 37 71 100 38 71 100 38 71 100 38 71 100 38 71 100 38 71 100 38 71 100 38 71 100 38 71 100 38 71 100 38 71 100 38 71 100 38 71 100 38 71 100 38 71 100 38 71 100 38 77 108 41 77 108 41 77 108 41 77 108 41 77 108 41 77 108 41 77 108 41 77 108 41 77 108 41 77 108 41 77 108 41 77 108 41 77 108 41 77 108 41 77 108 41 77 108 41 82 115 44 82 115 44 82 115 44 82 115 44 82 115 44 82 115 44 82 115 44 82 115 44 82 115 44 82 115 44 82 115 44 82 115 44 82 115 44 82 115 44 82 115 44 82 115 44 78 109 41 78 109 41 78 109 41 78 109 41 78 109 41 78 109 41 78 109 41 78 109 41 78 109 41 78 109 41 78 109 41 78 109 41 78 109 41 78 109 41 78 109 41 78 109 41 76 106 40 76 106 40 76 106 40 76 106 40 76 106 40 76 106 40 76 106 40 76 106 40 76 106 40 76 106 40 76 106 40 76 106 40 76 106 40 76 106 40 76 106 40 76 106 40 91 128 48 91 128 48 91 128 48 91 128 48 91 128 48 91 128 48 91 128 48 91 128 48 91 128 48 91 128 48 91 128 48 91 128 48 91 128 48 91 128 48 91 128 48 91 128 48 68 96 36 68 96 36 68 96 36 68 96 36 68 96 36 68 96 36 68 96 36 68 96 36 68 96 36 68 96 36 68 96 36 68 96 36 68 96 36 68 96 36 68 96 36 68 96 36 88 124 47 88 124 47 88 124 47 88 124 47 88 124 47 88 124 47 88 124 47 88 124 47 88 124 47 88 124 47 88 124 47 88 124 47 88 124 47 88 124 47 88 124 47 88 124 47 71 100 38 71 100 38 71 100 38 71 100 38 71 100 38 71 100 38 71 100 38 71 100 38 71 100 38 71 100 38 71 100 38 71 100 38 71 100 38 71 100 38 71 100 38 71 100 38 94 132 50 94 132 50 94 132 50 94 132 50 94 132 50 94 132 50 94 132 50 94 132 50 94 132 50 94 132 50 94 132 50 94 132 50 94 132 50 94 132 50 94 132 50 94 132 50 71 100 38 71 100 38 71 100 38 71 100 38 71 100 38 71 100 38 71 100 38 71 100 38 71 100 38 71 100 38 71 100 38 71 100 38 71 100 38 71 100 38 71 100 38 71 100 38 94 131 50 94 131 50 94 131 50 94 131 50 94 131 50 94 131 50 94 131 50 94 131 50 94 131 50 94 131 50 94 131 50 94 131 50 94 131 50 94 131 50 94 131 50 94 131 50 95 133 50 95 133 50 95 133 50 95 133 50 95 133 50 95 133 50 95 133 50 95 133 50 95 133 50 95 133 50 95 133 50 95 133 50 95 133 50 95 133 50 95 133 50 95 133 50 74 104 39 74 104 39 74 104 39 74 104 39 74 104 39 74 104 39 74 104 39 74 104 39 74 104 39 74 104 39 74 104 39 74 104 39 74 104 39 74 104 39 74 104 39 74 104 39 94 131 50 94 131 50 94 131 50 94 131 50 94 131 50 94 131 50 94 131 50 94 131 50 94 131 50 94 131 50 94 131 50 94 131 50 94 131 50 94 131 50 94 131 50 94 131 50 101 142 54 101 142 54 101 142 54 101 142 54 101 142 54 101 142 54 101 142 54 101 142 54 101 142 54 101 142 54 101 142 54 101 142 54 101 142 54 101 142 54 101 142 54 64 89 34 64 89 34 64 89 34 64 89 34 64 89 34 64 89 34 64 89 34 64 89 34 64 89 34 64 89 34 64 89 34 64 89 34 64 89 34 64 89 34 64 89 34 64 89 34 70 98 37 70 98 37 70 98 37 70 98 37 70 98 37 70 98 37 70 98 37 70 98 37 70 98 37 70 98 37 70 98 37 70 98 37 70 98 37 70 98 37 70 98 37 70 98 37 91 128 48 91 128 48 91 128 48 91 128 48 91 128 48 91 128 48 91 128 48 91 128 48 91 128 48 91 128 48 91 128 48 91 128 48 91 128 48 91 128 48 91 128 48 91 128 48 93 131 50 93 131 50 93 131 50 93 131 50 93 131 50 93 131 50 93 131 50 93 131 50 93 131 50 93 131 50 93 131 50 93 131 50 93 131 50 93 131 50 93 131 50 93 131 50 69 96 37 69 96 37 69 96 37 69 96 37 69 96 37 69 96 37 69 96 37 69 96 37 69 96 37 69 96 37 69 96 37 69 96 37 69 96 37 69 96 37 69 96 37 69 96 37 74 104 39 74 104 39 74 104 39 74 104 39 74 104 39 74 104 39 74 104 39 74 104 39 74 104 39 74 104 39 74 104 39 74 104 39 74 104 39 74 104 39 74 104 39 74 104 39 77 108 41 77 108 41 77 108 41 77 108 41 77 108 41 77 108 41 77 108 41 77 108 41 77 108 41 77 108 41 77 108 41 77 108 41 77 108 41 77 108 41 77 108 41 77 108 41 88 124 47 88 124 47 88 124 47 88 124 47 88 124 47 88 124 47 88 124 47 88 124 47 88 124 47 88 124 47 88 124 47 88 124 47 88 124 47 88 124 47 88 124 47 88 124 47 71 100 38 71 100 38 71 100 38 71 100 38 71 100 38 71 100 38 71 100 38 71 100 38 71 100 38 71 100 38 71 100 38 71 100 38 71 100 38 71 100 38 71 100 38 71 100 38 94 132 50 94 132 50 94 132 50 94 132 50 94 132 50 94 132 50 94 132 50 94 132 50 94 132 50 94 132 50 94 132 50 94 132 50 94 132 50 94 132 50 94 132 50 94 132 50 71 100 38 71 100 38 71 100 38 71 100 38 71 100 38 71 100 38 71 100 38 71 100 38 71 100 38 71 100 38 71 100 38 71 100 38 71 100 38 71 100 38 71 100 38 71 100 38 94 131 50 94 131 50 94 131 50 94 131 50 94 131 50 94 131 50 94 131 50 94 131 50 94 131 50 94 131 50 94 131 50 94 131 50 94 131 50 94 131 50 94 131 50 94 131 50 95 133 50 95 133 50 95 133 50 95 133 50 95 133 50 95 133 50 95 133 50 95 133 50 95 133 50 95 133 50 95 133 50 95 133 50 95 133 50 95 133 50 95 133 50 95 133 50 74 104 39 74 104 39 74 104 39 74 104 39 74 104 39 74 104 39 74 104 39 74 104 39 74 104 39 74 104 39 74 104 39 74 104 39 74 104 39 74 104 39 74 104 39 74 104 39 94 131 50 94 131 50 94 131 50 94 131 50 94 131 50 94 131 50 94 131 50 94 131 50 94 131 50 94 131 50 94 131 50 94 131 50 94 131 50 94 131 50 94 131 50 94 131 50 101 142 54 101 142 54 101 142 54 101 142 54 101 142 54 101 142 54 101 142 54 101 142 54 101 142 54 101 142 54 101 142 54 101 142 54 101 142 54 101 142 54 101 142 54 64 89 34 64 89 34 64 89 34 64 89 34 64 89 34 64 89 34 64 89 34 64 89 34 64 89 34 64 89 34 64 89 34 64 89 34 64 89 34 64 89 34 64 89 34 64 89 34 70 98 37 70 98 37 70 98 37 70 98 37 70 98 37 70 98 37 70 98 37 70 98 37 70 98 37 70 98 37 70 98 37 70 98 37 70 98 37 70 98 37 70 98 37 70 98 37 91 128 48 91 128 48 91 128 48 91 128 48 91 128 48 91 128 48 91 128 48 91 128 48 91 128 48 91 128 48 91 128 48 91 128 48 91 128 48 91 128 48 91 128 48 91 128 48 93 131 50 93 131 50 93 131 50 93 131 50 93 131 50 93 131 50 93 131 50 93 131 50 93 131 50 93 131 50 93 131 50 93 131 50 93 131 50 93 131 50 93 131 50 93 131 50 69 96 37 69 96 37 69 96 37 69 96 37 69 96 37 69 96 37 69 96 37 69 96 37 69 96 37 69 96 37 69 96 37 69 96 37 69 96 37 69 96 37 69 96 37 69 96 37 74 104 39 74 104 39 74 104 39 74 104 39 74 104 39 74 104 39 74 104 39 74 104 39 74 104 39 74 104 39 74 104 39 74 104 39 74 104 39 74 104 39 74 104 39 74 104 39 77 108 41 77 108 41 77 108 41 77 108 41 77 108 41 77 108 41 77 108 41 77 108 41 77 108 41 77 108 41 77 108 41 77 108 41 77 108 41 77 108 41 77 108 41 77 108 41 88 124 47 88 124 47 88 124 47 88 124 47 88 124 47 88 124 47 88 124 47 88 124 47 88 124 47 88 124 47 88 124 47 88 124 47 88 124 47 88 124 47 88 124 47 88 124 47 71 100 38 71 100 38 71 100 38 71 100 38 71 100 38 71 100 38 71 100 38 71 100 38 71 100 38 71 100 38 71 100 38 71 100 38 71 100 38 71 100 38 71 100 38 71 100 38 94 132 50 94 132 50 94 132 50 94 132 50 94 132 50 94 132 50 94 132 50 94 132 50 94 132 50 94 132 50 94 132 50 94 132 50 94 132 50 94 132 50 94 132 50 94 132 50 71 100 38 71 100 38 71 100 38 71 100 38 71 100 38 71 100 38 71 100 38 71 100 38 71 100 38 71 100 38 71 100 38 71 100 38 71 100 38 71 100 38 71 100 38 71 100 38 94 131 50 94 131 50 94 131 50 94 131 50 94 131 50 94 131 50 94 131 50 94 131 50 94 131 50 94 131 50 94 131 50 94 131 50 94 131 50 94 131 50 94 131 50 94 131 50 95 133 50 95 133 50 95 133 50 95 133 50 95 133 50 95 133 50 95 133 50 95 133 50 95 133 50 95 133 50 95 133 50 95 133 50 95 133 50 95 133 50 95 133 50 95 133 50 74 104 39 74 104 39 74 104 39 74 104 39 74 104 39 74 104 39 74 104 39 74 104 39 74 104 39 74 104 39 74 104 39 74 104 39 74 104 39 74 104 39 74 104 39 74 104 39 94 131 50 94 131 50 94 131 50 94 131 50 94 131 50 94 131 50 94 131 50 94 131 50 94 131 50 94 131 50 94 131 50 94 131 50 94 131 50 94 131 50 94 131 50 94 131 50 101 142 54 101 142 54 101 142 54 101 142 54 101 142 54 101 142 54 101 142 54 101 142 54 101 142 54 101 142 54 101 142 54 101 142 54 101 142 54 101 142 54 101 142 54 64 89 34 64 89 34 64 89 34 64 89 34 64 89 34 64 89 34 64 89 34 64 89 34 64 89 34 64 89 34 64 89 34 64 89 34 64 89 34 64 89 34 64 89 34 64 89 34 70 98 37 70 98 37 70 98 37 70 98 37 70 98 37 70 98 37 70 98 37 70 98 37 70 98 37 70 98 37 70 98 37 70 98 37 70 98 37 70 98 37 70 98 37 70 98 37 91 128 48 91 128 48 91 128 48 91 128 48 91 128 48 91 128 48 91 128 48 91 128 48 91 128 48 91 128 48 91 128 48 91 128 48 91 128 48 91 128 48 91 128 48 91 128 48 93 131 50 93 131 50 93 131 50 93 131 50 93 131 50 93 131 50 93 131 50 93 131 50 93 131 50 93 131 50 93 131 50 93 131 50 93 131 50 93 131 50 93 131 50 93 131 50 69 96 37 69 96 37 69 96 37 69 96 37 69 96 37 69 96 37 69 96 37 69 96 37 69 96 37 69 96 37 69 96 37 69 96 37 69 96 37 69 96 37 69 96 37 69 96 37 74 104 39 74 104 39 74 104 39 74 104 39 74 104 39 74 104 39 74 104 39 74 104 39 74 104 39 74 104 39 74 104 39 74 104 39 74 104 39 74 104 39 74 104 39 74 104 39 77 108 41 77 108 41 77 108 41 77 108 41 77 108 41 77 108 41 77 108 41 77 108 41 77 108 41 77 108 41 77 108 41 77 108 41 77 108 41 77 108 41 77 108 41 77 108 41 88 124 47 88 124 47 88 124 47 88 124 47 88 124 47 88 124 47 88 124 47 88 124 47 88 124 47 88 124 47 88 124 47 88 124 47 88 124 47 88 124 47 88 124 47 88 124 47 71 100 38 71 100 38 71 100 38 71 100 38 71 100 38 71 100 38 71 100 38 71 100 38 71 100 38 71 100 38 71 100 38 71 100 38 71 100 38 71 100 38 71 100 38 71 100 38 94 132 50 94 132 50 94 132 50 94 132 50 94 132 50 94 132 50 94 132 50 94 132 50 94 132 50 94 132 50 94 132 50 94 132 50 94 132 50 94 132 50 94 132 50 94 132 50 71 100 38 71 100 38 71 100 38 71 100 38 71 100 38 71 100 38 71 100 38 71 100 38 71 100 38 71 100 38 71 100 38 71 100 38 71 100 38 71 100 38 71 100 38 71 100 38 94 131 50 94 131 50 94 131 50 94 131 50 94 131 50 94 131 50 94 131 50 94 131 50 94 131 50 94 131 50 94 131 50 94 131 50 94 131 50 94 131 50 94 131 50 94 131 50 95 133 50 95 133 50 95 133 50 95 133 50 95 133 50 95 133 50 95 133 50 95 133 50 95 133 50 95 133 50 95 133 50 95 133 50 95 133 50 95 133 50 95 133 50 95 133 50 74 104 39 74 104 39 74 104 39 74 104 39 74 104 39 74 104 39 74 104 39 74 104 39 74 104 39 74 104 39 74 104 39 74 104 39 74 104 39 74 104 39 74 104 39 74 104 39 94 131 50 94 131 50 94 131 50 94 131 50 94 131 50 94 131 50 94 131 50 94 131 50 94 131 50 94 131 50 94 131 50 94 131 50 94 131 50 94 131 50 94 131 50 94 131 50 101 142 54 101 142 54 101 142 54 101 142 54 101 142 54 101 142 54 101 142 54 101 142 54 101 142 54 101 142 54 101 142 54 101 142 54 101 142 54 101 142 54 101 142 54 64 89 34 64 89 34 64 89 34 64 89 34 64 89 34 64 89 34 64 89 34 64 89 34 64 89 34 64 89 34 64 89 34 64 89 34 64 89 34 64 89 34 64 89 34 64 89 34 70 98 37 70 98 37 70 98 37 70 98 37 70 98 37 70 98 37 70 98 37 70 98 37 70 98 37 70 98 37 70 98 37 70 98 37 70 98 37 70 98 37 70 98 37 70 98 37 91 128 48 91 128 48 91 128 48 91 128 48 91 128 48 91 128 48 91 128 48 91 128 48 91 128 48 91 128 48 91 128 48 91 128 48 91 128 48 91 128 48 91 128 48 91 128 48 93 131 50 93 131 50 93 131 50 93 131 50 93 131 50 93 131 50 93 131 50 93 131 50 93 131 50 93 131 50 93 131 50 93 131 50 93 131 50 93 131 50 93 131 50 93 131 50 69 96 37 69 96 37 69 96 37 69 96 37 69 96 37 69 96 37 69 96 37 69 96 37 69 96 37 69 96 37 69 96 37 69 96 37 69 96 37 69 96 37 69 96 37 69 96 37 74 104 39 74 104 39 74 104 39 74 104 39 74 104 39 74 104 39 74 104 39 74 104 39 74 104 39 74 104 39 74 104 39 74 104 39 74 104 39 74 104 39 74 104 39 74 104 39 77 108 41 77 108 41 77 108 41 77 108 41 77 108 41 77 108 41 77 108 41 77 108 41 77 108 41 77 108 41 77 108 41 77 108 41 77 108 41 77 108 41 77 108 41 77 108 41 88 124 47 88 124 47 88 124 47 88 124 47 88 124 47 88 124 47 88 124 47 88 124 47 88 124 47 88 124 47 88 124 47 88 124 47 88 124 47 88 124 47 88 124 47 88 124 47 71 100 38 71 100 38 71 100 38 71 100 38 71 100 38 71 100 38 71 100 38 71 100 38 71 100 38 71 100 38 71 100 38 71 100 38 71 100 38 71 100 38 71 100 38 71 100 38 94 132 50 94 132 50 94 132 50 94 132 50 94 132 50 94 132 50 94 132 50 94 132 50 94 132 50 94 132 50 94 132 50 94 132 50 94 132 50 94 132 50 94 132 50 94 132 50 71 100 38 71 100 38 71 100 38 71 100 38 71 100 38 71 100 38 71 100 38 71 100 38 71 100 38 71 100 38 71 100 38 71 100 38 71 100 38 71 100 38 71 100 38 71 100 38 94 131 50 94 131 50 94 131 50 94 131 50 94 131 50 94 131 50 94 131 50 94 131 50 94 131 50 94 131 50 94 131 50 94 131 50 94 131 50 94 131 50 94 131 50 94 131 50 95 133 50 95 133 50 95 133 50 95 133 50 95 133 50 95 133 50 95 133 50 95 133 50 95 133 50 95 133 50 95 133 50 95 133 50 95 133 50 95 133 50 95 133 50 95 133 50 74 104 39 74 104 39 74 104 39 74 104 39 74 104 39 74 104 39 74 104 39 74 104 39 74 104 39 74 104 39 74 104 39 74 104 39 74 104 39 74 104 39 74 104 39 74 104 39 94 131 50 94 131 50 94 131 50 94 131 50 94 131 50 94 131 50 94 131 50 94 131 50 94 131 50 94 131 50 94 131 50 94 131 50 94 131 50 94 131 50 94 131 50 94 131 50 101 142 54 101 142 54 101 142 54 101 142 54 101 142 54 101 142 54 101 142 54 101 142 54 101 142 54 101 142 54 101 142 54 101 142 54 101 142 54 101 142 54 101 142 54 64 89 34 64 89 34 64 89 34 64 89 34 64 89 34 64 89 34 64 89 34 64 89 34 64 89 34 64 89 34 64 89 34 64 89 34 64 89 34 64 89 34 64 89 34 64 89 34 70 98 37 70 98 37 70 98 37 70 98 37 70 98 37 70 98 37 70 98 37 70 98 37 70 98 37 70 98 37 70 98 37 70 98 37 70 98 37 70 98 37 70 98 37 70 98 37 91 128 48 91 128 48 91 128 48 91 128 48 91 128 48 91 128 48 91 128 48 91 128 48 91 128 48 91 128 48 91 128 48 91 128 48 91 128 48 91 128 48 91 128 48 91 128 48 93 131 50 93 131 50 93 131 50 93 131 50 93 131 50 93 131 50 93 131 50 93 131 50 93 131 50 93 131 50 93 131 50 93 131 50 93 131 50 93 131 50 93 131 50 93 131 50 69 96 37 69 96 37 69 96 37 69 96 37 69 96 37 69 96 37 69 96 37 69 96 37 69 96 37 69 96 37 69 96 37 69 96 37 69 96 37 69 96 37 69 96 37 69 96 37 74 104 39 74 104 39 74 104 39 74 104 39 74 104 39 74 104 39 74 104 39 74 104 39 74 104 39 74 104 39 74 104 39 74 104 39 74 104 39 74 104 39 74 104 39 74 104 39 77 108 41 77 108 41 77 108 41 77 108 41 77 108 41 77 108 41 77 108 41 77 108 41 77 108 41 77 108 41 77 108 41 77 108 41 77 108 41 77 108 41 77 108 41 77 108 41 88 124 47 88 124 47 88 124 47 88 124 47 88 124 47 88 124 47 88 124 47 88 124 47 88 124 47 88 124 47 88 124 47 88 124 47 88 124 47 88 124 47 88 124 47 88 124 47 71 100 38 71 100 38 71 100 38 71 100 38 71 100 38 71 100 38 71 100 38 71 100 38 71 100 38 71 100 38 71 100 38 71 100 38 71 100 38 71 100 38 71 100 38 71 100 38 94 132 50 94 132 50 94 132 50 94 132 50 94 132 50 94 132 50 94 132 50 94 132 50 94 132 50 94 132 50 94 132 50 94 132 50 94 132 50 94 132 50 94 132 50 94 132 50 71 100 38 71 100 38 71 100 38 71 100 38 71 100 38 71 100 38 71 100 38 71 100 38 71 100 38 71 100 38 71 100 38 71 100 38 71 100 38 71 100 38 71 100 38 71 100 38 94 131 50 94 131 50 94 131 50 94 131 50 94 131 50 94 131 50 94 131 50 94 131 50 94 131 50 94 131 50 94 131 50 94 131 50 94 131 50 94 131 50 94 131 50 94 131 50 95 133 50 95 133 50 95 133 50 95 133 50 95 133 50 95 133 50 95 133 50 95 133 50 95 133 50 95 133 50 95 133 50 95 133 50 95 133 50 95 133 50 95 133 50 95 133 50 74 104 39 74 104 39 74 104 39 74 104 39 74 104 39 74 104 39 74 104 39 74 104 39 74 104 39 74 104 39 74 104 39 74 104 39 74 104 39 74 104 39 74 104 39 74 104 39 94 131 50 94 131 50 94 131 50 94 131 50 94 131 50 94 131 50 94 131 50 94 131 50 94 131 50 94 131 50 94 131 50 94 131 50 94 131 50 94 131 50 94 131 50 94 131 50 101 142 54 101 142 54 101 142 54 101 142 54 101 142 54 101 142 54 101 142 54 101 142 54 101 142 54 101 142 54 101 142 54 101 142 54 101 142 54 101 142 54 101 142 54 64 89 34 64 89 34 64 89 34 64 89 34 64 89 34 64 89 34 64 89 34 64 89 34 64 89 34 64 89 34 64 89 34 64 89 34 64 89 34 64 89 34 64 89 34 64 89 34 70 98 37 70 98 37 70 98 37 70 98 37 70 98 37 70 98 37 70 98 37 70 98 37 70 98 37 70 98 37 70 98 37 70 98 37 70 98 37 70 98 37 70 98 37 70 98 37 91 128 48 91 128 48 91 128 48 91 128 48 91 128 48 91 128 48 91 128 48 91 128 48 91 128 48 91 128 48 91 128 48 91 128 48 91 128 48 91 128 48 91 128 48 91 128 48 93 131 50 93 131 50 93 131 50 93 131 50 93 131 50 93 131 50 93 131 50 93 131 50 93 131 50 93 131 50 93 131 50 93 131 50 93 131 50 93 131 50 93 131 50 93 131 50 69 96 37 69 96 37 69 96 37 69 96 37 69 96 37 69 96 37 69 96 37 69 96 37 69 96 37 69 96 37 69 96 37 69 96 37 69 96 37 69 96 37 69 96 37 69 96 37 74 104 39 74 104 39 74 104 39 74 104 39 74 104 39 74 104 39 74 104 39 74 104 39 74 104 39 74 104 39 74 104 39 74 104 39 74 104 39 74 104 39 74 104 39 74 104 39 77 108 41 77 108 41 77 108 41 77 108 41 77 108 41 77 108 41 77 108 41 77 108 41 77 108 41 77 108 41 77 108 41 77 108 41 77 108 41 77 108 41 77 108 41 77 108 41 88 124 47 88 124 47 88 124 47 88 124 47 88 124 47 88 124 47 88 124 47 88 124 47 88 124 47 88 124 47 88 124 47 88 124 47 88 124 47 88 124 47 88 124 47 88 124 47 71 100 38 71 100 38 71 100 38 71 100 38 71 100 38 71 100 38 71 100 38 71 100 38 71 100 38 71 100 38 71 100 38 71 100 38 71 100 38 71 100 38 71 100 38 71 100 38 94 132 50 94 132 50 94 132 50 94 132 50 94 132 50 94 132 50 94 132 50 94 132 50 94 132 50 94 132 50 94 132 50 94 132 50 94 132 50 94 132 50 94 132 50 94 132 50 71 100 38 71 100 38 71 100 38 71 100 38 71 100 38 71 100 38 71 100 38 71 100 38 71 100 38 71 100 38 71 100 38 71 100 38 71 100 38 71 100 38 71 100 38 71 100 38 94 131 50 94 131 50 94 131 50 94 131 50 94 131 50 94 131 50 94 131 50 94 131 50 94 131 50 94 131 50 94 131 50 94 131 50 94 131 50 94 131 50 94 131 50 94 131 50 95 133 50 95 133 50 95 133 50 95 133 50 95 133 50 95 133 50 95 133 50 95 133 50 95 133 50 95 133 50 95 133 50 95 133 50 95 133 50 95 133 50 95 133 50 95 133 50 74 104 39 74 104 39 74 104 39 74 104 39 74 104 39 74 104 39 74 104 39 74 104 39 74 104 39 74 104 39 74 104 39 74 104 39 74 104 39 74 104 39 74 104 39 74 104 39 94 131 50 94 131 50 94 131 50 94 131 50 94 131 50 94 131 50 94 131 50 94 131 50 94 131 50 94 131 50 94 131 50 94 131 50 94 131 50 94 131 50 94 131 50 94 131 50 101 142 54 101 142 54 101 142 54 101 142 54 101 142 54 101 142 54 101 142 54 101 142 54 101 142 54 101 142 54 101 142 54 101 142 54 101 142 54 101 142 54 101 142 54 64 89 34 64 89 34 64 89 34 64 89 34 64 89 34 64 89 34 64 89 34 64 89 34 64 89 34 64 89 34 64 89 34 64 89 34 64 89 34 64 89 34 64 89 34 64 89 34 70 98 37 70 98 37 70 98 37 70 98 37 70 98 37 70 98 37 70 98 37 70 98 37 70 98 37 70 98 37 70 98 37 70 98 37 70 98 37 70 98 37 70 98 37 70 98 37 91 128 48 91 128 48 91 128 48 91 128 48 91 128 48 91 128 48 91 128 48 91 128 48 91 128 48 91 128 48 91 128 48 91 128 48 91 128 48 91 128 48 91 128 48 91 128 48 93 131 50 93 131 50 93 131 50 93 131 50 93 131 50 93 131 50 93 131 50 93 131 50 93 131 50 93 131 50 93 131 50 93 131 50 93 131 50 93 131 50 93 131 50 93 131 50 69 96 37 69 96 37 69 96 37 69 96 37 69 96 37 69 96 37 69 96 37 69 96 37 69 96 37 69 96 37 69 96 37 69 96 37 69 96 37 69 96 37 69 96 37 69 96 37 74 104 39 74 104 39 74 104 39 74 104 39 74 104 39 74 104 39 74 104 39 74 104 39 74 104 39 74 104 39 74 104 39 74 104 39 74 104 39 74 104 39 74 104 39 74 104 39 77 108 41 77 108 41 77 108 41 77 108 41 77 108 41 77 108 41 77 108 41 77 108 41 77 108 41 77 108 41 77 108 41 77 108 41 77 108 41 77 108 41 77 108 41 77 108 41 88 124 47 88 124 47 88 124 47 88 124 47 88 124 47 88 124 47 88 124 47 88 124 47 88 124 47 88 124 47 88 124 47 88 124 47 88 124 47 88 124 47 88 124 47 88 124 47 71 100 38 71 100 38 71 100 38 71 100 38 71 100 38 71 100 38 71 100 38 71 100 38 71 100 38 71 100 38 71 100 38 71 100 38 71 100 38 71 100 38 71 100 38 71 100 38 94 132 50 94 132 50 94 132 50 94 132 50 94 132 50 94 132 50 94 132 50 94 132 50 94 132 50 94 132 50 94 132 50 94 132 50 94 132 50 94 132 50 94 132 50 94 132 50 71 100 38 71 100 38 71 100 38 71 100 38 71 100 38 71 100 38 71 100 38 71 100 38 71 100 38 71 100 38 71 100 38 71 100 38 71 100 38 71 100 38 71 100 38 71 100 38 94 131 50 94 131 50 94 131 50 94 131 50 94 131 50 94 131 50 94 131 50 94 131 50 94 131 50 94 131 50 94 131 50 94 131 50 94 131 50 94 131 50 94 131 50 94 131 50 95 133 50 95 133 50 95 133 50 95 133 50 95 133 50 95 133 50 95 133 50 95 133 50 95 133 50 95 133 50 95 133 50 95 133 50 95 133 50 95 133 50 95 133 50 95 133 50 74 104 39 74 104 39 74 104 39 74 104 39 74 104 39 74 104 39 74 104 39 74 104 39 74 104 39 74 104 39 74 104 39 74 104 39 74 104 39 74 104 39 74 104 39 74 104 39 94 131 50 94 131 50 94 131 50 94 131 50 94 131 50 94 131 50 94 131 50 94 131 50 94 131 50 94 131 50 94 131 50 94 131 50 94 131 50 94 131 50 94 131 50 94 131 50 101 142 54 101 142 54 101 142 54 101 142 54 101 142 54 101 142 54 101 142 54 101 142 54 101 142 54 101 142 54 101 142 54 101 142 54 101 142 54 101 142 54 101 142 54 64 89 34 64 89 34 64 89 34 64 89 34 64 89 34 64 89 34 64 89 34 64 89 34 64 89 34 64 89 34 64 89 34 64 89 34 64 89 34 64 89 34 64 89 34 64 89 34 70 98 37 70 98 37 70 98 37 70 98 37 70 98 37 70 98 37 70 98 37 70 98 37 70 98 37 70 98 37 70 98 37 70 98 37 70 98 37 70 98 37 70 98 37 70 98 37 91 128 48 91 128 48 91 128 48 91 128 48 91 128 48 91 128 48 91 128 48 91 128 48 91 128 48 91 128 48 91 128 48 91 128 48 91 128 48 91 128 48 91 128 48 91 128 48 93 131 50 93 131 50 93 131 50 93 131 50 93 131 50 93 131 50 93 131 50 93 131 50 93 131 50 93 131 50 93 131 50 93 131 50 93 131 50 93 131 50 93 131 50 93 131 50 69 96 37 69 96 37 69 96 37 69 96 37 69 96 37 69 96 37 69 96 37 69 96 37 69 96 37 69 96 37 69 96 37 69 96 37 69 96 37 69 96 37 69 96 37 69 96 37 74 104 39 74 104 39 74 104 39 74 104 39 74 104 39 74 104 39 74 104 39 74 104 39 74 104 39 74 104 39 74 104 39 74 104 39 74 104 39 74 104 39 74 104 39 74 104 39 77 108 41 77 108 41 77 108 41 77 108 41 77 108 41 77 108 41 77 108 41 77 108 41 77 108 41 77 108 41 77 108 41 77 108 41 77 108 41 77 108 41 77 108 41 77 108 41 88 124 47 88 124 47 88 124 47 88 124 47 88 124 47 88 124 47 88 124 47 88 124 47 88 124 47 88 124 47 88 124 47 88 124 47 88 124 47 88 124 47 88 124 47 88 124 47 71 100 38 71 100 38 71 100 38 71 100 38 71 100 38 71 100 38 71 100 38 71 100 38 71 100 38 71 100 38 71 100 38 71 100 38 71 100 38 71 100 38 71 100 38 71 100 38 94 132 50 94 132 50 94 132 50 94 132 50 94 132 50 94 132 50 94 132 50 94 132 50 94 132 50 94 132 50 94 132 50 94 132 50 94 132 50 94 132 50 94 132 50 94 132 50 71 100 38 71 100 38 71 100 38 71 100 38 71 100 38 71 100 38 71 100 38 71 100 38 71 100 38 71 100 38 71 100 38 71 100 38 71 100 38 71 100 38 71 100 38 71 100 38 94 131 50 94 131 50 94 131 50 94 131 50 94 131 50 94 131 50 94 131 50 94 131 50 94 131 50 94 131 50 94 131 50 94 131 50 94 131 50 94 131 50 94 131 50 94 131 50 95 133 50 95 133 50 95 133 50 95 133 50 95 133 50 95 133 50 95 133 50 95 133 50 95 133 50 95 133 50 95 133 50 95 133 50 95 133 50 95 133 50 95 133 50 95 133 50 74 104 39 74 104 39 74 104 39 74 104 39 74 104 39 74 104 39 74 104 39 74 104 39 74 104 39 74 104 39 74 104 39 74 104 39 74 104 39 74 104 39 74 104 39 74 104 39 94 131 50 94 131 50 94 131 50 94 131 50 94 131 50 94 131 50 94 131 50 94 131 50 94 131 50 94 131 50 94 131 50 94 131 50 94 131 50 94 131 50 94 131 50 94 131 50 101 142 54 101 142 54 101 142 54 101 142 54 101 142 54 101 142 54 101 142 54 101 142 54 101 142 54 101 142 54 101 142 54 101 142 54 101 142 54 101 142 54 101 142 54 64 89 34 64 89 34 64 89 34 64 89 34 64 89 34 64 89 34 64 89 34 64 89 34 64 89 34 64 89 34 64 89 34 64 89 34 64 89 34 64 89 34 64 89 34 64 89 34 70 98 37 70 98 37 70 98 37 70 98 37 70 98 37 70 98 37 70 98 37 70 98 37 70 98 37 70 98 37 70 98 37 70 98 37 70 98 37 70 98 37 70 98 37 70 98 37 91 128 48 91 128 48 91 128 48 91 128 48 91 128 48 91 128 48 91 128 48 91 128 48 91 128 48 91 128 48 91 128 48 91 128 48 91 128 48 91 128 48 91 128 48 91 128 48 93 131 50 93 131 50 93 131 50 93 131 50 93 131 50 93 131 50 93 131 50 93 131 50 93 131 50 93 131 50 93 131 50 93 131 50 93 131 50 93 131 50 93 131 50 93 131 50 69 96 37 69 96 37 69 96 37 69 96 37 69 96 37 69 96 37 69 96 37 69 96 37 69 96 37 69 96 37 69 96 37 69 96 37 69 96 37 69 96 37 69 96 37 69 96 37 74 104 39 74 104 39 74 104 39 74 104 39 74 104 39 74 104 39 74 104 39 74 104 39 74 104 39 74 104 39 74 104 39 74 104 39 74 104 39 74 104 39 74 104 39 74 104 39 77 108 41 77 108 41 77 108 41 77 108 41 77 108 41 77 108 41 77 108 41 77 108 41 77 108 41 77 108 41 77 108 41 77 108 41 77 108 41 77 108 41 77 108 41 77 108 41 88 124 47 88 124 47 88 124 47 88 124 47 88 124 47 88 124 47 88 124 47 88 124 47 88 124 47 88 124 47 88 124 47 88 124 47 88 124 47 88 124 47 88 124 47 88 124 47 71 100 38 71 100 38 71 100 38 71 100 38 71 100 38 71 100 38 71 100 38 71 100 38 71 100 38 71 100 38 71 100 38 71 100 38 71 100 38 71 100 38 71 100 38 71 100 38 94 132 50 94 132 50 94 132 50 94 132 50 94 132 50 94 132 50 94 132 50 94 132 50 94 132 50 94 132 50 94 132 50 94 132 50 94 132 50 94 132 50 94 132 50 94 132 50 71 100 38 71 100 38 71 100 38 71 100 38 71 100 38 71 100 38 71 100 38 71 100 38 71 100 38 71 100 38 71 100 38 71 100 38 71 100 38 71 100 38 71 100 38 71 100 38 94 131 50 94 131 50 94 131 50 94 131 50 94 131 50 94 131 50 94 131 50 94 131 50 94 131 50 94 131 50 94 131 50 94 131 50 94 131 50 94 131 50 94 131 50 94 131 50 95 133 50 95 133 50 95 133 50 95 133 50 95 133 50 95 133 50 95 133 50 95 133 50 95 133 50 95 133 50 95 133 50 95 133 50 95 133 50 95 133 50 95 133 50 95 133 50 74 104 39 74 104 39 74 104 39 74 104 39 74 104 39 74 104 39 74 104 39 74 104 39 74 104 39 74 104 39 74 104 39 74 104 39 74 104 39 74 104 39 74 104 39 74 104 39 94 131 50 94 131 50 94 131 50 94 131 50 94 131 50 94 131 50 94 131 50 94 131 50 94 131 50 94 131 50 94 131 50 94 131 50 94 131 50 94 131 50 94 131 50 94 131 50 101 142 54 101 142 54 101 142 54 101 142 54 101 142 54 101 142 54 101 142 54 101 142 54 101 142 54 101 142 54 101 142 54 101 142 54 101 142 54 101 142 54 101 142 54 64 89 34 64 89 34 64 89 34 64 89 34 64 89 34 64 89 34 64 89 34 64 89 34 64 89 34 64 89 34 64 89 34 64 89 34 64 89 34 64 89 34 64 89 34 64 89 34 70 98 37 70 98 37 70 98 37 70 98 37 70 98 37 70 98 37 70 98 37 70 98 37 70 98 37 70 98 37 70 98 37 70 98 37 70 98 37 70 98 37 70 98 37 70 98 37 91 128 48 91 128 48 91 128 48 91 128 48 91 128 48 91 128 48 91 128 48 91 128 48 91 128 48 91 128 48 91 128 48 91 128 48 91 128 48 91 128 48 91 128 48 91 128 48 93 131 50 93 131 50 93 131 50 93 131 50 93 131 50 93 131 50 93 131 50 93 131 50 93 131 50 93 131 50 93 131 50 93 131 50 93 131 50 93 131 50 93 131 50 93 131 50 69 96 37 69 96 37 69 96 37 69 96 37 69 96 37 69 96 37 69 96 37 69 96 37 69 96 37 69 96 37 69 96 37 69 96 37 69 96 37 69 96 37 69 96 37 69 96 37 74 104 39 74 104 39 74 104 39 74 104 39 74 104 39 74 104 39 74 104 39 74 104 39 74 104 39 74 104 39 74 104 39 74 104 39 74 104 39 74 104 39 74 104 39 74 104 39 77 108 41 77 108 41 77 108 41 77 108 41 77 108 41 77 108 41 77 108 41 77 108 41 77 108 41 77 108 41 77 108 41 77 108 41 77 108 41 77 108 41 77 108 41 77 108 41 88 124 47 88 124 47 88 124 47 88 124 47 88 124 47 88 124 47 88 124 47 88 124 47 88 124 47 88 124 47 88 124 47 88 124 47 88 124 47 88 124 47 88 124 47 88 124 47 71 100 38 71 100 38 71 100 38 71 100 38 71 100 38 71 100 38 71 100 38 71 100 38 71 100 38 71 100 38 71 100 38 71 100 38 71 100 38 71 100 38 71 100 38 71 100 38 94 132 50 94 132 50 94 132 50 94 132 50 94 132 50 94 132 50 94 132 50 94 132 50 94 132 50 94 132 50 94 132 50 94 132 50 94 132 50 94 132 50 94 132 50 94 132 50 71 100 38 71 100 38 71 100 38 71 100 38 71 100 38 71 100 38 71 100 38 71 100 38 71 100 38 71 100 38 71 100 38 71 100 38 71 100 38 71 100 38 71 100 38 71 100 38 94 131 50 94 131 50 94 131 50 94 131 50 94 131 50 94 131 50 94 131 50 94 131 50 94 131 50 94 131 50 94 131 50 94 131 50 94 131 50 94 131 50 94 131 50 94 131 50 95 133 50 95 133 50 95 133 50 95 133 50 95 133 50 95 133 50 95 133 50 95 133 50 95 133 50 95 133 50 95 133 50 95 133 50 95 133 50 95 133 50 95 133 50 95 133 50 74 104 39 74 104 39 74 104 39 74 104 39 74 104 39 74 104 39 74 104 39 74 104 39 74 104 39 74 104 39 74 104 39 74 104 39 74 104 39 74 104 39 74 104 39 74 104 39 94 131 50 94 131 50 94 131 50 94 131 50 94 131 50 94 131 50 94 131 50 94 131 50 94 131 50 94 131 50 94 131 50 94 131 50 94 131 50 94 131 50 94 131 50 94 131 50 101 142 54 101 142 54 101 142 54 101 142 54 101 142 54 101 142 54 101 142 54 101 142 54 101 142 54 101 142 54 101 142 54 101 142 54 101 142 54 101 142 54 101 142 54 64 89 34 64 89 34 64 89 34 64 89 34 64 89 34 64 89 34 64 89 34 64 89 34 64 89 34 64 89 34 64 89 34 64 89 34 64 89 34 64 89 34 64 89 34 64 89 34 70 98 37 70 98 37 70 98 37 70 98 37 70 98 37 70 98 37 70 98 37 70 98 37 70 98 37 70 98 37 70 98 37 70 98 37 70 98 37 70 98 37 70 98 37 70 98 37 91 128 48 91 128 48 91 128 48 91 128 48 91 128 48 91 128 48 91 128 48 91 128 48 91 128 48 91 128 48 91 128 48 91 128 48 91 128 48 91 128 48 91 128 48 91 128 48 93 131 50 93 131 50 93 131 50 93 131 50 93 131 50 93 131 50 93 131 50 93 131 50 93 131 50 93 131 50 93 131 50 93 131 50 93 131 50 93 131 50 93 131 50 93 131 50 69 96 37 69 96 37 69 96 37 69 96 37 69 96 37 69 96 37 69 96 37 69 96 37 69 96 37 69 96 37 69 96 37 69 96 37 69 96 37 69 96 37 69 96 37 69 96 37 74 104 39 74 104 39 74 104 39 74 104 39 74 104 39 74 104 39 74 104 39 74 104 39 74 104 39 74 104 39 74 104 39 74 104 39 74 104 39 74 104 39 74 104 39 74 104 39 77 108 41 77 108 41 77 108 41 77 108 41 77 108 41 77 108 41 77 108 41 77 108 41 77 108 41 77 108 41 77 108 41 77 108 41 77 108 41 77 108 41 77 108 41 77 108 41 88 124 47 88 124 47 88 124 47 88 124 47 88 124 47 88 124 47 88 124 47 88 124 47 88 124 47 88 124 47 88 124 47 88 124 47 88 124 47 88 124 47 88 124 47 88 124 47 71 100 38 71 100 38 71 100 38 71 100 38 71 100 38 71 100 38 71 100 38 71 100 38 71 100 38 71 100 38 71 100 38 71 100 38 71 100 38 71 100 38 71 100 38 71 100 38 94 132 50 94 132 50 94 132 50 94 132 50 94 132 50 94 132 50 94 132 50 94 132 50 94 132 50 94 132 50 94 132 50 94 132 50 94 132 50 94 132 50 94 132 50 94 132 50 71 100 38 71 100 38 71 100 38 71 100 38 71 100 38 71 100 38 71 100 38 71 100 38 71 100 38 71 100 38 71 100 38 71 100 38 71 100 38 71 100 38 71 100 38 71 100 38 94 131 50 94 131 50 94 131 50 94 131 50 94 131 50 94 131 50 94 131 50 94 131 50 94 131 50 94 131 50 94 131 50 94 131 50 94 131 50 94 131 50 94 131 50 94 131 50 95 133 50 95 133 50 95 133 50 95 133 50 95 133 50 95 133 50 95 133 50 95 133 50 95 133 50 95 133 50 95 133 50 95 133 50 95 133 50 95 133 50 95 133 50 95 133 50 74 104 39 74 104 39 74 104 39 74 104 39 74 104 39 74 104 39 74 104 39 74 104 39 74 104 39 74 104 39 74 104 39 74 104 39 74 104 39 74 104 39 74 104 39 74 104 39 94 131 50 94 131 50 94 131 50 94 131 50 94 131 50 94 131 50 94 131 50 94 131 50 94 131 50 94 131 50 94 131 50 94 131 50 94 131 50 94 131 50 94 131 50 94 131 50 101 142 54 101 142 54 101 142 54 101 142 54 101 142 54 101 142 54 101 142 54 101 142 54 101 142 54 101 142 54 101 142 54 101 142 54 101 142 54 101 142 54 101 142 54 64 89 34 64 89 34 64 89 34 64 89 34 64 89 34 64 89 34 64 89 34 64 89 34 64 89 34 64 89 34 64 89 34 64 89 34 64 89 34 64 89 34 64 89 34 64 89 34 70 98 37 70 98 37 70 98 37 70 98 37 70 98 37 70 98 37 70 98 37 70 98 37 70 98 37 70 98 37 70 98 37 70 98 37 70 98 37 70 98 37 70 98 37 70 98 37 91 128 48 91 128 48 91 128 48 91 128 48 91 128 48 91 128 48 91 128 48 91 128 48 91 128 48 91 128 48 91 128 48 91 128 48 91 128 48 91 128 48 91 128 48 91 128 48 93 131 50 93 131 50 93 131 50 93 131 50 93 131 50 93 131 50 93 131 50 93 131 50 93 131 50 93 131 50 93 131 50 93 131 50 93 131 50 93 131 50 93 131 50 93 131 50 69 96 37 69 96 37 69 96 37 69 96 37 69 96 37 69 96 37 69 96 37 69 96 37 69 96 37 69 96 37 69 96 37 69 96 37 69 96 37 69 96 37 69 96 37 69 96 37 74 104 39 74 104 39 74 104 39 74 104 39 74 104 39 74 104 39 74 104 39 74 104 39 74 104 39 74 104 39 74 104 39 74 104 39 74 104 39 74 104 39 74 104 39 74 104 39 77 108 41 77 108 41 77 108 41 77 108 41 77 108 41 77 108 41 77 108 41 77 108 41 77 108 41 77 108 41 77 108 41 77 108 41 77 108 41 77 108 41 77 108 41 77 108 41 88 124 47 88 124 47 88 124 47 88 124 47 88 124 47 88 124 47 88 124 47 88 124 47 88 124 47 88 124 47 88 124 47 88 124 47 88 124 47 88 124 47 88 124 47 88 124 47 71 100 38 71 100 38 71 100 38 71 100 38 71 100 38 71 100 38 71 100 38 71 100 38 71 100 38 71 100 38 71 100 38 71 100 38 71 100 38 71 100 38 71 100 38 71 100 38 94 132 50 94 132 50 94 132 50 94 132 50 94 132 50 94 132 50 94 132 50 94 132 50 94 132 50 94 132 50 94 132 50 94 132 50 94 132 50 94 132 50 94 132 50 94 132 50 71 100 38 71 100 38 71 100 38 71 100 38 71 100 38 71 100 38 71 100 38 71 100 38 71 100 38 71 100 38 71 100 38 71 100 38 71 100 38 71 100 38 71 100 38 71 100 38 94 131 50 94 131 50 94 131 50 94 131 50 94 131 50 94 131 50 94 131 50 94 131 50 94 131 50 94 131 50 94 131 50 94 131 50 94 131 50 94 131 50 94 131 50 94 131 50 95 133 50 95 133 50 95 133 50 95 133 50 95 133 50 95 133 50 95 133 50 95 133 50 95 133 50 95 133 50 95 133 50 95 133 50 95 133 50 95 133 50 95 133 50 95 133 50 74 104 39 74 104 39 74 104 39 74 104 39 74 104 39 74 104 39 74 104 39 74 104 39 74 104 39 74 104 39 74 104 39 74 104 39 74 104 39 74 104 39 74 104 39 74 104 39 94 131 50 94 131 50 94 131 50 94 131 50 94 131 50 94 131 50 94 131 50 94 131 50 94 131 50 94 131 50 94 131 50 94 131 50 94 131 50 94 131 50 94 131 50 94 131 50 101 142 54 101 142 54 101 142 54 101 142 54 101 142 54 101 142 54 101 142 54 101 142 54 101 142 54 101 142 54 101 142 54 101 142 54 101 142 54 101 142 54 101 142 54 64 89 34 64 89 34 64 89 34 64 89 34 64 89 34 64 89 34 64 89 34 64 89 34 64 89 34 64 89 34 64 89 34 64 89 34 64 89 34 64 89 34 64 89 34 64 89 34 70 98 37 70 98 37 70 98 37 70 98 37 70 98 37 70 98 37 70 98 37 70 98 37 70 98 37 70 98 37 70 98 37 70 98 37 70 98 37 70 98 37 70 98 37 70 98 37 91 128 48 91 128 48 91 128 48 91 128 48 91 128 48 91 128 48 91 128 48 91 128 48 91 128 48 91 128 48 91 128 48 91 128 48 91 128 48 91 128 48 91 128 48 91 128 48 93 131 50 93 131 50 93 131 50 93 131 50 93 131 50 93 131 50 93 131 50 93 131 50 93 131 50 93 131 50 93 131 50 93 131 50 93 131 50 93 131 50 93 131 50 93 131 50 69 96 37 69 96 37 69 96 37 69 96 37 69 96 37 69 96 37 69 96 37 69 96 37 69 96 37 69 96 37 69 96 37 69 96 37 69 96 37 69 96 37 69 96 37 69 96 37 74 104 39 74 104 39 74 104 39 74 104 39 74 104 39 74 104 39 74 104 39 74 104 39 74 104 39 74 104 39 74 104 39 74 104 39 74 104 39 74 104 39 74 104 39 74 104 39 77 108 41 77 108 41 77 108 41 77 108 41 77 108 41 77 108 41 77 108 41 77 108 41 77 108 41 77 108 41 77 108 41 77 108 41 77 108 41 77 108 41 77 108 41 77 108 41 88 124 47 88 124 47 88 124 47 88 124 47 88 124 47 88 124 47 88 124 47 88 124 47 88 124 47 88 124 47 88 124 47 88 124 47 88 124 47 88 124 47 88 124 47 88 124 47 71 100 38 71 100 38 71 100 38 71 100 38 71 100 38 71 100 38 71 100 38 71 100 38 71 100 38 71 100 38 71 100 38 71 100 38 71 100 38 71 100 38 71 100 38 71 100 38 94 132 50 94 132 50 94 132 50 94 132 50 94 132 50 94 132 50 94 132 50 94 132 50 94 132 50 94 132 50 94 132 50 94 132 50 94 132 50 94 132 50 94 132 50 94 132 50 71 100 38 71 100 38 71 100 38 71 100 38 71 100 38 71 100 38 71 100 38 71 100 38 71 100 38 71 100 38 71 100 38 71 100 38 71 100 38 71 100 38 71 100 38 71 100 38 94 131 50 94 131 50 94 131 50 94 131 50 94 131 50 94 131 50 94 131 50 94 131 50 94 131 50 94 131 50 94 131 50 94 131 50 94 131 50 94 131 50 94 131 50 94 131 50 95 133 50 95 133 50 95 133 50 95 133 50 95 133 50 95 133 50 95 133 50 95 133 50 95 133 50 95 133 50 95 133 50 95 133 50 95 133 50 95 133 50 95 133 50 95 133 50 74 104 39 74 104 39 74 104 39 74 104 39 74 104 39 74 104 39 74 104 39 74 104 39 74 104 39 74 104 39 74 104 39 74 104 39 74 104 39 74 104 39 74 104 39 74 104 39 94 131 50 94 131 50 94 131 50 94 131 50 94 131 50 94 131 50 94 131 50 94 131 50 94 131 50 94 131 50 94 131 50 94 131 50 94 131 50 94 131 50 94 131 50 94 131 50 101 142 54 101 142 54 101 142 54 101 142 54 101 142 54 101 142 54 101 142 54 101 142 54 101 142 54 101 142 54 101 142 54 101 142 54 101 142 54 101 142 54 101 142 54 64 89 34 64 89 34 64 89 34 64 89 34 64 89 34 64 89 34 64 89 34 64 89 34 64 89 34 64 89 34 64 89 34 64 89 34 64 89 34 64 89 34 64 89 34 64 89 34 70 98 37 70 98 37 70 98 37 70 98 37 70 98 37 70 98 37 70 98 37 70 98 37 70 98 37 70 98 37 70 98 37 70 98 37 70 98 37 70 98 37 70 98 37 70 98 37 91 128 48 91 128 48 91 128 48 91 128 48 91 128 48 91 128 48 91 128 48 91 128 48 91 128 48 91 128 48 91 128 48 91 128 48 91 128 48 91 128 48 91 128 48 91 128 48 93 131 50 93 131 50 93 131 50 93 131 50 93 131 50 93 131 50 93 131 50 93 131 50 93 131 50 93 131 50 93 131 50 93 131 50 93 131 50 93 131 50 93 131 50 93 131 50 69 96 37 69 96 37 69 96 37 69 96 37 69 96 37 69 96 37 69 96 37 69 96 37 69 96 37 69 96 37 69 96 37 69 96 37 69 96 37 69 96 37 69 96 37 69 96 37 74 104 39 74 104 39 74 104 39 74 104 39 74 104 39 74 104 39 74 104 39 74 104 39 74 104 39 74 104 39 74 104 39 74 104 39 74 104 39 74 104 39 74 104 39 74 104 39 77 108 41 77 108 41 77 108 41 77 108 41 77 108 41 77 108 41 77 108 41 77 108 41 77 108 41 77 108 41 77 108 41 77 108 41 77 108 41 77 108 41 77 108 41 77 108 41 88 124 47 88 124 47 88 124 47 88 124 47 88 124 47 88 124 47 88 124 47 88 124 47 88 124 47 88 124 47 88 124 47 88 124 47 88 124 47 88 124 47 88 124 47 88 124 47 71 100 38 71 100 38 71 100 38 71 100 38 71 100 38 71 100 38 71 100 38 71 100 38 71 100 38 71 100 38 71 100 38 71 100 38 71 100 38 71 100 38 71 100 38 71 100 38 94 132 50 94 132 50 94 132 50 94 132 50 94 132 50 94 132 50 94 132 50 94 132 50 94 132 50 94 132 50 94 132 50 94 132 50 94 132 50 94 132 50 94 132 50 94 132 50 71 100 38 71 100 38 71 100 38 71 100 38 71 100 38 71 100 38 71 100 38 71 100 38 71 100 38 71 100 38 71 100 38 71 100 38 71 100 38 71 100 38 71 100 38 71 100 38 94 131 50 94 131 50 94 131 50 94 131 50 94 131 50 94 131 50 94 131 50 94 131 50 94 131 50 94 131 50 94 131 50 94 131 50 94 131 50 94 131 50 94 131 50 94 131 50 95 133 50 95 133 50 95 133 50 95 133 50 95 133 50 95 133 50 95 133 50 95 133 50 95 133 50 95 133 50 95 133 50 95 133 50 95 133 50 95 133 50 95 133 50 95 133 50 74 104 39 74 104 39 74 104 39 74 104 39 74 104 39 74 104 39 74 104 39 74 104 39 74 104 39 74 104 39 74 104 39 74 104 39 74 104 39 74 104 39 74 104 39 74 104 39 94 131 50 94 131 50 94 131 50 94 131 50 94 131 50 94 131 50 94 131 50 94 131 50 94 131 50 94 131 50 94 131 50 94 131 50 94 131 50 94 131 50 94 131 50 94 131 50 101 142 54 101 142 54 101 142 54 101 142 54 101 142 54 101 142 54 101 142 54 101 142 54 101 142 54 101 142 54 101 142 54 101 142 54 101 142 54 101 142 54 101 142 54 64 89 34 64 89 34 64 89 34 64 89 34 64 89 34 64 89 34 64 89 34 64 89 34 64 89 34 64 89 34 64 89 34 64 89 34 64 89 34 64 89 34 64 89 34 64 89 34 70 98 37 70 98 37 70 98 37 70 98 37 70 98 37 70 98 37 70 98 37 70 98 37 70 98 37 70 98 37 70 98 37 70 98 37 70 98 37 70 98 37 70 98 37 70 98 37 91 128 48 91 128 48 91 128 48 91 128 48 91 128 48 91 128 48 91 128 48 91 128 48 91 128 48 91 128 48 91 128 48 91 128 48 91 128 48 91 128 48 91 128 48 91 128 48 93 131 50 93 131 50 93 131 50 93 131 50 93 131 50 93 131 50 93 131 50 93 131 50 93 131 50 93 131 50 93 131 50 93 131 50 93 131 50 93 131 50 93 131 50 93 131 50 69 96 37 69 96 37 69 96 37 69 96 37 69 96 37 69 96 37 69 96 37 69 96 37 69 96 37 69 96 37 69 96 37 69 96 37 69 96 37 69 96 37 69 96 37 69 96 37 74 104 39 74 104 39 74 104 39 74 104 39 74 104 39 74 104 39 74 104 39 74 104 39 74 104 39 74 104 39 74 104 39 74 104 39 74 104 39 74 104 39 74 104 39 74 104 39 77 108 41 77 108 41 77 108 41 77 108 41 77 108 41 77 108 41 77 108 41 77 108 41 77 108 41 77 108 41 77 108 41 77 108 41 77 108 41 77 108 41 77 108 41 77 108 41 88 124 47 88 124 47 88 124 47 88 124 47 88 124 47 88 124 47 88 124 47 88 124 47 88 124 47 88 124 47 88 124 47 88 124 47 88 124 47 88 124 47 88 124 47 88 124 47 71 100 38 71 100 38 71 100 38 71 100 38 71 100 38 71 100 38 71 100 38 71 100 38 71 100 38 71 100 38 71 100 38 71 100 38 71 100 38 71 100 38 71 100 38 71 100 38 94 132 50 94 132 50 94 132 50 94 132 50 94 132 50 94 132 50 94 132 50 94 132 50 94 132 50 94 132 50 94 132 50 94 132 50 94 132 50 94 132 50 94 132 50 94 132 50 71 100 38 71 100 38 71 100 38 71 100 38 71 100 38 71 100 38 71 100 38 71 100 38 71 100 38 71 100 38 71 100 38 71 100 38 71 100 38 71 100 38 71 100 38 71 100 38 94 131 50 94 131 50 94 131 50 94 131 50 94 131 50 94 131 50 94 131 50 94 131 50 94 131 50 94 131 50 94 131 50 94 131 50 94 131 50 94 131 50 94 131 50 94 131 50 95 133 50 95 133 50 95 133 50 95 133 50 95 133 50 95 133 50 95 133 50 95 133 50 95 133 50 95 133 50 95 133 50 95 133 50 95 133 50 95 133 50 95 133 50 95 133 50 74 104 39 74 104 39 74 104 39 74 104 39 74 104 39 74 104 39 74 104 39 74 104 39 74 104 39 74 104 39 74 104 39 74 104 39 74 104 39 74 104 39 74 104 39 74 104 39 94 131 50 94 131 50 94 131 50 94 131 50 94 131 50 94 131 50 94 131 50 94 131 50 94 131 50 94 131 50 94 131 50 94 131 50 94 131 50 94 131 50 94 131 50 94 131 50 101 142 54 101 142 54 101 142 54 101 142 54 101 142 54 101 142 54 101 142 54 101 142 54 101 142 54 101 142 54 101 142 54 101 142 54 101 142 54 101 142 54 101 142 54 64 89 34 64 89 34 64 89 34 64 89 34 64 89 34 64 89 34 64 89 34 64 89 34 64 89 34 64 89 34 64 89 34 64 89 34 64 89 34 64 89 34 64 89 34 64 89 34 70 98 37 70 98 37 70 98 37 70 98 37 70 98 37 70 98 37 70 98 37 70 98 37 70 98 37 70 98 37 70 98 37 70 98 37 70 98 37 70 98 37 70 98 37 70 98 37 91 128 48 91 128 48 91 128 48 91 128 48 91 128 48 91 128 48 91 128 48 91 128 48 91 128 48 91 128 48 91 128 48 91 128 48 91 128 48 91 128 48 91 128 48 91 128 48 93 131 50 93 131 50 93 131 50 93 131 50 93 131 50 93 131 50 93 131 50 93 131 50 93 131 50 93 131 50 93 131 50 93 131 50 93 131 50 93 131 50 93 131 50 93 131 50 69 96 37 69 96 37 69 96 37 69 96 37 69 96 37 69 96 37 69 96 37 69 96 37 69 96 37 69 96 37 69 96 37 69 96 37 69 96 37 69 96 37 69 96 37 69 96 37 74 104 39 74 104 39 74 104 39 74 104 39 74 104 39 74 104 39 74 104 39 74 104 39 74 104 39 74 104 39 74 104 39 74 104 39 74 104 39 74 104 39 74 104 39 74 104 39 77 108 41 77 108 41 77 108 41 77 108 41 77 108 41 77 108 41 77 108 41 77 108 41 77 108 41 77 108 41 77 108 41 77 108 41 77 108 41 77 108 41 77 108 41 77 108 41 83 117 44 83 117 44 83 117 44 83 117 44 83 117 44 83 117 44 83 117 44 83 117 44 83 117 44 83 117 44 83 117 44 83 117 44 83 117 44 83 117 44 83 117 44 83 117 44 83 116 44 83 116 44 83 116 44 83 116 44 83 116 44 83 116 44 83 116 44 83 116 44 83 116 44 83 116 44 83 116 44 83 116 44 83 116 44 83 116 44 83 116 44 83 116 44 65 92 35 65 92 35 65 92 35 65 92 35 65 92 35 65 92 35 65 92 35 65 92 35 65 92 35 65 92 35 65 92 35 65 92 35 65 92 35 65 92 35 65 92 35 65 92 35 90 127 48 90 127 48 90 127 48 90 127 48 90 127 48 90 127 48 90 127 48 90 127 48 90 127 48 90 127 48 90 127 48 90 127 48 90 127 48 90 127 48 90 127 48 90 127 48 70 99 37 70 99 37 70 99 37 70 99 37 70 99 37 70 99 37 70 99 37 70 99 37 70 99 37 70 99 37 70 99 37 70 99 37 70 99 37 70 99 37 70 99 37 70 99 37 82 115 44 82 115 44 82 115 44 82 115 44 82 115 44 82 115 44 82 115 44 82 115 44 82 115 44 82 115 44 82 115 44 82 115 44 82 115 44 82 115 44 82 115 44 82 115 44 81 114 43 81 114 43 81 114 43 81 114 43 81 114 43 81 114 43 81 114 43 81 114 43 81 114 43 81 114 43 81 114 43 81 114 43 81 114 43 81 114 43 81 114 43 81 114 43 84 118 45 84 118 45 84 118 45 84 118 45 84 118 45 84 118 45 84 118 45 84 118 45 84 118 45 84 118 45 84 118 45 84 118 45 84 118 45 84 118 45 84 118 45 84 118 45 74 103 39 74 103 39 74 103 39 74 103 39 74 103 39 74 103 39 74 103 39 74 103 39 74 103 39 74 103 39 74 103 39 74 103 39 74 103 39 74 103 39 74 103 39 81 114 43 81 114 43 81 114 43 81 114 43 81 114 43 81 114 43 81 114 43 81 114 43 81 114 43 81 114 43 81 114 43 81 114 43 81 114 43 81 114 43 81 114 43 81 114 43 74 104 39 74 104 39 74 104 39 74 104 39 74 104 39 74 104 39 74 104 39 74 104 39 74 104 39 74 104 39 74 104 39 74 104 39 74 104 39 74 104 39 74 104 39 74 104 39 71 100 38 71 100 38 71 100 38 71 100 38 71 100 38 71 100 38 71 100 38 71 100 38 71 100 38 71 100 38 71 100 38 71 100 38 71 100 38 71 100 38 71 100 38 71 100 38 65 92 35 65 92 35 65 92 35 65 92 35 65 92 35 65 92 35 65 92 35 65 92 35 65 92 35 65 92 35 65 92 35 65 92 35 65 92 35 65 92 35 65 92 35 65 92 35 74 104 39 74 104 39 74 104 39 74 104 39 74 104 39 74 104 39 74 104 39 74 104 39 74 104 39 74 104 39 74 104 39 74 104 39 74 104 39 74 104 39 74 104 39 74 104 39 77 109 41 77 109 41 77 109 41 77 109 41 77 109 41 77 109 41 77 109 41 77 109 41 77 109 41 77 109 41 77 109 41 77 109 41 77 109 41 77 109 41 77 109 41 77 109 41 81 113 43 81 113 43 81 113 43 81 113 43 81 113 43 81 113 43 81 113 43 81 113 43 81 113 43 81 113 43 81 113 43 81 113 43 81 113 43 81 113 43 81 113 43 81 113 43 83 117 44 83 117 44 83 117 44 83 117 44 83 117 44 83 117 44 83 117 44 83 117 44 83 117 44 83 117 44 83 117 44 83 117 44 83 117 44 83 117 44 83 117 44 83 117 44 83 116 44 83 116 44 83 116 44 83 116 44 83 116 44 83 116 44 83 116 44 83 116 44 83 116 44 83 116 44 83 116 44 83 116 44 83 116 44 83 116 44 83 116 44 83 116 44 65 92 35 65 92 35 65 92 35 65 92 35 65 92 35 65 92 35 65 92 35 65 92 35 65 92 35 65 92 35 65 92 35 65 92 35 65 92 35 65 92 35 65 92 35 65 92 35 90 127 48 90 127 48 90 127 48 90 127 48 90 127 48 90 127 48 90 127 48 90 127 48 90 127 48 90 127 48 90 127 48 90 127 48 90 127 48 90 127 48 90 127 48 90 127 48 70 99 37 70 99 37 70 99 37 70 99 37 70 99 37 70 99 37 70 99 37 70 99 37 70 99 37 70 99 37 70 99 37 70 99 37 70 99 37 70 99 37 70 99 37 70 99 37 82 115 44 82 115 44 82 115 44 82 115 44 82 115 44 82 115 44 82 115 44 82 115 44 82 115 44 82 115 44 82 115 44 82 115 44 82 115 44 82 115 44 82 115 44 82 115 44 81 114 43 81 114 43 81 114 43 81 114 43 81 114 43 81 114 43 81 114 43 81 114 43 81 114 43 81 114 43 81 114 43 81 114 43 81 114 43 81 114 43 81 114 43 81 114 43 84 118 45 84 118 45 84 118 45 84 118 45 84 118 45 84 118 45 84 118 45 84 118 45 84 118 45 84 118 45 84 118 45 84 118 45 84 118 45 84 118 45 84 118 45 84 118 45 74 103 39 74 103 39 74 103 39 74 103 39 74 103 39 74 103 39 74 103 39 74 103 39 74 103 39 74 103 39 74 103 39 74 103 39 74 103 39 74 103 39 74 103 39 81 114 43 81 114 43 81 114 43 81 114 43 81 114 43 81 114 43 81 114 43 81 114 43 81 114 43 81 114 43 81 114 43 81 114 43 81 114 43 81 114 43 81 114 43 81 114 43 74 104 39 74 104 39 74 104 39 74 104 39 74 104 39 74 104 39 74 104 39 74 104 39 74 104 39 74 104 39 74 104 39 74 104 39 74 104 39 74 104 39 74 104 39 74 104 39 71 100 38 71 100 38 71 100 38 71 100 38 71 100 38 71 100 38 71 100 38 71 100 38 71 100 38 71 100 38 71 100 38 71 100 38 71 100 38 71 100 38 71 100 38 71 100 38 65 92 35 65 92 35 65 92 35 65 92 35 65 92 35 65 92 35 65 92 35 65 92 35 65 92 35 65 92 35 65 92 35 65 92 35 65 92 35 65 92 35 65 92 35 65 92 35 74 104 39 74 104 39 74 104 39 74 104 39 74 104 39 74 104 39 74 104 39 74 104 39 74 104 39 74 104 39 74 104 39 74 104 39 74 104 39 74 104 39 74 104 39 74 104 39 77 109 41 77 109 41 77 109 41 77 109 41 77 109 41 77 109 41 77 109 41 77 109 41 77 109 41 77 109 41 77 109 41 77 109 41 77 109 41 77 109 41 77 109 41 77 109 41 81 113 43 81 113 43 81 113 43 81 113 43 81 113 43 81 113 43 81 113 43 81 113 43 81 113 43 81 113 43 81 113 43 81 113 43 81 113 43 81 113 43 81 113 43 81 113 43 83 117 44 83 117 44 83 117 44 83 117 44 83 117 44 83 117 44 83 117 44 83 117 44 83 117 44 83 117 44 83 117 44 83 117 44 83 117 44 83 117 44 83 117 44 83 117 44 83 116 44 83 116 44 83 116 44 83 116 44 83 116 44 83 116 44 83 116 44 83 116 44 83 116 44 83 116 44 83 116 44 83 116 44 83 116 44 83 116 44 83 116 44 83 116 44 65 92 35 65 92 35 65 92 35 65 92 35 65 92 35 65 92 35 65 92 35 65 92 35 65 92 35 65 92 35 65 92 35 65 92 35 65 92 35 65 92 35 65 92 35 65 92 35 90 127 48 90 127 48 90 127 48 90 127 48 90 127 48 90 127 48 90 127 48 90 127 48 90 127 48 90 127 48 90 127 48 90 127 48 90 127 48 90 127 48 90 127 48 90 127 48 70 99 37 70 99 37 70 99 37 70 99 37 70 99 37 70 99 37 70 99 37 70 99 37 70 99 37 70 99 37 70 99 37 70 99 37 70 99 37 70 99 37 70 99 37 70 99 37 82 115 44 82 115 44 82 115 44 82 115 44 82 115 44 82 115 44 82 115 44 82 115 44 82 115 44 82 115 44 82 115 44 82 115 44 82 115 44 82 115 44 82 115 44 82 115 44 81 114 43 81 114 43 81 114 43 81 114 43 81 114 43 81 114 43 81 114 43 81 114 43 81 114 43 81 114 43 81 114 43 81 114 43 81 114 43 81 114 43 81 114 43 81 114 43 84 118 45 84 118 45 84 118 45 84 118 45 84 118 45 84 118 45 84 118 45 84 118 45 84 118 45 84 118 45 84 118 45 84 118 45 84 118 45 84 118 45 84 118 45 84 118 45 74 103 39 74 103 39 74 103 39 74 103 39 74 103 39 74 103 39 74 103 39 74 103 39 74 103 39 74 103 39 74 103 39 74 103 39 74 103 39 74 103 39 74 103 39 81 114 43 81 114 43 81 114 43 81 114 43 81 114 43 81 114 43 81 114 43 81 114 43 81 114 43 81 114 43 81 114 43 81 114 43 81 114 43 81 114 43 81 114 43 81 114 43 74 104 39 74 104 39 74 104 39 74 104 39 74 104 39 74 104 39 74 104 39 74 104 39 74 104 39 74 104 39 74 104 39 74 104 39 74 104 39 74 104 39 74 104 39 74 104 39 71 100 38 71 100 38 71 100 38 71 100 38 71 100 38 71 100 38 71 100 38 71 100 38 71 100 38 71 100 38 71 100 38 71 100 38 71 100 38 71 100 38 71 100 38 71 100 38 65 92 35 65 92 35 65 92 35 65 92 35 65 92 35 65 92 35 65 92 35 65 92 35 65 92 35 65 92 35 65 92 35 65 92 35 65 92 35 65 92 35 65 92 35 65 92 35 74 104 39 74 104 39 74 104 39 74 104 39 74 104 39 74 104 39 74 104 39 74 104 39 74 104 39 74 104 39 74 104 39 74 104 39 74 104 39 74 104 39 74 104 39 74 104 39 77 109 41 77 109 41 77 109 41 77 109 41 77 109 41 77 109 41 77 109 41 77 109 41 77 109 41 77 109 41 77 109 41 77 109 41 77 109 41 77 109 41 77 109 41 77 109 41 81 113 43 81 113 43 81 113 43 81 113 43 81 113 43 81 113 43 81 113 43 81 113 43 81 113 43 81 113 43 81 113 43 81 113 43 81 113 43 81 113 43 81 113 43 81 113 43 83 117 44 83 117 44 83 117 44 83 117 44 83 117 44 83 117 44 83 117 44 83 117 44 83 117 44 83 117 44 83 117 44 83 117 44 83 117 44 83 117 44 83 117 44 83 117 44 83 116 44 83 116 44 83 116 44 83 116 44 83 116 44 83 116 44 83 116 44 83 116 44 83 116 44 83 116 44 83 116 44 83 116 44 83 116 44 83 116 44 83 116 44 83 116 44 65 92 35 65 92 35 65 92 35 65 92 35 65 92 35 65 92 35 65 92 35 65 92 35 65 92 35 65 92 35 65 92 35 65 92 35 65 92 35 65 92 35 65 92 35 65 92 35 90 127 48 90 127 48 90 127 48 90 127 48 90 127 48 90 127 48 90 127 48 90 127 48 90 127 48 90 127 48 90 127 48 90 127 48 90 127 48 90 127 48 90 127 48 90 127 48 70 99 37 70 99 37 70 99 37 70 99 37 70 99 37 70 99 37 70 99 37 70 99 37 70 99 37 70 99 37 70 99 37 70 99 37 70 99 37 70 99 37 70 99 37 70 99 37 82 115 44 82 115 44 82 115 44 82 115 44 82 115 44 82 115 44 82 115 44 82 115 44 82 115 44 82 115 44 82 115 44 82 115 44 82 115 44 82 115 44 82 115 44 82 115 44 81 114 43 81 114 43 81 114 43 81 114 43 81 114 43 81 114 43 81 114 43 81 114 43 81 114 43 81 114 43 81 114 43 81 114 43 81 114 43 81 114 43 81 114 43 81 114 43 84 118 45 84 118 45 84 118 45 84 118 45 84 118 45 84 118 45 84 118 45 84 118 45 84 118 45 84 118 45 84 118 45 84 118 45 84 118 45 84 118 45 84 118 45 84 118 45 74 103 39 74 103 39 74 103 39 74 103 39 74 103 39 74 103 39 74 103 39 74 103 39 74 103 39 74 103 39 74 103 39 74 103 39 74 103 39 74 103 39 74 103 39 81 114 43 81 114 43 81 114 43 81 114 43 81 114 43 81 114 43 81 114 43 81 114 43 81 114 43 81 114 43 81 114 43 81 114 43 81 114 43 81 114 43 81 114 43 81 114 43 74 104 39 74 104 39 74 104 39 74 104 39 74 104 39 74 104 39 74 104 39 74 104 39 74 104 39 74 104 39 74 104 39 74 104 39 74 104 39 74 104 39 74 104 39 74 104 39 71 100 38 71 100 38 71 100 38 71 100 38 71 100 38 71 100 38 71 100 38 71 100 38 71 100 38 71 100 38 71 100 38 71 100 38 71 100 38 71 100 38 71 100 38 71 100 38 65 92 35 65 92 35 65 92 35 65 92 35 65 92 35 65 92 35 65 92 35 65 92 35 65 92 35 65 92 35 65 92 35 65 92 35 65 92 35 65 92 35 65 92 35 65 92 35 74 104 39 74 104 39 74 104 39 74 104 39 74 104 39 74 104 39 74 104 39 74 104 39 74 104 39 74 104 39 74 104 39 74 104 39 74 104 39 74 104 39 74 104 39 74 104 39 77 109 41 77 109 41 77 109 41 77 109 41 77 109 41 77 109 41 77 109 41 77 109 41 77 109 41 77 109 41 77 109 41 77 109 41 77 109 41 77 109 41 77 109 41 77 109 41 81 113 43 81 113 43 81 113 43 81 113 43 81 113 43 81 113 43 81 113 43 81 113 43 81 113 43 81 113 43 81 113 43 81 113 43 81 113 43 81 113 43 81 113 43 81 113 43 83 117 44 83 117 44 83 117 44 83 117 44 83 117 44 83 117 44 83 117 44 83 117 44 83 117 44 83 117 44 83 117 44 83 117 44 83 117 44 83 117 44 83 117 44 83 117 44 83 116 44 83 116 44 83 116 44 83 116 44 83 116 44 83 116 44 83 116 44 83 116 44 83 116 44 83 116 44 83 116 44 83 116 44 83 116 44 83 116 44 83 116 44 83 116 44 65 92 35 65 92 35 65 92 35 65 92 35 65 92 35 65 92 35 65 92 35 65 92 35 65 92 35 65 92 35 65 92 35 65 92 35 65 92 35 65 92 35 65 92 35 65 92 35 90 127 48 90 127 48 90 127 48 90 127 48 90 127 48 90 127 48 90 127 48 90 127 48 90 127 48 90 127 48 90 127 48 90 127 48 90 127 48 90 127 48 90 127 48 90 127 48 70 99 37 70 99 37 70 99 37 70 99 37 70 99 37 70 99 37 70 99 37 70 99 37 70 99 37 70 99 37 70 99 37 70 99 37 70 99 37 70 99 37 70 99 37 70 99 37 82 115 44 82 115 44 82 115 44 82 115 44 82 115 44 82 115 44 82 115 44 82 115 44 82 115 44 82 115 44 82 115 44 82 115 44 82 115 44 82 115 44 82 115 44 82 115 44 81 114 43 81 114 43 81 114 43 81 114 43 81 114 43 81 114 43 81 114 43 81 114 43 81 114 43 81 114 43 81 114 43 81 114 43 81 114 43 81 114 43 81 114 43 81 114 43 84 118 45 84 118 45 84 118 45 84 118 45 84 118 45 84 118 45 84 118 45 84 118 45 84 118 45 84 118 45 84 118 45 84 118 45 84 118 45 84 118 45 84 118 45 84 118 45 74 103 39 74 103 39 74 103 39 74 103 39 74 103 39 74 103 39 74 103 39 74 103 39 74 103 39 74 103 39 74 103 39 74 103 39 74 103 39 74 103 39 74 103 39 81 114 43 81 114 43 81 114 43 81 114 43 81 114 43 81 114 43 81 114 43 81 114 43 81 114 43 81 114 43 81 114 43 81 114 43 81 114 43 81 114 43 81 114 43 81 114 43 74 104 39 74 104 39 74 104 39 74 104 39 74 104 39 74 104 39 74 104 39 74 104 39 74 104 39 74 104 39 74 104 39 74 104 39 74 104 39 74 104 39 74 104 39 74 104 39 71 100 38 71 100 38 71 100 38 71 100 38 71 100 38 71 100 38 71 100 38 71 100 38 71 100 38 71 100 38 71 100 38 71 100 38 71 100 38 71 100 38 71 100 38 71 100 38 65 92 35 65 92 35 65 92 35 65 92 35 65 92 35 65 92 35 65 92 35 65 92 35 65 92 35 65 92 35 65 92 35 65 92 35 65 92 35 65 92 35 65 92 35 65 92 35 74 104 39 74 104 39 74 104 39 74 104 39 74 104 39 74 104 39 74 104 39 74 104 39 74 104 39 74 104 39 74 104 39 74 104 39 74 104 39 74 104 39 74 104 39 74 104 39 77 109 41 77 109 41 77 109 41 77 109 41 77 109 41 77 109 41 77 109 41 77 109 41 77 109 41 77 109 41 77 109 41 77 109 41 77 109 41 77 109 41 77 109 41 77 109 41 81 113 43 81 113 43 81 113 43 81 113 43 81 113 43 81 113 43 81 113 43 81 113 43 81 113 43 81 113 43 81 113 43 81 113 43 81 113 43 81 113 43 81 113 43 81 113 43 83 117 44 83 117 44 83 117 44 83 117 44 83 117 44 83 117 44 83 117 44 83 117 44 83 117 44 83 117 44 83 117 44 83 117 44 83 117 44 83 117 44 83 117 44 83 117 44 83 116 44 83 116 44 83 116 44 83 116 44 83 116 44 83 116 44 83 116 44 83 116 44 83 116 44 83 116 44 83 116 44 83 116 44 83 116 44 83 116 44 83 116 44 83 116 44 65 92 35 65 92 35 65 92 35 65 92 35 65 92 35 65 92 35 65 92 35 65 92 35 65 92 35 65 92 35 65 92 35 65 92 35 65 92 35 65 92 35 65 92 35 65 92 35 90 127 48 90 127 48 90 127 48 90 127 48 90 127 48 90 127 48 90 127 48 90 127 48 90 127 48 90 127 48 90 127 48 90 127 48 90 127 48 90 127 48 90 127 48 90 127 48 70 99 37 70 99 37 70 99 37 70 99 37 70 99 37 70 99 37 70 99 37 70 99 37 70 99 37 70 99 37 70 99 37 70 99 37 70 99 37 70 99 37 70 99 37 70 99 37 82 115 44 82 115 44 82 115 44 82 115 44 82 115 44 82 115 44 82 115 44 82 115 44 82 115 44 82 115 44 82 115 44 82 115 44 82 115 44 82 115 44 82 115 44 82 115 44 81 114 43 81 114 43 81 114 43 81 114 43 81 114 43 81 114 43 81 114 43 81 114 43 81 114 43 81 114 43 81 114 43 81 114 43 81 114 43 81 114 43 81 114 43 81 114 43 84 118 45 84 118 45 84 118 45 84 118 45 84 118 45 84 118 45 84 118 45 84 118 45 84 118 45 84 118 45 84 118 45 84 118 45 84 118 45 84 118 45 84 118 45 84 118 45 74 103 39 74 103 39 74 103 39 74 103 39 74 103 39 74 103 39 74 103 39 74 103 39 74 103 39 74 103 39 74 103 39 74 103 39 74 103 39 74 103 39 74 103 39 81 114 43 81 114 43 81 114 43 81 114 43 81 114 43 81 114 43 81 114 43 81 114 43 81 114 43 81 114 43 81 114 43 81 114 43 81 114 43 81 114 43 81 114 43 81 114 43 74 104 39 74 104 39 74 104 39 74 104 39 74 104 39 74 104 39 74 104 39 74 104 39 74 104 39 74 104 39 74 104 39 74 104 39 74 104 39 74 104 39 74 104 39 74 104 39 71 100 38 71 100 38 71 100 38 71 100 38 71 100 38 71 100 38 71 100 38 71 100 38 71 100 38 71 100 38 71 100 38 71 100 38 71 100 38 71 100 38 71 100 38 71 100 38 65 92 35 65 92 35 65 92 35 65 92 35 65 92 35 65 92 35 65 92 35 65 92 35 65 92 35 65 92 35 65 92 35 65 92 35 65 92 35 65 92 35 65 92 35 65 92 35 74 104 39 74 104 39 74 104 39 74 104 39 74 104 39 74 104 39 74 104 39 74 104 39 74 104 39 74 104 39 74 104 39 74 104 39 74 104 39 74 104 39 74 104 39 74 104 39 77 109 41 77 109 41 77 109 41 77 109 41 77 109 41 77 109 41 77 109 41 77 109 41 77 109 41 77 109 41 77 109 41 77 109 41 77 109 41 77 109 41 77 109 41 77 109 41 81 113 43 81 113 43 81 113 43 81 113 43 81 113 43 81 113 43 81 113 43 81 113 43 81 113 43 81 113 43 81 113 43 81 113 43 81 113 43 81 113 43 81 113 43 81 113 43 83 117 44 83 117 44 83 117 44 83 117 44 83 117 44 83 117 44 83 117 44 83 117 44 83 117 44 83 117 44 83 117 44 83 117 44 83 117 44 83 117 44 83 117 44 83 117 44 83 116 44 83 116 44 83 116 44 83 116 44 83 116 44 83 116 44 83 116 44 83 116 44 83 116 44 83 116 44 83 116 44 83 116 44 83 116 44 83 116 44 83 116 44 83 116 44 65 92 35 65 92 35 65 92 35 65 92 35 65 92 35 65 92 35 65 92 35 65 92 35 65 92 35 65 92 35 65 92 35 65 92 35 65 92 35 65 92 35 65 92 35 65 92 35 90 127 48 90 127 48 90 127 48 90 127 48 90 127 48 90 127 48 90 127 48 90 127 48 90 127 48 90 127 48 90 127 48 90 127 48 90 127 48 90 127 48 90 127 48 90 127 48 70 99 37 70 99 37 70 99 37 70 99 37 70 99 37 70 99 37 70 99 37 70 99 37 70 99 37 70 99 37 70 99 37 70 99 37 70 99 37 70 99 37 70 99 37 70 99 37 82 115 44 82 115 44 82 115 44 82 115 44 82 115 44 82 115 44 82 115 44 82 115 44 82 115 44 82 115 44 82 115 44 82 115 44 82 115 44 82 115 44 82 115 44 82 115 44 81 114 43 81 114 43 81 114 43 81 114 43 81 114 43 81 114 43 81 114 43 81 114 43 81 114 43 81 114 43 81 114 43 81 114 43 81 114 43 81 114 43 81 114 43 81 114 43 84 118 45 84 118 45 84 118 45 84 118 45 84 118 45 84 118 45 84 118 45 84 118 45 84 118 45 84 118 45 84 118 45 84 118 45 84 118 45 84 118 45 84 118 45 84 118 45 74 103 39 74 103 39 74 103 39 74 103 39 74 103 39 74 103 39 74 103 39 74 103 39 74 103 39 74 103 39 74 103 39 74 103 39 74 103 39 74 103 39 74 103 39 81 114 43 81 114 43 81 114 43 81 114 43 81 114 43 81 114 43 81 114 43 81 114 43 81 114 43 81 114 43 81 114 43 81 114 43 81 114 43 81 114 43 81 114 43 81 114 43 74 104 39 74 104 39 74 104 39 74 104 39 74 104 39 74 104 39 74 104 39 74 104 39 74 104 39 74 104 39 74 104 39 74 104 39 74 104 39 74 104 39 74 104 39 74 104 39 71 100 38 71 100 38 71 100 38 71 100 38 71 100 38 71 100 38 71 100 38 71 100 38 71 100 38 71 100 38 71 100 38 71 100 38 71 100 38 71 100 38 71 100 38 71 100 38 65 92 35 65 92 35 65 92 35 65 92 35 65 92 35 65 92 35 65 92 35 65 92 35 65 92 35 65 92 35 65 92 35 65 92 35 65 92 35 65 92 35 65 92 35 65 92 35 74 104 39 74 104 39 74 104 39 74 104 39 74 104 39 74 104 39 74 104 39 74 104 39 74 104 39 74 104 39 74 104 39 74 104 39 74 104 39 74 104 39 74 104 39 74 104 39 77 109 41 77 109 41 77 109 41 77 109 41 77 109 41 77 109 41 77 109 41 77 109 41 77 109 41 77 109 41 77 109 41 77 109 41 77 109 41 77 109 41 77 109 41 77 109 41 81 113 43 81 113 43 81 113 43 81 113 43 81 113 43 81 113 43 81 113 43 81 113 43 81 113 43 81 113 43 81 113 43 81 113 43 81 113 43 81 113 43 81 113 43 81 113 43 83 117 44 83 117 44 83 117 44 83 117 44 83 117 44 83 117 44 83 117 44 83 117 44 83 117 44 83 117 44 83 117 44 83 117 44 83 117 44 83 117 44 83 117 44 83 117 44 83 116 44 83 116 44 83 116 44 83 116 44 83 116 44 83 116 44 83 116 44 83 116 44 83 116 44 83 116 44 83 116 44 83 116 44 83 116 44 83 116 44 83 116 44 83 116 44 65 92 35 65 92 35 65 92 35 65 92 35 65 92 35 65 92 35 65 92 35 65 92 35 65 92 35 65 92 35 65 92 35 65 92 35 65 92 35 65 92 35 65 92 35 65 92 35 90 127 48 90 127 48 90 127 48 90 127 48 90 127 48 90 127 48 90 127 48 90 127 48 90 127 48 90 127 48 90 127 48 90 127 48 90 127 48 90 127 48 90 127 48 90 127 48 70 99 37 70 99 37 70 99 37 70 99 37 70 99 37 70 99 37 70 99 37 70 99 37 70 99 37 70 99 37 70 99 37 70 99 37 70 99 37 70 99 37 70 99 37 70 99 37 82 115 44 82 115 44 82 115 44 82 115 44 82 115 44 82 115 44 82 115 44 82 115 44 82 115 44 82 115 44 82 115 44 82 115 44 82 115 44 82 115 44 82 115 44 82 115 44 81 114 43 81 114 43 81 114 43 81 114 43 81 114 43 81 114 43 81 114 43 81 114 43 81 114 43 81 114 43 81 114 43 81 114 43 81 114 43 81 114 43 81 114 43 81 114 43 84 118 45 84 118 45 84 118 45 84 118 45 84 118 45 84 118 45 84 118 45 84 118 45 84 118 45 84 118 45 84 118 45 84 118 45 84 118 45 84 118 45 84 118 45 84 118 45 74 103 39 74 103 39 74 103 39 74 103 39 74 103 39 74 103 39 74 103 39 74 103 39 74 103 39 74 103 39 74 103 39 74 103 39 74 103 39 74 103 39 74 103 39 81 114 43 81 114 43 81 114 43 81 114 43 81 114 43 81 114 43 81 114 43 81 114 43 81 114 43 81 114 43 81 114 43 81 114 43 81 114 43 81 114 43 81 114 43 81 114 43 74 104 39 74 104 39 74 104 39 74 104 39 74 104 39 74 104 39 74 104 39 74 104 39 74 104 39 74 104 39 74 104 39 74 104 39 74 104 39 74 104 39 74 104 39 74 104 39 71 100 38 71 100 38 71 100 38 71 100 38 71 100 38 71 100 38 71 100 38 71 100 38 71 100 38 71 100 38 71 100 38 71 100 38 71 100 38 71 100 38 71 100 38 71 100 38 65 92 35 65 92 35 65 92 35 65 92 35 65 92 35 65 92 35 65 92 35 65 92 35 65 92 35 65 92 35 65 92 35 65 92 35 65 92 35 65 92 35 65 92 35 65 92 35 74 104 39 74 104 39 74 104 39 74 104 39 74 104 39 74 104 39 74 104 39 74 104 39 74 104 39 74 104 39 74 104 39 74 104 39 74 104 39 74 104 39 74 104 39 74 104 39 77 109 41 77 109 41 77 109 41 77 109 41 77 109 41 77 109 41 77 109 41 77 109 41 77 109 41 77 109 41 77 109 41 77 109 41 77 109 41 77 109 41 77 109 41 77 109 41 81 113 43 81 113 43 81 113 43 81 113 43 81 113 43 81 113 43 81 113 43 81 113 43 81 113 43 81 113 43 81 113 43 81 113 43 81 113 43 81 113 43 81 113 43 81 113 43 83 117 44 83 117 44 83 117 44 83 117 44 83 117 44 83 117 44 83 117 44 83 117 44 83 117 44 83 117 44 83 117 44 83 117 44 83 117 44 83 117 44 83 117 44 83 117 44 83 116 44 83 116 44 83 116 44 83 116 44 83 116 44 83 116 44 83 116 44 83 116 44 83 116 44 83 116 44 83 116 44 83 116 44 83 116 44 83 116 44 83 116 44 83 116 44 65 92 35 65 92 35 65 92 35 65 92 35 65 92 35 65 92 35 65 92 35 65 92 35 65 92 35 65 92 35 65 92 35 65 92 35 65 92 35 65 92 35 65 92 35 65 92 35 90 127 48 90 127 48 90 127 48 90 127 48 90 127 48 90 127 48 90 127 48 90 127 48 90 127 48 90 127 48 90 127 48 90 127 48 90 127 48 90 127 48 90 127 48 90 127 48 70 99 37 70 99 37 70 99 37 70 99 37 70 99 37 70 99 37 70 99 37 70 99 37 70 99 37 70 99 37 70 99 37 70 99 37 70 99 37 70 99 37 70 99 37 70 99 37 82 115 44 82 115 44 82 115 44 82 115 44 82 115 44 82 115 44 82 115 44 82 115 44 82 115 44 82 115 44 82 115 44 82 115 44 82 115 44 82 115 44 82 115 44 82 115 44 81 114 43 81 114 43 81 114 43 81 114 43 81 114 43 81 114 43 81 114 43 81 114 43 81 114 43 81 114 43 81 114 43 81 114 43 81 114 43 81 114 43 81 114 43 81 114 43 84 118 45 84 118 45 84 118 45 84 118 45 84 118 45 84 118 45 84 118 45 84 118 45 84 118 45 84 118 45 84 118 45 84 118 45 84 118 45 84 118 45 84 118 45 84 118 45 74 103 39 74 103 39 74 103 39 74 103 39 74 103 39 74 103 39 74 103 39 74 103 39 74 103 39 74 103 39 74 103 39 74 103 39 74 103 39 74 103 39 74 103 39 81 114 43 81 114 43 81 114 43 81 114 43 81 114 43 81 114 43 81 114 43 81 114 43 81 114 43 81 114 43 81 114 43 81 114 43 81 114 43 81 114 43 81 114 43 81 114 43 74 104 39 74 104 39 74 104 39 74 104 39 74 104 39 74 104 39 74 104 39 74 104 39 74 104 39 74 104 39 74 104 39 74 104 39 74 104 39 74 104 39 74 104 39 74 104 39 71 100 38 71 100 38 71 100 38 71 100 38 71 100 38 71 100 38 71 100 38 71 100 38 71 100 38 71 100 38 71 100 38 71 100 38 71 100 38 71 100 38 71 100 38 71 100 38 65 92 35 65 92 35 65 92 35 65 92 35 65 92 35 65 92 35 65 92 35 65 92 35 65 92 35 65 92 35 65 92 35 65 92 35 65 92 35 65 92 35 65 92 35 65 92 35 74 104 39 74 104 39 74 104 39 74 104 39 74 104 39 74 104 39 74 104 39 74 104 39 74 104 39 74 104 39 74 104 39 74 104 39 74 104 39 74 104 39 74 104 39 74 104 39 77 109 41 77 109 41 77 109 41 77 109 41 77 109 41 77 109 41 77 109 41 77 109 41 77 109 41 77 109 41 77 109 41 77 109 41 77 109 41 77 109 41 77 109 41 77 109 41 81 113 43 81 113 43 81 113 43 81 113 43 81 113 43 81 113 43 81 113 43 81 113 43 81 113 43 81 113 43 81 113 43 81 113 43 81 113 43 81 113 43 81 113 43 81 113 43 83 117 44 83 117 44 83 117 44 83 117 44 83 117 44 83 117 44 83 117 44 83 117 44 83 117 44 83 117 44 83 117 44 83 117 44 83 117 44 83 117 44 83 117 44 83 117 44 83 116 44 83 116 44 83 116 44 83 116 44 83 116 44 83 116 44 83 116 44 83 116 44 83 116 44 83 116 44 83 116 44 83 116 44 83 116 44 83 116 44 83 116 44 83 116 44 65 92 35 65 92 35 65 92 35 65 92 35 65 92 35 65 92 35 65 92 35 65 92 35 65 92 35 65 92 35 65 92 35 65 92 35 65 92 35 65 92 35 65 92 35 65 92 35 90 127 48 90 127 48 90 127 48 90 127 48 90 127 48 90 127 48 90 127 48 90 127 48 90 127 48 90 127 48 90 127 48 90 127 48 90 127 48 90 127 48 90 127 48 90 127 48 70 99 37 70 99 37 70 99 37 70 99 37 70 99 37 70 99 37 70 99 37 70 99 37 70 99 37 70 99 37 70 99 37 70 99 37 70 99 37 70 99 37 70 99 37 70 99 37 82 115 44 82 115 44 82 115 44 82 115 44 82 115 44 82 115 44 82 115 44 82 115 44 82 115 44 82 115 44 82 115 44 82 115 44 82 115 44 82 115 44 82 115 44 82 115 44 81 114 43 81 114 43 81 114 43 81 114 43 81 114 43 81 114 43 81 114 43 81 114 43 81 114 43 81 114 43 81 114 43 81 114 43 81 114 43 81 114 43 81 114 43 81 114 43 84 118 45 84 118 45 84 118 45 84 118 45 84 118 45 84 118 45 84 118 45 84 118 45 84 118 45 84 118 45 84 118 45 84 118 45 84 118 45 84 118 45 84 118 45 84 118 45 74 103 39 74 103 39 74 103 39 74 103 39 74 103 39 74 103 39 74 103 39 74 103 39 74 103 39 74 103 39 74 103 39 74 103 39 74 103 39 74 103 39 74 103 39 81 114 43 81 114 43 81 114 43 81 114 43 81 114 43 81 114 43 81 114 43 81 114 43 81 114 43 81 114 43 81 114 43 81 114 43 81 114 43 81 114 43 81 114 43 81 114 43 74 104 39 74 104 39 74 104 39 74 104 39 74 104 39 74 104 39 74 104 39 74 104 39 74 104 39 74 104 39 74 104 39 74 104 39 74 104 39 74 104 39 74 104 39 74 104 39 71 100 38 71 100 38 71 100 38 71 100 38 71 100 38 71 100 38 71 100 38 71 100 38 71 100 38 71 100 38 71 100 38 71 100 38 71 100 38 71 100 38 71 100 38 71 100 38 65 92 35 65 92 35 65 92 35 65 92 35 65 92 35 65 92 35 65 92 35 65 92 35 65 92 35 65 92 35 65 92 35 65 92 35 65 92 35 65 92 35 65 92 35 65 92 35 74 104 39 74 104 39 74 104 39 74 104 39 74 104 39 74 104 39 74 104 39 74 104 39 74 104 39 74 104 39 74 104 39 74 104 39 74 104 39 74 104 39 74 104 39 74 104 39 77 109 41 77 109 41 77 109 41 77 109 41 77 109 41 77 109 41 77 109 41 77 109 41 77 109 41 77 109 41 77 109 41 77 109 41 77 109 41 77 109 41 77 109 41 77 109 41 81 113 43 81 113 43 81 113 43 81 113 43 81 113 43 81 113 43 81 113 43 81 113 43 81 113 43 81 113 43 81 113 43 81 113 43 81 113 43 81 113 43 81 113 43 81 113 43 83 117 44 83 117 44 83 117 44 83 117 44 83 117 44 83 117 44 83 117 44 83 117 44 83 117 44 83 117 44 83 117 44 83 117 44 83 117 44 83 117 44 83 117 44 83 117 44 83 116 44 83 116 44 83 116 44 83 116 44 83 116 44 83 116 44 83 116 44 83 116 44 83 116 44 83 116 44 83 116 44 83 116 44 83 116 44 83 116 44 83 116 44 83 116 44 65 92 35 65 92 35 65 92 35 65 92 35 65 92 35 65 92 35 65 92 35 65 92 35 65 92 35 65 92 35 65 92 35 65 92 35 65 92 35 65 92 35 65 92 35 65 92 35 90 127 48 90 127 48 90 127 48 90 127 48 90 127 48 90 127 48 90 127 48 90 127 48 90 127 48 90 127 48 90 127 48 90 127 48 90 127 48 90 127 48 90 127 48 90 127 48 70 99 37 70 99 37 70 99 37 70 99 37 70 99 37 70 99 37 70 99 37 70 99 37 70 99 37 70 99 37 70 99 37 70 99 37 70 99 37 70 99 37 70 99 37 70 99 37 82 115 44 82 115 44 82 115 44 82 115 44 82 115 44 82 115 44 82 115 44 82 115 44 82 115 44 82 115 44 82 115 44 82 115 44 82 115 44 82 115 44 82 115 44 82 115 44 81 114 43 81 114 43 81 114 43 81 114 43 81 114 43 81 114 43 81 114 43 81 114 43 81 114 43 81 114 43 81 114 43 81 114 43 81 114 43 81 114 43 81 114 43 81 114 43 84 118 45 84 118 45 84 118 45 84 118 45 84 118 45 84 118 45 84 118 45 84 118 45 84 118 45 84 118 45 84 118 45 84 118 45 84 118 45 84 118 45 84 118 45 84 118 45 74 103 39 74 103 39 74 103 39 74 103 39 74 103 39 74 103 39 74 103 39 74 103 39 74 103 39 74 103 39 74 103 39 74 103 39 74 103 39 74 103 39 74 103 39 81 114 43 81 114 43 81 114 43 81 114 43 81 114 43 81 114 43 81 114 43 81 114 43 81 114 43 81 114 43 81 114 43 81 114 43 81 114 43 81 114 43 81 114 43 81 114 43 74 104 39 74 104 39 74 104 39 74 104 39 74 104 39 74 104 39 74 104 39 74 104 39 74 104 39 74 104 39 74 104 39 74 104 39 74 104 39 74 104 39 74 104 39 74 104 39 71 100 38 71 100 38 71 100 38 71 100 38 71 100 38 71 100 38 71 100 38 71 100 38 71 100 38 71 100 38 71 100 38 71 100 38 71 100 38 71 100 38 71 100 38 71 100 38 65 92 35 65 92 35 65 92 35 65 92 35 65 92 35 65 92 35 65 92 35 65 92 35 65 92 35 65 92 35 65 92 35 65 92 35 65 92 35 65 92 35 65 92 35 65 92 35 74 104 39 74 104 39 74 104 39 74 104 39 74 104 39 74 104 39 74 104 39 74 104 39 74 104 39 74 104 39 74 104 39 74 104 39 74 104 39 74 104 39 74 104 39 74 104 39 77 109 41 77 109 41 77 109 41 77 109 41 77 109 41 77 109 41 77 109 41 77 109 41 77 109 41 77 109 41 77 109 41 77 109 41 77 109 41 77 109 41 77 109 41 77 109 41 81 113 43 81 113 43 81 113 43 81 113 43 81 113 43 81 113 43 81 113 43 81 113 43 81 113 43 81 113 43 81 113 43 81 113 43 81 113 43 81 113 43 81 113 43 81 113 43 83 117 44 83 117 44 83 117 44 83 117 44 83 117 44 83 117 44 83 117 44 83 117 44 83 117 44 83 117 44 83 117 44 83 117 44 83 117 44 83 117 44 83 117 44 83 117 44 83 116 44 83 116 44 83 116 44 83 116 44 83 116 44 83 116 44 83 116 44 83 116 44 83 116 44 83 116 44 83 116 44 83 116 44 83 116 44 83 116 44 83 116 44 83 116 44 65 92 35 65 92 35 65 92 35 65 92 35 65 92 35 65 92 35 65 92 35 65 92 35 65 92 35 65 92 35 65 92 35 65 92 35 65 92 35 65 92 35 65 92 35 65 92 35 90 127 48 90 127 48 90 127 48 90 127 48 90 127 48 90 127 48 90 127 48 90 127 48 90 127 48 90 127 48 90 127 48 90 127 48 90 127 48 90 127 48 90 127 48 90 127 48 70 99 37 70 99 37 70 99 37 70 99 37 70 99 37 70 99 37 70 99 37 70 99 37 70 99 37 70 99 37 70 99 37 70 99 37 70 99 37 70 99 37 70 99 37 70 99 37 82 115 44 82 115 44 82 115 44 82 115 44 82 115 44 82 115 44 82 115 44 82 115 44 82 115 44 82 115 44 82 115 44 82 115 44 82 115 44 82 115 44 82 115 44 82 115 44 81 114 43 81 114 43 81 114 43 81 114 43 81 114 43 81 114 43 81 114 43 81 114 43 81 114 43 81 114 43 81 114 43 81 114 43 81 114 43 81 114 43 81 114 43 81 114 43 84 118 45 84 118 45 84 118 45 84 118 45 84 118 45 84 118 45 84 118 45 84 118 45 84 118 45 84 118 45 84 118 45 84 118 45 84 118 45 84 118 45 84 118 45 84 118 45 74 103 39 74 103 39 74 103 39 74 103 39 74 103 39 74 103 39 74 103 39 74 103 39 74 103 39 74 103 39 74 103 39 74 103 39 74 103 39 74 103 39 74 103 39 81 114 43 81 114 43 81 114 43 81 114 43 81 114 43 81 114 43 81 114 43 81 114 43 81 114 43 81 114 43 81 114 43 81 114 43 81 114 43 81 114 43 81 114 43 81 114 43 74 104 39 74 104 39 74 104 39 74 104 39 74 104 39 74 104 39 74 104 39 74 104 39 74 104 39 74 104 39 74 104 39 74 104 39 74 104 39 74 104 39 74 104 39 74 104 39 71 100 38 71 100 38 71 100 38 71 100 38 71 100 38 71 100 38 71 100 38 71 100 38 71 100 38 71 100 38 71 100 38 71 100 38 71 100 38 71 100 38 71 100 38 71 100 38 65 92 35 65 92 35 65 92 35 65 92 35 65 92 35 65 92 35 65 92 35 65 92 35 65 92 35 65 92 35 65 92 35 65 92 35 65 92 35 65 92 35 65 92 35 65 92 35 74 104 39 74 104 39 74 104 39 74 104 39 74 104 39 74 104 39 74 104 39 74 104 39 74 104 39 74 104 39 74 104 39 74 104 39 74 104 39 74 104 39 74 104 39 74 104 39 77 109 41 77 109 41 77 109 41 77 109 41 77 109 41 77 109 41 77 109 41 77 109 41 77 109 41 77 109 41 77 109 41 77 109 41 77 109 41 77 109 41 77 109 41 77 109 41 81 113 43 81 113 43 81 113 43 81 113 43 81 113 43 81 113 43 81 113 43 81 113 43 81 113 43 81 113 43 81 113 43 81 113 43 81 113 43 81 113 43 81 113 43 81 113 43 83 117 44 83 117 44 83 117 44 83 117 44 83 117 44 83 117 44 83 117 44 83 117 44 83 117 44 83 117 44 83 117 44 83 117 44 83 117 44 83 117 44 83 117 44 83 117 44 83 116 44 83 116 44 83 116 44 83 116 44 83 116 44 83 116 44 83 116 44 83 116 44 83 116 44 83 116 44 83 116 44 83 116 44 83 116 44 83 116 44 83 116 44 83 116 44 65 92 35 65 92 35 65 92 35 65 92 35 65 92 35 65 92 35 65 92 35 65 92 35 65 92 35 65 92 35 65 92 35 65 92 35 65 92 35 65 92 35 65 92 35 65 92 35 90 127 48 90 127 48 90 127 48 90 127 48 90 127 48 90 127 48 90 127 48 90 127 48 90 127 48 90 127 48 90 127 48 90 127 48 90 127 48 90 127 48 90 127 48 90 127 48 70 99 37 70 99 37 70 99 37 70 99 37 70 99 37 70 99 37 70 99 37 70 99 37 70 99 37 70 99 37 70 99 37 70 99 37 70 99 37 70 99 37 70 99 37 70 99 37 82 115 44 82 115 44 82 115 44 82 115 44 82 115 44 82 115 44 82 115 44 82 115 44 82 115 44 82 115 44 82 115 44 82 115 44 82 115 44 82 115 44 82 115 44 82 115 44 81 114 43 81 114 43 81 114 43 81 114 43 81 114 43 81 114 43 81 114 43 81 114 43 81 114 43 81 114 43 81 114 43 81 114 43 81 114 43 81 114 43 81 114 43 81 114 43 84 118 45 84 118 45 84 118 45 84 118 45 84 118 45 84 118 45 84 118 45 84 118 45 84 118 45 84 118 45 84 118 45 84 118 45 84 118 45 84 118 45 84 118 45 84 118 45 74 103 39 74 103 39 74 103 39 74 103 39 74 103 39 74 103 39 74 103 39 74 103 39 74 103 39 74 103 39 74 103 39 74 103 39 74 103 39 74 103 39 74 103 39 81 114 43 81 114 43 81 114 43 81 114 43 81 114 43 81 114 43 81 114 43 81 114 43 81 114 43 81 114 43 81 114 43 81 114 43 81 114 43 81 114 43 81 114 43 81 114 43 74 104 39 74 104 39 74 104 39 74 104 39 74 104 39 74 104 39 74 104 39 74 104 39 74 104 39 74 104 39 74 104 39 74 104 39 74 104 39 74 104 39 74 104 39 74 104 39 71 100 38 71 100 38 71 100 38 71 100 38 71 100 38 71 100 38 71 100 38 71 100 38 71 100 38 71 100 38 71 100 38 71 100 38 71 100 38 71 100 38 71 100 38 71 100 38 65 92 35 65 92 35 65 92 35 65 92 35 65 92 35 65 92 35 65 92 35 65 92 35 65 92 35 65 92 35 65 92 35 65 92 35 65 92 35 65 92 35 65 92 35 65 92 35 74 104 39 74 104 39 74 104 39 74 104 39 74 104 39 74 104 39 74 104 39 74 104 39 74 104 39 74 104 39 74 104 39 74 104 39 74 104 39 74 104 39 74 104 39 74 104 39 77 109 41 77 109 41 77 109 41 77 109 41 77 109 41 77 109 41 77 109 41 77 109 41 77 109 41 77 109 41 77 109 41 77 109 41 77 109 41 77 109 41 77 109 41 77 109 41 81 113 43 81 113 43 81 113 43 81 113 43 81 113 43 81 113 43 81 113 43 81 113 43 81 113 43 81 113 43 81 113 43 81 113 43 81 113 43 81 113 43 81 113 43 81 113 43 83 117 44 83 117 44 83 117 44 83 117 44 83 117 44 83 117 44 83 117 44 83 117 44 83 117 44 83 117 44 83 117 44 83 117 44 83 117 44 83 117 44 83 117 44 83 117 44 83 116 44 83 116 44 83 116 44 83 116 44 83 116 44 83 116 44 83 116 44 83 116 44 83 116 44 83 116 44 83 116 44 83 116 44 83 116 44 83 116 44 83 116 44 83 116 44 65 92 35 65 92 35 65 92 35 65 92 35 65 92 35 65 92 35 65 92 35 65 92 35 65 92 35 65 92 35 65 92 35 65 92 35 65 92 35 65 92 35 65 92 35 65 92 35 90 127 48 90 127 48 90 127 48 90 127 48 90 127 48 90 127 48 90 127 48 90 127 48 90 127 48 90 127 48 90 127 48 90 127 48 90 127 48 90 127 48 90 127 48 90 127 48 70 99 37 70 99 37 70 99 37 70 99 37 70 99 37 70 99 37 70 99 37 70 99 37 70 99 37 70 99 37 70 99 37 70 99 37 70 99 37 70 99 37 70 99 37 70 99 37 82 115 44 82 115 44 82 115 44 82 115 44 82 115 44 82 115 44 82 115 44 82 115 44 82 115 44 82 115 44 82 115 44 82 115 44 82 115 44 82 115 44 82 115 44 82 115 44 81 114 43 81 114 43 81 114 43 81 114 43 81 114 43 81 114 43 81 114 43 81 114 43 81 114 43 81 114 43 81 114 43 81 114 43 81 114 43 81 114 43 81 114 43 81 114 43 84 118 45 84 118 45 84 118 45 84 118 45 84 118 45 84 118 45 84 118 45 84 118 45 84 118 45 84 118 45 84 118 45 84 118 45 84 118 45 84 118 45 84 118 45 84 118 45 74 103 39 74 103 39 74 103 39 74 103 39 74 103 39 74 103 39 74 103 39 74 103 39 74 103 39 74 103 39 74 103 39 74 103 39 74 103 39 74 103 39 74 103 39 81 114 43 81 114 43 81 114 43 81 114 43 81 114 43 81 114 43 81 114 43 81 114 43 81 114 43 81 114 43 81 114 43 81 114 43 81 114 43 81 114 43 81 114 43 81 114 43 74 104 39 74 104 39 74 104 39 74 104 39 74 104 39 74 104 39 74 104 39 74 104 39 74 104 39 74 104 39 74 104 39 74 104 39 74 104 39 74 104 39 74 104 39 74 104 39 71 100 38 71 100 38 71 100 38 71 100 38 71 100 38 71 100 38 71 100 38 71 100 38 71 100 38 71 100 38 71 100 38 71 100 38 71 100 38 71 100 38 71 100 38 71 100 38 65 92 35 65 92 35 65 92 35 65 92 35 65 92 35 65 92 35 65 92 35 65 92 35 65 92 35 65 92 35 65 92 35 65 92 35 65 92 35 65 92 35 65 92 35 65 92 35 74 104 39 74 104 39 74 104 39 74 104 39 74 104 39 74 104 39 74 104 39 74 104 39 74 104 39 74 104 39 74 104 39 74 104 39 74 104 39 74 104 39 74 104 39 74 104 39 77 109 41 77 109 41 77 109 41 77 109 41 77 109 41 77 109 41 77 109 41 77 109 41 77 109 41 77 109 41 77 109 41 77 109 41 77 109 41 77 109 41 77 109 41 77 109 41 81 113 43 81 113 43 81 113 43 81 113 43 81 113 43 81 113 43 81 113 43 81 113 43 81 113 43 81 113 43 81 113 43 81 113 43 81 113 43 81 113 43 81 113 43 81 113 43 83 117 44 83 117 44 83 117 44 83 117 44 83 117 44 83 117 44 83 117 44 83 117 44 83 117 44 83 117 44 83 117 44 83 117 44 83 117 44 83 117 44 83 117 44 83 117 44 83 116 44 83 116 44 83 116 44 83 116 44 83 116 44 83 116 44 83 116 44 83 116 44 83 116 44 83 116 44 83 116 44 83 116 44 83 116 44 83 116 44 83 116 44 83 116 44 65 92 35 65 92 35 65 92 35 65 92 35 65 92 35 65 92 35 65 92 35 65 92 35 65 92 35 65 92 35 65 92 35 65 92 35 65 92 35 65 92 35 65 92 35 65 92 35 90 127 48 90 127 48 90 127 48 90 127 48 90 127 48 90 127 48 90 127 48 90 127 48 90 127 48 90 127 48 90 127 48 90 127 48 90 127 48 90 127 48 90 127 48 90 127 48 70 99 37 70 99 37 70 99 37 70 99 37 70 99 37 70 99 37 70 99 37 70 99 37 70 99 37 70 99 37 70 99 37 70 99 37 70 99 37 70 99 37 70 99 37 70 99 37 82 115 44 82 115 44 82 115 44 82 115 44 82 115 44 82 115 44 82 115 44 82 115 44 82 115 44 82 115 44 82 115 44 82 115 44 82 115 44 82 115 44 82 115 44 82 115 44 81 114 43 81 114 43 81 114 43 81 114 43 81 114 43 81 114 43 81 114 43 81 114 43 81 114 43 81 114 43 81 114 43 81 114 43 81 114 43 81 114 43 81 114 43 81 114 43 84 118 45 84 118 45 84 118 45 84 118 45 84 118 45 84 118 45 84 118 45 84 118 45 84 118 45 84 118 45 84 118 45 84 118 45 84 118 45 84 118 45 84 118 45 84 118 45 74 103 39 74 103 39 74 103 39 74 103 39 74 103 39 74 103 39 74 103 39 74 103 39 74 103 39 74 103 39 74 103 39 74 103 39 74 103 39 74 103 39 74 103 39 81 114 43 81 114 43 81 114 43 81 114 43 81 114 43 81 114 43 81 114 43 81 114 43 81 114 43 81 114 43 81 114 43 81 114 43 81 114 43 81 114 43 81 114 43 81 114 43 74 104 39 74 104 39 74 104 39 74 104 39 74 104 39 74 104 39 74 104 39 74 104 39 74 104 39 74 104 39 74 104 39 74 104 39 74 104 39 74 104 39 74 104 39 74 104 39 71 100 38 71 100 38 71 100 38 71 100 38 71 100 38 71 100 38 71 100 38 71 100 38 71 100 38 71 100 38 71 100 38 71 100 38 71 100 38 71 100 38 71 100 38 71 100 38 65 92 35 65 92 35 65 92 35 65 92 35 65 92 35 65 92 35 65 92 35 65 92 35 65 92 35 65 92 35 65 92 35 65 92 35 65 92 35 65 92 35 65 92 35 65 92 35 74 104 39 74 104 39 74 104 39 74 104 39 74 104 39 74 104 39 74 104 39 74 104 39 74 104 39 74 104 39 74 104 39 74 104 39 74 104 39 74 104 39 74 104 39 74 104 39 77 109 41 77 109 41 77 109 41 77 109 41 77 109 41 77 109 41 77 109 41 77 109 41 77 109 41 77 109 41 77 109 41 77 109 41 77 109 41 77 109 41 77 109 41 77 109 41 81 113 43 81 113 43 81 113 43 81 113 43 81 113 43 81 113 43 81 113 43 81 113 43 81 113 43 81 113 43 81 113 43 81 113 43 81 113 43 81 113 43 81 113 43 81 113 43 83 117 44 83 117 44 83 117 44 83 117 44 83 117 44 83 117 44 83 117 44 83 117 44 83 117 44 83 117 44 83 117 44 83 117 44 83 117 44 83 117 44 83 117 44 83 117 44 83 116 44 83 116 44 83 116 44 83 116 44 83 116 44 83 116 44 83 116 44 83 116 44 83 116 44 83 116 44 83 116 44 83 116 44 83 116 44 83 116 44 83 116 44 83 116 44 65 92 35 65 92 35 65 92 35 65 92 35 65 92 35 65 92 35 65 92 35 65 92 35 65 92 35 65 92 35 65 92 35 65 92 35 65 92 35 65 92 35 65 92 35 65 92 35 90 127 48 90 127 48 90 127 48 90 127 48 90 127 48 90 127 48 90 127 48 90 127 48 90 127 48 90 127 48 90 127 48 90 127 48 90 127 48 90 127 48 90 127 48 90 127 48 70 99 37 70 99 37 70 99 37 70 99 37 70 99 37 70 99 37 70 99 37 70 99 37 70 99 37 70 99 37 70 99 37 70 99 37 70 99 37 70 99 37 70 99 37 70 99 37 82 115 44 82 115 44 82 115 44 82 115 44 82 115 44 82 115 44 82 115 44 82 115 44 82 115 44 82 115 44 82 115 44 82 115 44 82 115 44 82 115 44 82 115 44 82 115 44 81 114 43 81 114 43 81 114 43 81 114 43 81 114 43 81 114 43 81 114 43 81 114 43 81 114 43 81 114 43 81 114 43 81 114 43 81 114 43 81 114 43 81 114 43 81 114 43 84 118 45 84 118 45 84 118 45 84 118 45 84 118 45 84 118 45 84 118 45 84 118 45 84 118 45 84 118 45 84 118 45 84 118 45 84 118 45 84 118 45 84 118 45 84 118 45 74 103 39 74 103 39 74 103 39 74 103 39 74 103 39 74 103 39 74 103 39 74 103 39 74 103 39 74 103 39 74 103 39 74 103 39 74 103 39 74 103 39 74 103 39 81 114 43 81 114 43 81 114 43 81 114 43 81 114 43 81 114 43 81 114 43 81 114 43 81 114 43 81 114 43 81 114 43 81 114 43 81 114 43 81 114 43 81 114 43 81 114 43 74 104 39 74 104 39 74 104 39 74 104 39 74 104 39 74 104 39 74 104 39 74 104 39 74 104 39 74 104 39 74 104 39 74 104 39 74 104 39 74 104 39 74 104 39 74 104 39 71 100 38 71 100 38 71 100 38 71 100 38 71 100 38 71 100 38 71 100 38 71 100 38 71 100 38 71 100 38 71 100 38 71 100 38 71 100 38 71 100 38 71 100 38 71 100 38 65 92 35 65 92 35 65 92 35 65 92 35 65 92 35 65 92 35 65 92 35 65 92 35 65 92 35 65 92 35 65 92 35 65 92 35 65 92 35 65 92 35 65 92 35 65 92 35 74 104 39 74 104 39 74 104 39 74 104 39 74 104 39 74 104 39 74 104 39 74 104 39 74 104 39 74 104 39 74 104 39 74 104 39 74 104 39 74 104 39 74 104 39 74 104 39 77 109 41 77 109 41 77 109 41 77 109 41 77 109 41 77 109 41 77 109 41 77 109 41 77 109 41 77 109 41 77 109 41 77 109 41 77 109 41 77 109 41 77 109 41 77 109 41 81 113 43 81 113 43 81 113 43 81 113 43 81 113 43 81 113 43 81 113 43 81 113 43 81 113 43 81 113 43 81 113 43 81 113 43 81 113 43 81 113 43 81 113 43 81 113 43 69 96 37 69 96 37 69 96 37 69 96 37 69 96 37 69 96 37 69 96 37 69 96 37 69 96 37 69 96 37 69 96 37 69 96 37 69 96 37 69 96 37 69 96 37 69 96 37 85 119 45 85 119 45 85 119 45 85 119 45 85 119 45 85 119 45 85 119 45 85 119 45 85 119 45 85 119 45 85 119 45 85 119 45 85 119 45 85 119 45 85 119 45 85 119 45 90 126 48 90 126 48 90 126 48 90 126 48 90 126 48 90 126 48 90 126 48 90 126 48 90 126 48 90 126 48 90 126 48 90 126 48 90 126 48 90 126 48 90 126 48 90 126 48 78 110 42 78 110 42 78 110 42 78 110 42 78 110 42 78 110 42 78 110 42 78 110 42 78 110 42 78 110 42 78 110 42 78 110 42 78 110 42 78 110 42 78 110 42 78 110 42 80 112 42 80 112 42 80 112 42 80 112 42 80 112 42 80 112 42 80 112 42 80 112 42 80 112 42 80 112 42 80 112 42 80 112 42 80 112 42 80 112 42 80 112 42 80 112 42 71 100 38 71 100 38 71 100 38 71 100 38 71 100 38 71 100 38 71 100 38 71 100 38 71 100 38 71 100 38 71 100 38 71 100 38 71 100 38 71 100 38 71 100 38 71 100 38 75 106 40 75 106 40 75 106 40 75 106 40 75 106 40 75 106 40 75 106 40 75 106 40 75 106 40 75 106 40 75 106 40 75 106 40 75 106 40 75 106 40 75 106 40 75 106 40 69 97 37 69 97 37 69 97 37 69 97 37 69 97 37 69 97 37 69 97 37 69 97 37 69 97 37 69 97 37 69 97 37 69 97 37 69 97 37 69 97 37 69 97 37 69 97 37 72 101 38 72 101 38 72 101 38 72 101 38 72 101 38 72 101 38 72 101 38 72 101 38 72 101 38 72 101 38 72 101 38 72 101 38 72 101 38 72 101 38 72 101 38 74 103 39 74 103 39 74 103 39 74 103 39 74 103 39 74 103 39 74 103 39 74 103 39 74 103 39 74 103 39 74 103 39 74 103 39 74 103 39 74 103 39 74 103 39 74 103 39 99 138 52 99 138 52 99 138 52 99 138 52 99 138 52 99 138 52 99 138 52 99 138 52 99 138 52 99 138 52 99 138 52 99 138 52 99 138 52 99 138 52 99 138 52 99 138 52 94 131 50 94 131 50 94 131 50 94 131 50 94 131 50 94 131 50 94 131 50 94 131 50 94 131 50 94 131 50 94 131 50 94 131 50 94 131 50 94 131 50 94 131 50 94 131 50 79 111 42 79 111 42 79 111 42 79 111 42 79 111 42 79 111 42 79 111 42 79 111 42 79 111 42 79 111 42 79 111 42 79 111 42 79 111 42 79 111 42 79 111 42 79 111 42 91 128 48 91 128 48 91 128 48 91 128 48 91 128 48 91 128 48 91 128 48 91 128 48 91 128 48 91 128 48 91 128 48 91 128 48 91 128 48 91 128 48 91 128 48 91 128 48 82 115 44 82 115 44 82 115 44 82 115 44 82 115 44 82 115 44 82 115 44 82 115 44 82 115 44 82 115 44 82 115 44 82 115 44 82 115 44 82 115 44 82 115 44 82 115 44 78 109 41 78 109 41 78 109 41 78 109 41 78 109 41 78 109 41 78 109 41 78 109 41 78 109 41 78 109 41 78 109 41 78 109 41 78 109 41 78 109 41 78 109 41 78 109 41 69 96 37 69 96 37 69 96 37 69 96 37 69 96 37 69 96 37 69 96 37 69 96 37 69 96 37 69 96 37 69 96 37 69 96 37 69 96 37 69 96 37 69 96 37 69 96 37 85 119 45 85 119 45 85 119 45 85 119 45 85 119 45 85 119 45 85 119 45 85 119 45 85 119 45 85 119 45 85 119 45 85 119 45 85 119 45 85 119 45 85 119 45 85 119 45 90 126 48 90 126 48 90 126 48 90 126 48 90 126 48 90 126 48 90 126 48 90 126 48 90 126 48 90 126 48 90 126 48 90 126 48 90 126 48 90 126 48 90 126 48 90 126 48 78 110 42 78 110 42 78 110 42 78 110 42 78 110 42 78 110 42 78 110 42 78 110 42 78 110 42 78 110 42 78 110 42 78 110 42 78 110 42 78 110 42 78 110 42 78 110 42 80 112 42 80 112 42 80 112 42 80 112 42 80 112 42 80 112 42 80 112 42 80 112 42 80 112 42 80 112 42 80 112 42 80 112 42 80 112 42 80 112 42 80 112 42 80 112 42 71 100 38 71 100 38 71 100 38 71 100 38 71 100 38 71 100 38 71 100 38 71 100 38 71 100 38 71 100 38 71 100 38 71 100 38 71 100 38 71 100 38 71 100 38 71 100 38 75 106 40 75 106 40 75 106 40 75 106 40 75 106 40 75 106 40 75 106 40 75 106 40 75 106 40 75 106 40 75 106 40 75 106 40 75 106 40 75 106 40 75 106 40 75 106 40 69 97 37 69 97 37 69 97 37 69 97 37 69 97 37 69 97 37 69 97 37 69 97 37 69 97 37 69 97 37 69 97 37 69 97 37 69 97 37 69 97 37 69 97 37 69 97 37 72 101 38 72 101 38 72 101 38 72 101 38 72 101 38 72 101 38 72 101 38 72 101 38 72 101 38 72 101 38 72 101 38 72 101 38 72 101 38 72 101 38 72 101 38 74 103 39 74 103 39 74 103 39 74 103 39 74 103 39 74 103 39 74 103 39 74 103 39 74 103 39 74 103 39 74 103 39 74 103 39 74 103 39 74 103 39 74 103 39 74 103 39 99 138 52 99 138 52 99 138 52 99 138 52 99 138 52 99 138 52 99 138 52 99 138 52 99 138 52 99 138 52 99 138 52 99 138 52 99 138 52 99 138 52 99 138 52 99 138 52 94 131 50 94 131 50 94 131 50 94 131 50 94 131 50 94 131 50 94 131 50 94 131 50 94 131 50 94 131 50 94 131 50 94 131 50 94 131 50 94 131 50 94 131 50 94 131 50 79 111 42 79 111 42 79 111 42 79 111 42 79 111 42 79 111 42 79 111 42 79 111 42 79 111 42 79 111 42 79 111 42 79 111 42 79 111 42 79 111 42 79 111 42 79 111 42 91 128 48 91 128 48 91 128 48 91 128 48 91 128 48 91 128 48 91 128 48 91 128 48 91 128 48 91 128 48 91 128 48 91 128 48 91 128 48 91 128 48 91 128 48 91 128 48 82 115 44 82 115 44 82 115 44 82 115 44 82 115 44 82 115 44 82 115 44 82 115 44 82 115 44 82 115 44 82 115 44 82 115 44 82 115 44 82 115 44 82 115 44 82 115 44 78 109 41 78 109 41 78 109 41 78 109 41 78 109 41 78 109 41 78 109 41 78 109 41 78 109 41 78 109 41 78 109 41 78 109 41 78 109 41 78 109 41 78 109 41 78 109 41 69 96 37 69 96 37 69 96 37 69 96 37 69 96 37 69 96 37 69 96 37 69 96 37 69 96 37 69 96 37 69 96 37 69 96 37 69 96 37 69 96 37 69 96 37 69 96 37 85 119 45 85 119 45 85 119 45 85 119 45 85 119 45 85 119 45 85 119 45 85 119 45 85 119 45 85 119 45 85 119 45 85 119 45 85 119 45 85 119 45 85 119 45 85 119 45 90 126 48 90 126 48 90 126 48 90 126 48 90 126 48 90 126 48 90 126 48 90 126 48 90 126 48 90 126 48 90 126 48 90 126 48 90 126 48 90 126 48 90 126 48 90 126 48 78 110 42 78 110 42 78 110 42 78 110 42 78 110 42 78 110 42 78 110 42 78 110 42 78 110 42 78 110 42 78 110 42 78 110 42 78 110 42 78 110 42 78 110 42 78 110 42 80 112 42 80 112 42 80 112 42 80 112 42 80 112 42 80 112 42 80 112 42 80 112 42 80 112 42 80 112 42 80 112 42 80 112 42 80 112 42 80 112 42 80 112 42 80 112 42 71 100 38 71 100 38 71 100 38 71 100 38 71 100 38 71 100 38 71 100 38 71 100 38 71 100 38 71 100 38 71 100 38 71 100 38 71 100 38 71 100 38 71 100 38 71 100 38 75 106 40 75 106 40 75 106 40 75 106 40 75 106 40 75 106 40 75 106 40 75 106 40 75 106 40 75 106 40 75 106 40 75 106 40 75 106 40 75 106 40 75 106 40 75 106 40 69 97 37 69 97 37 69 97 37 69 97 37 69 97 37 69 97 37 69 97 37 69 97 37 69 97 37 69 97 37 69 97 37 69 97 37 69 97 37 69 97 37 69 97 37 69 97 37 72 101 38 72 101 38 72 101 38 72 101 38 72 101 38 72 101 38 72 101 38 72 101 38 72 101 38 72 101 38 72 101 38 72 101 38 72 101 38 72 101 38 72 101 38 74 103 39 74 103 39 74 103 39 74 103 39 74 103 39 74 103 39 74 103 39 74 103 39 74 103 39 74 103 39 74 103 39 74 103 39 74 103 39 74 103 39 74 103 39 74 103 39 99 138 52 99 138 52 99 138 52 99 138 52 99 138 52 99 138 52 99 138 52 99 138 52 99 138 52 99 138 52 99 138 52 99 138 52 99 138 52 99 138 52 99 138 52 99 138 52 94 131 50 94 131 50 94 131 50 94 131 50 94 131 50 94 131 50 94 131 50 94 131 50 94 131 50 94 131 50 94 131 50 94 131 50 94 131 50 94 131 50 94 131 50 94 131 50 79 111 42 79 111 42 79 111 42 79 111 42 79 111 42 79 111 42 79 111 42 79 111 42 79 111 42 79 111 42 79 111 42 79 111 42 79 111 42 79 111 42 79 111 42 79 111 42 91 128 48 91 128 48 91 128 48 91 128 48 91 128 48 91 128 48 91 128 48 91 128 48 91 128 48 91 128 48 91 128 48 91 128 48 91 128 48 91 128 48 91 128 48 91 128 48 82 115 44 82 115 44 82 115 44 82 115 44 82 115 44 82 115 44 82 115 44 82 115 44 82 115 44 82 115 44 82 115 44 82 115 44 82 115 44 82 115 44 82 115 44 82 115 44 78 109 41 78 109 41 78 109 41 78 109 41 78 109 41 78 109 41 78 109 41 78 109 41 78 109 41 78 109 41 78 109 41 78 109 41 78 109 41 78 109 41 78 109 41 78 109 41 69 96 37 69 96 37 69 96 37 69 96 37 69 96 37 69 96 37 69 96 37 69 96 37 69 96 37 69 96 37 69 96 37 69 96 37 69 96 37 69 96 37 69 96 37 69 96 37 85 119 45 85 119 45 85 119 45 85 119 45 85 119 45 85 119 45 85 119 45 85 119 45 85 119 45 85 119 45 85 119 45 85 119 45 85 119 45 85 119 45 85 119 45 85 119 45 90 126 48 90 126 48 90 126 48 90 126 48 90 126 48 90 126 48 90 126 48 90 126 48 90 126 48 90 126 48 90 126 48 90 126 48 90 126 48 90 126 48 90 126 48 90 126 48 78 110 42 78 110 42 78 110 42 78 110 42 78 110 42 78 110 42 78 110 42 78 110 42 78 110 42 78 110 42 78 110 42 78 110 42 78 110 42 78 110 42 78 110 42 78 110 42 80 112 42 80 112 42 80 112 42 80 112 42 80 112 42 80 112 42 80 112 42 80 112 42 80 112 42 80 112 42 80 112 42 80 112 42 80 112 42 80 112 42 80 112 42 80 112 42 71 100 38 71 100 38 71 100 38 71 100 38 71 100 38 71 100 38 71 100 38 71 100 38 71 100 38 71 100 38 71 100 38 71 100 38 71 100 38 71 100 38 71 100 38 71 100 38 75 106 40 75 106 40 75 106 40 75 106 40 75 106 40 75 106 40 75 106 40 75 106 40 75 106 40 75 106 40 75 106 40 75 106 40 75 106 40 75 106 40 75 106 40 75 106 40 69 97 37 69 97 37 69 97 37 69 97 37 69 97 37 69 97 37 69 97 37 69 97 37 69 97 37 69 97 37 69 97 37 69 97 37 69 97 37 69 97 37 69 97 37 69 97 37 72 101 38 72 101 38 72 101 38 72 101 38 72 101 38 72 101 38 72 101 38 72 101 38 72 101 38 72 101 38 72 101 38 72 101 38 72 101 38 72 101 38 72 101 38 74 103 39 74 103 39 74 103 39 74 103 39 74 103 39 74 103 39 74 103 39 74 103 39 74 103 39 74 103 39 74 103 39 74 103 39 74 103 39 74 103 39 74 103 39 74 103 39 99 138 52 99 138 52 99 138 52 99 138 52 99 138 52 99 138 52 99 138 52 99 138 52 99 138 52 99 138 52 99 138 52 99 138 52 99 138 52 99 138 52 99 138 52 99 138 52 94 131 50 94 131 50 94 131 50 94 131 50 94 131 50 94 131 50 94 131 50 94 131 50 94 131 50 94 131 50 94 131 50 94 131 50 94 131 50 94 131 50 94 131 50 94 131 50 79 111 42 79 111 42 79 111 42 79 111 42 79 111 42 79 111 42 79 111 42 79 111 42 79 111 42 79 111 42 79 111 42 79 111 42 79 111 42 79 111 42 79 111 42 79 111 42 91 128 48 91 128 48 91 128 48 91 128 48 91 128 48 91 128 48 91 128 48 91 128 48 91 128 48 91 128 48 91 128 48 91 128 48 91 128 48 91 128 48 91 128 48 91 128 48 82 115 44 82 115 44 82 115 44 82 115 44 82 115 44 82 115 44 82 115 44 82 115 44 82 115 44 82 115 44 82 115 44 82 115 44 82 115 44 82 115 44 82 115 44 82 115 44 78 109 41 78 109 41 78 109 41 78 109 41 78 109 41 78 109 41 78 109 41 78 109 41 78 109 41 78 109 41 78 109 41 78 109 41 78 109 41 78 109 41 78 109 41 78 109 41 69 96 37 69 96 37 69 96 37 69 96 37 69 96 37 69 96 37 69 96 37 69 96 37 69 96 37 69 96 37 69 96 37 69 96 37 69 96 37 69 96 37 69 96 37 69 96 37 85 119 45 85 119 45 85 119 45 85 119 45 85 119 45 85 119 45 85 119 45 85 119 45 85 119 45 85 119 45 85 119 45 85 119 45 85 119 45 85 119 45 85 119 45 85 119 45 90 126 48 90 126 48 90 126 48 90 126 48 90 126 48 90 126 48 90 126 48 90 126 48 90 126 48 90 126 48 90 126 48 90 126 48 90 126 48 90 126 48 90 126 48 90 126 48 78 110 42 78 110 42 78 110 42 78 110 42 78 110 42 78 110 42 78 110 42 78 110 42 78 110 42 78 110 42 78 110 42 78 110 42 78 110 42 78 110 42 78 110 42 78 110 42 80 112 42 80 112 42 80 112 42 80 112 42 80 112 42 80 112 42 80 112 42 80 112 42 80 112 42 80 112 42 80 112 42 80 112 42 80 112 42 80 112 42 80 112 42 80 112 42 71 100 38 71 100 38 71 100 38 71 100 38 71 100 38 71 100 38 71 100 38 71 100 38 71 100 38 71 100 38 71 100 38 71 100 38 71 100 38 71 100 38 71 100 38 71 100 38 75 106 40 75 106 40 75 106 40 75 106 40 75 106 40 75 106 40 75 106 40 75 106 40 75 106 40 75 106 40 75 106 40 75 106 40 75 106 40 75 106 40 75 106 40 75 106 40 69 97 37 69 97 37 69 97 37 69 97 37 69 97 37 69 97 37 69 97 37 69 97 37 69 97 37 69 97 37 69 97 37 69 97 37 69 97 37 69 97 37 69 97 37 69 97 37 72 101 38 72 101 38 72 101 38 72 101 38 72 101 38 72 101 38 72 101 38 72 101 38 72 101 38 72 101 38 72 101 38 72 101 38 72 101 38 72 101 38 72 101 38 74 103 39 74 103 39 74 103 39 74 103 39 74 103 39 74 103 39 74 103 39 74 103 39 74 103 39 74 103 39 74 103 39 74 103 39 74 103 39 74 103 39 74 103 39 74 103 39 99 138 52 99 138 52 99 138 52 99 138 52 99 138 52 99 138 52 99 138 52 99 138 52 99 138 52 99 138 52 99 138 52 99 138 52 99 138 52 99 138 52 99 138 52 99 138 52 94 131 50 94 131 50 94 131 50 94 131 50 94 131 50 94 131 50 94 131 50 94 131 50 94 131 50 94 131 50 94 131 50 94 131 50 94 131 50 94 131 50 94 131 50 94 131 50 79 111 42 79 111 42 79 111 42 79 111 42 79 111 42 79 111 42 79 111 42 79 111 42 79 111 42 79 111 42 79 111 42 79 111 42 79 111 42 79 111 42 79 111 42 79 111 42 91 128 48 91 128 48 91 128 48 91 128 48 91 128 48 91 128 48 91 128 48 91 128 48 91 128 48 91 128 48 91 128 48 91 128 48 91 128 48 91 128 48 91 128 48 91 128 48 82 115 44 82 115 44 82 115 44 82 115 44 82 115 44 82 115 44 82 115 44 82 115 44 82 115 44 82 115 44 82 115 44 82 115 44 82 115 44 82 115 44 82 115 44 82 115 44 78 109 41 78 109 41 78 109 41 78 109 41 78 109 41 78 109 41 78 109 41 78 109 41 78 109 41 78 109 41 78 109 41 78 109 41 78 109 41 78 109 41 78 109 41 78 109 41 69 96 37 69 96 37 69 96 37 69 96 37 69 96 37 69 96 37 69 96 37 69 96 37 69 96 37 69 96 37 69 96 37 69 96 37 69 96 37 69 96 37 69 96 37 69 96 37 85 119 45 85 119 45 85 119 45 85 119 45 85 119 45 85 119 45 85 119 45 85 119 45 85 119 45 85 119 45 85 119 45 85 119 45 85 119 45 85 119 45 85 119 45 85 119 45 90 126 48 90 126 48 90 126 48 90 126 48 90 126 48 90 126 48 90 126 48 90 126 48 90 126 48 90 126 48 90 126 48 90 126 48 90 126 48 90 126 48 90 126 48 90 126 48 78 110 42 78 110 42 78 110 42 78 110 42 78 110 42 78 110 42 78 110 42 78 110 42 78 110 42 78 110 42 78 110 42 78 110 42 78 110 42 78 110 42 78 110 42 78 110 42 80 112 42 80 112 42 80 112 42 80 112 42 80 112 42 80 112 42 80 112 42 80 112 42 80 112 42 80 112 42 80 112 42 80 112 42 80 112 42 80 112 42 80 112 42 80 112 42 71 100 38 71 100 38 71 100 38 71 100 38 71 100 38 71 100 38 71 100 38 71 100 38 71 100 38 71 100 38 71 100 38 71 100 38 71 100 38 71 100 38 71 100 38 71 100 38 75 106 40 75 106 40 75 106 40 75 106 40 75 106 40 75 106 40 75 106 40 75 106 40 75 106 40 75 106 40 75 106 40 75 106 40 75 106 40 75 106 40 75 106 40 75 106 40 69 97 37 69 97 37 69 97 37 69 97 37 69 97 37 69 97 37 69 97 37 69 97 37 69 97 37 69 97 37 69 97 37 69 97 37 69 97 37 69 97 37 69 97 37 69 97 37 72 101 38 72 101 38 72 101 38 72 101 38 72 101 38 72 101 38 72 101 38 72 101 38 72 101 38 72 101 38 72 101 38 72 101 38 72 101 38 72 101 38 72 101 38 74 103 39 74 103 39 74 103 39 74 103 39 74 103 39 74 103 39 74 103 39 74 103 39 74 103 39 74 103 39 74 103 39 74 103 39 74 103 39 74 103 39 74 103 39 74 103 39 99 138 52 99 138 52 99 138 52 99 138 52 99 138 52 99 138 52 99 138 52 99 138 52 99 138 52 99 138 52 99 138 52 99 138 52 99 138 52 99 138 52 99 138 52 99 138 52 94 131 50 94 131 50 94 131 50 94 131 50 94 131 50 94 131 50 94 131 50 94 131 50 94 131 50 94 131 50 94 131 50 94 131 50 94 131 50 94 131 50 94 131 50 94 131 50 79 111 42 79 111 42 79 111 42 79 111 42 79 111 42 79 111 42 79 111 42 79 111 42 79 111 42 79 111 42 79 111 42 79 111 42 79 111 42 79 111 42 79 111 42 79 111 42 91 128 48 91 128 48 91 128 48 91 128 48 91 128 48 91 128 48 91 128 48 91 128 48 91 128 48 91 128 48 91 128 48 91 128 48 91 128 48 91 128 48 91 128 48 91 128 48 82 115 44 82 115 44 82 115 44 82 115 44 82 115 44 82 115 44 82 115 44 82 115 44 82 115 44 82 115 44 82 115 44 82 115 44 82 115 44 82 115 44 82 115 44 82 115 44 78 109 41 78 109 41 78 109 41 78 109 41 78 109 41 78 109 41 78 109 41 78 109 41 78 109 41 78 109 41 78 109 41 78 109 41 78 109 41 78 109 41 78 109 41 78 109 41 69 96 37 69 96 37 69 96 37 69 96 37 69 96 37 69 96 37 69 96 37 69 96 37 69 96 37 69 96 37 69 96 37 69 96 37 69 96 37 69 96 37 69 96 37 69 96 37 85 119 45 85 119 45 85 119 45 85 119 45 85 119 45 85 119 45 85 119 45 85 119 45 85 119 45 85 119 45 85 119 45 85 119 45 85 119 45 85 119 45 85 119 45 85 119 45 90 126 48 90 126 48 90 126 48 90 126 48 90 126 48 90 126 48 90 126 48 90 126 48 90 126 48 90 126 48 90 126 48 90 126 48 90 126 48 90 126 48 90 126 48 90 126 48 78 110 42 78 110 42 78 110 42 78 110 42 78 110 42 78 110 42 78 110 42 78 110 42 78 110 42 78 110 42 78 110 42 78 110 42 78 110 42 78 110 42 78 110 42 78 110 42 80 112 42 80 112 42 80 112 42 80 112 42 80 112 42 80 112 42 80 112 42 80 112 42 80 112 42 80 112 42 80 112 42 80 112 42 80 112 42 80 112 42 80 112 42 80 112 42 71 100 38 71 100 38 71 100 38 71 100 38 71 100 38 71 100 38 71 100 38 71 100 38 71 100 38 71 100 38 71 100 38 71 100 38 71 100 38 71 100 38 71 100 38 71 100 38 75 106 40 75 106 40 75 106 40 75 106 40 75 106 40 75 106 40 75 106 40 75 106 40 75 106 40 75 106 40 75 106 40 75 106 40 75 106 40 75 106 40 75 106 40 75 106 40 69 97 37 69 97 37 69 97 37 69 97 37 69 97 37 69 97 37 69 97 37 69 97 37 69 97 37 69 97 37 69 97 37 69 97 37 69 97 37 69 97 37 69 97 37 69 97 37 72 101 38 72 101 38 72 101 38 72 101 38 72 101 38 72 101 38 72 101 38 72 101 38 72 101 38 72 101 38 72 101 38 72 101 38 72 101 38 72 101 38 72 101 38 74 103 39 74 103 39 74 103 39 74 103 39 74 103 39 74 103 39 74 103 39 74 103 39 74 103 39 74 103 39 74 103 39 74 103 39 74 103 39 74 103 39 74 103 39 74 103 39 99 138 52 99 138 52 99 138 52 99 138 52 99 138 52 99 138 52 99 138 52 99 138 52 99 138 52 99 138 52 99 138 52 99 138 52 99 138 52 99 138 52 99 138 52 99 138 52 94 131 50 94 131 50 94 131 50 94 131 50 94 131 50 94 131 50 94 131 50 94 131 50 94 131 50 94 131 50 94 131 50 94 131 50 94 131 50 94 131 50 94 131 50 94 131 50 79 111 42 79 111 42 79 111 42 79 111 42 79 111 42 79 111 42 79 111 42 79 111 42 79 111 42 79 111 42 79 111 42 79 111 42 79 111 42 79 111 42 79 111 42 79 111 42 91 128 48 91 128 48 91 128 48 91 128 48 91 128 48 91 128 48 91 128 48 91 128 48 91 128 48 91 128 48 91 128 48 91 128 48 91 128 48 91 128 48 91 128 48 91 128 48 82 115 44 82 115 44 82 115 44 82 115 44 82 115 44 82 115 44 82 115 44 82 115 44 82 115 44 82 115 44 82 115 44 82 115 44 82 115 44 82 115 44 82 115 44 82 115 44 78 109 41 78 109 41 78 109 41 78 109 41 78 109 41 78 109 41 78 109 41 78 109 41 78 109 41 78 109 41 78 109 41 78 109 41 78 109 41 78 109 41 78 109 41 78 109 41 69 96 37 69 96 37 69 96 37 69 96 37 69 96 37 69 96 37 69 96 37 69 96 37 69 96 37 69 96 37 69 96 37 69 96 37 69 96 37 69 96 37 69 96 37 69 96 37 85 119 45 85 119 45 85 119 45 85 119 45 85 119 45 85 119 45 85 119 45 85 119 45 85 119 45 85 119 45 85 119 45 85 119 45 85 119 45 85 119 45 85 119 45 85 119 45 90 126 48 90 126 48 90 126 48 90 126 48 90 126 48 90 126 48 90 126 48 90 126 48 90 126 48 90 126 48 90 126 48 90 126 48 90 126 48 90 126 48 90 126 48 90 126 48 78 110 42 78 110 42 78 110 42 78 110 42 78 110 42 78 110 42 78 110 42 78 110 42 78 110 42 78 110 42 78 110 42 78 110 42 78 110 42 78 110 42 78 110 42 78 110 42 80 112 42 80 112 42 80 112 42 80 112 42 80 112 42 80 112 42 80 112 42 80 112 42 80 112 42 80 112 42 80 112 42 80 112 42 80 112 42 80 112 42 80 112 42 80 112 42 71 100 38 71 100 38 71 100 38 71 100 38 71 100 38 71 100 38 71 100 38 71 100 38 71 100 38 71 100 38 71 100 38 71 100 38 71 100 38 71 100 38 71 100 38 71 100 38 75 106 40 75 106 40 75 106 40 75 106 40 75 106 40 75 106 40 75 106 40 75 106 40 75 106 40 75 106 40 75 106 40 75 106 40 75 106 40 75 106 40 75 106 40 75 106 40 69 97 37 69 97 37 69 97 37 69 97 37 69 97 37 69 97 37 69 97 37 69 97 37 69 97 37 69 97 37 69 97 37 69 97 37 69 97 37 69 97 37 69 97 37 69 97 37 72 101 38 72 101 38 72 101 38 72 101 38 72 101 38 72 101 38 72 101 38 72 101 38 72 101 38 72 101 38 72 101 38 72 101 38 72 101 38 72 101 38 72 101 38 74 103 39 74 103 39 74 103 39 74 103 39 74 103 39 74 103 39 74 103 39 74 103 39 74 103 39 74 103 39 74 103 39 74 103 39 74 103 39 74 103 39 74 103 39 74 103 39 99 138 52 99 138 52 99 138 52 99 138 52 99 138 52 99 138 52 99 138 52 99 138 52 99 138 52 99 138 52 99 138 52 99 138 52 99 138 52 99 138 52 99 138 52 99 138 52 94 131 50 94 131 50 94 131 50 94 131 50 94 131 50 94 131 50 94 131 50 94 131 50 94 131 50 94 131 50 94 131 50 94 131 50 94 131 50 94 131 50 94 131 50 94 131 50 79 111 42 79 111 42 79 111 42 79 111 42 79 111 42 79 111 42 79 111 42 79 111 42 79 111 42 79 111 42 79 111 42 79 111 42 79 111 42 79 111 42 79 111 42 79 111 42 91 128 48 91 128 48 91 128 48 91 128 48 91 128 48 91 128 48 91 128 48 91 128 48 91 128 48 91 128 48 91 128 48 91 128 48 91 128 48 91 128 48 91 128 48 91 128 48 82 115 44 82 115 44 82 115 44 82 115 44 82 115 44 82 115 44 82 115 44 82 115 44 82 115 44 82 115 44 82 115 44 82 115 44 82 115 44 82 115 44 82 115 44 82 115 44 78 109 41 78 109 41 78 109 41 78 109 41 78 109 41 78 109 41 78 109 41 78 109 41 78 109 41 78 109 41 78 109 41 78 109 41 78 109 41 78 109 41 78 109 41 78 109 41 69 96 37 69 96 37 69 96 37 69 96 37 69 96 37 69 96 37 69 96 37 69 96 37 69 96 37 69 96 37 69 96 37 69 96 37 69 96 37 69 96 37 69 96 37 69 96 37 85 119 45 85 119 45 85 119 45 85 119 45 85 119 45 85 119 45 85 119 45 85 119 45 85 119 45 85 119 45 85 119 45 85 119 45 85 119 45 85 119 45 85 119 45 85 119 45 90 126 48 90 126 48 90 126 48 90 126 48 90 126 48 90 126 48 90 126 48 90 126 48 90 126 48 90 126 48 90 126 48 90 126 48 90 126 48 90 126 48 90 126 48 90 126 48 78 110 42 78 110 42 78 110 42 78 110 42 78 110 42 78 110 42 78 110 42 78 110 42 78 110 42 78 110 42 78 110 42 78 110 42 78 110 42 78 110 42 78 110 42 78 110 42 80 112 42 80 112 42 80 112 42 80 112 42 80 112 42 80 112 42 80 112 42 80 112 42 80 112 42 80 112 42 80 112 42 80 112 42 80 112 42 80 112 42 80 112 42 80 112 42 71 100 38 71 100 38 71 100 38 71 100 38 71 100 38 71 100 38 71 100 38 71 100 38 71 100 38 71 100 38 71 100 38 71 100 38 71 100 38 71 100 38 71 100 38 71 100 38 75 106 40 75 106 40 75 106 40 75 106 40 75 106 40 75 106 40 75 106 40 75 106 40 75 106 40 75 106 40 75 106 40 75 106 40 75 106 40 75 106 40 75 106 40 75 106 40 69 97 37 69 97 37 69 97 37 69 97 37 69 97 37 69 97 37 69 97 37 69 97 37 69 97 37 69 97 37 69 97 37 69 97 37 69 97 37 69 97 37 69 97 37 69 97 37 72 101 38 72 101 38 72 101 38 72 101 38 72 101 38 72 101 38 72 101 38 72 101 38 72 101 38 72 101 38 72 101 38 72 101 38 72 101 38 72 101 38 72 101 38 74 103 39 74 103 39 74 103 39 74 103 39 74 103 39 74 103 39 74 103 39 74 103 39 74 103 39 74 103 39 74 103 39 74 103 39 74 103 39 74 103 39 74 103 39 74 103 39 99 138 52 99 138 52 99 138 52 99 138 52 99 138 52 99 138 52 99 138 52 99 138 52 99 138 52 99 138 52 99 138 52 99 138 52 99 138 52 99 138 52 99 138 52 99 138 52 94 131 50 94 131 50 94 131 50 94 131 50 94 131 50 94 131 50 94 131 50 94 131 50 94 131 50 94 131 50 94 131 50 94 131 50 94 131 50 94 131 50 94 131 50 94 131 50 79 111 42 79 111 42 79 111 42 79 111 42 79 111 42 79 111 42 79 111 42 79 111 42 79 111 42 79 111 42 79 111 42 79 111 42 79 111 42 79 111 42 79 111 42 79 111 42 91 128 48 91 128 48 91 128 48 91 128 48 91 128 48 91 128 48 91 128 48 91 128 48 91 128 48 91 128 48 91 128 48 91 128 48 91 128 48 91 128 48 91 128 48 91 128 48 82 115 44 82 115 44 82 115 44 82 115 44 82 115 44 82 115 44 82 115 44 82 115 44 82 115 44 82 115 44 82 115 44 82 115 44 82 115 44 82 115 44 82 115 44 82 115 44 78 109 41 78 109 41 78 109 41 78 109 41 78 109 41 78 109 41 78 109 41 78 109 41 78 109 41 78 109 41 78 109 41 78 109 41 78 109 41 78 109 41 78 109 41 78 109 41 69 96 37 69 96 37 69 96 37 69 96 37 69 96 37 69 96 37 69 96 37 69 96 37 69 96 37 69 96 37 69 96 37 69 96 37 69 96 37 69 96 37 69 96 37 69 96 37 85 119 45 85 119 45 85 119 45 85 119 45 85 119 45 85 119 45 85 119 45 85 119 45 85 119 45 85 119 45 85 119 45 85 119 45 85 119 45 85 119 45 85 119 45 85 119 45 90 126 48 90 126 48 90 126 48 90 126 48 90 126 48 90 126 48 90 126 48 90 126 48 90 126 48 90 126 48 90 126 48 90 126 48 90 126 48 90 126 48 90 126 48 90 126 48 78 110 42 78 110 42 78 110 42 78 110 42 78 110 42 78 110 42 78 110 42 78 110 42 78 110 42 78 110 42 78 110 42 78 110 42 78 110 42 78 110 42 78 110 42 78 110 42 80 112 42 80 112 42 80 112 42 80 112 42 80 112 42 80 112 42 80 112 42 80 112 42 80 112 42 80 112 42 80 112 42 80 112 42 80 112 42 80 112 42 80 112 42 80 112 42 71 100 38 71 100 38 71 100 38 71 100 38 71 100 38 71 100 38 71 100 38 71 100 38 71 100 38 71 100 38 71 100 38 71 100 38 71 100 38 71 100 38 71 100 38 71 100 38 75 106 40 75 106 40 75 106 40 75 106 40 75 106 40 75 106 40 75 106 40 75 106 40 75 106 40 75 106 40 75 106 40 75 106 40 75 106 40 75 106 40 75 106 40 75 106 40 69 97 37 69 97 37 69 97 37 69 97 37 69 97 37 69 97 37 69 97 37 69 97 37 69 97 37 69 97 37 69 97 37 69 97 37 69 97 37 69 97 37 69 97 37 69 97 37 72 101 38 72 101 38 72 101 38 72 101 38 72 101 38 72 101 38 72 101 38 72 101 38 72 101 38 72 101 38 72 101 38 72 101 38 72 101 38 72 101 38 72 101 38 74 103 39 74 103 39 74 103 39 74 103 39 74 103 39 74 103 39 74 103 39 74 103 39 74 103 39 74 103 39 74 103 39 74 103 39 74 103 39 74 103 39 74 103 39 74 103 39 99 138 52 99 138 52 99 138 52 99 138 52 99 138 52 99 138 52 99 138 52 99 138 52 99 138 52 99 138 52 99 138 52 99 138 52 99 138 52 99 138 52 99 138 52 99 138 52 94 131 50 94 131 50 94 131 50 94 131 50 94 131 50 94 131 50 94 131 50 94 131 50 94 131 50 94 131 50 94 131 50 94 131 50 94 131 50 94 131 50 94 131 50 94 131 50 79 111 42 79 111 42 79 111 42 79 111 42 79 111 42 79 111 42 79 111 42 79 111 42 79 111 42 79 111 42 79 111 42 79 111 42 79 111 42 79 111 42 79 111 42 79 111 42 91 128 48 91 128 48 91 128 48 91 128 48 91 128 48 91 128 48 91 128 48 91 128 48 91 128 48 91 128 48 91 128 48 91 128 48 91 128 48 91 128 48 91 128 48 91 128 48 82 115 44 82 115 44 82 115 44 82 115 44 82 115 44 82 115 44 82 115 44 82 115 44 82 115 44 82 115 44 82 115 44 82 115 44 82 115 44 82 115 44 82 115 44 82 115 44 78 109 41 78 109 41 78 109 41 78 109 41 78 109 41 78 109 41 78 109 41 78 109 41 78 109 41 78 109 41 78 109 41 78 109 41 78 109 41 78 109 41 78 109 41 78 109 41 69 96 37 69 96 37 69 96 37 69 96 37 69 96 37 69 96 37 69 96 37 69 96 37 69 96 37 69 96 37 69 96 37 69 96 37 69 96 37 69 96 37 69 96 37 69 96 37 85 119 45 85 119 45 85 119 45 85 119 45 85 119 45 85 119 45 85 119 45 85 119 45 85 119 45 85 119 45 85 119 45 85 119 45 85 119 45 85 119 45 85 119 45 85 119 45 90 126 48 90 126 48 90 126 48 90 126 48 90 126 48 90 126 48 90 126 48 90 126 48 90 126 48 90 126 48 90 126 48 90 126 48 90 126 48 90 126 48 90 126 48 90 126 48 78 110 42 78 110 42 78 110 42 78 110 42 78 110 42 78 110 42 78 110 42 78 110 42 78 110 42 78 110 42 78 110 42 78 110 42 78 110 42 78 110 42 78 110 42 78 110 42 80 112 42 80 112 42 80 112 42 80 112 42 80 112 42 80 112 42 80 112 42 80 112 42 80 112 42 80 112 42 80 112 42 80 112 42 80 112 42 80 112 42 80 112 42 80 112 42 71 100 38 71 100 38 71 100 38 71 100 38 71 100 38 71 100 38 71 100 38 71 100 38 71 100 38 71 100 38 71 100 38 71 100 38 71 100 38 71 100 38 71 100 38 71 100 38 75 106 40 75 106 40 75 106 40 75 106 40 75 106 40 75 106 40 75 106 40 75 106 40 75 106 40 75 106 40 75 106 40 75 106 40 75 106 40 75 106 40 75 106 40 75 106 40 69 97 37 69 97 37 69 97 37 69 97 37 69 97 37 69 97 37 69 97 37 69 97 37 69 97 37 69 97 37 69 97 37 69 97 37 69 97 37 69 97 37 69 97 37 69 97 37 72 101 38 72 101 38 72 101 38 72 101 38 72 101 38 72 101 38 72 101 38 72 101 38 72 101 38 72 101 38 72 101 38 72 101 38 72 101 38 72 101 38 72 101 38 74 103 39 74 103 39 74 103 39 74 103 39 74 103 39 74 103 39 74 103 39 74 103 39 74 103 39 74 103 39 74 103 39 74 103 39 74 103 39 74 103 39 74 103 39 74 103 39 99 138 52 99 138 52 99 138 52 99 138 52 99 138 52 99 138 52 99 138 52 99 138 52 99 138 52 99 138 52 99 138 52 99 138 52 99 138 52 99 138 52 99 138 52 99 138 52 94 131 50 94 131 50 94 131 50 94 131 50 94 131 50 94 131 50 94 131 50 94 131 50 94 131 50 94 131 50 94 131 50 94 131 50 94 131 50 94 131 50 94 131 50 94 131 50 79 111 42 79 111 42 79 111 42 79 111 42 79 111 42 79 111 42 79 111 42 79 111 42 79 111 42 79 111 42 79 111 42 79 111 42 79 111 42 79 111 42 79 111 42 79 111 42 91 128 48 91 128 48 91 128 48 91 128 48 91 128 48 91 128 48 91 128 48 91 128 48 91 128 48 91 128 48 91 128 48 91 128 48 91 128 48 91 128 48 91 128 48 91 128 48 82 115 44 82 115 44 82 115 44 82 115 44 82 115 44 82 115 44 82 115 44 82 115 44 82 115 44 82 115 44 82 115 44 82 115 44 82 115 44 82 115 44 82 115 44 82 115 44 78 109 41 78 109 41 78 109 41 78 109 41 78 109 41 78 109 41 78 109 41 78 109 41 78 109 41 78 109 41 78 109 41 78 109 41 78 109 41 78 109 41 78 109 41 78 109 41 69 96 37 69 96 37 69 96 37 69 96 37 69 96 37 69 96 37 69 96 37 69 96 37 69 96 37 69 96 37 69 96 37 69 96 37 69 96 37 69 96 37 69 96 37 69 96 37 85 119 45 85 119 45 85 119 45 85 119 45 85 119 45 85 119 45 85 119 45 85 119 45 85 119 45 85 119 45 85 119 45 85 119 45 85 119 45 85 119 45 85 119 45 85 119 45 90 126 48 90 126 48 90 126 48 90 126 48 90 126 48 90 126 48 90 126 48 90 126 48 90 126 48 90 126 48 90 126 48 90 126 48 90 126 48 90 126 48 90 126 48 90 126 48 78 110 42 78 110 42 78 110 42 78 110 42 78 110 42 78 110 42 78 110 42 78 110 42 78 110 42 78 110 42 78 110 42 78 110 42 78 110 42 78 110 42 78 110 42 78 110 42 80 112 42 80 112 42 80 112 42 80 112 42 80 112 42 80 112 42 80 112 42 80 112 42 80 112 42 80 112 42 80 112 42 80 112 42 80 112 42 80 112 42 80 112 42 80 112 42 71 100 38 71 100 38 71 100 38 71 100 38 71 100 38 71 100 38 71 100 38 71 100 38 71 100 38 71 100 38 71 100 38 71 100 38 71 100 38 71 100 38 71 100 38 71 100 38 75 106 40 75 106 40 75 106 40 75 106 40 75 106 40 75 106 40 75 106 40 75 106 40 75 106 40 75 106 40 75 106 40 75 106 40 75 106 40 75 106 40 75 106 40 75 106 40 69 97 37 69 97 37 69 97 37 69 97 37 69 97 37 69 97 37 69 97 37 69 97 37 69 97 37 69 97 37 69 97 37 69 97 37 69 97 37 69 97 37 69 97 37 69 97 37 72 101 38 72 101 38 72 101 38 72 101 38 72 101 38 72 101 38 72 101 38 72 101 38 72 101 38 72 101 38 72 101 38 72 101 38 72 101 38 72 101 38 72 101 38 74 103 39 74 103 39 74 103 39 74 103 39 74 103 39 74 103 39 74 103 39 74 103 39 74 103 39 74 103 39 74 103 39 74 103 39 74 103 39 74 103 39 74 103 39 74 103 39 99 138 52 99 138 52 99 138 52 99 138 52 99 138 52 99 138 52 99 138 52 99 138 52 99 138 52 99 138 52 99 138 52 99 138 52 99 138 52 99 138 52 99 138 52 99 138 52 94 131 50 94 131 50 94 131 50 94 131 50 94 131 50 94 131 50 94 131 50 94 131 50 94 131 50 94 131 50 94 131 50 94 131 50 94 131 50 94 131 50 94 131 50 94 131 50 79 111 42 79 111 42 79 111 42 79 111 42 79 111 42 79 111 42 79 111 42 79 111 42 79 111 42 79 111 42 79 111 42 79 111 42 79 111 42 79 111 42 79 111 42 79 111 42 91 128 48 91 128 48 91 128 48 91 128 48 91 128 48 91 128 48 91 128 48 91 128 48 91 128 48 91 128 48 91 128 48 91 128 48 91 128 48 91 128 48 91 128 48 91 128 48 82 115 44 82 115 44 82 115 44 82 115 44 82 115 44 82 115 44 82 115 44 82 115 44 82 115 44 82 115 44 82 115 44 82 115 44 82 115 44 82 115 44 82 115 44 82 115 44 78 109 41 78 109 41 78 109 41 78 109 41 78 109 41 78 109 41 78 109 41 78 109 41 78 109 41 78 109 41 78 109 41 78 109 41 78 109 41 78 109 41 78 109 41 78 109 41 69 96 37 69 96 37 69 96 37 69 96 37 69 96 37 69 96 37 69 96 37 69 96 37 69 96 37 69 96 37 69 96 37 69 96 37 69 96 37 69 96 37 69 96 37 69 96 37 85 119 45 85 119 45 85 119 45 85 119 45 85 119 45 85 119 45 85 119 45 85 119 45 85 119 45 85 119 45 85 119 45 85 119 45 85 119 45 85 119 45 85 119 45 85 119 45 90 126 48 90 126 48 90 126 48 90 126 48 90 126 48 90 126 48 90 126 48 90 126 48 90 126 48 90 126 48 90 126 48 90 126 48 90 126 48 90 126 48 90 126 48 90 126 48 78 110 42 78 110 42 78 110 42 78 110 42 78 110 42 78 110 42 78 110 42 78 110 42 78 110 42 78 110 42 78 110 42 78 110 42 78 110 42 78 110 42 78 110 42 78 110 42 80 112 42 80 112 42 80 112 42 80 112 42 80 112 42 80 112 42 80 112 42 80 112 42 80 112 42 80 112 42 80 112 42 80 112 42 80 112 42 80 112 42 80 112 42 80 112 42 71 100 38 71 100 38 71 100 38 71 100 38 71 100 38 71 100 38 71 100 38 71 100 38 71 100 38 71 100 38 71 100 38 71 100 38 71 100 38 71 100 38 71 100 38 71 100 38 75 106 40 75 106 40 75 106 40 75 106 40 75 106 40 75 106 40 75 106 40 75 106 40 75 106 40 75 106 40 75 106 40 75 106 40 75 106 40 75 106 40 75 106 40 75 106 40 69 97 37 69 97 37 69 97 37 69 97 37 69 97 37 69 97 37 69 97 37 69 97 37 69 97 37 69 97 37 69 97 37 69 97 37 69 97 37 69 97 37 69 97 37 69 97 37 72 101 38 72 101 38 72 101 38 72 101 38 72 101 38 72 101 38 72 101 38 72 101 38 72 101 38 72 101 38 72 101 38 72 101 38 72 101 38 72 101 38 72 101 38 74 103 39 74 103 39 74 103 39 74 103 39 74 103 39 74 103 39 74 103 39 74 103 39 74 103 39 74 103 39 74 103 39 74 103 39 74 103 39 74 103 39 74 103 39 74 103 39 99 138 52 99 138 52 99 138 52 99 138 52 99 138 52 99 138 52 99 138 52 99 138 52 99 138 52 99 138 52 99 138 52 99 138 52 99 138 52 99 138 52 99 138 52 99 138 52 94 131 50 94 131 50 94 131 50 94 131 50 94 131 50 94 131 50 94 131 50 94 131 50 94 131 50 94 131 50 94 131 50 94 131 50 94 131 50 94 131 50 94 131 50 94 131 50 79 111 42 79 111 42 79 111 42 79 111 42 79 111 42 79 111 42 79 111 42 79 111 42 79 111 42 79 111 42 79 111 42 79 111 42 79 111 42 79 111 42 79 111 42 79 111 42 91 128 48 91 128 48 91 128 48 91 128 48 91 128 48 91 128 48 91 128 48 91 128 48 91 128 48 91 128 48 91 128 48 91 128 48 91 128 48 91 128 48 91 128 48 91 128 48 82 115 44 82 115 44 82 115 44 82 115 44 82 115 44 82 115 44 82 115 44 82 115 44 82 115 44 82 115 44 82 115 44 82 115 44 82 115 44 82 115 44 82 115 44 82 115 44 78 109 41 78 109 41 78 109 41 78 109 41 78 109 41 78 109 41 78 109 41 78 109 41 78 109 41 78 109 41 78 109 41 78 109 41 78 109 41 78 109 41 78 109 41 78 109 41 69 96 37 69 96 37 69 96 37 69 96 37 69 96 37 69 96 37 69 96 37 69 96 37 69 96 37 69 96 37 69 96 37 69 96 37 69 96 37 69 96 37 69 96 37 69 96 37 85 119 45 85 119 45 85 119 45 85 119 45 85 119 45 85 119 45 85 119 45 85 119 45 85 119 45 85 119 45 85 119 45 85 119 45 85 119 45 85 119 45 85 119 45 85 119 45 90 126 48 90 126 48 90 126 48 90 126 48 90 126 48 90 126 48 90 126 48 90 126 48 90 126 48 90 126 48 90 126 48 90 126 48 90 126 48 90 126 48 90 126 48 90 126 48 78 110 42 78 110 42 78 110 42 78 110 42 78 110 42 78 110 42 78 110 42 78 110 42 78 110 42 78 110 42 78 110 42 78 110 42 78 110 42 78 110 42 78 110 42 78 110 42 80 112 42 80 112 42 80 112 42 80 112 42 80 112 42 80 112 42 80 112 42 80 112 42 80 112 42 80 112 42 80 112 42 80 112 42 80 112 42 80 112 42 80 112 42 80 112 42 71 100 38 71 100 38 71 100 38 71 100 38 71 100 38 71 100 38 71 100 38 71 100 38 71 100 38 71 100 38 71 100 38 71 100 38 71 100 38 71 100 38 71 100 38 71 100 38 75 106 40 75 106 40 75 106 40 75 106 40 75 106 40 75 106 40 75 106 40 75 106 40 75 106 40 75 106 40 75 106 40 75 106 40 75 106 40 75 106 40 75 106 40 75 106 40 69 97 37 69 97 37 69 97 37 69 97 37 69 97 37 69 97 37 69 97 37 69 97 37 69 97 37 69 97 37 69 97 37 69 97 37 69 97 37 69 97 37 69 97 37 69 97 37 72 101 38 72 101 38 72 101 38 72 101 38 72 101 38 72 101 38 72 101 38 72 101 38 72 101 38 72 101 38 72 101 38 72 101 38 72 101 38 72 101 38 72 101 38 74 103 39 74 103 39 74 103 39 74 103 39 74 103 39 74 103 39 74 103 39 74 103 39 74 103 39 74 103 39 74 103 39 74 103 39 74 103 39 74 103 39 74 103 39 74 103 39 99 138 52 99 138 52 99 138 52 99 138 52 99 138 52 99 138 52 99 138 52 99 138 52 99 138 52 99 138 52 99 138 52 99 138 52 99 138 52 99 138 52 99 138 52 99 138 52 94 131 50 94 131 50 94 131 50 94 131 50 94 131 50 94 131 50 94 131 50 94 131 50 94 131 50 94 131 50 94 131 50 94 131 50 94 131 50 94 131 50 94 131 50 94 131 50 79 111 42 79 111 42 79 111 42 79 111 42 79 111 42 79 111 42 79 111 42 79 111 42 79 111 42 79 111 42 79 111 42 79 111 42 79 111 42 79 111 42 79 111 42 79 111 42 91 128 48 91 128 48 91 128 48 91 128 48 91 128 48 91 128 48 91 128 48 91 128 48 91 128 48 91 128 48 91 128 48 91 128 48 91 128 48 91 128 48 91 128 48 91 128 48 82 115 44 82 115 44 82 115 44 82 115 44 82 115 44 82 115 44 82 115 44 82 115 44 82 115 44 82 115 44 82 115 44 82 115 44 82 115 44 82 115 44 82 115 44 82 115 44 78 109 41 78 109 41 78 109 41 78 109 41 78 109 41 78 109 41 78 109 41 78 109 41 78 109 41 78 109 41 78 109 41 78 109 41 78 109 41 78 109 41 78 109 41 78 109 41 69 96 37 69 96 37 69 96 37 69 96 37 69 96 37 69 96 37 69 96 37 69 96 37 69 96 37 69 96 37 69 96 37 69 96 37 69 96 37 69 96 37 69 96 37 69 96 37 85 119 45 85 119 45 85 119 45 85 119 45 85 119 45 85 119 45 85 119 45 85 119 45 85 119 45 85 119 45 85 119 45 85 119 45 85 119 45 85 119 45 85 119 45 85 119 45 90 126 48 90 126 48 90 126 48 90 126 48 90 126 48 90 126 48 90 126 48 90 126 48 90 126 48 90 126 48 90 126 48 90 126 48 90 126 48 90 126 48 90 126 48 90 126 48 78 110 42 78 110 42 78 110 42 78 110 42 78 110 42 78 110 42 78 110 42 78 110 42 78 110 42 78 110 42 78 110 42 78 110 42 78 110 42 78 110 42 78 110 42 78 110 42 80 112 42 80 112 42 80 112 42 80 112 42 80 112 42 80 112 42 80 112 42 80 112 42 80 112 42 80 112 42 80 112 42 80 112 42 80 112 42 80 112 42 80 112 42 80 112 42 71 100 38 71 100 38 71 100 38 71 100 38 71 100 38 71 100 38 71 100 38 71 100 38 71 100 38 71 100 38 71 100 38 71 100 38 71 100 38 71 100 38 71 100 38 71 100 38 75 106 40 75 106 40 75 106 40 75 106 40 75 106 40 75 106 40 75 106 40 75 106 40 75 106 40 75 106 40 75 106 40 75 106 40 75 106 40 75 106 40 75 106 40 75 106 40 69 97 37 69 97 37 69 97 37 69 97 37 69 97 37 69 97 37 69 97 37 69 97 37 69 97 37 69 97 37 69 97 37 69 97 37 69 97 37 69 97 37 69 97 37 69 97 37 72 101 38 72 101 38 72 101 38 72 101 38 72 101 38 72 101 38 72 101 38 72 101 38 72 101 38 72 101 38 72 101 38 72 101 38 72 101 38 72 101 38 72 101 38 74 103 39 74 103 39 74 103 39 74 103 39 74 103 39 74 103 39 74 103 39 74 103 39 74 103 39 74 103 39 74 103 39 74 103 39 74 103 39 74 103 39 74 103 39 74 103 39 99 138 52 99 138 52 99 138 52 99 138 52 99 138 52 99 138 52 99 138 52 99 138 52 99 138 52 99 138 52 99 138 52 99 138 52 99 138 52 99 138 52 99 138 52 99 138 52 94 131 50 94 131 50 94 131 50 94 131 50 94 131 50 94 131 50 94 131 50 94 131 50 94 131 50 94 131 50 94 131 50 94 131 50 94 131 50 94 131 50 94 131 50 94 131 50 79 111 42 79 111 42 79 111 42 79 111 42 79 111 42 79 111 42 79 111 42 79 111 42 79 111 42 79 111 42 79 111 42 79 111 42 79 111 42 79 111 42 79 111 42 79 111 42 91 128 48 91 128 48 91 128 48 91 128 48 91 128 48 91 128 48 91 128 48 91 128 48 91 128 48 91 128 48 91 128 48 91 128 48 91 128 48 91 128 48 91 128 48 91 128 48 82 115 44 82 115 44 82 115 44 82 115 44 82 115 44 82 115 44 82 115 44 82 115 44 82 115 44 82 115 44 82 115 44 82 115 44 82 115 44 82 115 44 82 115 44 82 115 44 78 109 41 78 109 41 78 109 41 78 109 41 78 109 41 78 109 41 78 109 41 78 109 41 78 109 41 78 109 41 78 109 41 78 109 41 78 109 41 78 109 41 78 109 41 78 109 41 69 96 37 69 96 37 69 96 37 69 96 37 69 96 37 69 96 37 69 96 37 69 96 37 69 96 37 69 96 37 69 96 37 69 96 37 69 96 37 69 96 37 69 96 37 69 96 37 85 119 45 85 119 45 85 119 45 85 119 45 85 119 45 85 119 45 85 119 45 85 119 45 85 119 45 85 119 45 85 119 45 85 119 45 85 119 45 85 119 45 85 119 45 85 119 45 90 126 48 90 126 48 90 126 48 90 126 48 90 126 48 90 126 48 90 126 48 90 126 48 90 126 48 90 126 48 90 126 48 90 126 48 90 126 48 90 126 48 90 126 48 90 126 48 78 110 42 78 110 42 78 110 42 78 110 42 78 110 42 78 110 42 78 110 42 78 110 42 78 110 42 78 110 42 78 110 42 78 110 42 78 110 42 78 110 42 78 110 42 78 110 42 80 112 42 80 112 42 80 112 42 80 112 42 80 112 42 80 112 42 80 112 42 80 112 42 80 112 42 80 112 42 80 112 42 80 112 42 80 112 42 80 112 42 80 112 42 80 112 42 71 100 38 71 100 38 71 100 38 71 100 38 71 100 38 71 100 38 71 100 38 71 100 38 71 100 38 71 100 38 71 100 38 71 100 38 71 100 38 71 100 38 71 100 38 71 100 38 75 106 40 75 106 40 75 106 40 75 106 40 75 106 40 75 106 40 75 106 40 75 106 40 75 106 40 75 106 40 75 106 40 75 106 40 75 106 40 75 106 40 75 106 40 75 106 40 69 97 37 69 97 37 69 97 37 69 97 37 69 97 37 69 97 37 69 97 37 69 97 37 69 97 37 69 97 37 69 97 37 69 97 37 69 97 37 69 97 37 69 97 37 69 97 37 72 101 38 72 101 38 72 101 38 72 101 38 72 101 38 72 101 38 72 101 38 72 101 38 72 101 38 72 101 38 72 101 38 72 101 38 72 101 38 72 101 38 72 101 38 74 103 39 74 103 39 74 103 39 74 103 39 74 103 39 74 103 39 74 103 39 74 103 39 74 103 39 74 103 39 74 103 39 74 103 39 74 103 39 74 103 39 74 103 39 74 103 39 99 138 52 99 138 52 99 138 52 99 138 52 99 138 52 99 138 52 99 138 52 99 138 52 99 138 52 99 138 52 99 138 52 99 138 52 99 138 52 99 138 52 99 138 52 99 138 52 94 131 50 94 131 50 94 131 50 94 131 50 94 131 50 94 131 50 94 131 50 94 131 50 94 131 50 94 131 50 94 131 50 94 131 50 94 131 50 94 131 50 94 131 50 94 131 50 79 111 42 79 111 42 79 111 42 79 111 42 79 111 42 79 111 42 79 111 42 79 111 42 79 111 42 79 111 42 79 111 42 79 111 42 79 111 42 79 111 42 79 111 42 79 111 42 91 128 48 91 128 48 91 128 48 91 128 48 91 128 48 91 128 48 91 128 48 91 128 48 91 128 48 91 128 48 91 128 48 91 128 48 91 128 48 91 128 48 91 128 48 91 128 48 82 115 44 82 115 44 82 115 44 82 115 44 82 115 44 82 115 44 82 115 44 82 115 44 82 115 44 82 115 44 82 115 44 82 115 44 82 115 44 82 115 44 82 115 44 82 115 44 78 109 41 78 109 41 78 109 41 78 109 41 78 109 41 78 109 41 78 109 41 78 109 41 78 109 41 78 109 41 78 109 41 78 109 41 78 109 41 78 109 41 78 109 41 78 109 41 78 109 41 78 109 41 78 109 41 78 109 41 78 109 41 78 109 41 78 109 41 78 109 41 78 109 41 78 109 41 78 109 41 78 109 41 78 109 41 78 109 41 78 109 41 78 109 41 74 103 39 74 103 39 74 103 39 74 103 39 74 103 39 74 103 39 74 103 39 74 103 39 74 103 39 74 103 39 74 103 39 74 103 39 74 103 39 74 103 39 74 103 39 74 103 39 86 120 46 86 120 46 86 120 46 86 120 46 86 120 46 86 120 46 86 120 46 86 120 46 86 120 46 86 120 46 86 120 46 86 120 46 86 120 46 86 120 46 86 120 46 86 120 46 76 106 40 76 106 40 76 106 40 76 106 40 76 106 40 76 106 40 76 106 40 76 106 40 76 106 40 76 106 40 76 106 40 76 106 40 76 106 40 76 106 40 76 106 40 76 106 40 78 110 42 78 110 42 78 110 42 78 110 42 78 110 42 78 110 42 78 110 42 78 110 42 78 110 42 78 110 42 78 110 42 78 110 42 78 110 42 78 110 42 78 110 42 78 110 42 68 95 36 68 95 36 68 95 36 68 95 36 68 95 36 68 95 36 68 95 36 68 95 36 68 95 36 68 95 36 68 95 36 68 95 36 68 95 36 68 95 36 68 95 36 68 95 36 89 125 48 89 125 48 89 125 48 89 125 48 89 125 48 89 125 48 89 125 48 89 125 48 89 125 48 89 125 48 89 125 48 89 125 48 89 125 48 89 125 48 89 125 48 89 125 48 72 101 38 72 101 38 72 101 38 72 101 38 72 101 38 72 101 38 72 101 38 72 101 38 72 101 38 72 101 38 72 101 38 72 101 38 72 101 38 72 101 38 72 101 38 72 101 38 82 115 44 82 115 44 82 115 44 82 115 44 82 115 44 82 115 44 82 115 44 82 115 44 82 115 44 82 115 44 82 115 44 82 115 44 82 115 44 82 115 44 82 115 44 94 132 50 94 132 50 94 132 50 94 132 50 94 132 50 94 132 50 94 132 50 94 132 50 94 132 50 94 132 50 94 132 50 94 132 50 94 132 50 94 132 50 94 132 50 94 132 50 74 103 39 74 103 39 74 103 39 74 103 39 74 103 39 74 103 39 74 103 39 74 103 39 74 103 39 74 103 39 74 103 39 74 103 39 74 103 39 74 103 39 74 103 39 74 103 39 70 99 37 70 99 37 70 99 37 70 99 37 70 99 37 70 99 37 70 99 37 70 99 37 70 99 37 70 99 37 70 99 37 70 99 37 70 99 37 70 99 37 70 99 37 70 99 37 78 109 41 78 109 41 78 109 41 78 109 41 78 109 41 78 109 41 78 109 41 78 109 41 78 109 41 78 109 41 78 109 41 78 109 41 78 109 41 78 109 41 78 109 41 78 109 41 87 122 46 87 122 46 87 122 46 87 122 46 87 122 46 87 122 46 87 122 46 87 122 46 87 122 46 87 122 46 87 122 46 87 122 46 87 122 46 87 122 46 87 122 46 87 122 46 69 97 37 69 97 37 69 97 37 69 97 37 69 97 37 69 97 37 69 97 37 69 97 37 69 97 37 69 97 37 69 97 37 69 97 37 69 97 37 69 97 37 69 97 37 69 97 37 92 129 49 92 129 49 92 129 49 92 129 49 92 129 49 92 129 49 92 129 49 92 129 49 92 129 49 92 129 49 92 129 49 92 129 49 92 129 49 92 129 49 92 129 49 92 129 49 78 109 41 78 109 41 78 109 41 78 109 41 78 109 41 78 109 41 78 109 41 78 109 41 78 109 41 78 109 41 78 109 41 78 109 41 78 109 41 78 109 41 78 109 41 78 109 41 74 103 39 74 103 39 74 103 39 74 103 39 74 103 39 74 103 39 74 103 39 74 103 39 74 103 39 74 103 39 74 103 39 74 103 39 74 103 39 74 103 39 74 103 39 74 103 39 86 120 46 86 120 46 86 120 46 86 120 46 86 120 46 86 120 46 86 120 46 86 120 46 86 120 46 86 120 46 86 120 46 86 120 46 86 120 46 86 120 46 86 120 46 86 120 46 76 106 40 76 106 40 76 106 40 76 106 40 76 106 40 76 106 40 76 106 40 76 106 40 76 106 40 76 106 40 76 106 40 76 106 40 76 106 40 76 106 40 76 106 40 76 106 40 78 110 42 78 110 42 78 110 42 78 110 42 78 110 42 78 110 42 78 110 42 78 110 42 78 110 42 78 110 42 78 110 42 78 110 42 78 110 42 78 110 42 78 110 42 78 110 42 68 95 36 68 95 36 68 95 36 68 95 36 68 95 36 68 95 36 68 95 36 68 95 36 68 95 36 68 95 36 68 95 36 68 95 36 68 95 36 68 95 36 68 95 36 68 95 36 89 125 48 89 125 48 89 125 48 89 125 48 89 125 48 89 125 48 89 125 48 89 125 48 89 125 48 89 125 48 89 125 48 89 125 48 89 125 48 89 125 48 89 125 48 89 125 48 72 101 38 72 101 38 72 101 38 72 101 38 72 101 38 72 101 38 72 101 38 72 101 38 72 101 38 72 101 38 72 101 38 72 101 38 72 101 38 72 101 38 72 101 38 72 101 38 82 115 44 82 115 44 82 115 44 82 115 44 82 115 44 82 115 44 82 115 44 82 115 44 82 115 44 82 115 44 82 115 44 82 115 44 82 115 44 82 115 44 82 115 44 94 132 50 94 132 50 94 132 50 94 132 50 94 132 50 94 132 50 94 132 50 94 132 50 94 132 50 94 132 50 94 132 50 94 132 50 94 132 50 94 132 50 94 132 50 94 132 50 74 103 39 74 103 39 74 103 39 74 103 39 74 103 39 74 103 39 74 103 39 74 103 39 74 103 39 74 103 39 74 103 39 74 103 39 74 103 39 74 103 39 74 103 39 74 103 39 70 99 37 70 99 37 70 99 37 70 99 37 70 99 37 70 99 37 70 99 37 70 99 37 70 99 37 70 99 37 70 99 37 70 99 37 70 99 37 70 99 37 70 99 37 70 99 37 78 109 41 78 109 41 78 109 41 78 109 41 78 109 41 78 109 41 78 109 41 78 109 41 78 109 41 78 109 41 78 109 41 78 109 41 78 109 41 78 109 41 78 109 41 78 109 41 87 122 46 87 122 46 87 122 46 87 122 46 87 122 46 87 122 46 87 122 46 87 122 46 87 122 46 87 122 46 87 122 46 87 122 46 87 122 46 87 122 46 87 122 46 87 122 46 69 97 37 69 97 37 69 97 37 69 97 37 69 97 37 69 97 37 69 97 37 69 97 37 69 97 37 69 97 37 69 97 37 69 97 37 69 97 37 69 97 37 69 97 37 69 97 37 92 129 49 92 129 49 92 129 49 92 129 49 92 129 49 92 129 49 92 129 49 92 129 49 92 129 49 92 129 49 92 129 49 92 129 49 92 129 49 92 129 49 92 129 49 92 129 49 78 109 41 78 109 41 78 109 41 78 109 41 78 109 41 78 109 41 78 109 41 78 109 41 78 109 41 78 109 41 78 109 41 78 109 41 78 109 41 78 109 41 78 109 41 78 109 41 74 103 39 74 103 39 74 103 39 74 103 39 74 103 39 74 103 39 74 103 39 74 103 39 74 103 39 74 103 39 74 103 39 74 103 39 74 103 39 74 103 39 74 103 39 74 103 39 86 120 46 86 120 46 86 120 46 86 120 46 86 120 46 86 120 46 86 120 46 86 120 46 86 120 46 86 120 46 86 120 46 86 120 46 86 120 46 86 120 46 86 120 46 86 120 46 76 106 40 76 106 40 76 106 40 76 106 40 76 106 40 76 106 40 76 106 40 76 106 40 76 106 40 76 106 40 76 106 40 76 106 40 76 106 40 76 106 40 76 106 40 76 106 40 78 110 42 78 110 42 78 110 42 78 110 42 78 110 42 78 110 42 78 110 42 78 110 42 78 110 42 78 110 42 78 110 42 78 110 42 78 110 42 78 110 42 78 110 42 78 110 42 68 95 36 68 95 36 68 95 36 68 95 36 68 95 36 68 95 36 68 95 36 68 95 36 68 95 36 68 95 36 68 95 36 68 95 36 68 95 36 68 95 36 68 95 36 68 95 36 89 125 48 89 125 48 89 125 48 89 125 48 89 125 48 89 125 48 89 125 48 89 125 48 89 125 48 89 125 48 89 125 48 89 125 48 89 125 48 89 125 48 89 125 48 89 125 48 72 101 38 72 101 38 72 101 38 72 101 38 72 101 38 72 101 38 72 101 38 72 101 38 72 101 38 72 101 38 72 101 38 72 101 38 72 101 38 72 101 38 72 101 38 72 101 38 82 115 44 82 115 44 82 115 44 82 115 44 82 115 44 82 115 44 82 115 44 82 115 44 82 115 44 82 115 44 82 115 44 82 115 44 82 115 44 82 115 44 82 115 44 94 132 50 94 132 50 94 132 50 94 132 50 94 132 50 94 132 50 94 132 50 94 132 50 94 132 50 94 132 50 94 132 50 94 132 50 94 132 50 94 132 50 94 132 50 94 132 50 74 103 39 74 103 39 74 103 39 74 103 39 74 103 39 74 103 39 74 103 39 74 103 39 74 103 39 74 103 39 74 103 39 74 103 39 74 103 39 74 103 39 74 103 39 74 103 39 70 99 37 70 99 37 70 99 37 70 99 37 70 99 37 70 99 37 70 99 37 70 99 37 70 99 37 70 99 37 70 99 37 70 99 37 70 99 37 70 99 37 70 99 37 70 99 37 78 109 41 78 109 41 78 109 41 78 109 41 78 109 41 78 109 41 78 109 41 78 109 41 78 109 41 78 109 41 78 109 41 78 109 41 78 109 41 78 109 41 78 109 41 78 109 41 87 122 46 87 122 46 87 122 46 87 122 46 87 122 46 87 122 46 87 122 46 87 122 46 87 122 46 87 122 46 87 122 46 87 122 46 87 122 46 87 122 46 87 122 46 87 122 46 69 97 37 69 97 37 69 97 37 69 97 37 69 97 37 69 97 37 69 97 37 69 97 37 69 97 37 69 97 37 69 97 37 69 97 37 69 97 37 69 97 37 69 97 37 69 97 37 92 129 49 92 129 49 92 129 49 92 129 49 92 129 49 92 129 49 92 129 49 92 129 49 92 129 49 92 129 49 92 129 49 92 129 49 92 129 49 92 129 49 92 129 49 92 129 49 78 109 41 78 109 41 78 109 41 78 109 41 78 109 41 78 109 41 78 109 41 78 109 41 78 109 41 78 109 41 78 109 41 78 109 41 78 109 41 78 109 41 78 109 41 78 109 41 74 103 39 74 103 39 74 103 39 74 103 39 74 103 39 74 103 39 74 103 39 74 103 39 74 103 39 74 103 39 74 103 39 74 103 39 74 103 39 74 103 39 74 103 39 74 103 39 86 120 46 86 120 46 86 120 46 86 120 46 86 120 46 86 120 46 86 120 46 86 120 46 86 120 46 86 120 46 86 120 46 86 120 46 86 120 46 86 120 46 86 120 46 86 120 46 76 106 40 76 106 40 76 106 40 76 106 40 76 106 40 76 106 40 76 106 40 76 106 40 76 106 40 76 106 40 76 106 40 76 106 40 76 106 40 76 106 40 76 106 40 76 106 40 78 110 42 78 110 42 78 110 42 78 110 42 78 110 42 78 110 42 78 110 42 78 110 42 78 110 42 78 110 42 78 110 42 78 110 42 78 110 42 78 110 42 78 110 42 78 110 42 68 95 36 68 95 36 68 95 36 68 95 36 68 95 36 68 95 36 68 95 36 68 95 36 68 95 36 68 95 36 68 95 36 68 95 36 68 95 36 68 95 36 68 95 36 68 95 36 89 125 48 89 125 48 89 125 48 89 125 48 89 125 48 89 125 48 89 125 48 89 125 48 89 125 48 89 125 48 89 125 48 89 125 48 89 125 48 89 125 48 89 125 48 89 125 48 72 101 38 72 101 38 72 101 38 72 101 38 72 101 38 72 101 38 72 101 38 72 101 38 72 101 38 72 101 38 72 101 38 72 101 38 72 101 38 72 101 38 72 101 38 72 101 38 82 115 44 82 115 44 82 115 44 82 115 44 82 115 44 82 115 44 82 115 44 82 115 44 82 115 44 82 115 44 82 115 44 82 115 44 82 115 44 82 115 44 82 115 44 94 132 50 94 132 50 94 132 50 94 132 50 94 132 50 94 132 50 94 132 50 94 132 50 94 132 50 94 132 50 94 132 50 94 132 50 94 132 50 94 132 50 94 132 50 94 132 50 74 103 39 74 103 39 74 103 39 74 103 39 74 103 39 74 103 39 74 103 39 74 103 39 74 103 39 74 103 39 74 103 39 74 103 39 74 103 39 74 103 39 74 103 39 74 103 39 70 99 37 70 99 37 70 99 37 70 99 37 70 99 37 70 99 37 70 99 37 70 99 37 70 99 37 70 99 37 70 99 37 70 99 37 70 99 37 70 99 37 70 99 37 70 99 37 78 109 41 78 109 41 78 109 41 78 109 41 78 109 41 78 109 41 78 109 41 78 109 41 78 109 41 78 109 41 78 109 41 78 109 41 78 109 41 78 109 41 78 109 41 78 109 41 87 122 46 87 122 46 87 122 46 87 122 46 87 122 46 87 122 46 87 122 46 87 122 46 87 122 46 87 122 46 87 122 46 87 122 46 87 122 46 87 122 46 87 122 46 87 122 46 69 97 37 69 97 37 69 97 37 69 97 37 69 97 37 69 97 37 69 97 37 69 97 37 69 97 37 69 97 37 69 97 37 69 97 37 69 97 37 69 97 37 69 97 37 69 97 37 92 129 49 92 129 49 92 129 49 92 129 49 92 129 49 92 129 49 92 129 49 92 129 49 92 129 49 92 129 49 92 129 49 92 129 49 92 129 49 92 129 49 92 129 49 92 129 49 78 109 41 78 109 41 78 109 41 78 109 41 78 109 41 78 109 41 78 109 41 78 109 41 78 109 41 78 109 41 78 109 41 78 109 41 78 109 41 78 109 41 78 109 41 78 109 41 74 103 39 74 103 39 74 103 39 74 103 39 74 103 39 74 103 39 74 103 39 74 103 39 74 103 39 74 103 39 74 103 39 74 103 39 74 103 39 74 103 39 74 103 39 74 103 39 86 120 46 86 120 46 86 120 46 86 120 46 86 120 46 86 120 46 86 120 46 86 120 46 86 120 46 86 120 46 86 120 46 86 120 46 86 120 46 86 120 46 86 120 46 86 120 46 76 106 40 76 106 40 76 106 40 76 106 40 76 106 40 76 106 40 76 106 40 76 106 40 76 106 40 76 106 40 76 106 40 76 106 40 76 106 40 76 106 40 76 106 40 76 106 40 78 110 42 78 110 42 78 110 42 78 110 42 78 110 42 78 110 42 78 110 42 78 110 42 78 110 42 78 110 42 78 110 42 78 110 42 78 110 42 78 110 42 78 110 42 78 110 42 68 95 36 68 95 36 68 95 36 68 95 36 68 95 36 68 95 36 68 95 36 68 95 36 68 95 36 68 95 36 68 95 36 68 95 36 68 95 36 68 95 36 68 95 36 68 95 36 89 125 48 89 125 48 89 125 48 89 125 48 89 125 48 89 125 48 89 125 48 89 125 48 89 125 48 89 125 48 89 125 48 89 125 48 89 125 48 89 125 48 89 125 48 89 125 48 72 101 38 72 101 38 72 101 38 72 101 38 72 101 38 72 101 38 72 101 38 72 101 38 72 101 38 72 101 38 72 101 38 72 101 38 72 101 38 72 101 38 72 101 38 72 101 38 82 115 44 82 115 44 82 115 44 82 115 44 82 115 44 82 115 44 82 115 44 82 115 44 82 115 44 82 115 44 82 115 44 82 115 44 82 115 44 82 115 44 82 115 44 94 132 50 94 132 50 94 132 50 94 132 50 94 132 50 94 132 50 94 132 50 94 132 50 94 132 50 94 132 50 94 132 50 94 132 50 94 132 50 94 132 50 94 132 50 94 132 50 74 103 39 74 103 39 74 103 39 74 103 39 74 103 39 74 103 39 74 103 39 74 103 39 74 103 39 74 103 39 74 103 39 74 103 39 74 103 39 74 103 39 74 103 39 74 103 39 70 99 37 70 99 37 70 99 37 70 99 37 70 99 37 70 99 37 70 99 37 70 99 37 70 99 37 70 99 37 70 99 37 70 99 37 70 99 37 70 99 37 70 99 37 70 99 37 78 109 41 78 109 41 78 109 41 78 109 41 78 109 41 78 109 41 78 109 41 78 109 41 78 109 41 78 109 41 78 109 41 78 109 41 78 109 41 78 109 41 78 109 41 78 109 41 87 122 46 87 122 46 87 122 46 87 122 46 87 122 46 87 122 46 87 122 46 87 122 46 87 122 46 87 122 46 87 122 46 87 122 46 87 122 46 87 122 46 87 122 46 87 122 46 69 97 37 69 97 37 69 97 37 69 97 37 69 97 37 69 97 37 69 97 37 69 97 37 69 97 37 69 97 37 69 97 37 69 97 37 69 97 37 69 97 37 69 97 37 69 97 37 92 129 49 92 129 49 92 129 49 92 129 49 92 129 49 92 129 49 92 129 49 92 129 49 92 129 49 92 129 49 92 129 49 92 129 49 92 129 49 92 129 49 92 129 49 92 129 49 78 109 41 78 109 41 78 109 41 78 109 41 78 109 41 78 109 41 78 109 41 78 109 41 78 109 41 78 109 41 78 109 41 78 109 41 78 109 41 78 109 41 78 109 41 78 109 41 74 103 39 74 103 39 74 103 39 74 103 39 74 103 39 74 103 39 74 103 39 74 103 39 74 103 39 74 103 39 74 103 39 74 103 39 74 103 39 74 103 39 74 103 39 74 103 39 86 120 46 86 120 46 86 120 46 86 120 46 86 120 46 86 120 46 86 120 46 86 120 46 86 120 46 86 120 46 86 120 46 86 120 46 86 120 46 86 120 46 86 120 46 86 120 46 76 106 40 76 106 40 76 106 40 76 106 40 76 106 40 76 106 40 76 106 40 76 106 40 76 106 40 76 106 40 76 106 40 76 106 40 76 106 40 76 106 40 76 106 40 76 106 40 78 110 42 78 110 42 78 110 42 78 110 42 78 110 42 78 110 42 78 110 42 78 110 42 78 110 42 78 110 42 78 110 42 78 110 42 78 110 42 78 110 42 78 110 42 78 110 42 68 95 36 68 95 36 68 95 36 68 95 36 68 95 36 68 95 36 68 95 36 68 95 36 68 95 36 68 95 36 68 95 36 68 95 36 68 95 36 68 95 36 68 95 36 68 95 36 89 125 48 89 125 48 89 125 48 89 125 48 89 125 48 89 125 48 89 125 48 89 125 48 89 125 48 89 125 48 89 125 48 89 125 48 89 125 48 89 125 48 89 125 48 89 125 48 72 101 38 72 101 38 72 101 38 72 101 38 72 101 38 72 101 38 72 101 38 72 101 38 72 101 38 72 101 38 72 101 38 72 101 38 72 101 38 72 101 38 72 101 38 72 101 38 82 115 44 82 115 44 82 115 44 82 115 44 82 115 44 82 115 44 82 115 44 82 115 44 82 115 44 82 115 44 82 115 44 82 115 44 82 115 44 82 115 44 82 115 44 94 132 50 94 132 50 94 132 50 94 132 50 94 132 50 94 132 50 94 132 50 94 132 50 94 132 50 94 132 50 94 132 50 94 132 50 94 132 50 94 132 50 94 132 50 94 132 50 74 103 39 74 103 39 74 103 39 74 103 39 74 103 39 74 103 39 74 103 39 74 103 39 74 103 39 74 103 39 74 103 39 74 103 39 74 103 39 74 103 39 74 103 39 74 103 39 70 99 37 70 99 37 70 99 37 70 99 37 70 99 37 70 99 37 70 99 37 70 99 37 70 99 37 70 99 37 70 99 37 70 99 37 70 99 37 70 99 37 70 99 37 70 99 37 78 109 41 78 109 41 78 109 41 78 109 41 78 109 41 78 109 41 78 109 41 78 109 41 78 109 41 78 109 41 78 109 41 78 109 41 78 109 41 78 109 41 78 109 41 78 109 41 87 122 46 87 122 46 87 122 46 87 122 46 87 122 46 87 122 46 87 122 46 87 122 46 87 122 46 87 122 46 87 122 46 87 122 46 87 122 46 87 122 46 87 122 46 87 122 46 69 97 37 69 97 37 69 97 37 69 97 37 69 97 37 69 97 37 69 97 37 69 97 37 69 97 37 69 97 37 69 97 37 69 97 37 69 97 37 69 97 37 69 97 37 69 97 37 92 129 49 92 129 49 92 129 49 92 129 49 92 129 49 92 129 49 92 129 49 92 129 49 92 129 49 92 129 49 92 129 49 92 129 49 92 129 49 92 129 49 92 129 49 92 129 49 78 109 41 78 109 41 78 109 41 78 109 41 78 109 41 78 109 41 78 109 41 78 109 41 78 109 41 78 109 41 78 109 41 78 109 41 78 109 41 78 109 41 78 109 41 78 109 41 74 103 39 74 103 39 74 103 39 74 103 39 74 103 39 74 103 39 74 103 39 74 103 39 74 103 39 74 103 39 74 103 39 74 103 39 74 103 39 74 103 39 74 103 39 74 103 39 86 120 46 86 120 46 86 120 46 86 120 46 86 120 46 86 120 46 86 120 46 86 120 46 86 120 46 86 120 46 86 120 46 86 120 46 86 120 46 86 120 46 86 120 46 86 120 46 76 106 40 76 106 40 76 106 40 76 106 40 76 106 40 76 106 40 76 106 40 76 106 40 76 106 40 76 106 40 76 106 40 76 106 40 76 106 40 76 106 40 76 106 40 76 106 40 78 110 42 78 110 42 78 110 42 78 110 42 78 110 42 78 110 42 78 110 42 78 110 42 78 110 42 78 110 42 78 110 42 78 110 42 78 110 42 78 110 42 78 110 42 78 110 42 68 95 36 68 95 36 68 95 36 68 95 36 68 95 36 68 95 36 68 95 36 68 95 36 68 95 36 68 95 36 68 95 36 68 95 36 68 95 36 68 95 36 68 95 36 68 95 36 89 125 48 89 125 48 89 125 48 89 125 48 89 125 48 89 125 48 89 125 48 89 125 48 89 125 48 89 125 48 89 125 48 89 125 48 89 125 48 89 125 48 89 125 48 89 125 48 72 101 38 72 101 38 72 101 38 72 101 38 72 101 38 72 101 38 72 101 38 72 101 38 72 101 38 72 101 38 72 101 38 72 101 38 72 101 38 72 101 38 72 101 38 72 101 38 82 115 44 82 115 44 82 115 44 82 115 44 82 115 44 82 115 44 82 115 44 82 115 44 82 115 44 82 115 44 82 115 44 82 115 44 82 115 44 82 115 44 82 115 44 94 132 50 94 132 50 94 132 50 94 132 50 94 132 50 94 132 50 94 132 50 94 132 50 94 132 50 94 132 50 94 132 50 94 132 50 94 132 50 94 132 50 94 132 50 94 132 50 74 103 39 74 103 39 74 103 39 74 103 39 74 103 39 74 103 39 74 103 39 74 103 39 74 103 39 74 103 39 74 103 39 74 103 39 74 103 39 74 103 39 74 103 39 74 103 39 70 99 37 70 99 37 70 99 37 70 99 37 70 99 37 70 99 37 70 99 37 70 99 37 70 99 37 70 99 37 70 99 37 70 99 37 70 99 37 70 99 37 70 99 37 70 99 37 78 109 41 78 109 41 78 109 41 78 109 41 78 109 41 78 109 41 78 109 41 78 109 41 78 109 41 78 109 41 78 109 41 78 109 41 78 109 41 78 109 41 78 109 41 78 109 41 87 122 46 87 122 46 87 122 46 87 122 46 87 122 46 87 122 46 87 122 46 87 122 46 87 122 46 87 122 46 87 122 46 87 122 46 87 122 46 87 122 46 87 122 46 87 122 46 69 97 37 69 97 37 69 97 37 69 97 37 69 97 37 69 97 37 69 97 37 69 97 37 69 97 37 69 97 37 69 97 37 69 97 37 69 97 37 69 97 37 69 97 37 69 97 37 92 129 49 92 129 49 92 129 49 92 129 49 92 129 49 92 129 49 92 129 49 92 129 49 92 129 49 92 129 49 92 129 49 92 129 49 92 129 49 92 129 49 92 129 49 92 129 49 78 109 41 78 109 41 78 109 41 78 109 41 78 109 41 78 109 41 78 109 41 78 109 41 78 109 41 78 109 41 78 109 41 78 109 41 78 109 41 78 109 41 78 109 41 78 109 41 74 103 39 74 103 39 74 103 39 74 103 39 74 103 39 74 103 39 74 103 39 74 103 39 74 103 39 74 103 39 74 103 39 74 103 39 74 103 39 74 103 39 74 103 39 74 103 39 86 120 46 86 120 46 86 120 46 86 120 46 86 120 46 86 120 46 86 120 46 86 120 46 86 120 46 86 120 46 86 120 46 86 120 46 86 120 46 86 120 46 86 120 46 86 120 46 76 106 40 76 106 40 76 106 40 76 106 40 76 106 40 76 106 40 76 106 40 76 106 40 76 106 40 76 106 40 76 106 40 76 106 40 76 106 40 76 106 40 76 106 40 76 106 40 78 110 42 78 110 42 78 110 42 78 110 42 78 110 42 78 110 42 78 110 42 78 110 42 78 110 42 78 110 42 78 110 42 78 110 42 78 110 42 78 110 42 78 110 42 78 110 42 68 95 36 68 95 36 68 95 36 68 95 36 68 95 36 68 95 36 68 95 36 68 95 36 68 95 36 68 95 36 68 95 36 68 95 36 68 95 36 68 95 36 68 95 36 68 95 36 89 125 48 89 125 48 89 125 48 89 125 48 89 125 48 89 125 48 89 125 48 89 125 48 89 125 48 89 125 48 89 125 48 89 125 48 89 125 48 89 125 48 89 125 48 89 125 48 72 101 38 72 101 38 72 101 38 72 101 38 72 101 38 72 101 38 72 101 38 72 101 38 72 101 38 72 101 38 72 101 38 72 101 38 72 101 38 72 101 38 72 101 38 72 101 38 82 115 44 82 115 44 82 115 44 82 115 44 82 115 44 82 115 44 82 115 44 82 115 44 82 115 44 82 115 44 82 115 44 82 115 44 82 115 44 82 115 44 82 115 44 94 132 50 94 132 50 94 132 50 94 132 50 94 132 50 94 132 50 94 132 50 94 132 50 94 132 50 94 132 50 94 132 50 94 132 50 94 132 50 94 132 50 94 132 50 94 132 50 74 103 39 74 103 39 74 103 39 74 103 39 74 103 39 74 103 39 74 103 39 74 103 39 74 103 39 74 103 39 74 103 39 74 103 39 74 103 39 74 103 39 74 103 39 74 103 39 70 99 37 70 99 37 70 99 37 70 99 37 70 99 37 70 99 37 70 99 37 70 99 37 70 99 37 70 99 37 70 99 37 70 99 37 70 99 37 70 99 37 70 99 37 70 99 37 78 109 41 78 109 41 78 109 41 78 109 41 78 109 41 78 109 41 78 109 41 78 109 41 78 109 41 78 109 41 78 109 41 78 109 41 78 109 41 78 109 41 78 109 41 78 109 41 87 122 46 87 122 46 87 122 46 87 122 46 87 122 46 87 122 46 87 122 46 87 122 46 87 122 46 87 122 46 87 122 46 87 122 46 87 122 46 87 122 46 87 122 46 87 122 46 69 97 37 69 97 37 69 97 37 69 97 37 69 97 37 69 97 37 69 97 37 69 97 37 69 97 37 69 97 37 69 97 37 69 97 37 69 97 37 69 97 37 69 97 37 69 97 37 92 129 49 92 129 49 92 129 49 92 129 49 92 129 49 92 129 49 92 129 49 92 129 49 92 129 49 92 129 49 92 129 49 92 129 49 92 129 49 92 129 49 92 129 49 92 129 49 78 109 41 78 109 41 78 109 41 78 109 41 78 109 41 78 109 41 78 109 41 78 109 41 78 109 41 78 109 41 78 109 41 78 109 41 78 109 41 78 109 41 78 109 41 78 109 41 74 103 39 74 103 39 74 103 39 74 103 39 74 103 39 74 103 39 74 103 39 74 103 39 74 103 39 74 103 39 74 103 39 74 103 39 74 103 39 74 103 39 74 103 39 74 103 39 86 120 46 86 120 46 86 120 46 86 120 46 86 120 46 86 120 46 86 120 46 86 120 46 86 120 46 86 120 46 86 120 46 86 120 46 86 120 46 86 120 46 86 120 46 86 120 46 76 106 40 76 106 40 76 106 40 76 106 40 76 106 40 76 106 40 76 106 40 76 106 40 76 106 40 76 106 40 76 106 40 76 106 40 76 106 40 76 106 40 76 106 40 76 106 40 78 110 42 78 110 42 78 110 42 78 110 42 78 110 42 78 110 42 78 110 42 78 110 42 78 110 42 78 110 42 78 110 42 78 110 42 78 110 42 78 110 42 78 110 42 78 110 42 68 95 36 68 95 36 68 95 36 68 95 36 68 95 36 68 95 36 68 95 36 68 95 36 68 95 36 68 95 36 68 95 36 68 95 36 68 95 36 68 95 36 68 95 36 68 95 36 89 125 48 89 125 48 89 125 48 89 125 48 89 125 48 89 125 48 89 125 48 89 125 48 89 125 48 89 125 48 89 125 48 89 125 48 89 125 48 89 125 48 89 125 48 89 125 48 72 101 38 72 101 38 72 101 38 72 101 38 72 101 38 72 101 38 72 101 38 72 101 38 72 101 38 72 101 38 72 101 38 72 101 38 72 101 38 72 101 38 72 101 38 72 101 38 82 115 44 82 115 44 82 115 44 82 115 44 82 115 44 82 115 44 82 115 44 82 115 44 82 115 44 82 115 44 82 115 44 82 115 44 82 115 44 82 115 44 82 115 44 94 132 50 94 132 50 94 132 50 94 132 50 94 132 50 94 132 50 94 132 50 94 132 50 94 132 50 94 132 50 94 132 50 94 132 50 94 132 50 94 132 50 94 132 50 94 132 50 74 103 39 74 103 39 74 103 39 74 103 39 74 103 39 74 103 39 74 103 39 74 103 39 74 103 39 74 103 39 74 103 39 74 103 39 74 103 39 74 103 39 74 103 39 74 103 39 70 99 37 70 99 37 70 99 37 70 99 37 70 99 37 70 99 37 70 99 37 70 99 37 70 99 37 70 99 37 70 99 37 70 99 37 70 99 37 70 99 37 70 99 37 70 99 37 78 109 41 78 109 41 78 109 41 78 109 41 78 109 41 78 109 41 78 109 41 78 109 41 78 109 41 78 109 41 78 109 41 78 109 41 78 109 41 78 109 41 78 109 41 78 109 41 87 122 46 87 122 46 87 122 46 87 122 46 87 122 46 87 122 46 87 122 46 87 122 46 87 122 46 87 122 46 87 122 46 87 122 46 87 122 46 87 122 46 87 122 46 87 122 46 69 97 37 69 97 37 69 97 37 69 97 37 69 97 37 69 97 37 69 97 37 69 97 37 69 97 37 69 97 37 69 97 37 69 97 37 69 97 37 69 97 37 69 97 37 69 97 37 92 129 49 92 129 49 92 129 49 92 129 49 92 129 49 92 129 49 92 129 49 92 129 49 92 129 49 92 129 49 92 129 49 92 129 49 92 129 49 92 129 49 92 129 49 92 129 49 78 109 41 78 109 41 78 109 41 78 109 41 78 109 41 78 109 41 78 109 41 78 109 41 78 109 41 78 109 41 78 109 41 78 109 41 78 109 41 78 109 41 78 109 41 78 109 41 74 103 39 74 103 39 74 103 39 74 103 39 74 103 39 74 103 39 74 103 39 74 103 39 74 103 39 74 103 39 74 103 39 74 103 39 74 103 39 74 103 39 74 103 39 74 103 39 86 120 46 86 120 46 86 120 46 86 120 46 86 120 46 86 120 46 86 120 46 86 120 46 86 120 46 86 120 46 86 120 46 86 120 46 86 120 46 86 120 46 86 120 46 86 120 46 76 106 40 76 106 40 76 106 40 76 106 40 76 106 40 76 106 40 76 106 40 76 106 40 76 106 40 76 106 40 76 106 40 76 106 40 76 106 40 76 106 40 76 106 40 76 106 40 78 110 42 78 110 42 78 110 42 78 110 42 78 110 42 78 110 42 78 110 42 78 110 42 78 110 42 78 110 42 78 110 42 78 110 42 78 110 42 78 110 42 78 110 42 78 110 42 68 95 36 68 95 36 68 95 36 68 95 36 68 95 36 68 95 36 68 95 36 68 95 36 68 95 36 68 95 36 68 95 36 68 95 36 68 95 36 68 95 36 68 95 36 68 95 36 89 125 48 89 125 48 89 125 48 89 125 48 89 125 48 89 125 48 89 125 48 89 125 48 89 125 48 89 125 48 89 125 48 89 125 48 89 125 48 89 125 48 89 125 48 89 125 48 72 101 38 72 101 38 72 101 38 72 101 38 72 101 38 72 101 38 72 101 38 72 101 38 72 101 38 72 101 38 72 101 38 72 101 38 72 101 38 72 101 38 72 101 38 72 101 38 82 115 44 82 115 44 82 115 44 82 115 44 82 115 44 82 115 44 82 115 44 82 115 44 82 115 44 82 115 44 82 115 44 82 115 44 82 115 44 82 115 44 82 115 44 94 132 50 94 132 50 94 132 50 94 132 50 94 132 50 94 132 50 94 132 50 94 132 50 94 132 50 94 132 50 94 132 50 94 132 50 94 132 50 94 132 50 94 132 50 94 132 50 74 103 39 74 103 39 74 103 39 74 103 39 74 103 39 74 103 39 74 103 39 74 103 39 74 103 39 74 103 39 74 103 39 74 103 39 74 103 39 74 103 39 74 103 39 74 103 39 70 99 37 70 99 37 70 99 37 70 99 37 70 99 37 70 99 37 70 99 37 70 99 37 70 99 37 70 99 37 70 99 37 70 99 37 70 99 37 70 99 37 70 99 37 70 99 37 78 109 41 78 109 41 78 109 41 78 109 41 78 109 41 78 109 41 78 109 41 78 109 41 78 109 41 78 109 41 78 109 41 78 109 41 78 109 41 78 109 41 78 109 41 78 109 41 87 122 46 87 122 46 87 122 46 87 122 46 87 122 46 87 122 46 87 122 46 87 122 46 87 122 46 87 122 46 87 122 46 87 122 46 87 122 46 87 122 46 87 122 46 87 122 46 69 97 37 69 97 37 69 97 37 69 97 37 69 97 37 69 97 37 69 97 37 69 97 37 69 97 37 69 97 37 69 97 37 69 97 37 69 97 37 69 97 37 69 97 37 69 97 37 92 129 49 92 129 49 92 129 49 92 129 49 92 129 49 92 129 49 92 129 49 92 129 49 92 129 49 92 129 49 92 129 49 92 129 49 92 129 49 92 129 49 92 129 49 92 129 49 78 109 41 78 109 41 78 109 41 78 109 41 78 109 41 78 109 41 78 109 41 78 109 41 78 109 41 78 109 41 78 109 41 78 109 41 78 109 41 78 109 41 78 109 41 78 109 41 74 103 39 74 103 39 74 103 39 74 103 39 74 103 39 74 103 39 74 103 39 74 103 39 74 103 39 74 103 39 74 103 39 74 103 39 74 103 39 74 103 39 74 103 39 74 103 39 86 120 46 86 120 46 86 120 46 86 120 46 86 120 46 86 120 46 86 120 46 86 120 46 86 120 46 86 120 46 86 120 46 86 120 46 86 120 46 86 120 46 86 120 46 86 120 46 76 106 40 76 106 40 76 106 40 76 106 40 76 106 40 76 106 40 76 106 40 76 106 40 76 106 40 76 106 40 76 106 40 76 106 40 76 106 40 76 106 40 76 106 40 76 106 40 78 110 42 78 110 42 78 110 42 78 110 42 78 110 42 78 110 42 78 110 42 78 110 42 78 110 42 78 110 42 78 110 42 78 110 42 78 110 42 78 110 42 78 110 42 78 110 42 68 95 36 68 95 36 68 95 36 68 95 36 68 95 36 68 95 36 68 95 36 68 95 36 68 95 36 68 95 36 68 95 36 68 95 36 68 95 36 68 95 36 68 95 36 68 95 36 89 125 48 89 125 48 89 125 48 89 125 48 89 125 48 89 125 48 89 125 48 89 125 48 89 125 48 89 125 48 89 125 48 89 125 48 89 125 48 89 125 48 89 125 48 89 125 48 72 101 38 72 101 38 72 101 38 72 101 38 72 101 38 72 101 38 72 101 38 72 101 38 72 101 38 72 101 38 72 101 38 72 101 38 72 101 38 72 101 38 72 101 38 72 101 38 82 115 44 82 115 44 82 115 44 82 115 44 82 115 44 82 115 44 82 115 44 82 115 44 82 115 44 82 115 44 82 115 44 82 115 44 82 115 44 82 115 44 82 115 44 94 132 50 94 132 50 94 132 50 94 132 50 94 132 50 94 132 50 94 132 50 94 132 50 94 132 50 94 132 50 94 132 50 94 132 50 94 132 50 94 132 50 94 132 50 94 132 50 74 103 39 74 103 39 74 103 39 74 103 39 74 103 39 74 103 39 74 103 39 74 103 39 74 103 39 74 103 39 74 103 39 74 103 39 74 103 39 74 103 39 74 103 39 74 103 39 70 99 37 70 99 37 70 99 37 70 99 37 70 99 37 70 99 37 70 99 37 70 99 37 70 99 37 70 99 37 70 99 37 70 99 37 70 99 37 70 99 37 70 99 37 70 99 37 78 109 41 78 109 41 78 109 41 78 109 41 78 109 41 78 109 41 78 109 41 78 109 41 78 109 41 78 109 41 78 109 41 78 109 41 78 109 41 78 109 41 78 109 41 78 109 41 87 122 46 87 122 46 87 122 46 87 122 46 87 122 46 87 122 46 87 122 46 87 122 46 87 122 46 87 122 46 87 122 46 87 122 46 87 122 46 87 122 46 87 122 46 87 122 46 69 97 37 69 97 37 69 97 37 69 97 37 69 97 37 69 97 37 69 97 37 69 97 37 69 97 37 69 97 37 69 97 37 69 97 37 69 97 37 69 97 37 69 97 37 69 97 37 92 129 49 92 129 49 92 129 49 92 129 49 92 129 49 92 129 49 92 129 49 92 129 49 92 129 49 92 129 49 92 129 49 92 129 49 92 129 49 92 129 49 92 129 49 92 129 49 78 109 41 78 109 41 78 109 41 78 109 41 78 109 41 78 109 41 78 109 41 78 109 41 78 109 41 78 109 41 78 109 41 78 109 41 78 109 41 78 109 41 78 109 41 78 109 41 74 103 39 74 103 39 74 103 39 74 103 39 74 103 39 74 103 39 74 103 39 74 103 39 74 103 39 74 103 39 74 103 39 74 103 39 74 103 39 74 103 39 74 103 39 74 103 39 86 120 46 86 120 46 86 120 46 86 120 46 86 120 46 86 120 46 86 120 46 86 120 46 86 120 46 86 120 46 86 120 46 86 120 46 86 120 46 86 120 46 86 120 46 86 120 46 76 106 40 76 106 40 76 106 40 76 106 40 76 106 40 76 106 40 76 106 40 76 106 40 76 106 40 76 106 40 76 106 40 76 106 40 76 106 40 76 106 40 76 106 40 76 106 40 78 110 42 78 110 42 78 110 42 78 110 42 78 110 42 78 110 42 78 110 42 78 110 42 78 110 42 78 110 42 78 110 42 78 110 42 78 110 42 78 110 42 78 110 42 78 110 42 68 95 36 68 95 36 68 95 36 68 95 36 68 95 36 68 95 36 68 95 36 68 95 36 68 95 36 68 95 36 68 95 36 68 95 36 68 95 36 68 95 36 68 95 36 68 95 36 89 125 48 89 125 48 89 125 48 89 125 48 89 125 48 89 125 48 89 125 48 89 125 48 89 125 48 89 125 48 89 125 48 89 125 48 89 125 48 89 125 48 89 125 48 89 125 48 72 101 38 72 101 38 72 101 38 72 101 38 72 101 38 72 101 38 72 101 38 72 101 38 72 101 38 72 101 38 72 101 38 72 101 38 72 101 38 72 101 38 72 101 38 72 101 38 82 115 44 82 115 44 82 115 44 82 115 44 82 115 44 82 115 44 82 115 44 82 115 44 82 115 44 82 115 44 82 115 44 82 115 44 82 115 44 82 115 44 82 115 44 94 132 50 94 132 50 94 132 50 94 132 50 94 132 50 94 132 50 94 132 50 94 132 50 94 132 50 94 132 50 94 132 50 94 132 50 94 132 50 94 132 50 94 132 50 94 132 50 74 103 39 74 103 39 74 103 39 74 103 39 74 103 39 74 103 39 74 103 39 74 103 39 74 103 39 74 103 39 74 103 39 74 103 39 74 103 39 74 103 39 74 103 39 74 103 39 70 99 37 70 99 37 70 99 37 70 99 37 70 99 37 70 99 37 70 99 37 70 99 37 70 99 37 70 99 37 70 99 37 70 99 37 70 99 37 70 99 37 70 99 37 70 99 37 78 109 41 78 109 41 78 109 41 78 109 41 78 109 41 78 109 41 78 109 41 78 109 41 78 109 41 78 109 41 78 109 41 78 109 41 78 109 41 78 109 41 78 109 41 78 109 41 87 122 46 87 122 46 87 122 46 87 122 46 87 122 46 87 122 46 87 122 46 87 122 46 87 122 46 87 122 46 87 122 46 87 122 46 87 122 46 87 122 46 87 122 46 87 122 46 69 97 37 69 97 37 69 97 37 69 97 37 69 97 37 69 97 37 69 97 37 69 97 37 69 97 37 69 97 37 69 97 37 69 97 37 69 97 37 69 97 37 69 97 37 69 97 37 92 129 49 92 129 49 92 129 49 92 129 49 92 129 49 92 129 49 92 129 49 92 129 49 92 129 49 92 129 49 92 129 49 92 129 49 92 129 49 92 129 49 92 129 49 92 129 49 78 109 41 78 109 41 78 109 41 78 109 41 78 109 41 78 109 41 78 109 41 78 109 41 78 109 41 78 109 41 78 109 41 78 109 41 78 109 41 78 109 41 78 109 41 78 109 41 74 103 39 74 103 39 74 103 39 74 103 39 74 103 39 74 103 39 74 103 39 74 103 39 74 103 39 74 103 39 74 103 39 74 103 39 74 103 39 74 103 39 74 103 39 74 103 39 86 120 46 86 120 46 86 120 46 86 120 46 86 120 46 86 120 46 86 120 46 86 120 46 86 120 46 86 120 46 86 120 46 86 120 46 86 120 46 86 120 46 86 120 46 86 120 46 76 106 40 76 106 40 76 106 40 76 106 40 76 106 40 76 106 40 76 106 40 76 106 40 76 106 40 76 106 40 76 106 40 76 106 40 76 106 40 76 106 40 76 106 40 76 106 40 78 110 42 78 110 42 78 110 42 78 110 42 78 110 42 78 110 42 78 110 42 78 110 42 78 110 42 78 110 42 78 110 42 78 110 42 78 110 42 78 110 42 78 110 42 78 110 42 68 95 36 68 95 36 68 95 36 68 95 36 68 95 36 68 95 36 68 95 36 68 95 36 68 95 36 68 95 36 68 95 36 68 95 36 68 95 36 68 95 36 68 95 36 68 95 36 89 125 48 89 125 48 89 125 48 89 125 48 89 125 48 89 125 48 89 125 48 89 125 48 89 125 48 89 125 48 89 125 48 89 125 48 89 125 48 89 125 48 89 125 48 89 125 48 72 101 38 72 101 38 72 101 38 72 101 38 72 101 38 72 101 38 72 101 38 72 101 38 72 101 38 72 101 38 72 101 38 72 101 38 72 101 38 72 101 38 72 101 38 72 101 38 82 115 44 82 115 44 82 115 44 82 115 44 82 115 44 82 115 44 82 115 44 82 115 44 82 115 44 82 115 44 82 115 44 82 115 44 82 115 44 82 115 44 82 115 44 94 132 50 94 132 50 94 132 50 94 132 50 94 132 50 94 132 50 94 132 50 94 132 50 94 132 50 94 132 50 94 132 50 94 132 50 94 132 50 94 132 50 94 132 50 94 132 50 74 103 39 74 103 39 74 103 39 74 103 39 74 103 39 74 103 39 74 103 39 74 103 39 74 103 39 74 103 39 74 103 39 74 103 39 74 103 39 74 103 39 74 103 39 74 103 39 70 99 37 70 99 37 70 99 37 70 99 37 70 99 37 70 99 37 70 99 37 70 99 37 70 99 37 70 99 37 70 99 37 70 99 37 70 99 37 70 99 37 70 99 37 70 99 37 78 109 41 78 109 41 78 109 41 78 109 41 78 109 41 78 109 41 78 109 41 78 109 41 78 109 41 78 109 41 78 109 41 78 109 41 78 109 41 78 109 41 78 109 41 78 109 41 87 122 46 87 122 46 87 122 46 87 122 46 87 122 46 87 122 46 87 122 46 87 122 46 87 122 46 87 122 46 87 122 46 87 122 46 87 122 46 87 122 46 87 122 46 87 122 46 69 97 37 69 97 37 69 97 37 69 97 37 69 97 37 69 97 37 69 97 37 69 97 37 69 97 37 69 97 37 69 97 37 69 97 37 69 97 37 69 97 37 69 97 37 69 97 37 92 129 49 92 129 49 92 129 49 92 129 49 92 129 49 92 129 49 92 129 49 92 129 49 92 129 49 92 129 49 92 129 49 92 129 49 92 129 49 92 129 49 92 129 49 92 129 49 78 109 41 78 109 41 78 109 41 78 109 41 78 109 41 78 109 41 78 109 41 78 109 41 78 109 41 78 109 41 78 109 41 78 109 41 78 109 41 78 109 41 78 109 41 78 109 41 74 103 39 74 103 39 74 103 39 74 103 39 74 103 39 74 103 39 74 103 39 74 103 39 74 103 39 74 103 39 74 103 39 74 103 39 74 103 39 74 103 39 74 103 39 74 103 39 86 120 46 86 120 46 86 120 46 86 120 46 86 120 46 86 120 46 86 120 46 86 120 46 86 120 46 86 120 46 86 120 46 86 120 46 86 120 46 86 120 46 86 120 46 86 120 46 76 106 40 76 106 40 76 106 40 76 106 40 76 106 40 76 106 40 76 106 40 76 106 40 76 106 40 76 106 40 76 106 40 76 106 40 76 106 40 76 106 40 76 106 40 76 106 40 78 110 42 78 110 42 78 110 42 78 110 42 78 110 42 78 110 42 78 110 42 78 110 42 78 110 42 78 110 42 78 110 42 78 110 42 78 110 42 78 110 42 78 110 42 78 110 42 68 95 36 68 95 36 68 95 36 68 95 36 68 95 36 68 95 36 68 95 36 68 95 36 68 95 36 68 95 36 68 95 36 68 95 36 68 95 36 68 95 36 68 95 36 68 95 36 89 125 48 89 125 48 89 125 48 89 125 48 89 125 48 89 125 48 89 125 48 89 125 48 89 125 48 89 125 48 89 125 48 89 125 48 89 125 48 89 125 48 89 125 48 89 125 48 72 101 38 72 101 38 72 101 38 72 101 38 72 101 38 72 101 38 72 101 38 72 101 38 72 101 38 72 101 38 72 101 38 72 101 38 72 101 38 72 101 38 72 101 38 72 101 38 82 115 44 82 115 44 82 115 44 82 115 44 82 115 44 82 115 44 82 115 44 82 115 44 82 115 44 82 115 44 82 115 44 82 115 44 82 115 44 82 115 44 82 115 44 94 132 50 94 132 50 94 132 50 94 132 50 94 132 50 94 132 50 94 132 50 94 132 50 94 132 50 94 132 50 94 132 50 94 132 50 94 132 50 94 132 50 94 132 50 94 132 50 74 103 39 74 103 39 74 103 39 74 103 39 74 103 39 74 103 39 74 103 39 74 103 39 74 103 39 74 103 39 74 103 39 74 103 39 74 103 39 74 103 39 74 103 39 74 103 39 70 99 37 70 99 37 70 99 37 70 99 37 70 99 37 70 99 37 70 99 37 70 99 37 70 99 37 70 99 37 70 99 37 70 99 37 70 99 37 70 99 37 70 99 37 70 99 37 78 109 41 78 109 41 78 109 41 78 109 41 78 109 41 78 109 41 78 109 41 78 109 41 78 109 41 78 109 41 78 109 41 78 109 41 78 109 41 78 109 41 78 109 41 78 109 41 87 122 46 87 122 46 87 122 46 87 122 46 87 122 46 87 122 46 87 122 46 87 122 46 87 122 46 87 122 46 87 122 46 87 122 46 87 122 46 87 122 46 87 122 46 87 122 46 69 97 37 69 97 37 69 97 37 69 97 37 69 97 37 69 97 37 69 97 37 69 97 37 69 97 37 69 97 37 69 97 37 69 97 37 69 97 37 69 97 37 69 97 37 69 97 37 92 129 49 92 129 49 92 129 49 92 129 49 92 129 49 92 129 49 92 129 49 92 129 49 92 129 49 92 129 49 92 129 49 92 129 49 92 129 49 92 129 49 92 129 49 92 129 49 78 109 41 78 109 41 78 109 41 78 109 41 78 109 41 78 109 41 78 109 41 78 109 41 78 109 41 78 109 41 78 109 41 78 109 41 78 109 41 78 109 41 78 109 41 78 109 41 74 103 39 74 103 39 74 103 39 74 103 39 74 103 39 74 103 39 74 103 39 74 103 39 74 103 39 74 103 39 74 103 39 74 103 39 74 103 39 74 103 39 74 103 39 74 103 39 86 120 46 86 120 46 86 120 46 86 120 46 86 120 46 86 120 46 86 120 46 86 120 46 86 120 46 86 120 46 86 120 46 86 120 46 86 120 46 86 120 46 86 120 46 86 120 46 76 106 40 76 106 40 76 106 40 76 106 40 76 106 40 76 106 40 76 106 40 76 106 40 76 106 40 76 106 40 76 106 40 76 106 40 76 106 40 76 106 40 76 106 40 76 106 40 78 110 42 78 110 42 78 110 42 78 110 42 78 110 42 78 110 42 78 110 42 78 110 42 78 110 42 78 110 42 78 110 42 78 110 42 78 110 42 78 110 42 78 110 42 78 110 42 68 95 36 68 95 36 68 95 36 68 95 36 68 95 36 68 95 36 68 95 36 68 95 36 68 95 36 68 95 36 68 95 36 68 95 36 68 95 36 68 95 36 68 95 36 68 95 36 89 125 48 89 125 48 89 125 48 89 125 48 89 125 48 89 125 48 89 125 48 89 125 48 89 125 48 89 125 48 89 125 48 89 125 48 89 125 48 89 125 48 89 125 48 89 125 48 72 101 38 72 101 38 72 101 38 72 101 38 72 101 38 72 101 38 72 101 38 72 101 38 72 101 38 72 101 38 72 101 38 72 101 38 72 101 38 72 101 38 72 101 38 72 101 38 82 115 44 82 115 44 82 115 44 82 115 44 82 115 44 82 115 44 82 115 44 82 115 44 82 115 44 82 115 44 82 115 44 82 115 44 82 115 44 82 115 44 82 115 44 94 132 50 94 132 50 94 132 50 94 132 50 94 132 50 94 132 50 94 132 50 94 132 50 94 132 50 94 132 50 94 132 50 94 132 50 94 132 50 94 132 50 94 132 50 94 132 50 74 103 39 74 103 39 74 103 39 74 103 39 74 103 39 74 103 39 74 103 39 74 103 39 74 103 39 74 103 39 74 103 39 74 103 39 74 103 39 74 103 39 74 103 39 74 103 39 70 99 37 70 99 37 70 99 37 70 99 37 70 99 37 70 99 37 70 99 37 70 99 37 70 99 37 70 99 37 70 99 37 70 99 37 70 99 37 70 99 37 70 99 37 70 99 37 78 109 41 78 109 41 78 109 41 78 109 41 78 109 41 78 109 41 78 109 41 78 109 41 78 109 41 78 109 41 78 109 41 78 109 41 78 109 41 78 109 41 78 109 41 78 109 41 87 122 46 87 122 46 87 122 46 87 122 46 87 122 46 87 122 46 87 122 46 87 122 46 87 122 46 87 122 46 87 122 46 87 122 46 87 122 46 87 122 46 87 122 46 87 122 46 69 97 37 69 97 37 69 97 37 69 97 37 69 97 37 69 97 37 69 97 37 69 97 37 69 97 37 69 97 37 69 97 37 69 97 37 69 97 37 69 97 37 69 97 37 69 97 37 92 129 49 92 129 49 92 129 49 92 129 49 92 129 49 92 129 49 92 129 49 92 129 49 92 129 49 92 129 49 92 129 49 92 129 49 92 129 49 92 129 49 92 129 49 92 129 49 78 109 41 78 109 41 78 109 41 78 109 41 78 109 41 78 109 41 78 109 41 78 109 41 78 109 41 78 109 41 78 109 41 78 109 41 78 109 41 78 109 41 78 109 41 78 109 41 74 103 39 74 103 39 74 103 39 74 103 39 74 103 39 74 103 39 74 103 39 74 103 39 74 103 39 74 103 39 74 103 39 74 103 39 74 103 39 74 103 39 74 103 39 74 103 39 86 120 46 86 120 46 86 120 46 86 120 46 86 120 46 86 120 46 86 120 46 86 120 46 86 120 46 86 120 46 86 120 46 86 120 46 86 120 46 86 120 46 86 120 46 86 120 46 76 106 40 76 106 40 76 106 40 76 106 40 76 106 40 76 106 40 76 106 40 76 106 40 76 106 40 76 106 40 76 106 40 76 106 40 76 106 40 76 106 40 76 106 40 76 106 40 78 110 42 78 110 42 78 110 42 78 110 42 78 110 42 78 110 42 78 110 42 78 110 42 78 110 42 78 110 42 78 110 42 78 110 42 78 110 42 78 110 42 78 110 42 78 110 42 68 95 36 68 95 36 68 95 36 68 95 36 68 95 36 68 95 36 68 95 36 68 95 36 68 95 36 68 95 36 68 95 36 68 95 36 68 95 36 68 95 36 68 95 36 68 95 36 89 125 48 89 125 48 89 125 48 89 125 48 89 125 48 89 125 48 89 125 48 89 125 48 89 125 48 89 125 48 89 125 48 89 125 48 89 125 48 89 125 48 89 125 48 89 125 48 72 101 38 72 101 38 72 101 38 72 101 38 72 101 38 72 101 38 72 101 38 72 101 38 72 101 38 72 101 38 72 101 38 72 101 38 72 101 38 72 101 38 72 101 38 72 101 38 82 115 44 82 115 44 82 115 44 82 115 44 82 115 44 82 115 44 82 115 44 82 115 44 82 115 44 82 115 44 82 115 44 82 115 44 82 115 44 82 115 44 82 115 44 94 132 50 94 132 50 94 132 50 94 132 50 94 132 50 94 132 50 94 132 50 94 132 50 94 132 50 94 132 50 94 132 50 94 132 50 94 132 50 94 132 50 94 132 50 94 132 50 74 103 39 74 103 39 74 103 39 74 103 39 74 103 39 74 103 39 74 103 39 74 103 39 74 103 39 74 103 39 74 103 39 74 103 39 74 103 39 74 103 39 74 103 39 74 103 39 70 99 37 70 99 37 70 99 37 70 99 37 70 99 37 70 99 37 70 99 37 70 99 37 70 99 37 70 99 37 70 99 37 70 99 37 70 99 37 70 99 37 70 99 37 70 99 37 78 109 41 78 109 41 78 109 41 78 109 41 78 109 41 78 109 41 78 109 41 78 109 41 78 109 41 78 109 41 78 109 41 78 109 41 78 109 41 78 109 41 78 109 41 78 109 41 87 122 46 87 122 46 87 122 46 87 122 46 87 122 46 87 122 46 87 122 46 87 122 46 87 122 46 87 122 46 87 122 46 87 122 46 87 122 46 87 122 46 87 122 46 87 122 46 69 97 37 69 97 37 69 97 37 69 97 37 69 97 37 69 97 37 69 97 37 69 97 37 69 97 37 69 97 37 69 97 37 69 97 37 69 97 37 69 97 37 69 97 37 69 97 37 92 129 49 92 129 49 92 129 49 92 129 49 92 129 49 92 129 49 92 129 49 92 129 49 92 129 49 92 129 49 92 129 49 92 129 49 92 129 49 92 129 49 92 129 49 92 129 49 91 128 48 91 128 48 91 128 48 91 128 48 91 128 48 91 128 48 91 128 48 91 128 48 91 128 48 91 128 48 91 128 48 91 128 48 91 128 48 91 128 48 91 128 48 91 128 48 84 118 45 84 118 45 84 118 45 84 118 45 84 118 45 84 118 45 84 118 45 84 118 45 84 118 45 84 118 45 84 118 45 84 118 45 84 118 45 84 118 45 84 118 45 84 118 45 99 139 53 99 139 53 99 139 53 99 139 53 99 139 53 99 139 53 99 139 53 99 139 53 99 139 53 99 139 53 99 139 53 99 139 53 99 139 53 99 139 53 99 139 53 99 139 53 93 130 49 93 130 49 93 130 49 93 130 49 93 130 49 93 130 49 93 130 49 93 130 49 93 130 49 93 130 49 93 130 49 93 130 49 93 130 49 93 130 49 93 130 49 93 130 49 94 131 50 94 131 50 94 131 50 94 131 50 94 131 50 94 131 50 94 131 50 94 131 50 94 131 50 94 131 50 94 131 50 94 131 50 94 131 50 94 131 50 94 131 50 94 131 50 70 99 37 70 99 37 70 99 37 70 99 37 70 99 37 70 99 37 70 99 37 70 99 37 70 99 37 70 99 37 70 99 37 70 99 37 70 99 37 70 99 37 70 99 37 70 99 37 94 132 50 94 132 50 94 132 50 94 132 50 94 132 50 94 132 50 94 132 50 94 132 50 94 132 50 94 132 50 94 132 50 94 132 50 94 132 50 94 132 50 94 132 50 94 132 50 85 119 45 85 119 45 85 119 45 85 119 45 85 119 45 85 119 45 85 119 45 85 119 45 85 119 45 85 119 45 85 119 45 85 119 45 85 119 45 85 119 45 85 119 45 85 119 45 98 137 52 98 137 52 98 137 52 98 137 52 98 137 52 98 137 52 98 137 52 98 137 52 98 137 52 98 137 52 98 137 52 98 137 52 98 137 52 98 137 52 98 137 52 93 130 49 93 130 49 93 130 49 93 130 49 93 130 49 93 130 49 93 130 49 93 130 49 93 130 49 93 130 49 93 130 49 93 130 49 93 130 49 93 130 49 93 130 49 93 130 49 71 99 38 71 99 38 71 99 38 71 99 38 71 99 38 71 99 38 71 99 38 71 99 38 71 99 38 71 99 38 71 99 38 71 99 38 71 99 38 71 99 38 71 99 38 71 99 38 80 112 42 80 112 42 80 112 42 80 112 42 80 112 42 80 112 42 80 112 42 80 112 42 80 112 42 80 112 42 80 112 42 80 112 42 80 112 42 80 112 42 80 112 42 80 112 42 72 102 39 72 102 39 72 102 39 72 102 39 72 102 39 72 102 39 72 102 39 72 102 39 72 102 39 72 102 39 72 102 39 72 102 39 72 102 39 72 102 39 72 102 39 72 102 39 80 112 43 80 112 43 80 112 43 80 112 43 80 112 43 80 112 43 80 112 43 80 112 43 80 112 43 80 112 43 80 112 43 80 112 43 80 112 43 80 112 43 80 112 43 80 112 43 86 121 46 86 121 46 86 121 46 86 121 46 86 121 46 86 121 46 86 121 46 86 121 46 86 121 46 86 121 46 86 121 46 86 121 46 86 121 46 86 121 46 86 121 46 86 121 46 69 96 37 69 96 37 69 96 37 69 96 37 69 96 37 69 96 37 69 96 37 69 96 37 69 96 37 69 96 37 69 96 37 69 96 37 69 96 37 69 96 37 69 96 37 69 96 37 91 128 48 91 128 48 91 128 48 91 128 48 91 128 48 91 128 48 91 128 48 91 128 48 91 128 48 91 128 48 91 128 48 91 128 48 91 128 48 91 128 48 91 128 48 91 128 48 84 118 45 84 118 45 84 118 45 84 118 45 84 118 45 84 118 45 84 118 45 84 118 45 84 118 45 84 118 45 84 118 45 84 118 45 84 118 45 84 118 45 84 118 45 84 118 45 99 139 53 99 139 53 99 139 53 99 139 53 99 139 53 99 139 53 99 139 53 99 139 53 99 139 53 99 139 53 99 139 53 99 139 53 99 139 53 99 139 53 99 139 53 99 139 53 93 130 49 93 130 49 93 130 49 93 130 49 93 130 49 93 130 49 93 130 49 93 130 49 93 130 49 93 130 49 93 130 49 93 130 49 93 130 49 93 130 49 93 130 49 93 130 49 94 131 50 94 131 50 94 131 50 94 131 50 94 131 50 94 131 50 94 131 50 94 131 50 94 131 50 94 131 50 94 131 50 94 131 50 94 131 50 94 131 50 94 131 50 94 131 50 70 99 37 70 99 37 70 99 37 70 99 37 70 99 37 70 99 37 70 99 37 70 99 37 70 99 37 70 99 37 70 99 37 70 99 37 70 99 37 70 99 37 70 99 37 70 99 37 94 132 50 94 132 50 94 132 50 94 132 50 94 132 50 94 132 50 94 132 50 94 132 50 94 132 50 94 132 50 94 132 50 94 132 50 94 132 50 94 132 50 94 132 50 94 132 50 85 119 45 85 119 45 85 119 45 85 119 45 85 119 45 85 119 45 85 119 45 85 119 45 85 119 45 85 119 45 85 119 45 85 119 45 85 119 45 85 119 45 85 119 45 85 119 45 98 137 52 98 137 52 98 137 52 98 137 52 98 137 52 98 137 52 98 137 52 98 137 52 98 137 52 98 137 52 98 137 52 98 137 52 98 137 52 98 137 52 98 137 52 93 130 49 93 130 49 93 130 49 93 130 49 93 130 49 93 130 49 93 130 49 93 130 49 93 130 49 93 130 49 93 130 49 93 130 49 93 130 49 93 130 49 93 130 49 93 130 49 71 99 38 71 99 38 71 99 38 71 99 38 71 99 38 71 99 38 71 99 38 71 99 38 71 99 38 71 99 38 71 99 38 71 99 38 71 99 38 71 99 38 71 99 38 71 99 38 80 112 42 80 112 42 80 112 42 80 112 42 80 112 42 80 112 42 80 112 42 80 112 42 80 112 42 80 112 42 80 112 42 80 112 42 80 112 42 80 112 42 80 112 42 80 112 42 72 102 39 72 102 39 72 102 39 72 102 39 72 102 39 72 102 39 72 102 39 72 102 39 72 102 39 72 102 39 72 102 39 72 102 39 72 102 39 72 102 39 72 102 39 72 102 39 80 112 43 80 112 43 80 112 43 80 112 43 80 112 43 80 112 43 80 112 43 80 112 43 80 112 43 80 112 43 80 112 43 80 112 43 80 112 43 80 112 43 80 112 43 80 112 43 86 121 46 86 121 46 86 121 46 86 121 46 86 121 46 86 121 46 86 121 46 86 121 46 86 121 46 86 121 46 86 121 46 86 121 46 86 121 46 86 121 46 86 121 46 86 121 46 69 96 37 69 96 37 69 96 37 69 96 37 69 96 37 69 96 37 69 96 37 69 96 37 69 96 37 69 96 37 69 96 37 69 96 37 69 96 37 69 96 37 69 96 37 69 96 37 91 128 48 91 128 48 91 128 48 91 128 48 91 128 48 91 128 48 91 128 48 91 128 48 91 128 48 91 128 48 91 128 48 91 128 48 91 128 48 91 128 48 91 128 48 91 128 48 84 118 45 84 118 45 84 118 45 84 118 45 84 118 45 84 118 45 84 118 45 84 118 45 84 118 45 84 118 45 84 118 45 84 118 45 84 118 45 84 118 45 84 118 45 84 118 45 99 139 53 99 139 53 99 139 53 99 139 53 99 139 53 99 139 53 99 139 53 99 139 53 99 139 53 99 139 53 99 139 53 99 139 53 99 139 53 99 139 53 99 139 53 99 139 53 93 130 49 93 130 49 93 130 49 93 130 49 93 130 49 93 130 49 93 130 49 93 130 49 93 130 49 93 130 49 93 130 49 93 130 49 93 130 49 93 130 49 93 130 49 93 130 49 94 131 50 94 131 50 94 131 50 94 131 50 94 131 50 94 131 50 94 131 50 94 131 50 94 131 50 94 131 50 94 131 50 94 131 50 94 131 50 94 131 50 94 131 50 94 131 50 70 99 37 70 99 37 70 99 37 70 99 37 70 99 37 70 99 37 70 99 37 70 99 37 70 99 37 70 99 37 70 99 37 70 99 37 70 99 37 70 99 37 70 99 37 70 99 37 94 132 50 94 132 50 94 132 50 94 132 50 94 132 50 94 132 50 94 132 50 94 132 50 94 132 50 94 132 50 94 132 50 94 132 50 94 132 50 94 132 50 94 132 50 94 132 50 85 119 45 85 119 45 85 119 45 85 119 45 85 119 45 85 119 45 85 119 45 85 119 45 85 119 45 85 119 45 85 119 45 85 119 45 85 119 45 85 119 45 85 119 45 85 119 45 98 137 52 98 137 52 98 137 52 98 137 52 98 137 52 98 137 52 98 137 52 98 137 52 98 137 52 98 137 52 98 137 52 98 137 52 98 137 52 98 137 52 98 137 52 93 130 49 93 130 49 93 130 49 93 130 49 93 130 49 93 130 49 93 130 49 93 130 49 93 130 49 93 130 49 93 130 49 93 130 49 93 130 49 93 130 49 93 130 49 93 130 49 71 99 38 71 99 38 71 99 38 71 99 38 71 99 38 71 99 38 71 99 38 71 99 38 71 99 38 71 99 38 71 99 38 71 99 38 71 99 38 71 99 38 71 99 38 71 99 38 80 112 42 80 112 42 80 112 42 80 112 42 80 112 42 80 112 42 80 112 42 80 112 42 80 112 42 80 112 42 80 112 42 80 112 42 80 112 42 80 112 42 80 112 42 80 112 42 72 102 39 72 102 39 72 102 39 72 102 39 72 102 39 72 102 39 72 102 39 72 102 39 72 102 39 72 102 39 72 102 39 72 102 39 72 102 39 72 102 39 72 102 39 72 102 39 80 112 43 80 112 43 80 112 43 80 112 43 80 112 43 80 112 43 80 112 43 80 112 43 80 112 43 80 112 43 80 112 43 80 112 43 80 112 43 80 112 43 80 112 43 80 112 43 86 121 46 86 121 46 86 121 46 86 121 46 86 121 46 86 121 46 86 121 46 86 121 46 86 121 46 86 121 46 86 121 46 86 121 46 86 121 46 86 121 46 86 121 46 86 121 46 69 96 37 69 96 37 69 96 37 69 96 37 69 96 37 69 96 37 69 96 37 69 96 37 69 96 37 69 96 37 69 96 37 69 96 37 69 96 37 69 96 37 69 96 37 69 96 37 91 128 48 91 128 48 91 128 48 91 128 48 91 128 48 91 128 48 91 128 48 91 128 48 91 128 48 91 128 48 91 128 48 91 128 48 91 128 48 91 128 48 91 128 48 91 128 48 84 118 45 84 118 45 84 118 45 84 118 45 84 118 45 84 118 45 84 118 45 84 118 45 84 118 45 84 118 45 84 118 45 84 118 45 84 118 45 84 118 45 84 118 45 84 118 45 99 139 53 99 139 53 99 139 53 99 139 53 99 139 53 99 139 53 99 139 53 99 139 53 99 139 53 99 139 53 99 139 53 99 139 53 99 139 53 99 139 53 99 139 53 99 139 53 93 130 49 93 130 49 93 130 49 93 130 49 93 130 49 93 130 49 93 130 49 93 130 49 93 130 49 93 130 49 93 130 49 93 130 49 93 130 49 93 130 49 93 130 49 93 130 49 94 131 50 94 131 50 94 131 50 94 131 50 94 131 50 94 131 50 94 131 50 94 131 50 94 131 50 94 131 50 94 131 50 94 131 50 94 131 50 94 131 50 94 131 50 94 131 50 70 99 37 70 99 37 70 99 37 70 99 37 70 99 37 70 99 37 70 99 37 70 99 37 70 99 37 70 99 37 70 99 37 70 99 37 70 99 37 70 99 37 70 99 37 70 99 37 94 132 50 94 132 50 94 132 50 94 132 50 94 132 50 94 132 50 94 132 50 94 132 50 94 132 50 94 132 50 94 132 50 94 132 50 94 132 50 94 132 50 94 132 50 94 132 50 85 119 45 85 119 45 85 119 45 85 119 45 85 119 45 85 119 45 85 119 45 85 119 45 85 119 45 85 119 45 85 119 45 85 119 45 85 119 45 85 119 45 85 119 45 85 119 45 98 137 52 98 137 52 98 137 52 98 137 52 98 137 52 98 137 52 98 137 52 98 137 52 98 137 52 98 137 52 98 137 52 98 137 52 98 137 52 98 137 52 98 137 52 93 130 49 93 130 49 93 130 49 93 130 49 93 130 49 93 130 49 93 130 49 93 130 49 93 130 49 93 130 49 93 130 49 93 130 49 93 130 49 93 130 49 93 130 49 93 130 49 71 99 38 71 99 38 71 99 38 71 99 38 71 99 38 71 99 38 71 99 38 71 99 38 71 99 38 71 99 38 71 99 38 71 99 38 71 99 38 71 99 38 71 99 38 71 99 38 80 112 42 80 112 42 80 112 42 80 112 42 80 112 42 80 112 42 80 112 42 80 112 42 80 112 42 80 112 42 80 112 42 80 112 42 80 112 42 80 112 42 80 112 42 80 112 42 72 102 39 72 102 39 72 102 39 72 102 39 72 102 39 72 102 39 72 102 39 72 102 39 72 102 39 72 102 39 72 102 39 72 102 39 72 102 39 72 102 39 72 102 39 72 102 39 80 112 43 80 112 43 80 112 43 80 112 43 80 112 43 80 112 43 80 112 43 80 112 43 80 112 43 80 112 43 80 112 43 80 112 43 80 112 43 80 112 43 80 112 43 80 112 43 86 121 46 86 121 46 86 121 46 86 121 46 86 121 46 86 121 46 86 121 46 86 121 46 86 121 46 86 121 46 86 121 46 86 121 46 86 121 46 86 121 46 86 121 46 86 121 46 69 96 37 69 96 37 69 96 37 69 96 37 69 96 37 69 96 37 69 96 37 69 96 37 69 96 37 69 96 37 69 96 37 69 96 37 69 96 37 69 96 37 69 96 37 69 96 37 91 128 48 91 128 48 91 128 48 91 128 48 91 128 48 91 128 48 91 128 48 91 128 48 91 128 48 91 128 48 91 128 48 91 128 48 91 128 48 91 128 48 91 128 48 91 128 48 84 118 45 84 118 45 84 118 45 84 118 45 84 118 45 84 118 45 84 118 45 84 118 45 84 118 45 84 118 45 84 118 45 84 118 45 84 118 45 84 118 45 84 118 45 84 118 45 99 139 53 99 139 53 99 139 53 99 139 53 99 139 53 99 139 53 99 139 53 99 139 53 99 139 53 99 139 53 99 139 53 99 139 53 99 139 53 99 139 53 99 139 53 99 139 53 93 130 49 93 130 49 93 130 49 93 130 49 93 130 49 93 130 49 93 130 49 93 130 49 93 130 49 93 130 49 93 130 49 93 130 49 93 130 49 93 130 49 93 130 49 93 130 49 94 131 50 94 131 50 94 131 50 94 131 50 94 131 50 94 131 50 94 131 50 94 131 50 94 131 50 94 131 50 94 131 50 94 131 50 94 131 50 94 131 50 94 131 50 94 131 50 70 99 37 70 99 37 70 99 37 70 99 37 70 99 37 70 99 37 70 99 37 70 99 37 70 99 37 70 99 37 70 99 37 70 99 37 70 99 37 70 99 37 70 99 37 70 99 37 94 132 50 94 132 50 94 132 50 94 132 50 94 132 50 94 132 50 94 132 50 94 132 50 94 132 50 94 132 50 94 132 50 94 132 50 94 132 50 94 132 50 94 132 50 94 132 50 85 119 45 85 119 45 85 119 45 85 119 45 85 119 45 85 119 45 85 119 45 85 119 45 85 119 45 85 119 45 85 119 45 85 119 45 85 119 45 85 119 45 85 119 45 85 119 45 98 137 52 98 137 52 98 137 52 98 137 52 98 137 52 98 137 52 98 137 52 98 137 52 98 137 52 98 137 52 98 137 52 98 137 52 98 137 52 98 137 52 98 137 52 93 130 49 93 130 49 93 130 49 93 130 49 93 130 49 93 130 49 93 130 49 93 130 49 93 130 49 93 130 49 93 130 49 93 130 49 93 130 49 93 130 49 93 130 49 93 130 49 71 99 38 71 99 38 71 99 38 71 99 38 71 99 38 71 99 38 71 99 38 71 99 38 71 99 38 71 99 38 71 99 38 71 99 38 71 99 38 71 99 38 71 99 38 71 99 38 80 112 42 80 112 42 80 112 42 80 112 42 80 112 42 80 112 42 80 112 42 80 112 42 80 112 42 80 112 42 80 112 42 80 112 42 80 112 42 80 112 42 80 112 42 80 112 42 72 102 39 72 102 39 72 102 39 72 102 39 72 102 39 72 102 39 72 102 39 72 102 39 72 102 39 72 102 39 72 102 39 72 102 39 72 102 39 72 102 39 72 102 39 72 102 39 80 112 43 80 112 43 80 112 43 80 112 43 80 112 43 80 112 43 80 112 43 80 112 43 80 112 43 80 112 43 80 112 43 80 112 43 80 112 43 80 112 43 80 112 43 80 112 43 86 121 46 86 121 46 86 121 46 86 121 46 86 121 46 86 121 46 86 121 46 86 121 46 86 121 46 86 121 46 86 121 46 86 121 46 86 121 46 86 121 46 86 121 46 86 121 46 69 96 37 69 96 37 69 96 37 69 96 37 69 96 37 69 96 37 69 96 37 69 96 37 69 96 37 69 96 37 69 96 37 69 96 37 69 96 37 69 96 37 69 96 37 69 96 37 91 128 48 91 128 48 91 128 48 91 128 48 91 128 48 91 128 48 91 128 48 91 128 48 91 128 48 91 128 48 91 128 48 91 128 48 91 128 48 91 128 48 91 128 48 91 128 48 84 118 45 84 118 45 84 118 45 84 118 45 84 118 45 84 118 45 84 118 45 84 118 45 84 118 45 84 118 45 84 118 45 84 118 45 84 118 45 84 118 45 84 118 45 84 118 45 99 139 53 99 139 53 99 139 53 99 139 53 99 139 53 99 139 53 99 139 53 99 139 53 99 139 53 99 139 53 99 139 53 99 139 53 99 139 53 99 139 53 99 139 53 99 139 53 93 130 49 93 130 49 93 130 49 93 130 49 93 130 49 93 130 49 93 130 49 93 130 49 93 130 49 93 130 49 93 130 49 93 130 49 93 130 49 93 130 49 93 130 49 93 130 49 94 131 50 94 131 50 94 131 50 94 131 50 94 131 50 94 131 50 94 131 50 94 131 50 94 131 50 94 131 50 94 131 50 94 131 50 94 131 50 94 131 50 94 131 50 94 131 50 70 99 37 70 99 37 70 99 37 70 99 37 70 99 37 70 99 37 70 99 37 70 99 37 70 99 37 70 99 37 70 99 37 70 99 37 70 99 37 70 99 37 70 99 37 70 99 37 94 132 50 94 132 50 94 132 50 94 132 50 94 132 50 94 132 50 94 132 50 94 132 50 94 132 50 94 132 50 94 132 50 94 132 50 94 132 50 94 132 50 94 132 50 94 132 50 85 119 45 85 119 45 85 119 45 85 119 45 85 119 45 85 119 45 85 119 45 85 119 45 85 119 45 85 119 45 85 119 45 85 119 45 85 119 45 85 119 45 85 119 45 85 119 45 98 137 52 98 137 52 98 137 52 98 137 52 98 137 52 98 137 52 98 137 52 98 137 52 98 137 52 98 137 52 98 137 52 98 137 52 98 137 52 98 137 52 98 137 52 93 130 49 93 130 49 93 130 49 93 130 49 93 130 49 93 130 49 93 130 49 93 130 49 93 130 49 93 130 49 93 130 49 93 130 49 93 130 49 93 130 49 93 130 49 93 130 49 71 99 38 71 99 38 71 99 38 71 99 38 71 99 38 71 99 38 71 99 38 71 99 38 71 99 38 71 99 38 71 99 38 71 99 38 71 99 38 71 99 38 71 99 38 71 99 38 80 112 42 80 112 42 80 112 42 80 112 42 80 112 42 80 112 42 80 112 42 80 112 42 80 112 42 80 112 42 80 112 42 80 112 42 80 112 42 80 112 42 80 112 42 80 112 42 72 102 39 72 102 39 72 102 39 72 102 39 72 102 39 72 102 39 72 102 39 72 102 39 72 102 39 72 102 39 72 102 39 72 102 39 72 102 39 72 102 39 72 102 39 72 102 39 80 112 43 80 112 43 80 112 43 80 112 43 80 112 43 80 112 43 80 112 43 80 112 43 80 112 43 80 112 43 80 112 43 80 112 43 80 112 43 80 112 43 80 112 43 80 112 43 86 121 46 86 121 46 86 121 46 86 121 46 86 121 46 86 121 46 86 121 46 86 121 46 86 121 46 86 121 46 86 121 46 86 121 46 86 121 46 86 121 46 86 121 46 86 121 46 69 96 37 69 96 37 69 96 37 69 96 37 69 96 37 69 96 37 69 96 37 69 96 37 69 96 37 69 96 37 69 96 37 69 96 37 69 96 37 69 96 37 69 96 37 69 96 37 91 128 48 91 128 48 91 128 48 91 128 48 91 128 48 91 128 48 91 128 48 91 128 48 91 128 48 91 128 48 91 128 48 91 128 48 91 128 48 91 128 48 91 128 48 91 128 48 84 118 45 84 118 45 84 118 45 84 118 45 84 118 45 84 118 45 84 118 45 84 118 45 84 118 45 84 118 45 84 118 45 84 118 45 84 118 45 84 118 45 84 118 45 84 118 45 99 139 53 99 139 53 99 139 53 99 139 53 99 139 53 99 139 53 99 139 53 99 139 53 99 139 53 99 139 53 99 139 53 99 139 53 99 139 53 99 139 53 99 139 53 99 139 53 93 130 49 93 130 49 93 130 49 93 130 49 93 130 49 93 130 49 93 130 49 93 130 49 93 130 49 93 130 49 93 130 49 93 130 49 93 130 49 93 130 49 93 130 49 93 130 49 94 131 50 94 131 50 94 131 50 94 131 50 94 131 50 94 131 50 94 131 50 94 131 50 94 131 50 94 131 50 94 131 50 94 131 50 94 131 50 94 131 50 94 131 50 94 131 50 70 99 37 70 99 37 70 99 37 70 99 37 70 99 37 70 99 37 70 99 37 70 99 37 70 99 37 70 99 37 70 99 37 70 99 37 70 99 37 70 99 37 70 99 37 70 99 37 94 132 50 94 132 50 94 132 50 94 132 50 94 132 50 94 132 50 94 132 50 94 132 50 94 132 50 94 132 50 94 132 50 94 132 50 94 132 50 94 132 50 94 132 50 94 132 50 85 119 45 85 119 45 85 119 45 85 119 45 85 119 45 85 119 45 85 119 45 85 119 45 85 119 45 85 119 45 85 119 45 85 119 45 85 119 45 85 119 45 85 119 45 85 119 45 98 137 52 98 137 52 98 137 52 98 137 52 98 137 52 98 137 52 98 137 52 98 137 52 98 137 52 98 137 52 98 137 52 98 137 52 98 137 52 98 137 52 98 137 52 93 130 49 93 130 49 93 130 49 93 130 49 93 130 49 93 130 49 93 130 49 93 130 49 93 130 49 93 130 49 93 130 49 93 130 49 93 130 49 93 130 49 93 130 49 93 130 49 71 99 38 71 99 38 71 99 38 71 99 38 71 99 38 71 99 38 71 99 38 71 99 38 71 99 38 71 99 38 71 99 38 71 99 38 71 99 38 71 99 38 71 99 38 71 99 38 80 112 42 80 112 42 80 112 42 80 112 42 80 112 42 80 112 42 80 112 42 80 112 42 80 112 42 80 112 42 80 112 42 80 112 42 80 112 42 80 112 42 80 112 42 80 112 42 72 102 39 72 102 39 72 102 39 72 102 39 72 102 39 72 102 39 72 102 39 72 102 39 72 102 39 72 102 39 72 102 39 72 102 39 72 102 39 72 102 39 72 102 39 72 102 39 80 112 43 80 112 43 80 112 43 80 112 43 80 112 43 80 112 43 80 112 43 80 112 43 80 112 43 80 112 43 80 112 43 80 112 43 80 112 43 80 112 43 80 112 43 80 112 43 86 121 46 86 121 46 86 121 46 86 121 46 86 121 46 86 121 46 86 121 46 86 121 46 86 121 46 86 121 46 86 121 46 86 121 46 86 121 46 86 121 46 86 121 46 86 121 46 69 96 37 69 96 37 69 96 37 69 96 37 69 96 37 69 96 37 69 96 37 69 96 37 69 96 37 69 96 37 69 96 37 69 96 37 69 96 37 69 96 37 69 96 37 69 96 37 91 128 48 91 128 48 91 128 48 91 128 48 91 128 48 91 128 48 91 128 48 91 128 48 91 128 48 91 128 48 91 128 48 91 128 48 91 128 48 91 128 48 91 128 48 91 128 48 84 118 45 84 118 45 84 118 45 84 118 45 84 118 45 84 118 45 84 118 45 84 118 45 84 118 45 84 118 45 84 118 45 84 118 45 84 118 45 84 118 45 84 118 45 84 118 45 99 139 53 99 139 53 99 139 53 99 139 53 99 139 53 99 139 53 99 139 53 99 139 53 99 139 53 99 139 53 99 139 53 99 139 53 99 139 53 99 139 53 99 139 53 99 139 53 93 130 49 93 130 49 93 130 49 93 130 49 93 130 49 93 130 49 93 130 49 93 130 49 93 130 49 93 130 49 93 130 49 93 130 49 93 130 49 93 130 49 93 130 49 93 130 49 94 131 50 94 131 50 94 131 50 94 131 50 94 131 50 94 131 50 94 131 50 94 131 50 94 131 50 94 131 50 94 131 50 94 131 50 94 131 50 94 131 50 94 131 50 94 131 50 70 99 37 70 99 37 70 99 37 70 99 37 70 99 37 70 99 37 70 99 37 70 99 37 70 99 37 70 99 37 70 99 37 70 99 37 70 99 37 70 99 37 70 99 37 70 99 37 94 132 50 94 132 50 94 132 50 94 132 50 94 132 50 94 132 50 94 132 50 94 132 50 94 132 50 94 132 50 94 132 50 94 132 50 94 132 50 94 132 50 94 132 50 94 132 50 85 119 45 85 119 45 85 119 45 85 119 45 85 119 45 85 119 45 85 119 45 85 119 45 85 119 45 85 119 45 85 119 45 85 119 45 85 119 45 85 119 45 85 119 45 85 119 45 98 137 52 98 137 52 98 137 52 98 137 52 98 137 52 98 137 52 98 137 52 98 137 52 98 137 52 98 137 52 98 137 52 98 137 52 98 137 52 98 137 52 98 137 52 93 130 49 93 130 49 93 130 49 93 130 49 93 130 49 93 130 49 93 130 49 93 130 49 93 130 49 93 130 49 93 130 49 93 130 49 93 130 49 93 130 49 93 130 49 93 130 49 71 99 38 71 99 38 71 99 38 71 99 38 71 99 38 71 99 38 71 99 38 71 99 38 71 99 38 71 99 38 71 99 38 71 99 38 71 99 38 71 99 38 71 99 38 71 99 38 80 112 42 80 112 42 80 112 42 80 112 42 80 112 42 80 112 42 80 112 42 80 112 42 80 112 42 80 112 42 80 112 42 80 112 42 80 112 42 80 112 42 80 112 42 80 112 42 72 102 39 72 102 39 72 102 39 72 102 39 72 102 39 72 102 39 72 102 39 72 102 39 72 102 39 72 102 39 72 102 39 72 102 39 72 102 39 72 102 39 72 102 39 72 102 39 80 112 43 80 112 43 80 112 43 80 112 43 80 112 43 80 112 43 80 112 43 80 112 43 80 112 43 80 112 43 80 112 43 80 112 43 80 112 43 80 112 43 80 112 43 80 112 43 86 121 46 86 121 46 86 121 46 86 121 46 86 121 46 86 121 46 86 121 46 86 121 46 86 121 46 86 121 46 86 121 46 86 121 46 86 121 46 86 121 46 86 121 46 86 121 46 69 96 37 69 96 37 69 96 37 69 96 37 69 96 37 69 96 37 69 96 37 69 96 37 69 96 37 69 96 37 69 96 37 69 96 37 69 96 37 69 96 37 69 96 37 69 96 37 91 128 48 91 128 48 91 128 48 91 128 48 91 128 48 91 128 48 91 128 48 91 128 48 91 128 48 91 128 48 91 128 48 91 128 48 91 128 48 91 128 48 91 128 48 91 128 48 84 118 45 84 118 45 84 118 45 84 118 45 84 118 45 84 118 45 84 118 45 84 118 45 84 118 45 84 118 45 84 118 45 84 118 45 84 118 45 84 118 45 84 118 45 84 118 45 99 139 53 99 139 53 99 139 53 99 139 53 99 139 53 99 139 53 99 139 53 99 139 53 99 139 53 99 139 53 99 139 53 99 139 53 99 139 53 99 139 53 99 139 53 99 139 53 93 130 49 93 130 49 93 130 49 93 130 49 93 130 49 93 130 49 93 130 49 93 130 49 93 130 49 93 130 49 93 130 49 93 130 49 93 130 49 93 130 49 93 130 49 93 130 49 94 131 50 94 131 50 94 131 50 94 131 50 94 131 50 94 131 50 94 131 50 94 131 50 94 131 50 94 131 50 94 131 50 94 131 50 94 131 50 94 131 50 94 131 50 94 131 50 70 99 37 70 99 37 70 99 37 70 99 37 70 99 37 70 99 37 70 99 37 70 99 37 70 99 37 70 99 37 70 99 37 70 99 37 70 99 37 70 99 37 70 99 37 70 99 37 94 132 50 94 132 50 94 132 50 94 132 50 94 132 50 94 132 50 94 132 50 94 132 50 94 132 50 94 132 50 94 132 50 94 132 50 94 132 50 94 132 50 94 132 50 94 132 50 85 119 45 85 119 45 85 119 45 85 119 45 85 119 45 85 119 45 85 119 45 85 119 45 85 119 45 85 119 45 85 119 45 85 119 45 85 119 45 85 119 45 85 119 45 85 119 45 98 137 52 98 137 52 98 137 52 98 137 52 98 137 52 98 137 52 98 137 52 98 137 52 98 137 52 98 137 52 98 137 52 98 137 52 98 137 52 98 137 52 98 137 52 93 130 49 93 130 49 93 130 49 93 130 49 93 130 49 93 130 49 93 130 49 93 130 49 93 130 49 93 130 49 93 130 49 93 130 49 93 130 49 93 130 49 93 130 49 93 130 49 71 99 38 71 99 38 71 99 38 71 99 38 71 99 38 71 99 38 71 99 38 71 99 38 71 99 38 71 99 38 71 99 38 71 99 38 71 99 38 71 99 38 71 99 38 71 99 38 80 112 42 80 112 42 80 112 42 80 112 42 80 112 42 80 112 42 80 112 42 80 112 42 80 112 42 80 112 42 80 112 42 80 112 42 80 112 42 80 112 42 80 112 42 80 112 42 72 102 39 72 102 39 72 102 39 72 102 39 72 102 39 72 102 39 72 102 39 72 102 39 72 102 39 72 102 39 72 102 39 72 102 39 72 102 39 72 102 39 72 102 39 72 102 39 80 112 43 80 112 43 80 112 43 80 112 43 80 112 43 80 112 43 80 112 43 80 112 43 80 112 43 80 112 43 80 112 43 80 112 43 80 112 43 80 112 43 80 112 43 80 112 43 86 121 46 86 121 46 86 121 46 86 121 46 86 121 46 86 121 46 86 121 46 86 121 46 86 121 46 86 121 46 86 121 46 86 121 46 86 121 46 86 121 46 86 121 46 86 121 46 69 96 37 69 96 37 69 96 37 69 96 37 69 96 37 69 96 37 69 96 37 69 96 37 69 96 37 69 96 37 69 96 37 69 96 37 69 96 37 69 96 37 69 96 37 69 96 37 91 128 48 91 128 48 91 128 48 91 128 48 91 128 48 91 128 48 91 128 48 91 128 48 91 128 48 91 128 48 91 128 48 91 128 48 91 128 48 91 128 48 91 128 48 91 128 48 84 118 45 84 118 45 84 118 45 84 118 45 84 118 45 84 118 45 84 118 45 84 118 45 84 118 45 84 118 45 84 118 45 84 118 45 84 118 45 84 118 45 84 118 45 84 118 45 99 139 53 99 139 53 99 139 53 99 139 53 99 139 53 99 139 53 99 139 53 99 139 53 99 139 53 99 139 53 99 139 53 99 139 53 99 139 53 99 139 53 99 139 53 99 139 53 93 130 49 93 130 49 93 130 49 93 130 49 93 130 49 93 130 49 93 130 49 93 130 49 93 130 49 93 130 49 93 130 49 93 130 49 93 130 49 93 130 49 93 130 49 93 130 49 94 131 50 94 131 50 94 131 50 94 131 50 94 131 50 94 131 50 94 131 50 94 131 50 94 131 50 94 131 50 94 131 50 94 131 50 94 131 50 94 131 50 94 131 50 94 131 50 70 99 37 70 99 37 70 99 37 70 99 37 70 99 37 70 99 37 70 99 37 70 99 37 70 99 37 70 99 37 70 99 37 70 99 37 70 99 37 70 99 37 70 99 37 70 99 37 94 132 50 94 132 50 94 132 50 94 132 50 94 132 50 94 132 50 94 132 50 94 132 50 94 132 50 94 132 50 94 132 50 94 132 50 94 132 50 94 132 50 94 132 50 94 132 50 85 119 45 85 119 45 85 119 45 85 119 45 85 119 45 85 119 45 85 119 45 85 119 45 85 119 45 85 119 45 85 119 45 85 119 45 85 119 45 85 119 45 85 119 45 85 119 45 98 137 52 98 137 52 98 137 52 98 137 52 98 137 52 98 137 52 98 137 52 98 137 52 98 137 52 98 137 52 98 137 52 98 137 52 98 137 52 98 137 52 98 137 52 93 130 49 93 130 49 93 130 49 93 130 49 93 130 49 93 130 49 93 130 49 93 130 49 93 130 49 93 130 49 93 130 49 93 130 49 93 130 49 93 130 49 93 130 49 93 130 49 71 99 38 71 99 38 71 99 38 71 99 38 71 99 38 71 99 38 71 99 38 71 99 38 71 99 38 71 99 38 71 99 38 71 99 38 71 99 38 71 99 38 71 99 38 71 99 38 80 112 42 80 112 42 80 112 42 80 112 42 80 112 42 80 112 42 80 112 42 80 112 42 80 112 42 80 112 42 80 112 42 80 112 42 80 112 42 80 112 42 80 112 42 80 112 42 72 102 39 72 102 39 72 102 39 72 102 39 72 102 39 72 102 39 72 102 39 72 102 39 72 102 39 72 102 39 72 102 39 72 102 39 72 102 39 72 102 39 72 102 39 72 102 39 80 112 43 80 112 43 80 112 43 80 112 43 80 112 43 80 112 43 80 112 43 80 112 43 80 112 43 80 112 43 80 112 43 80 112 43 80 112 43 80 112 43 80 112 43 80 112 43 86 121 46 86 121 46 86 121 46 86 121 46 86 121 46 86 121 46 86 121 46 86 121 46 86 121 46 86 121 46 86 121 46 86 121 46 86 121 46 86 121 46 86 121 46 86 121 46 69 96 37 69 96 37 69 96 37 69 96 37 69 96 37 69 96 37 69 96 37 69 96 37 69 96 37 69 96 37 69 96 37 69 96 37 69 96 37 69 96 37 69 96 37 69 96 37 91 128 48 91 128 48 91 128 48 91 128 48 91 128 48 91 128 48 91 128 48 91 128 48 91 128 48 91 128 48 91 128 48 91 128 48 91 128 48 91 128 48 91 128 48 91 128 48 84 118 45 84 118 45 84 118 45 84 118 45 84 118 45 84 118 45 84 118 45 84 118 45 84 118 45 84 118 45 84 118 45 84 118 45 84 118 45 84 118 45 84 118 45 84 118 45 99 139 53 99 139 53 99 139 53 99 139 53 99 139 53 99 139 53 99 139 53 99 139 53 99 139 53 99 139 53 99 139 53 99 139 53 99 139 53 99 139 53 99 139 53 99 139 53 93 130 49 93 130 49 93 130 49 93 130 49 93 130 49 93 130 49 93 130 49 93 130 49 93 130 49 93 130 49 93 130 49 93 130 49 93 130 49 93 130 49 93 130 49 93 130 49 94 131 50 94 131 50 94 131 50 94 131 50 94 131 50 94 131 50 94 131 50 94 131 50 94 131 50 94 131 50 94 131 50 94 131 50 94 131 50 94 131 50 94 131 50 94 131 50 70 99 37 70 99 37 70 99 37 70 99 37 70 99 37 70 99 37 70 99 37 70 99 37 70 99 37 70 99 37 70 99 37 70 99 37 70 99 37 70 99 37 70 99 37 70 99 37 94 132 50 94 132 50 94 132 50 94 132 50 94 132 50 94 132 50 94 132 50 94 132 50 94 132 50 94 132 50 94 132 50 94 132 50 94 132 50 94 132 50 94 132 50 94 132 50 85 119 45 85 119 45 85 119 45 85 119 45 85 119 45 85 119 45 85 119 45 85 119 45 85 119 45 85 119 45 85 119 45 85 119 45 85 119 45 85 119 45 85 119 45 85 119 45 98 137 52 98 137 52 98 137 52 98 137 52 98 137 52 98 137 52 98 137 52 98 137 52 98 137 52 98 137 52 98 137 52 98 137 52 98 137 52 98 137 52 98 137 52 93 130 49 93 130 49 93 130 49 93 130 49 93 130 49 93 130 49 93 130 49 93 130 49 93 130 49 93 130 49 93 130 49 93 130 49 93 130 49 93 130 49 93 130 49 93 130 49 71 99 38 71 99 38 71 99 38 71 99 38 71 99 38 71 99 38 71 99 38 71 99 38 71 99 38 71 99 38 71 99 38 71 99 38 71 99 38 71 99 38 71 99 38 71 99 38 80 112 42 80 112 42 80 112 42 80 112 42 80 112 42 80 112 42 80 112 42 80 112 42 80 112 42 80 112 42 80 112 42 80 112 42 80 112 42 80 112 42 80 112 42 80 112 42 72 102 39 72 102 39 72 102 39 72 102 39 72 102 39 72 102 39 72 102 39 72 102 39 72 102 39 72 102 39 72 102 39 72 102 39 72 102 39 72 102 39 72 102 39 72 102 39 80 112 43 80 112 43 80 112 43 80 112 43 80 112 43 80 112 43 80 112 43 80 112 43 80 112 43 80 112 43 80 112 43 80 112 43 80 112 43 80 112 43 80 112 43 80 112 43 86 121 46 86 121 46 86 121 46 86 121 46 86 121 46 86 121 46 86 121 46 86 121 46 86 121 46 86 121 46 86 121 46 86 121 46 86 121 46 86 121 46 86 121 46 86 121 46 69 96 37 69 96 37 69 96 37 69 96 37 69 96 37 69 96 37 69 96 37 69 96 37 69 96 37 69 96 37 69 96 37 69 96 37 69 96 37 69 96 37 69 96 37 69 96 37 91 128 48 91 128 48 91 128 48 91 128 48 91 128 48 91 128 48 91 128 48 91 128 48 91 128 48 91 128 48 91 128 48 91 128 48 91 128 48 91 128 48 91 128 48 91 128 48 84 118 45 84 118 45 84 118 45 84 118 45 84 118 45 84 118 45 84 118 45 84 118 45 84 118 45 84 118 45 84 118 45 84 118 45 84 118 45 84 118 45 84 118 45 84 118 45 99 139 53 99 139 53 99 139 53 99 139 53 99 139 53 99 139 53 99 139 53 99 139 53 99 139 53 99 139 53 99 139 53 99 139 53 99 139 53 99 139 53 99 139 53 99 139 53 93 130 49 93 130 49 93 130 49 93 130 49 93 130 49 93 130 49 93 130 49 93 130 49 93 130 49 93 130 49 93 130 49 93 130 49 93 130 49 93 130 49 93 130 49 93 130 49 94 131 50 94 131 50 94 131 50 94 131 50 94 131 50 94 131 50 94 131 50 94 131 50 94 131 50 94 131 50 94 131 50 94 131 50 94 131 50 94 131 50 94 131 50 94 131 50 70 99 37 70 99 37 70 99 37 70 99 37 70 99 37 70 99 37 70 99 37 70 99 37 70 99 37 70 99 37 70 99 37 70 99 37 70 99 37 70 99 37 70 99 37 70 99 37 94 132 50 94 132 50 94 132 50 94 132 50 94 132 50 94 132 50 94 132 50 94 132 50 94 132 50 94 132 50 94 132 50 94 132 50 94 132 50 94 132 50 94 132 50 94 132 50 85 119 45 85 119 45 85 119 45 85 119 45 85 119 45 85 119 45 85 119 45 85 119 45 85 119 45 85 119 45 85 119 45 85 119 45 85 119 45 85 119 45 85 119 45 85 119 45 98 137 52 98 137 52 98 137 52 98 137 52 98 137 52 98 137 52 98 137 52 98 137 52 98 137 52 98 137 52 98 137 52 98 137 52 98 137 52 98 137 52 98 137 52 93 130 49 93 130 49 93 130 49 93 130 49 93 130 49 93 130 49 93 130 49 93 130 49 93 130 49 93 130 49 93 130 49 93 130 49 93 130 49 93 130 49 93 130 49 93 130 49 71 99 38 71 99 38 71 99 38 71 99 38 71 99 38 71 99 38 71 99 38 71 99 38 71 99 38 71 99 38 71 99 38 71 99 38 71 99 38 71 99 38 71 99 38 71 99 38 80 112 42 80 112 42 80 112 42 80 112 42 80 112 42 80 112 42 80 112 42 80 112 42 80 112 42 80 112 42 80 112 42 80 112 42 80 112 42 80 112 42 80 112 42 80 112 42 72 102 39 72 102 39 72 102 39 72 102 39 72 102 39 72 102 39 72 102 39 72 102 39 72 102 39 72 102 39 72 102 39 72 102 39 72 102 39 72 102 39 72 102 39 72 102 39 80 112 43 80 112 43 80 112 43 80 112 43 80 112 43 80 112 43 80 112 43 80 112 43 80 112 43 80 112 43 80 112 43 80 112 43 80 112 43 80 112 43 80 112 43 80 112 43 86 121 46 86 121 46 86 121 46 86 121 46 86 121 46 86 121 46 86 121 46 86 121 46 86 121 46 86 121 46 86 121 46 86 121 46 86 121 46 86 121 46 86 121 46 86 121 46 69 96 37 69 96 37 69 96 37 69 96 37 69 96 37 69 96 37 69 96 37 69 96 37 69 96 37 69 96 37 69 96 37 69 96 37 69 96 37 69 96 37 69 96 37 69 96 37 91 128 48 91 128 48 91 128 48 91 128 48 91 128 48 91 128 48 91 128 48 91 128 48 91 128 48 91 128 48 91 128 48 91 128 48 91 128 48 91 128 48 91 128 48 91 128 48 84 118 45 84 118 45 84 118 45 84 118 45 84 118 45 84 118 45 84 118 45 84 118 45 84 118 45 84 118 45 84 118 45 84 118 45 84 118 45 84 118 45 84 118 45 84 118 45 99 139 53 99 139 53 99 139 53 99 139 53 99 139 53 99 139 53 99 139 53 99 139 53 99 139 53 99 139 53 99 139 53 99 139 53 99 139 53 99 139 53 99 139 53 99 139 53 93 130 49 93 130 49 93 130 49 93 130 49 93 130 49 93 130 49 93 130 49 93 130 49 93 130 49 93 130 49 93 130 49 93 130 49 93 130 49 93 130 49 93 130 49 93 130 49 94 131 50 94 131 50 94 131 50 94 131 50 94 131 50 94 131 50 94 131 50 94 131 50 94 131 50 94 131 50 94 131 50 94 131 50 94 131 50 94 131 50 94 131 50 94 131 50 70 99 37 70 99 37 70 99 37 70 99 37 70 99 37 70 99 37 70 99 37 70 99 37 70 99 37 70 99 37 70 99 37 70 99 37 70 99 37 70 99 37 70 99 37 70 99 37 94 132 50 94 132 50 94 132 50 94 132 50 94 132 50 94 132 50 94 132 50 94 132 50 94 132 50 94 132 50 94 132 50 94 132 50 94 132 50 94 132 50 94 132 50 94 132 50 85 119 45 85 119 45 85 119 45 85 119 45 85 119 45 85 119 45 85 119 45 85 119 45 85 119 45 85 119 45 85 119 45 85 119 45 85 119 45 85 119 45 85 119 45 85 119 45 98 137 52 98 137 52 98 137 52 98 137 52 98 137 52 98 137 52 98 137 52 98 137 52 98 137 52 98 137 52 98 137 52 98 137 52 98 137 52 98 137 52 98 137 52 93 130 49 93 130 49 93 130 49 93 130 49 93 130 49 93 130 49 93 130 49 93 130 49 93 130 49 93 130 49 93 130 49 93 130 49 93 130 49 93 130 49 93 130 49 93 130 49 71 99 38 71 99 38 71 99 38 71 99 38 71 99 38 71 99 38 71 99 38 71 99 38 71 99 38 71 99 38 71 99 38 71 99 38 71 99 38 71 99 38 71 99 38 71 99 38 80 112 42 80 112 42 80 112 42 80 112 42 80 112 42 80 112 42 80 112 42 80 112 42 80 112 42 80 112 42 80 112 42 80 112 42 80 112 42 80 112 42 80 112 42 80 112 42 72 102 39 72 102 39 72 102 39 72 102 39 72 102 39 72 102 39 72 102 39 72 102 39 72 102 39 72 102 39 72 102 39 72 102 39 72 102 39 72 102 39 72 102 39 72 102 39 80 112 43 80 112 43 80 112 43 80 112 43 80 112 43 80 112 43 80 112 43 80 112 43 80 112 43 80 112 43 80 112 43 80 112 43 80 112 43 80 112 43 80 112 43 80 112 43 86 121 46 86 121 46 86 121 46 86 121 46 86 121 46 86 121 46 86 121 46 86 121 46 86 121 46 86 121 46 86 121 46 86 121 46 86 121 46 86 121 46 86 121 46 86 121 46 69 96 37 69 96 37 69 96 37 69 96 37 69 96 37 69 96 37 69 96 37 69 96 37 69 96 37 69 96 37 69 96 37 69 96 37 69 96 37 69 96 37 69 96 37 69 96 37 91 128 48 91 128 48 91 128 48 91 128 48 91 128 48 91 128 48 91 128 48 91 128 48 91 128 48 91 128 48 91 128 48 91 128 48 91 128 48 91 128 48 91 128 48 91 128 48 84 118 45 84 118 45 84 118 45 84 118 45 84 118 45 84 118 45 84 118 45 84 118 45 84 118 45 84 118 45 84 118 45 84 118 45 84 118 45 84 118 45 84 118 45 84 118 45 99 139 53 99 139 53 99 139 53 99 139 53 99 139 53 99 139 53 99 139 53 99 139 53 99 139 53 99 139 53 99 139 53 99 139 53 99 139 53 99 139 53 99 139 53 99 139 53 93 130 49 93 130 49 93 130 49 93 130 49 93 130 49 93 130 49 93 130 49 93 130 49 93 130 49 93 130 49 93 130 49 93 130 49 93 130 49 93 130 49 93 130 49 93 130 49 94 131 50 94 131 50 94 131 50 94 131 50 94 131 50 94 131 50 94 131 50 94 131 50 94 131 50 94 131 50 94 131 50 94 131 50 94 131 50 94 131 50 94 131 50 94 131 50 70 99 37 70 99 37 70 99 37 70 99 37 70 99 37 70 99 37 70 99 37 70 99 37 70 99 37 70 99 37 70 99 37 70 99 37 70 99 37 70 99 37 70 99 37 70 99 37 94 132 50 94 132 50 94 132 50 94 132 50 94 132 50 94 132 50 94 132 50 94 132 50 94 132 50 94 132 50 94 132 50 94 132 50 94 132 50 94 132 50 94 132 50 94 132 50 85 119 45 85 119 45 85 119 45 85 119 45 85 119 45 85 119 45 85 119 45 85 119 45 85 119 45 85 119 45 85 119 45 85 119 45 85 119 45 85 119 45 85 119 45 85 119 45 98 137 52 98 137 52 98 137 52 98 137 52 98 137 52 98 137 52 98 137 52 98 137 52 98 137 52 98 137 52 98 137 52 98 137 52 98 137 52 98 137 52 98 137 52 93 130 49 93 130 49 93 130 49 93 130 49 93 130 49 93 130 49 93 130 49 93 130 49 93 130 49 93 130 49 93 130 49 93 130 49 93 130 49 93 130 49 93 130 49 93 130 49 71 99 38 71 99 38 71 99 38 71 99 38 71 99 38 71 99 38 71 99 38 71 99 38 71 99 38 71 99 38 71 99 38 71 99 38 71 99 38 71 99 38 71 99 38 71 99 38 80 112 42 80 112 42 80 112 42 80 112 42 80 112 42 80 112 42 80 112 42 80 112 42 80 112 42 80 112 42 80 112 42 80 112 42 80 112 42 80 112 42 80 112 42 80 112 42 72 102 39 72 102 39 72 102 39 72 102 39 72 102 39 72 102 39 72 102 39 72 102 39 72 102 39 72 102 39 72 102 39 72 102 39 72 102 39 72 102 39 72 102 39 72 102 39 80 112 43 80 112 43 80 112 43 80 112 43 80 112 43 80 112 43 80 112 43 80 112 43 80 112 43 80 112 43 80 112 43 80 112 43 80 112 43 80 112 43 80 112 43 80 112 43 86 121 46 86 121 46 86 121 46 86 121 46 86 121 46 86 121 46 86 121 46 86 121 46 86 121 46 86 121 46 86 121 46 86 121 46 86 121 46 86 121 46 86 121 46 86 121 46 69 96 37 69 96 37 69 96 37 69 96 37 69 96 37 69 96 37 69 96 37 69 96 37 69 96 37 69 96 37 69 96 37 69 96 37 69 96 37 69 96 37 69 96 37 69 96 37 91 128 48 91 128 48 91 128 48 91 128 48 91 128 48 91 128 48 91 128 48 91 128 48 91 128 48 91 128 48 91 128 48 91 128 48 91 128 48 91 128 48 91 128 48 91 128 48 84 118 45 84 118 45 84 118 45 84 118 45 84 118 45 84 118 45 84 118 45 84 118 45 84 118 45 84 118 45 84 118 45 84 118 45 84 118 45 84 118 45 84 118 45 84 118 45 99 139 53 99 139 53 99 139 53 99 139 53 99 139 53 99 139 53 99 139 53 99 139 53 99 139 53 99 139 53 99 139 53 99 139 53 99 139 53 99 139 53 99 139 53 99 139 53 93 130 49 93 130 49 93 130 49 93 130 49 93 130 49 93 130 49 93 130 49 93 130 49 93 130 49 93 130 49 93 130 49 93 130 49 93 130 49 93 130 49 93 130 49 93 130 49 94 131 50 94 131 50 94 131 50 94 131 50 94 131 50 94 131 50 94 131 50 94 131 50 94 131 50 94 131 50 94 131 50 94 131 50 94 131 50 94 131 50 94 131 50 94 131 50 70 99 37 70 99 37 70 99 37 70 99 37 70 99 37 70 99 37 70 99 37 70 99 37 70 99 37 70 99 37 70 99 37 70 99 37 70 99 37 70 99 37 70 99 37 70 99 37 94 132 50 94 132 50 94 132 50 94 132 50 94 132 50 94 132 50 94 132 50 94 132 50 94 132 50 94 132 50 94 132 50 94 132 50 94 132 50 94 132 50 94 132 50 94 132 50 85 119 45 85 119 45 85 119 45 85 119 45 85 119 45 85 119 45 85 119 45 85 119 45 85 119 45 85 119 45 85 119 45 85 119 45 85 119 45 85 119 45 85 119 45 85 119 45 98 137 52 98 137 52 98 137 52 98 137 52 98 137 52 98 137 52 98 137 52 98 137 52 98 137 52 98 137 52 98 137 52 98 137 52 98 137 52 98 137 52 98 137 52 93 130 49 93 130 49 93 130 49 93 130 49 93 130 49 93 130 49 93 130 49 93 130 49 93 130 49 93 130 49 93 130 49 93 130 49 93 130 49 93 130 49 93 130 49 93 130 49 71 99 38 71 99 38 71 99 38 71 99 38 71 99 38 71 99 38 71 99 38 71 99 38 71 99 38 71 99 38 71 99 38 71 99 38 71 99 38 71 99 38 71 99 38 71 99 38 80 112 42 80 112 42 80 112 42 80 112 42 80 112 42 80 112 42 80 112 42 80 112 42 80 112 42 80 112 42 80 112 42 80 112 42 80 112 42 80 112 42 80 112 42 80 112 42 72 102 39 72 102 39 72 102 39 72 102 39 72 102 39 72 102 39 72 102 39 72 102 39 72 102 39 72 102 39 72 102 39 72 102 39 72 102 39 72 102 39 72 102 39 72 102 39 80 112 43 80 112 43 80 112 43 80 112 43 80 112 43 80 112 43 80 112 43 80 112 43 80 112 43 80 112 43 80 112 43 80 112 43 80 112 43 80 112 43 80 112 43 80 112 43 86 121 46 86 121 46 86 121 46 86 121 46 86 121 46 86 121 46 86 121 46 86 121 46 86 121 46 86 121 46 86 121 46 86 121 46 86 121 46 86 121 46 86 121 46 86 121 46 69 96 37 69 96 37 69 96 37 69 96 37 69 96 37 69 96 37 69 96 37 69 96 37 69 96 37 69 96 37 69 96 37 69 96 37 69 96 37 69 96 37 69 96 37 69 96 37 82 115 44 82 115 44 82 115 44 82 115 44 82 115 44 82 115 44 82 115 44 82 115 44 82 115 44 82 115 44 82 115 44 82 115 44 82 115 44 82 115 44 82 115 44 82 115 44 71 99 38 71 99 38 71 99 38 71 99 38 71 99 38 71 99 38 71 99 38 71 99 38 71 99 38 71 99 38 71 99 38 71 99 38 71 99 38 71 99 38 71 99 38 71 99 38 100 140 53 100 140 53 100 140 53 100 140 53 100 140 53 100 140 53 100 140 53 100 140 53 100 140 53 100 140 53 100 140 53 100 140 53 100 140 53 100 140 53 100 140 53 100 140 53 77 108 41 77 108 41 77 108 41 77 108 41 77 108 41 77 108 41 77 108 41 77 108 41 77 108 41 77 108 41 77 108 41 77 108 41 77 108 41 77 108 41 77 108 41 77 108 41 76 107 41 76 107 41 76 107 41 76 107 41 76 107 41 76 107 41 76 107 41 76 107 41 76 107 41 76 107 41 76 107 41 76 107 41 76 107 41 76 107 41 76 107 41 76 107 41 83 116 44 83 116 44 83 116 44 83 116 44 83 116 44 83 116 44 83 116 44 83 116 44 83 116 44 83 116 44 83 116 44 83 116 44 83 116 44 83 116 44 83 116 44 83 116 44 93 130 49 93 130 49 93 130 49 93 130 49 93 130 49 93 130 49 93 130 49 93 130 49 93 130 49 93 130 49 93 130 49 93 130 49 93 130 49 93 130 49 93 130 49 93 130 49 70 98 37 70 98 37 70 98 37 70 98 37 70 98 37 70 98 37 70 98 37 70 98 37 70 98 37 70 98 37 70 98 37 70 98 37 70 98 37 70 98 37 70 98 37 70 98 37 74 103 39 74 103 39 74 103 39 74 103 39 74 103 39 74 103 39 74 103 39 74 103 39 74 103 39 74 103 39 74 103 39 74 103 39 74 103 39 74 103 39 74 103 39 79 111 42 79 111 42 79 111 42 79 111 42 79 111 42 79 111 42 79 111 42 79 111 42 79 111 42 79 111 42 79 111 42 79 111 42 79 111 42 79 111 42 79 111 42 79 111 42 80 112 42 80 112 42 80 112 42 80 112 42 80 112 42 80 112 42 80 112 42 80 112 42 80 112 42 80 112 42 80 112 42 80 112 42 80 112 42 80 112 42 80 112 42 80 112 42 92 129 49 92 129 49 92 129 49 92 129 49 92 129 49 92 129 49 92 129 49 92 129 49 92 129 49 92 129 49 92 129 49 92 129 49 92 129 49 92 129 49 92 129 49 92 129 49 77 109 41 77 109 41 77 109 41 77 109 41 77 109 41 77 109 41 77 109 41 77 109 41 77 109 41 77 109 41 77 109 41 77 109 41 77 109 41 77 109 41 77 109 41 77 109 41 98 137 52 98 137 52 98 137 52 98 137 52 98 137 52 98 137 52 98 137 52 98 137 52 98 137 52 98 137 52 98 137 52 98 137 52 98 137 52 98 137 52 98 137 52 98 137 52 78 109 41 78 109 41 78 109 41 78 109 41 78 109 41 78 109 41 78 109 41 78 109 41 78 109 41 78 109 41 78 109 41 78 109 41 78 109 41 78 109 41 78 109 41 78 109 41 70 99 37 70 99 37 70 99 37 70 99 37 70 99 37 70 99 37 70 99 37 70 99 37 70 99 37 70 99 37 70 99 37 70 99 37 70 99 37 70 99 37 70 99 37 70 99 37 82 115 44 82 115 44 82 115 44 82 115 44 82 115 44 82 115 44 82 115 44 82 115 44 82 115 44 82 115 44 82 115 44 82 115 44 82 115 44 82 115 44 82 115 44 82 115 44 71 99 38 71 99 38 71 99 38 71 99 38 71 99 38 71 99 38 71 99 38 71 99 38 71 99 38 71 99 38 71 99 38 71 99 38 71 99 38 71 99 38 71 99 38 71 99 38 100 140 53 100 140 53 100 140 53 100 140 53 100 140 53 100 140 53 100 140 53 100 140 53 100 140 53 100 140 53 100 140 53 100 140 53 100 140 53 100 140 53 100 140 53 100 140 53 77 108 41 77 108 41 77 108 41 77 108 41 77 108 41 77 108 41 77 108 41 77 108 41 77 108 41 77 108 41 77 108 41 77 108 41 77 108 41 77 108 41 77 108 41 77 108 41 76 107 41 76 107 41 76 107 41 76 107 41 76 107 41 76 107 41 76 107 41 76 107 41 76 107 41 76 107 41 76 107 41 76 107 41 76 107 41 76 107 41 76 107 41 76 107 41 83 116 44 83 116 44 83 116 44 83 116 44 83 116 44 83 116 44 83 116 44 83 116 44 83 116 44 83 116 44 83 116 44 83 116 44 83 116 44 83 116 44 83 116 44 83 116 44 93 130 49 93 130 49 93 130 49 93 130 49 93 130 49 93 130 49 93 130 49 93 130 49 93 130 49 93 130 49 93 130 49 93 130 49 93 130 49 93 130 49 93 130 49 93 130 49 70 98 37 70 98 37 70 98 37 70 98 37 70 98 37 70 98 37 70 98 37 70 98 37 70 98 37 70 98 37 70 98 37 70 98 37 70 98 37 70 98 37 70 98 37 70 98 37 74 103 39 74 103 39 74 103 39 74 103 39 74 103 39 74 103 39 74 103 39 74 103 39 74 103 39 74 103 39 74 103 39 74 103 39 74 103 39 74 103 39 74 103 39 79 111 42 79 111 42 79 111 42 79 111 42 79 111 42 79 111 42 79 111 42 79 111 42 79 111 42 79 111 42 79 111 42 79 111 42 79 111 42 79 111 42 79 111 42 79 111 42 80 112 42 80 112 42 80 112 42 80 112 42 80 112 42 80 112 42 80 112 42 80 112 42 80 112 42 80 112 42 80 112 42 80 112 42 80 112 42 80 112 42 80 112 42 80 112 42 92 129 49 92 129 49 92 129 49 92 129 49 92 129 49 92 129 49 92 129 49 92 129 49 92 129 49 92 129 49 92 129 49 92 129 49 92 129 49 92 129 49 92 129 49 92 129 49 77 109 41 77 109 41 77 109 41 77 109 41 77 109 41 77 109 41 77 109 41 77 109 41 77 109 41 77 109 41 77 109 41 77 109 41 77 109 41 77 109 41 77 109 41 77 109 41 98 137 52 98 137 52 98 137 52 98 137 52 98 137 52 98 137 52 98 137 52 98 137 52 98 137 52 98 137 52 98 137 52 98 137 52 98 137 52 98 137 52 98 137 52 98 137 52 78 109 41 78 109 41 78 109 41 78 109 41 78 109 41 78 109 41 78 109 41 78 109 41 78 109 41 78 109 41 78 109 41 78 109 41 78 109 41 78 109 41 78 109 41 78 109 41 70 99 37 70 99 37 70 99 37 70 99 37 70 99 37 70 99 37 70 99 37 70 99 37 70 99 37 70 99 37 70 99 37 70 99 37 70 99 37 70 99 37 70 99 37 70 99 37 82 115 44 82 115 44 82 115 44 82 115 44 82 115 44 82 115 44 82 115 44 82 115 44 82 115 44 82 115 44 82 115 44 82 115 44 82 115 44 82 115 44 82 115 44 82 115 44 71 99 38 71 99 38 71 99 38 71 99 38 71 99 38 71 99 38 71 99 38 71 99 38 71 99 38 71 99 38 71 99 38 71 99 38 71 99 38 71 99 38 71 99 38 71 99 38 100 140 53 100 140 53 100 140 53 100 140 53 100 140 53 100 140 53 100 140 53 100 140 53 100 140 53 100 140 53 100 140 53 100 140 53 100 140 53 100 140 53 100 140 53 100 140 53 77 108 41 77 108 41 77 108 41 77 108 41 77 108 41 77 108 41 77 108 41 77 108 41 77 108 41 77 108 41 77 108 41 77 108 41 77 108 41 77 108 41 77 108 41 77 108 41 76 107 41 76 107 41 76 107 41 76 107 41 76 107 41 76 107 41 76 107 41 76 107 41 76 107 41 76 107 41 76 107 41 76 107 41 76 107 41 76 107 41 76 107 41 76 107 41 83 116 44 83 116 44 83 116 44 83 116 44 83 116 44 83 116 44 83 116 44 83 116 44 83 116 44 83 116 44 83 116 44 83 116 44 83 116 44 83 116 44 83 116 44 83 116 44 93 130 49 93 130 49 93 130 49 93 130 49 93 130 49 93 130 49 93 130 49 93 130 49 93 130 49 93 130 49 93 130 49 93 130 49 93 130 49 93 130 49 93 130 49 93 130 49 70 98 37 70 98 37 70 98 37 70 98 37 70 98 37 70 98 37 70 98 37 70 98 37 70 98 37 70 98 37 70 98 37 70 98 37 70 98 37 70 98 37 70 98 37 70 98 37 74 103 39 74 103 39 74 103 39 74 103 39 74 103 39 74 103 39 74 103 39 74 103 39 74 103 39 74 103 39 74 103 39 74 103 39 74 103 39 74 103 39 74 103 39 79 111 42 79 111 42 79 111 42 79 111 42 79 111 42 79 111 42 79 111 42 79 111 42 79 111 42 79 111 42 79 111 42 79 111 42 79 111 42 79 111 42 79 111 42 79 111 42 80 112 42 80 112 42 80 112 42 80 112 42 80 112 42 80 112 42 80 112 42 80 112 42 80 112 42 80 112 42 80 112 42 80 112 42 80 112 42 80 112 42 80 112 42 80 112 42 92 129 49 92 129 49 92 129 49 92 129 49 92 129 49 92 129 49 92 129 49 92 129 49 92 129 49 92 129 49 92 129 49 92 129 49 92 129 49 92 129 49 92 129 49 92 129 49 77 109 41 77 109 41 77 109 41 77 109 41 77 109 41 77 109 41 77 109 41 77 109 41 77 109 41 77 109 41 77 109 41 77 109 41 77 109 41 77 109 41 77 109 41 77 109 41 98 137 52 98 137 52 98 137 52 98 137 52 98 137 52 98 137 52 98 137 52 98 137 52 98 137 52 98 137 52 98 137 52 98 137 52 98 137 52 98 137 52 98 137 52 98 137 52 78 109 41 78 109 41 78 109 41 78 109 41 78 109 41 78 109 41 78 109 41 78 109 41 78 109 41 78 109 41 78 109 41 78 109 41 78 109 41 78 109 41 78 109 41 78 109 41 70 99 37 70 99 37 70 99 37 70 99 37 70 99 37 70 99 37 70 99 37 70 99 37 70 99 37 70 99 37 70 99 37 70 99 37 70 99 37 70 99 37 70 99 37 70 99 37 82 115 44 82 115 44 82 115 44 82 115 44 82 115 44 82 115 44 82 115 44 82 115 44 82 115 44 82 115 44 82 115 44 82 115 44 82 115 44 82 115 44 82 115 44 82 115 44 71 99 38 71 99 38 71 99 38 71 99 38 71 99 38 71 99 38 71 99 38 71 99 38 71 99 38 71 99 38 71 99 38 71 99 38 71 99 38 71 99 38 71 99 38 71 99 38 100 140 53 100 140 53 100 140 53 100 140 53 100 140 53 100 140 53 100 140 53 100 140 53 100 140 53 100 140 53 100 140 53 100 140 53 100 140 53 100 140 53 100 140 53 100 140 53 77 108 41 77 108 41 77 108 41 77 108 41 77 108 41 77 108 41 77 108 41 77 108 41 77 108 41 77 108 41 77 108 41 77 108 41 77 108 41 77 108 41 77 108 41 77 108 41 76 107 41 76 107 41 76 107 41 76 107 41 76 107 41 76 107 41 76 107 41 76 107 41 76 107 41 76 107 41 76 107 41 76 107 41 76 107 41 76 107 41 76 107 41 76 107 41 83 116 44 83 116 44 83 116 44 83 116 44 83 116 44 83 116 44 83 116 44 83 116 44 83 116 44 83 116 44 83 116 44 83 116 44 83 116 44 83 116 44 83 116 44 83 116 44 93 130 49 93 130 49 93 130 49 93 130 49 93 130 49 93 130 49 93 130 49 93 130 49 93 130 49 93 130 49 93 130 49 93 130 49 93 130 49 93 130 49 93 130 49 93 130 49 70 98 37 70 98 37 70 98 37 70 98 37 70 98 37 70 98 37 70 98 37 70 98 37 70 98 37 70 98 37 70 98 37 70 98 37 70 98 37 70 98 37 70 98 37 70 98 37 74 103 39 74 103 39 74 103 39 74 103 39 74 103 39 74 103 39 74 103 39 74 103 39 74 103 39 74 103 39 74 103 39 74 103 39 74 103 39 74 103 39 74 103 39 79 111 42 79 111 42 79 111 42 79 111 42 79 111 42 79 111 42 79 111 42 79 111 42 79 111 42 79 111 42 79 111 42 79 111 42 79 111 42 79 111 42 79 111 42 79 111 42 80 112 42 80 112 42 80 112 42 80 112 42 80 112 42 80 112 42 80 112 42 80 112 42 80 112 42 80 112 42 80 112 42 80 112 42 80 112 42 80 112 42 80 112 42 80 112 42 92 129 49 92 129 49 92 129 49 92 129 49 92 129 49 92 129 49 92 129 49 92 129 49 92 129 49 92 129 49 92 129 49 92 129 49 92 129 49 92 129 49 92 129 49 92 129 49 77 109 41 77 109 41 77 109 41 77 109 41 77 109 41 77 109 41 77 109 41 77 109 41 77 109 41 77 109 41 77 109 41 77 109 41 77 109 41 77 109 41 77 109 41 77 109 41 98 137 52 98 137 52 98 137 52 98 137 52 98 137 52 98 137 52 98 137 52 98 137 52 98 137 52 98 137 52 98 137 52 98 137 52 98 137 52 98 137 52 98 137 52 98 137 52 78 109 41 78 109 41 78 109 41 78 109 41 78 109 41 78 109 41 78 109 41 78 109 41 78 109 41 78 109 41 78 109 41 78 109 41 78 109 41 78 109 41 78 109 41 78 109 41 70 99 37 70 99 37 70 99 37 70 99 37 70 99 37 70 99 37 70 99 37 70 99 37 70 99 37 70 99 37 70 99 37 70 99 37 70 99 37 70 99 37 70 99 37 70 99 37 82 115 44 82 115 44 82 115 44 82 115 44 82 115 44 82 115 44 82 115 44 82 115 44 82 115 44 82 115 44 82 115 44 82 115 44 82 115 44 82 115 44 82 115 44 82 115 44 71 99 38 71 99 38 71 99 38 71 99 38 71 99 38 71 99 38 71 99 38 71 99 38 71 99 38 71 99 38 71 99 38 71 99 38 71 99 38 71 99 38 71 99 38 71 99 38 100 140 53 100 140 53 100 140 53 100 140 53 100 140 53 100 140 53 100 140 53 100 140 53 100 140 53 100 140 53 100 140 53 100 140 53 100 140 53 100 140 53 100 140 53 100 140 53 77 108 41 77 108 41 77 108 41 77 108 41 77 108 41 77 108 41 77 108 41 77 108 41 77 108 41 77 108 41 77 108 41 77 108 41 77 108 41 77 108 41 77 108 41 77 108 41 76 107 41 76 107 41 76 107 41 76 107 41 76 107 41 76 107 41 76 107 41 76 107 41 76 107 41 76 107 41 76 107 41 76 107 41 76 107 41 76 107 41 76 107 41 76 107 41 83 116 44 83 116 44 83 116 44 83 116 44 83 116 44 83 116 44 83 116 44 83 116 44 83 116 44 83 116 44 83 116 44 83 116 44 83 116 44 83 116 44 83 116 44 83 116 44 93 130 49 93 130 49 93 130 49 93 130 49 93 130 49 93 130 49 93 130 49 93 130 49 93 130 49 93 130 49 93 130 49 93 130 49 93 130 49 93 130 49 93 130 49 93 130 49 70 98 37 70 98 37 70 98 37 70 98 37 70 98 37 70 98 37 70 98 37 70 98 37 70 98 37 70 98 37 70 98 37 70 98 37 70 98 37 70 98 37 70 98 37 70 98 37 74 103 39 74 103 39 74 103 39 74 103 39 74 103 39 74 103 39 74 103 39 74 103 39 74 103 39 74 103 39 74 103 39 74 103 39 74 103 39 74 103 39 74 103 39 79 111 42 79 111 42 79 111 42 79 111 42 79 111 42 79 111 42 79 111 42 79 111 42 79 111 42 79 111 42 79 111 42 79 111 42 79 111 42 79 111 42 79 111 42 79 111 42 80 112 42 80 112 42 80 112 42 80 112 42 80 112 42 80 112 42 80 112 42 80 112 42 80 112 42 80 112 42 80 112 42 80 112 42 80 112 42 80 112 42 80 112 42 80 112 42 92 129 49 92 129 49 92 129 49 92 129 49 92 129 49 92 129 49 92 129 49 92 129 49 92 129 49 92 129 49 92 129 49 92 129 49 92 129 49 92 129 49 92 129 49 92 129 49 77 109 41 77 109 41 77 109 41 77 109 41 77 109 41 77 109 41 77 109 41 77 109 41 77 109 41 77 109 41 77 109 41 77 109 41 77 109 41 77 109 41 77 109 41 77 109 41 98 137 52 98 137 52 98 137 52 98 137 52 98 137 52 98 137 52 98 137 52 98 137 52 98 137 52 98 137 52 98 137 52 98 137 52 98 137 52 98 137 52 98 137 52 98 137 52 78 109 41 78 109 41 78 109 41 78 109 41 78 109 41 78 109 41 78 109 41 78 109 41 78 109 41 78 109 41 78 109 41 78 109 41 78 109 41 78 109 41 78 109 41 78 109 41 70 99 37 70 99 37 70 99 37 70 99 37 70 99 37 70 99 37 70 99 37 70 99 37 70 99 37 70 99 37 70 99 37 70 99 37 70 99 37 70 99 37 70 99 37 70 99 37 82 115 44 82 115 44 82 115 44 82 115 44 82 115 44 82 115 44 82 115 44 82 115 44 82 115 44 82 115 44 82 115 44 82 115 44 82 115 44 82 115 44 82 115 44 82 115 44 71 99 38 71 99 38 71 99 38 71 99 38 71 99 38 71 99 38 71 99 38 71 99 38 71 99 38 71 99 38 71 99 38 71 99 38 71 99 38 71 99 38 71 99 38 71 99 38 100 140 53 100 140 53 100 140 53 100 140 53 100 140 53 100 140 53 100 140 53 100 140 53 100 140 53 100 140 53 100 140 53 100 140 53 100 140 53 100 140 53 100 140 53 100 140 53 77 108 41 77 108 41 77 108 41 77 108 41 77 108 41 77 108 41 77 108 41 77 108 41 77 108 41 77 108 41 77 108 41 77 108 41 77 108 41 77 108 41 77 108 41 77 108 41 76 107 41 76 107 41 76 107 41 76 107 41 76 107 41 76 107 41 76 107 41 76 107 41 76 107 41 76 107 41 76 107 41 76 107 41 76 107 41 76 107 41 76 107 41 76 107 41 83 116 44 83 116 44 83 116 44 83 116 44 83 116 44 83 116 44 83 116 44 83 116 44 83 116 44 83 116 44 83 116 44 83 116 44 83 116 44 83 116 44 83 116 44 83 116 44 93 130 49 93 130 49 93 130 49 93 130 49 93 130 49 93 130 49 93 130 49 93 130 49 93 130 49 93 130 49 93 130 49 93 130 49 93 130 49 93 130 49 93 130 49 93 130 49 70 98 37 70 98 37 70 98 37 70 98 37 70 98 37 70 98 37 70 98 37 70 98 37 70 98 37 70 98 37 70 98 37 70 98 37 70 98 37 70 98 37 70 98 37 70 98 37 74 103 39 74 103 39 74 103 39 74 103 39 74 103 39 74 103 39 74 103 39 74 103 39 74 103 39 74 103 39 74 103 39 74 103 39 74 103 39 74 103 39 74 103 39 79 111 42 79 111 42 79 111 42 79 111 42 79 111 42 79 111 42 79 111 42 79 111 42 79 111 42 79 111 42 79 111 42 79 111 42 79 111 42 79 111 42 79 111 42 79 111 42 80 112 42 80 112 42 80 112 42 80 112 42 80 112 42 80 112 42 80 112 42 80 112 42 80 112 42 80 112 42 80 112 42 80 112 42 80 112 42 80 112 42 80 112 42 80 112 42 92 129 49 92 129 49 92 129 49 92 129 49 92 129 49 92 129 49 92 129 49 92 129 49 92 129 49 92 129 49 92 129 49 92 129 49 92 129 49 92 129 49 92 129 49 92 129 49 77 109 41 77 109 41 77 109 41 77 109 41 77 109 41 77 109 41 77 109 41 77 109 41 77 109 41 77 109 41 77 109 41 77 109 41 77 109 41 77 109 41 77 109 41 77 109 41 98 137 52 98 137 52 98 137 52 98 137 52 98 137 52 98 137 52 98 137 52 98 137 52 98 137 52 98 137 52 98 137 52 98 137 52 98 137 52 98 137 52 98 137 52 98 137 52 78 109 41 78 109 41 78 109 41 78 109 41 78 109 41 78 109 41 78 109 41 78 109 41 78 109 41 78 109 41 78 109 41 78 109 41 78 109 41 78 109 41 78 109 41 78 109 41 70 99 37 70 99 37 70 99 37 70 99 37 70 99 37 70 99 37 70 99 37 70 99 37 70 99 37 70 99 37 70 99 37 70 99 37 70 99 37 70 99 37 70 99 37 70 99 37 82 115 44 82 115 44 82 115 44 82 115 44 82 115 44 82 115 44 82 115 44 82 115 44 82 115 44 82 115 44 82 115 44 82 115 44 82 115 44 82 115 44 82 115 44 82 115 44 71 99 38 71 99 38 71 99 38 71 99 38 71 99 38 71 99 38 71 99 38 71 99 38 71 99 38 71 99 38 71 99 38 71 99 38 71 99 38 71 99 38 71 99 38 71 99 38 100 140 53 100 140 53 100 140 53 100 140 53 100 140 53 100 140 53 100 140 53 100 140 53 100 140 53 100 140 53 100 140 53 100 140 53 100 140 53 100 140 53 100 140 53 100 140 53 77 108 41 77 108 41 77 108 41 77 108 41 77 108 41 77 108 41 77 108 41 77 108 41 77 108 41 77 108 41 77 108 41 77 108 41 77 108 41 77 108 41 77 108 41 77 108 41 76 107 41 76 107 41 76 107 41 76 107 41 76 107 41 76 107 41 76 107 41 76 107 41 76 107 41 76 107 41 76 107 41 76 107 41 76 107 41 76 107 41 76 107 41 76 107 41 83 116 44 83 116 44 83 116 44 83 116 44 83 116 44 83 116 44 83 116 44 83 116 44 83 116 44 83 116 44 83 116 44 83 116 44 83 116 44 83 116 44 83 116 44 83 116 44 93 130 49 93 130 49 93 130 49 93 130 49 93 130 49 93 130 49 93 130 49 93 130 49 93 130 49 93 130 49 93 130 49 93 130 49 93 130 49 93 130 49 93 130 49 93 130 49 70 98 37 70 98 37 70 98 37 70 98 37 70 98 37 70 98 37 70 98 37 70 98 37 70 98 37 70 98 37 70 98 37 70 98 37 70 98 37 70 98 37 70 98 37 70 98 37 74 103 39 74 103 39 74 103 39 74 103 39 74 103 39 74 103 39 74 103 39 74 103 39 74 103 39 74 103 39 74 103 39 74 103 39 74 103 39 74 103 39 74 103 39 79 111 42 79 111 42 79 111 42 79 111 42 79 111 42 79 111 42 79 111 42 79 111 42 79 111 42 79 111 42 79 111 42 79 111 42 79 111 42 79 111 42 79 111 42 79 111 42 80 112 42 80 112 42 80 112 42 80 112 42 80 112 42 80 112 42 80 112 42 80 112 42 80 112 42 80 112 42 80 112 42 80 112 42 80 112 42 80 112 42 80 112 42 80 112 42 92 129 49 92 129 49 92 129 49 92 129 49 92 129 49 92 129 49 92 129 49 92 129 49 92 129 49 92 129 49 92 129 49 92 129 49 92 129 49 92 129 49 92 129 49 92 129 49 77 109 41 77 109 41 77 109 41 77 109 41 77 109 41 77 109 41 77 109 41 77 109 41 77 109 41 77 109 41 77 109 41 77 109 41 77 109 41 77 109 41 77 109 41 77 109 41 98 137 52 98 137 52 98 137 52 98 137 52 98 137 52 98 137 52 98 137 52 98 137 52 98 137 52 98 137 52 98 137 52 98 137 52 98 137 52 98 137 52 98 137 52 98 137 52 78 109 41 78 109 41 78 109 41 78 109 41 78 109 41 78 109 41 78 109 41 78 109 41 78 109 41 78 109 41 78 109 41 78 109 41 78 109 41 78 109 41 78 109 41 78 109 41 70 99 37 70 99 37 70 99 37 70 99 37 70 99 37 70 99 37 70 99 37 70 99 37 70 99 37 70 99 37 70 99 37 70 99 37 70 99 37 70 99 37 70 99 37 70 99 37 82 115 44 82 115 44 82 115 44 82 115 44 82 115 44 82 115 44 82 115 44 82 115 44 82 115 44 82 115 44 82 115 44 82 115 44 82 115 44 82 115 44 82 115 44 82 115 44 71 99 38 71 99 38 71 99 38 71 99 38 71 99 38 71 99 38 71 99 38 71 99 38 71 99 38 71 99 38 71 99 38 71 99 38 71 99 38 71 99 38 71 99 38 71 99 38 100 140 53 100 140 53 100 140 53 100 140 53 100 140 53 100 140 53 100 140 53 100 140 53 100 140 53 100 140 53 100 140 53 100 140 53 100 140 53 100 140 53 100 140 53 100 140 53 77 108 41 77 108 41 77 108 41 77 108 41 77 108 41 77 108 41 77 108 41 77 108 41 77 108 41 77 108 41 77 108 41 77 108 41 77 108 41 77 108 41 77 108 41 77 108 41 76 107 41 76 107 41 76 107 41 76 107 41 76 107 41 76 107 41 76 107 41 76 107 41 76 107 41 76 107 41 76 107 41 76 107 41 76 107 41 76 107 41 76 107 41 76 107 41 83 116 44 83 116 44 83 116 44 83 116 44 83 116 44 83 116 44 83 116 44 83 116 44 83 116 44 83 116 44 83 116 44 83 116 44 83 116 44 83 116 44 83 116 44 83 116 44 93 130 49 93 130 49 93 130 49 93 130 49 93 130 49 93 130 49 93 130 49 93 130 49 93 130 49 93 130 49 93 130 49 93 130 49 93 130 49 93 130 49 93 130 49 93 130 49 70 98 37 70 98 37 70 98 37 70 98 37 70 98 37 70 98 37 70 98 37 70 98 37 70 98 37 70 98 37 70 98 37 70 98 37 70 98 37 70 98 37 70 98 37 70 98 37 74 103 39 74 103 39 74 103 39 74 103 39 74 103 39 74 103 39 74 103 39 74 103 39 74 103 39 74 103 39 74 103 39 74 103 39 74 103 39 74 103 39 74 103 39 79 111 42 79 111 42 79 111 42 79 111 42 79 111 42 79 111 42 79 111 42 79 111 42 79 111 42 79 111 42 79 111 42 79 111 42 79 111 42 79 111 42 79 111 42 79 111 42 80 112 42 80 112 42 80 112 42 80 112 42 80 112 42 80 112 42 80 112 42 80 112 42 80 112 42 80 112 42 80 112 42 80 112 42 80 112 42 80 112 42 80 112 42 80 112 42 92 129 49 92 129 49 92 129 49 92 129 49 92 129 49 92 129 49 92 129 49 92 129 49 92 129 49 92 129 49 92 129 49 92 129 49 92 129 49 92 129 49 92 129 49 92 129 49 77 109 41 77 109 41 77 109 41 77 109 41 77 109 41 77 109 41 77 109 41 77 109 41 77 109 41 77 109 41 77 109 41 77 109 41 77 109 41 77 109 41 77 109 41 77 109 41 98 137 52 98 137 52 98 137 52 98 137 52 98 137 52 98 137 52 98 137 52 98 137 52 98 137 52 98 137 52 98 137 52 98 137 52 98 137 52 98 137 52 98 137 52 98 137 52 78 109 41 78 109 41 78 109 41 78 109 41 78 109 41 78 109 41 78 109 41 78 109 41 78 109 41 78 109 41 78 109 41 78 109 41 78 109 41 78 109 41 78 109 41 78 109 41 70 99 37 70 99 37 70 99 37 70 99 37 70 99 37 70 99 37 70 99 37 70 99 37 70 99 37 70 99 37 70 99 37 70 99 37 70 99 37 70 99 37 70 99 37 70 99 37 82 115 44 82 115 44 82 115 44 82 115 44 82 115 44 82 115 44 82 115 44 82 115 44 82 115 44 82 115 44 82 115 44 82 115 44 82 115 44 82 115 44 82 115 44 82 115 44 71 99 38 71 99 38 71 99 38 71 99 38 71 99 38 71 99 38 71 99 38 71 99 38 71 99 38 71 99 38 71 99 38 71 99 38 71 99 38 71 99 38 71 99 38 71 99 38 100 140 53 100 140 53 100 140 53 100 140 53 100 140 53 100 140 53 100 140 53 100 140 53 100 140 53 100 140 53 100 140 53 100 140 53 100 140 53 100 140 53 100 140 53 100 140 53 77 108 41 77 108 41 77 108 41 77 108 41 77 108 41 77 108 41 77 108 41 77 108 41 77 108 41 77 108 41 77 108 41 77 108 41 77 108 41 77 108 41 77 108 41 77 108 41 76 107 41 76 107 41 76 107 41 76 107 41 76 107 41 76 107 41 76 107 41 76 107 41 76 107 41 76 107 41 76 107 41 76 107 41 76 107 41 76 107 41 76 107 41 76 107 41 83 116 44 83 116 44 83 116 44 83 116 44 83 116 44 83 116 44 83 116 44 83 116 44 83 116 44 83 116 44 83 116 44 83 116 44 83 116 44 83 116 44 83 116 44 83 116 44 93 130 49 93 130 49 93 130 49 93 130 49 93 130 49 93 130 49 93 130 49 93 130 49 93 130 49 93 130 49 93 130 49 93 130 49 93 130 49 93 130 49 93 130 49 93 130 49 70 98 37 70 98 37 70 98 37 70 98 37 70 98 37 70 98 37 70 98 37 70 98 37 70 98 37 70 98 37 70 98 37 70 98 37 70 98 37 70 98 37 70 98 37 70 98 37 74 103 39 74 103 39 74 103 39 74 103 39 74 103 39 74 103 39 74 103 39 74 103 39 74 103 39 74 103 39 74 103 39 74 103 39 74 103 39 74 103 39 74 103 39 79 111 42 79 111 42 79 111 42 79 111 42 79 111 42 79 111 42 79 111 42 79 111 42 79 111 42 79 111 42 79 111 42 79 111 42 79 111 42 79 111 42 79 111 42 79 111 42 80 112 42 80 112 42 80 112 42 80 112 42 80 112 42 80 112 42 80 112 42 80 112 42 80 112 42 80 112 42 80 112 42 80 112 42 80 112 42 80 112 42 80 112 42 80 112 42 92 129 49 92 129 49 92 129 49 92 129 49 92 129 49 92 129 49 92 129 49 92 129 49 92 129 49 92 129 49 92 129 49 92 129 49 92 129 49 92 129 49 92 129 49 92 129 49 77 109 41 77 109 41 77 109 41 77 109 41 77 109 41 77 109 41 77 109 41 77 109 41 77 109 41 77 109 41 77 109 41 77 109 41 77 109 41 77 109 41 77 109 41 77 109 41 98 137 52 98 137 52 98 137 52 98 137 52 98 137 52 98 137 52 98 137 52 98 137 52 98 137 52 98 137 52 98 137 52 98 137 52 98 137 52 98 137 52 98 137 52 98 137 52 78 109 41 78 109 41 78 109 41 78 109 41 78 109 41 78 109 41 78 109 41 78 109 41 78 109 41 78 109 41 78 109 41 78 109 41 78 109 41 78 109 41 78 109 41 78 109 41 70 99 37 70 99 37 70 99 37 70 99 37 70 99 37 70 99 37 70 99 37 70 99 37 70 99 37 70 99 37 70 99 37 70 99 37 70 99 37 70 99 37 70 99 37 70 99 37 82 115 44 82 115 44 82 115 44 82 115 44 82 115 44 82 115 44 82 115 44 82 115 44 82 115 44 82 115 44 82 115 44 82 115 44 82 115 44 82 115 44 82 115 44 82 115 44 71 99 38 71 99 38 71 99 38 71 99 38 71 99 38 71 99 38 71 99 38 71 99 38 71 99 38 71 99 38 71 99 38 71 99 38 71 99 38 71 99 38 71 99 38 71 99 38 100 140 53 100 140 53 100 140 53 100 140 53 100 140 53 100 140 53 100 140 53 100 140 53 100 140 53 100 140 53 100 140 53 100 140 53 100 140 53 100 140 53 100 140 53 100 140 53 77 108 41 77 108 41 77 108 41 77 108 41 77 108 41 77 108 41 77 108 41 77 108 41 77 108 41 77 108 41 77 108 41 77 108 41 77 108 41 77 108 41 77 108 41 77 108 41 76 107 41 76 107 41 76 107 41 76 107 41 76 107 41 76 107 41 76 107 41 76 107 41 76 107 41 76 107 41 76 107 41 76 107 41 76 107 41 76 107 41 76 107 41 76 107 41 83 116 44 83 116 44 83 116 44 83 116 44 83 116 44 83 116 44 83 116 44 83 116 44 83 116 44 83 116 44 83 116 44 83 116 44 83 116 44 83 116 44 83 116 44 83 116 44 93 130 49 93 130 49 93 130 49 93 130 49 93 130 49 93 130 49 93 130 49 93 130 49 93 130 49 93 130 49 93 130 49 93 130 49 93 130 49 93 130 49 93 130 49 93 130 49 70 98 37 70 98 37 70 98 37 70 98 37 70 98 37 70 98 37 70 98 37 70 98 37 70 98 37 70 98 37 70 98 37 70 98 37 70 98 37 70 98 37 70 98 37 70 98 37 74 103 39 74 103 39 74 103 39 74 103 39 74 103 39 74 103 39 74 103 39 74 103 39 74 103 39 74 103 39 74 103 39 74 103 39 74 103 39 74 103 39 74 103 39 79 111 42 79 111 42 79 111 42 79 111 42 79 111 42 79 111 42 79 111 42 79 111 42 79 111 42 79 111 42 79 111 42 79 111 42 79 111 42 79 111 42 79 111 42 79 111 42 80 112 42 80 112 42 80 112 42 80 112 42 80 112 42 80 112 42 80 112 42 80 112 42 80 112 42 80 112 42 80 112 42 80 112 42 80 112 42 80 112 42 80 112 42 80 112 42 92 129 49 92 129 49 92 129 49 92 129 49 92 129 49 92 129 49 92 129 49 92 129 49 92 129 49 92 129 49 92 129 49 92 129 49 92 129 49 92 129 49 92 129 49 92 129 49 77 109 41 77 109 41 77 109 41 77 109 41 77 109 41 77 109 41 77 109 41 77 109 41 77 109 41 77 109 41 77 109 41 77 109 41 77 109 41 77 109 41 77 109 41 77 109 41 98 137 52 98 137 52 98 137 52 98 137 52 98 137 52 98 137 52 98 137 52 98 137 52 98 137 52 98 137 52 98 137 52 98 137 52 98 137 52 98 137 52 98 137 52 98 137 52 78 109 41 78 109 41 78 109 41 78 109 41 78 109 41 78 109 41 78 109 41 78 109 41 78 109 41 78 109 41 78 109 41 78 109 41 78 109 41 78 109 41 78 109 41 78 109 41 70 99 37 70 99 37 70 99 37 70 99 37 70 99 37 70 99 37 70 99 37 70 99 37 70 99 37 70 99 37 70 99 37 70 99 37 70 99 37 70 99 37 70 99 37 70 99 37 82 115 44 82 115 44 82 115 44 82 115 44 82 115 44 82 115 44 82 115 44 82 115 44 82 115 44 82 115 44 82 115 44 82 115 44 82 115 44 82 115 44 82 115 44 82 115 44 71 99 38 71 99 38 71 99 38 71 99 38 71 99 38 71 99 38 71 99 38 71 99 38 71 99 38 71 99 38 71 99 38 71 99 38 71 99 38 71 99 38 71 99 38 71 99 38 100 140 53 100 140 53 100 140 53 100 140 53 100 140 53 100 140 53 100 140 53 100 140 53 100 140 53 100 140 53 100 140 53 100 140 53 100 140 53 100 140 53 100 140 53 100 140 53 77 108 41 77 108 41 77 108 41 77 108 41 77 108 41 77 108 41 77 108 41 77 108 41 77 108 41 77 108 41 77 108 41 77 108 41 77 108 41 77 108 41 77 108 41 77 108 41 76 107 41 76 107 41 76 107 41 76 107 41 76 107 41 76 107 41 76 107 41 76 107 41 76 107 41 76 107 41 76 107 41 76 107 41 76 107 41 76 107 41 76 107 41 76 107 41 83 116 44 83 116 44 83 116 44 83 116 44 83 116 44 83 116 44 83 116 44 83 116 44 83 116 44 83 116 44 83 116 44 83 116 44 83 116 44 83 116 44 83 116 44 83 116 44 93 130 49 93 130 49 93 130 49 93 130 49 93 130 49 93 130 49 93 130 49 93 130 49 93 130 49 93 130 49 93 130 49 93 130 49 93 130 49 93 130 49 93 130 49 93 130 49 70 98 37 70 98 37 70 98 37 70 98 37 70 98 37 70 98 37 70 98 37 70 98 37 70 98 37 70 98 37 70 98 37 70 98 37 70 98 37 70 98 37 70 98 37 70 98 37 74 103 39 74 103 39 74 103 39 74 103 39 74 103 39 74 103 39 74 103 39 74 103 39 74 103 39 74 103 39 74 103 39 74 103 39 74 103 39 74 103 39 74 103 39 79 111 42 79 111 42 79 111 42 79 111 42 79 111 42 79 111 42 79 111 42 79 111 42 79 111 42 79 111 42 79 111 42 79 111 42 79 111 42 79 111 42 79 111 42 79 111 42 80 112 42 80 112 42 80 112 42 80 112 42 80 112 42 80 112 42 80 112 42 80 112 42 80 112 42 80 112 42 80 112 42 80 112 42 80 112 42 80 112 42 80 112 42 80 112 42 92 129 49 92 129 49 92 129 49 92 129 49 92 129 49 92 129 49 92 129 49 92 129 49 92 129 49 92 129 49 92 129 49 92 129 49 92 129 49 92 129 49 92 129 49 92 129 49 77 109 41 77 109 41 77 109 41 77 109 41 77 109 41 77 109 41 77 109 41 77 109 41 77 109 41 77 109 41 77 109 41 77 109 41 77 109 41 77 109 41 77 109 41 77 109 41 98 137 52 98 137 52 98 137 52 98 137 52 98 137 52 98 137 52 98 137 52 98 137 52 98 137 52 98 137 52 98 137 52 98 137 52 98 137 52 98 137 52 98 137 52 98 137 52 78 109 41 78 109 41 78 109 41 78 109 41 78 109 41 78 109 41 78 109 41 78 109 41 78 109 41 78 109 41 78 109 41 78 109 41 78 109 41 78 109 41 78 109 41 78 109 41 70 99 37 70 99 37 70 99 37 70 99 37 70 99 37 70 99 37 70 99 37 70 99 37 70 99 37 70 99 37 70 99 37 70 99 37 70 99 37 70 99 37 70 99 37 70 99 37 82 115 44 82 115 44 82 115 44 82 115 44 82 115 44 82 115 44 82 115 44 82 115 44 82 115 44 82 115 44 82 115 44 82 115 44 82 115 44 82 115 44 82 115 44 82 115 44 71 99 38 71 99 38 71 99 38 71 99 38 71 99 38 71 99 38 71 99 38 71 99 38 71 99 38 71 99 38 71 99 38 71 99 38 71 99 38 71 99 38 71 99 38 71 99 38 100 140 53 100 140 53 100 140 53 100 140 53 100 140 53 100 140 53 100 140 53 100 140 53 100 140 53 100 140 53 100 140 53 100 140 53 100 140 53 100 140 53 100 140 53 100 140 53 77 108 41 77 108 41 77 108 41 77 108 41 77 108 41 77 108 41 77 108 41 77 108 41 77 108 41 77 108 41 77 108 41 77 108 41 77 108 41 77 108 41 77 108 41 77 108 41 76 107 41 76 107 41 76 107 41 76 107 41 76 107 41 76 107 41 76 107 41 76 107 41 76 107 41 76 107 41 76 107 41 76 107 41 76 107 41 76 107 41 76 107 41 76 107 41 83 116 44 83 116 44 83 116 44 83 116 44 83 116 44 83 116 44 83 116 44 83 116 44 83 116 44 83 116 44 83 116 44 83 116 44 83 116 44 83 116 44 83 116 44 83 116 44 93 130 49 93 130 49 93 130 49 93 130 49 93 130 49 93 130 49 93 130 49 93 130 49 93 130 49 93 130 49 93 130 49 93 130 49 93 130 49 93 130 49 93 130 49 93 130 49 70 98 37 70 98 37 70 98 37 70 98 37 70 98 37 70 98 37 70 98 37 70 98 37 70 98 37 70 98 37 70 98 37 70 98 37 70 98 37 70 98 37 70 98 37 70 98 37 74 103 39 74 103 39 74 103 39 74 103 39 74 103 39 74 103 39 74 103 39 74 103 39 74 103 39 74 103 39 74 103 39 74 103 39 74 103 39 74 103 39 74 103 39 79 111 42 79 111 42 79 111 42 79 111 42 79 111 42 79 111 42 79 111 42 79 111 42 79 111 42 79 111 42 79 111 42 79 111 42 79 111 42 79 111 42 79 111 42 79 111 42 80 112 42 80 112 42 80 112 42 80 112 42 80 112 42 80 112 42 80 112 42 80 112 42 80 112 42 80 112 42 80 112 42 80 112 42 80 112 42 80 112 42 80 112 42 80 112 42 92 129 49 92 129 49 92 129 49 92 129 49 92 129 49 92 129 49 92 129 49 92 129 49 92 129 49 92 129 49 92 129 49 92 129 49 92 129 49 92 129 49 92 129 49 92 129 49 77 109 41 77 109 41 77 109 41 77 109 41 77 109 41 77 109 41 77 109 41 77 109 41 77 109 41 77 109 41 77 109 41 77 109 41 77 109 41 77 109 41 77 109 41 77 109 41 98 137 52 98 137 52 98 137 52 98 137 52 98 137 52 98 137 52 98 137 52 98 137 52 98 137 52 98 137 52 98 137 52 98 137 52 98 137 52 98 137 52 98 137 52 98 137 52 78 109 41 78 109 41 78 109 41 78 109 41 78 109 41 78 109 41 78 109 41 78 109 41 78 109 41 78 109 41 78 109 41 78 109 41 78 109 41 78 109 41 78 109 41 78 109 41 70 99 37 70 99 37 70 99 37 70 99 37 70 99 37 70 99 37 70 99 37 70 99 37 70 99 37 70 99 37 70 99 37 70 99 37 70 99 37 70 99 37 70 99 37 70 99 37 82 115 44 82 115 44 82 115 44 82 115 44 82 115 44 82 115 44 82 115 44 82 115 44 82 115 44 82 115 44 82 115 44 82 115 44 82 115 44 82 115 44 82 115 44 82 115 44 71 99 38 71 99 38 71 99 38 71 99 38 71 99 38 71 99 38 71 99 38 71 99 38 71 99 38 71 99 38 71 99 38 71 99 38 71 99 38 71 99 38 71 99 38 71 99 38 100 140 53 100 140 53 100 140 53 100 140 53 100 140 53 100 140 53 100 140 53 100 140 53 100 140 53 100 140 53 100 140 53 100 140 53 100 140 53 100 140 53 100 140 53 100 140 53 77 108 41 77 108 41 77 108 41 77 108 41 77 108 41 77 108 41 77 108 41 77 108 41 77 108 41 77 108 41 77 108 41 77 108 41 77 108 41 77 108 41 77 108 41 77 108 41 76 107 41 76 107 41 76 107 41 76 107 41 76 107 41 76 107 41 76 107 41 76 107 41 76 107 41 76 107 41 76 107 41 76 107 41 76 107 41 76 107 41 76 107 41 76 107 41 83 116 44 83 116 44 83 116 44 83 116 44 83 116 44 83 116 44 83 116 44 83 116 44 83 116 44 83 116 44 83 116 44 83 116 44 83 116 44 83 116 44 83 116 44 83 116 44 93 130 49 93 130 49 93 130 49 93 130 49 93 130 49 93 130 49 93 130 49 93 130 49 93 130 49 93 130 49 93 130 49 93 130 49 93 130 49 93 130 49 93 130 49 93 130 49 70 98 37 70 98 37 70 98 37 70 98 37 70 98 37 70 98 37 70 98 37 70 98 37 70 98 37 70 98 37 70 98 37 70 98 37 70 98 37 70 98 37 70 98 37 70 98 37 74 103 39 74 103 39 74 103 39 74 103 39 74 103 39 74 103 39 74 103 39 74 103 39 74 103 39 74 103 39 74 103 39 74 103 39 74 103 39 74 103 39 74 103 39 79 111 42 79 111 42 79 111 42 79 111 42 79 111 42 79 111 42 79 111 42 79 111 42 79 111 42 79 111 42 79 111 42 79 111 42 79 111 42 79 111 42 79 111 42 79 111 42 80 112 42 80 112 42 80 112 42 80 112 42 80 112 42 80 112 42 80 112 42 80 112 42 80 112 42 80 112 42 80 112 42 80 112 42 80 112 42 80 112 42 80 112 42 80 112 42 92 129 49 92 129 49 92 129 49 92 129 49 92 129 49 92 129 49 92 129 49 92 129 49 92 129 49 92 129 49 92 129 49 92 129 49 92 129 49 92 129 49 92 129 49 92 129 49 77 109 41 77 109 41 77 109 41 77 109 41 77 109 41 77 109 41 77 109 41 77 109 41 77 109 41 77 109 41 77 109 41 77 109 41 77 109 41 77 109 41 77 109 41 77 109 41 98 137 52 98 137 52 98 137 52 98 137 52 98 137 52 98 137 52 98 137 52 98 137 52 98 137 52 98 137 52 98 137 52 98 137 52 98 137 52 98 137 52 98 137 52 98 137 52 78 109 41 78 109 41 78 109 41 78 109 41 78 109 41 78 109 41 78 109 41 78 109 41 78 109 41 78 109 41 78 109 41 78 109 41 78 109 41 78 109 41 78 109 41 78 109 41 70 99 37 70 99 37 70 99 37 70 99 37 70 99 37 70 99 37 70 99 37 70 99 37 70 99 37 70 99 37 70 99 37 70 99 37 70 99 37 70 99 37 70 99 37 70 99 37 82 115 44 82 115 44 82 115 44 82 115 44 82 115 44 82 115 44 82 115 44 82 115 44 82 115 44 82 115 44 82 115 44 82 115 44 82 115 44 82 115 44 82 115 44 82 115 44 71 99 38 71 99 38 71 99 38 71 99 38 71 99 38 71 99 38 71 99 38 71 99 38 71 99 38 71 99 38 71 99 38 71 99 38 71 99 38 71 99 38 71 99 38 71 99 38 100 140 53 100 140 53 100 140 53 100 140 53 100 140 53 100 140 53 100 140 53 100 140 53 100 140 53 100 140 53 100 140 53 100 140 53 100 140 53 100 140 53 100 140 53 100 140 53 77 108 41 77 108 41 77 108 41 77 108 41 77 108 41 77 108 41 77 108 41 77 108 41 77 108 41 77 108 41 77 108 41 77 108 41 77 108 41 77 108 41 77 108 41 77 108 41 76 107 41 76 107 41 76 107 41 76 107 41 76 107 41 76 107 41 76 107 41 76 107 41 76 107 41 76 107 41 76 107 41 76 107 41 76 107 41 76 107 41 76 107 41 76 107 41 83 116 44 83 116 44 83 116 44 83 116 44 83 116 44 83 116 44 83 116 44 83 116 44 83 116 44 83 116 44 83 116 44 83 116 44 83 116 44 83 116 44 83 116 44 83 116 44 93 130 49 93 130 49 93 130 49 93 130 49 93 130 49 93 130 49 93 130 49 93 130 49 93 130 49 93 130 49 93 130 49 93 130 49 93 130 49 93 130 49 93 130 49 93 130 49 70 98 37 70 98 37 70 98 37 70 98 37 70 98 37 70 98 37 70 98 37 70 98 37 70 98 37 70 98 37 70 98 37 70 98 37 70 98 37 70 98 37 70 98 37 70 98 37 74 103 39 74 103 39 74 103 39 74 103 39 74 103 39 74 103 39 74 103 39 74 103 39 74 103 39 74 103 39 74 103 39 74 103 39 74 103 39 74 103 39 74 103 39 79 111 42 79 111 42 79 111 42 79 111 42 79 111 42 79 111 42 79 111 42 79 111 42 79 111 42 79 111 42 79 111 42 79 111 42 79 111 42 79 111 42 79 111 42 79 111 42 80 112 42 80 112 42 80 112 42 80 112 42 80 112 42 80 112 42 80 112 42 80 112 42 80 112 42 80 112 42 80 112 42 80 112 42 80 112 42 80 112 42 80 112 42 80 112 42 92 129 49 92 129 49 92 129 49 92 129 49 92 129 49 92 129 49 92 129 49 92 129 49 92 129 49 92 129 49 92 129 49 92 129 49 92 129 49 92 129 49 92 129 49 92 129 49 77 109 41 77 109 41 77 109 41 77 109 41 77 109 41 77 109 41 77 109 41 77 109 41 77 109 41 77 109 41 77 109 41 77 109 41 77 109 41 77 109 41 77 109 41 77 109 41 98 137 52 98 137 52 98 137 52 98 137 52 98 137 52 98 137 52 98 137 52 98 137 52 98 137 52 98 137 52 98 137 52 98 137 52 98 137 52 98 137 52 98 137 52 98 137 52 78 109 41 78 109 41 78 109 41 78 109 41 78 109 41 78 109 41 78 109 41 78 109 41 78 109 41 78 109 41 78 109 41 78 109 41 78 109 41 78 109 41 78 109 41 78 109 41 70 99 37 70 99 37 70 99 37 70 99 37 70 99 37 70 99 37 70 99 37 70 99 37 70 99 37 70 99 37 70 99 37 70 99 37 70 99 37 70 99 37 70 99 37 70 99 37 82 115 44 82 115 44 82 115 44 82 115 44 82 115 44 82 115 44 82 115 44 82 115 44 82 115 44 82 115 44 82 115 44 82 115 44 82 115 44 82 115 44 82 115 44 82 115 44 71 99 38 71 99 38 71 99 38 71 99 38 71 99 38 71 99 38 71 99 38 71 99 38 71 99 38 71 99 38 71 99 38 71 99 38 71 99 38 71 99 38 71 99 38 71 99 38 100 140 53 100 140 53 100 140 53 100 140 53 100 140 53 100 140 53 100 140 53 100 140 53 100 140 53 100 140 53 100 140 53 100 140 53 100 140 53 100 140 53 100 140 53 100 140 53 77 108 41 77 108 41 77 108 41 77 108 41 77 108 41 77 108 41 77 108 41 77 108 41 77 108 41 77 108 41 77 108 41 77 108 41 77 108 41 77 108 41 77 108 41 77 108 41 76 107 41 76 107 41 76 107 41 76 107 41 76 107 41 76 107 41 76 107 41 76 107 41 76 107 41 76 107 41 76 107 41 76 107 41 76 107 41 76 107 41 76 107 41 76 107 41 83 116 44 83 116 44 83 116 44 83 116 44 83 116 44 83 116 44 83 116 44 83 116 44 83 116 44 83 116 44 83 116 44 83 116 44 83 116 44 83 116 44 83 116 44 83 116 44 93 130 49 93 130 49 93 130 49 93 130 49 93 130 49 93 130 49 93 130 49 93 130 49 93 130 49 93 130 49 93 130 49 93 130 49 93 130 49 93 130 49 93 130 49 93 130 49 70 98 37 70 98 37 70 98 37 70 98 37 70 98 37 70 98 37 70 98 37 70 98 37 70 98 37 70 98 37 70 98 37 70 98 37 70 98 37 70 98 37 70 98 37 70 98 37 74 103 39 74 103 39 74 103 39 74 103 39 74 103 39 74 103 39 74 103 39 74 103 39 74 103 39 74 103 39 74 103 39 74 103 39 74 103 39 74 103 39 74 103 39 79 111 42 79 111 42 79 111 42 79 111 42 79 111 42 79 111 42 79 111 42 79 111 42 79 111 42 79 111 42 79 111 42 79 111 42 79 111 42 79 111 42 79 111 42 79 111 42 80 112 42 80 112 42 80 112 42 80 112 42 80 112 42 80 112 42 80 112 42 80 112 42 80 112 42 80 112 42 80 112 42 80 112 42 80 112 42 80 112 42 80 112 42 80 112 42 92 129 49 92 129 49 92 129 49 92 129 49 92 129 49 92 129 49 92 129 49 92 129 49 92 129 49 92 129 49 92 129 49 92 129 49 92 129 49 92 129 49 92 129 49 92 129 49 77 109 41 77 109 41 77 109 41 77 109 41 77 109 41 77 109 41 77 109 41 77 109 41 77 109 41 77 109 41 77 109 41 77 109 41 77 109 41 77 109 41 77 109 41 77 109 41 98 137 52 98 137 52 98 137 52 98 137 52 98 137 52 98 137 52 98 137 52 98 137 52 98 137 52 98 137 52 98 137 52 98 137 52 98 137 52 98 137 52 98 137 52 98 137 52 78 109 41 78 109 41 78 109 41 78 109 41 78 109 41 78 109 41 78 109 41 78 109 41 78 109 41 78 109 41 78 109 41 78 109 41 78 109 41 78 109 41 78 109 41 78 109 41 70 99 37 70 99 37 70 99 37 70 99 37 70 99 37 70 99 37 70 99 37 70 99 37 70 99 37 70 99 37 70 99 37 70 99 37 70 99 37 70 99 37 70 99 37 70 99 37 82 115 44 82 115 44 82 115 44 82 115 44 82 115 44 82 115 44 82 115 44 82 115 44 82 115 44 82 115 44 82 115 44 82 115 44 82 115 44 82 115 44 82 115 44 82 115 44 71 99 38 71 99 38 71 99 38 71 99 38 71 99 38 71 99 38 71 99 38 71 99 38 71 99 38 71 99 38 71 99 38 71 99 38 71 99 38 71 99 38 71 99 38 71 99 38 100 140 53 100 140 53 100 140 53 100 140 53 100 140 53 100 140 53 100 140 53 100 140 53 100 140 53 100 140 53 100 140 53 100 140 53 100 140 53 100 140 53 100 140 53 100 140 53 77 108 41 77 108 41 77 108 41 77 108 41 77 108 41 77 108 41 77 108 41 77 108 41 77 108 41 77 108 41 77 108 41 77 108 41 77 108 41 77 108 41 77 108 41 77 108 41 76 107 41 76 107 41 76 107 41 76 107 41 76 107 41 76 107 41 76 107 41 76 107 41 76 107 41 76 107 41 76 107 41 76 107 41 76 107 41 76 107 41 76 107 41 76 107 41 83 116 44 83 116 44 83 116 44 83 116 44 83 116 44 83 116 44 83 116 44 83 116 44 83 116 44 83 116 44 83 116 44 83 116 44 83 116 44 83 116 44 83 116 44 83 116 44 93 130 49 93 130 49 93 130 49 93 130 49 93 130 49 93 130 49 93 130 49 93 130 49 93 130 49 93 130 49 93 130 49 93 130 49 93 130 49 93 130 49 93 130 49 93 130 49 70 98 37 70 98 37 70 98 37 70 98 37 70 98 37 70 98 37 70 98 37 70 98 37 70 98 37 70 98 37 70 98 37 70 98 37 70 98 37 70 98 37 70 98 37 70 98 37 74 103 39 74 103 39 74 103 39 74 103 39 74 103 39 74 103 39 74 103 39 74 103 39 74 103 39 74 103 39 74 103 39 74 103 39 74 103 39 74 103 39 74 103 39 79 111 42 79 111 42 79 111 42 79 111 42 79 111 42 79 111 42 79 111 42 79 111 42 79 111 42 79 111 42 79 111 42 79 111 42 79 111 42 79 111 42 79 111 42 79 111 42 80 112 42 80 112 42 80 112 42 80 112 42 80 112 42 80 112 42 80 112 42 80 112 42 80 112 42 80 112 42 80 112 42 80 112 42 80 112 42 80 112 42 80 112 42 80 112 42 92 129 49 92 129 49 92 129 49 92 129 49 92 129 49 92 129 49 92 129 49 92 129 49 92 129 49 92 129 49 92 129 49 92 129 49 92 129 49 92 129 49 92 129 49 92 129 49 77 109 41 77 109 41 77 109 41 77 109 41 77 109 41 77 109 41 77 109 41 77 109 41 77 109 41 77 109 41 77 109 41 77 109 41 77 109 41 77 109 41 77 109 41 77 109 41 98 137 52 98 137 52 98 137 52 98 137 52 98 137 52 98 137 52 98 137 52 98 137 52 98 137 52 98 137 52 98 137 52 98 137 52 98 137 52 98 137 52 98 137 52 98 137 52 78 109 41 78 109 41 78 109 41 78 109 41 78 109 41 78 109 41 78 109 41 78 109 41 78 109 41 78 109 41 78 109 41 78 109 41 78 109 41 78 109 41 78 109 41 78 109 41 70 99 37 70 99 37 70 99 37 70 99 37 70 99 37 70 99 37 70 99 37 70 99 37 70 99 37 70 99 37 70 99 37 70 99 37 70 99 37 70 99 37 70 99 37 70 99 37 84 118 45 84 118 45 84 118 45 84 118 45 84 118 45 84 118 45 84 118 45 84 118 45 84 118 45 84 118 45 84 118 45 84 118 45 84 118 45 84 118 45 84 118 45 84 118 45 86 121 46 86 121 46 86 121 46 86 121 46 86 121 46 86 121 46 86 121 46 86 121 46 86 121 46 86 121 46 86 121 46 86 121 46 86 121 46 86 121 46 86 121 46 86 121 46 82 115 44 82 115 44 82 115 44 82 115 44 82 115 44 82 115 44 82 115 44 82 115 44 82 115 44 82 115 44 82 115 44 82 115 44 82 115 44 82 115 44 82 115 44 82 115 44 90 126 48 90 126 48 90 126 48 90 126 48 90 126 48 90 126 48 90 126 48 90 126 48 90 126 48 90 126 48 90 126 48 90 126 48 90 126 48 90 126 48 90 126 48 90 126 48 71 99 38 71 99 38 71 99 38 71 99 38 71 99 38 71 99 38 71 99 38 71 99 38 71 99 38 71 99 38 71 99 38 71 99 38 71 99 38 71 99 38 71 99 38 71 99 38 99 139 53 99 139 53 99 139 53 99 139 53 99 139 53 99 139 53 99 139 53 99 139 53 99 139 53 99 139 53 99 139 53 99 139 53 99 139 53 99 139 53 99 139 53 99 139 53 77 109 41 77 109 41 77 109 41 77 109 41 77 109 41 77 109 41 77 109 41 77 109 41 77 109 41 77 109 41 77 109 41 77 109 41 77 109 41 77 109 41 77 109 41 77 109 41 80 112 43 80 112 43 80 112 43 80 112 43 80 112 43 80 112 43 80 112 43 80 112 43 80 112 43 80 112 43 80 112 43 80 112 43 80 112 43 80 112 43 80 112 43 80 112 43 105 147 56 105 147 56 105 147 56 105 147 56 105 147 56 105 147 56 105 147 56 105 147 56 105 147 56 105 147 56 105 147 56 105 147 56 105 147 56 105 147 56 105 147 56 66 93 35 66 93 35 66 93 35 66 93 35 66 93 35 66 93 35 66 93 35 66 93 35 66 93 35 66 93 35 66 93 35 66 93 35 66 93 35 66 93 35 66 93 35 66 93 35 91 128 48 91 128 48 91 128 48 91 128 48 91 128 48 91 128 48 91 128 48 91 128 48 91 128 48 91 128 48 91 128 48 91 128 48 91 128 48 91 128 48 91 128 48 91 128 48 71 100 38 71 100 38 71 100 38 71 100 38 71 100 38 71 100 38 71 100 38 71 100 38 71 100 38 71 100 38 71 100 38 71 100 38 71 100 38 71 100 38 71 100 38 71 100 38 78 109 41 78 109 41 78 109 41 78 109 41 78 109 41 78 109 41 78 109 41 78 109 41 78 109 41 78 109 41 78 109 41 78 109 41 78 109 41 78 109 41 78 109 41 78 109 41 74 104 39 74 104 39 74 104 39 74 104 39 74 104 39 74 104 39 74 104 39 74 104 39 74 104 39 74 104 39 74 104 39 74 104 39 74 104 39 74 104 39 74 104 39 74 104 39 82 115 44 82 115 44 82 115 44 82 115 44 82 115 44 82 115 44 82 115 44 82 115 44 82 115 44 82 115 44 82 115 44 82 115 44 82 115 44 82 115 44 82 115 44 82 115 44 78 109 41 78 109 41 78 109 41 78 109 41 78 109 41 78 109 41 78 109 41 78 109 41 78 109 41 78 109 41 78 109 41 78 109 41 78 109 41 78 109 41 78 109 41 78 109 41 84 118 45 84 118 45 84 118 45 84 118 45 84 118 45 84 118 45 84 118 45 84 118 45 84 118 45 84 118 45 84 118 45 84 118 45 84 118 45 84 118 45 84 118 45 84 118 45 86 121 46 86 121 46 86 121 46 86 121 46 86 121 46 86 121 46 86 121 46 86 121 46 86 121 46 86 121 46 86 121 46 86 121 46 86 121 46 86 121 46 86 121 46 86 121 46 82 115 44 82 115 44 82 115 44 82 115 44 82 115 44 82 115 44 82 115 44 82 115 44 82 115 44 82 115 44 82 115 44 82 115 44 82 115 44 82 115 44 82 115 44 82 115 44 90 126 48 90 126 48 90 126 48 90 126 48 90 126 48 90 126 48 90 126 48 90 126 48 90 126 48 90 126 48 90 126 48 90 126 48 90 126 48 90 126 48 90 126 48 90 126 48 71 99 38 71 99 38 71 99 38 71 99 38 71 99 38 71 99 38 71 99 38 71 99 38 71 99 38 71 99 38 71 99 38 71 99 38 71 99 38 71 99 38 71 99 38 71 99 38 99 139 53 99 139 53 99 139 53 99 139 53 99 139 53 99 139 53 99 139 53 99 139 53 99 139 53 99 139 53 99 139 53 99 139 53 99 139 53 99 139 53 99 139 53 99 139 53 77 109 41 77 109 41 77 109 41 77 109 41 77 109 41 77 109 41 77 109 41 77 109 41 77 109 41 77 109 41 77 109 41 77 109 41 77 109 41 77 109 41 77 109 41 77 109 41 80 112 43 80 112 43 80 112 43 80 112 43 80 112 43 80 112 43 80 112 43 80 112 43 80 112 43 80 112 43 80 112 43 80 112 43 80 112 43 80 112 43 80 112 43 80 112 43 105 147 56 105 147 56 105 147 56 105 147 56 105 147 56 105 147 56 105 147 56 105 147 56 105 147 56 105 147 56 105 147 56 105 147 56 105 147 56 105 147 56 105 147 56 66 93 35 66 93 35 66 93 35 66 93 35 66 93 35 66 93 35 66 93 35 66 93 35 66 93 35 66 93 35 66 93 35 66 93 35 66 93 35 66 93 35 66 93 35 66 93 35 91 128 48 91 128 48 91 128 48 91 128 48 91 128 48 91 128 48 91 128 48 91 128 48 91 128 48 91 128 48 91 128 48 91 128 48 91 128 48 91 128 48 91 128 48 91 128 48 71 100 38 71 100 38 71 100 38 71 100 38 71 100 38 71 100 38 71 100 38 71 100 38 71 100 38 71 100 38 71 100 38 71 100 38 71 100 38 71 100 38 71 100 38 71 100 38 78 109 41 78 109 41 78 109 41 78 109 41 78 109 41 78 109 41 78 109 41 78 109 41 78 109 41 78 109 41 78 109 41 78 109 41 78 109 41 78 109 41 78 109 41 78 109 41 74 104 39 74 104 39 74 104 39 74 104 39 74 104 39 74 104 39 74 104 39 74 104 39 74 104 39 74 104 39 74 104 39 74 104 39 74 104 39 74 104 39 74 104 39 74 104 39 82 115 44 82 115 44 82 115 44 82 115 44 82 115 44 82 115 44 82 115 44 82 115 44 82 115 44 82 115 44 82 115 44 82 115 44 82 115 44 82 115 44 82 115 44 82 115 44 78 109 41 78 109 41 78 109 41 78 109 41 78 109 41 78 109 41 78 109 41 78 109 41 78 109 41 78 109 41 78 109 41 78 109 41 78 109 41 78 109 41 78 109 41 78 109 41 84 118 45 84 118 45 84 118 45 84 118 45 84 118 45 84 118 45 84 118 45 84 118 45 84 118 45 84 118 45 84 118 45 84 118 45 84 118 45 84 118 45 84 118 45 84 118 45 86 121 46 86 121 46 86 121 46 86 121 46 86 121 46 86 121 46 86 121 46 86 121 46 86 121 46 86 121 46 86 121 46 86 121 46 86 121 46 86 121 46 86 121 46 86 121 46 82 115 44 82 115 44 82 115 44 82 115 44 82 115 44 82 115 44 82 115 44 82 115 44 82 115 44 82 115 44 82 115 44 82 115 44 82 115 44 82 115 44 82 115 44 82 115 44 90 126 48 90 126 48 90 126 48 90 126 48 90 126 48 90 126 48 90 126 48 90 126 48 90 126 48 90 126 48 90 126 48 90 126 48 90 126 48 90 126 48 90 126 48 90 126 48 71 99 38 71 99 38 71 99 38 71 99 38 71 99 38 71 99 38 71 99 38 71 99 38 71 99 38 71 99 38 71 99 38 71 99 38 71 99 38 71 99 38 71 99 38 71 99 38 99 139 53 99 139 53 99 139 53 99 139 53 99 139 53 99 139 53 99 139 53 99 139 53 99 139 53 99 139 53 99 139 53 99 139 53 99 139 53 99 139 53 99 139 53 99 139 53 77 109 41 77 109 41 77 109 41 77 109 41 77 109 41 77 109 41 77 109 41 77 109 41 77 109 41 77 109 41 77 109 41 77 109 41 77 109 41 77 109 41 77 109 41 77 109 41 80 112 43 80 112 43 80 112 43 80 112 43 80 112 43 80 112 43 80 112 43 80 112 43 80 112 43 80 112 43 80 112 43 80 112 43 80 112 43 80 112 43 80 112 43 80 112 43 105 147 56 105 147 56 105 147 56 105 147 56 105 147 56 105 147 56 105 147 56 105 147 56 105 147 56 105 147 56 105 147 56 105 147 56 105 147 56 105 147 56 105 147 56 66 93 35 66 93 35 66 93 35 66 93 35 66 93 35 66 93 35 66 93 35 66 93 35 66 93 35 66 93 35 66 93 35 66 93 35 66 93 35 66 93 35 66 93 35 66 93 35 91 128 48 91 128 48 91 128 48 91 128 48 91 128 48 91 128 48 91 128 48 91 128 48 91 128 48 91 128 48 91 128 48 91 128 48 91 128 48 91 128 48 91 128 48 91 128 48 71 100 38 71 100 38 71 100 38 71 100 38 71 100 38 71 100 38 71 100 38 71 100 38 71 100 38 71 100 38 71 100 38 71 100 38 71 100 38 71 100 38 71 100 38 71 100 38 78 109 41 78 109 41 78 109 41 78 109 41 78 109 41 78 109 41 78 109 41 78 109 41 78 109 41 78 109 41 78 109 41 78 109 41 78 109 41 78 109 41 78 109 41 78 109 41 74 104 39 74 104 39 74 104 39 74 104 39 74 104 39 74 104 39 74 104 39 74 104 39 74 104 39 74 104 39 74 104 39 74 104 39 74 104 39 74 104 39 74 104 39 74 104 39 82 115 44 82 115 44 82 115 44 82 115 44 82 115 44 82 115 44 82 115 44 82 115 44 82 115 44 82 115 44 82 115 44 82 115 44 82 115 44 82 115 44 82 115 44 82 115 44 78 109 41 78 109 41 78 109 41 78 109 41 78 109 41 78 109 41 78 109 41 78 109 41 78 109 41 78 109 41 78 109 41 78 109 41 78 109 41 78 109 41 78 109 41 78 109 41 84 118 45 84 118 45 84 118 45 84 118 45 84 118 45 84 118 45 84 118 45 84 118 45 84 118 45 84 118 45 84 118 45 84 118 45 84 118 45 84 118 45 84 118 45 84 118 45 86 121 46 86 121 46 86 121 46 86 121 46 86 121 46 86 121 46 86 121 46 86 121 46 86 121 46 86 121 46 86 121 46 86 121 46 86 121 46 86 121 46 86 121 46 86 121 46 82 115 44 82 115 44 82 115 44 82 115 44 82 115 44 82 115 44 82 115 44 82 115 44 82 115 44 82 115 44 82 115 44 82 115 44 82 115 44 82 115 44 82 115 44 82 115 44 90 126 48 90 126 48 90 126 48 90 126 48 90 126 48 90 126 48 90 126 48 90 126 48 90 126 48 90 126 48 90 126 48 90 126 48 90 126 48 90 126 48 90 126 48 90 126 48 71 99 38 71 99 38 71 99 38 71 99 38 71 99 38 71 99 38 71 99 38 71 99 38 71 99 38 71 99 38 71 99 38 71 99 38 71 99 38 71 99 38 71 99 38 71 99 38 99 139 53 99 139 53 99 139 53 99 139 53 99 139 53 99 139 53 99 139 53 99 139 53 99 139 53 99 139 53 99 139 53 99 139 53 99 139 53 99 139 53 99 139 53 99 139 53 77 109 41 77 109 41 77 109 41 77 109 41 77 109 41 77 109 41 77 109 41 77 109 41 77 109 41 77 109 41 77 109 41 77 109 41 77 109 41 77 109 41 77 109 41 77 109 41 80 112 43 80 112 43 80 112 43 80 112 43 80 112 43 80 112 43 80 112 43 80 112 43 80 112 43 80 112 43 80 112 43 80 112 43 80 112 43 80 112 43 80 112 43 80 112 43 105 147 56 105 147 56 105 147 56 105 147 56 105 147 56 105 147 56 105 147 56 105 147 56 105 147 56 105 147 56 105 147 56 105 147 56 105 147 56 105 147 56 105 147 56 66 93 35 66 93 35 66 93 35 66 93 35 66 93 35 66 93 35 66 93 35 66 93 35 66 93 35 66 93 35 66 93 35 66 93 35 66 93 35 66 93 35 66 93 35 66 93 35 91 128 48 91 128 48 91 128 48 91 128 48 91 128 48 91 128 48 91 128 48 91 128 48 91 128 48 91 128 48 91 128 48 91 128 48 91 128 48 91 128 48 91 128 48 91 128 48 71 100 38 71 100 38 71 100 38 71 100 38 71 100 38 71 100 38 71 100 38 71 100 38 71 100 38 71 100 38 71 100 38 71 100 38 71 100 38 71 100 38 71 100 38 71 100 38 78 109 41 78 109 41 78 109 41 78 109 41 78 109 41 78 109 41 78 109 41 78 109 41 78 109 41 78 109 41 78 109 41 78 109 41 78 109 41 78 109 41 78 109 41 78 109 41 74 104 39 74 104 39 74 104 39 74 104 39 74 104 39 74 104 39 74 104 39 74 104 39 74 104 39 74 104 39 74 104 39 74 104 39 74 104 39 74 104 39 74 104 39 74 104 39 82 115 44 82 115 44 82 115 44 82 115 44 82 115 44 82 115 44 82 115 44 82 115 44 82 115 44 82 115 44 82 115 44 82 115 44 82 115 44 82 115 44 82 115 44 82 115 44 78 109 41 78 109 41 78 109 41 78 109 41 78 109 41 78 109 41 78 109 41 78 109 41 78 109 41 78 109 41 78 109 41 78 109 41 78 109 41 78 109 41 78 109 41 78 109 41 84 118 45 84 118 45 84 118 45 84 118 45 84 118 45 84 118 45 84 118 45 84 118 45 84 118 45 84 118 45 84 118 45 84 118 45 84 118 45 84 118 45 84 118 45 84 118 45 86 121 46 86 121 46 86 121 46 86 121 46 86 121 46 86 121 46 86 121 46 86 121 46 86 121 46 86 121 46 86 121 46 86 121 46 86 121 46 86 121 46 86 121 46 86 121 46 82 115 44 82 115 44 82 115 44 82 115 44 82 115 44 82 115 44 82 115 44 82 115 44 82 115 44 82 115 44 82 115 44 82 115 44 82 115 44 82 115 44 82 115 44 82 115 44 90 126 48 90 126 48 90 126 48 90 126 48 90 126 48 90 126 48 90 126 48 90 126 48 90 126 48 90 126 48 90 126 48 90 126 48 90 126 48 90 126 48 90 126 48 90 126 48 71 99 38 71 99 38 71 99 38 71 99 38 71 99 38 71 99 38 71 99 38 71 99 38 71 99 38 71 99 38 71 99 38 71 99 38 71 99 38 71 99 38 71 99 38 71 99 38 99 139 53 99 139 53 99 139 53 99 139 53 99 139 53 99 139 53 99 139 53 99 139 53 99 139 53 99 139 53 99 139 53 99 139 53 99 139 53 99 139 53 99 139 53 99 139 53 77 109 41 77 109 41 77 109 41 77 109 41 77 109 41 77 109 41 77 109 41 77 109 41 77 109 41 77 109 41 77 109 41 77 109 41 77 109 41 77 109 41 77 109 41 77 109 41 80 112 43 80 112 43 80 112 43 80 112 43 80 112 43 80 112 43 80 112 43 80 112 43 80 112 43 80 112 43 80 112 43 80 112 43 80 112 43 80 112 43 80 112 43 80 112 43 105 147 56 105 147 56 105 147 56 105 147 56 105 147 56 105 147 56 105 147 56 105 147 56 105 147 56 105 147 56 105 147 56 105 147 56 105 147 56 105 147 56 105 147 56 66 93 35 66 93 35 66 93 35 66 93 35 66 93 35 66 93 35 66 93 35 66 93 35 66 93 35 66 93 35 66 93 35 66 93 35 66 93 35 66 93 35 66 93 35 66 93 35 91 128 48 91 128 48 91 128 48 91 128 48 91 128 48 91 128 48 91 128 48 91 128 48 91 128 48 91 128 48 91 128 48 91 128 48 91 128 48 91 128 48 91 128 48 91 128 48 71 100 38 71 100 38 71 100 38 71 100 38 71 100 38 71 100 38 71 100 38 71 100 38 71 100 38 71 100 38 71 100 38 71 100 38 71 100 38 71 100 38 71 100 38 71 100 38 78 109 41 78 109 41 78 109 41 78 109 41 78 109 41 78 109 41 78 109 41 78 109 41 78 109 41 78 109 41 78 109 41 78 109 41 78 109 41 78 109 41 78 109 41 78 109 41 74 104 39 74 104 39 74 104 39 74 104 39 74 104 39 74 104 39 74 104 39 74 104 39 74 104 39 74 104 39 74 104 39 74 104 39 74 104 39 74 104 39 74 104 39 74 104 39 82 115 44 82 115 44 82 115 44 82 115 44 82 115 44 82 115 44 82 115 44 82 115 44 82 115 44 82 115 44 82 115 44 82 115 44 82 115 44 82 115 44 82 115 44 82 115 44 78 109 41 78 109 41 78 109 41 78 109 41 78 109 41 78 109 41 78 109 41 78 109 41 78 109 41 78 109 41 78 109 41 78 109 41 78 109 41 78 109 41 78 109 41 78 109 41 84 118 45 84 118 45 84 118 45 84 118 45 84 118 45 84 118 45 84 118 45 84 118 45 84 118 45 84 118 45 84 118 45 84 118 45 84 118 45 84 118 45 84 118 45 84 118 45 86 121 46 86 121 46 86 121 46 86 121 46 86 121 46 86 121 46 86 121 46 86 121 46 86 121 46 86 121 46 86 121 46 86 121 46 86 121 46 86 121 46 86 121 46 86 121 46 82 115 44 82 115 44 82 115 44 82 115 44 82 115 44 82 115 44 82 115 44 82 115 44 82 115 44 82 115 44 82 115 44 82 115 44 82 115 44 82 115 44 82 115 44 82 115 44 90 126 48 90 126 48 90 126 48 90 126 48 90 126 48 90 126 48 90 126 48 90 126 48 90 126 48 90 126 48 90 126 48 90 126 48 90 126 48 90 126 48 90 126 48 90 126 48 71 99 38 71 99 38 71 99 38 71 99 38 71 99 38 71 99 38 71 99 38 71 99 38 71 99 38 71 99 38 71 99 38 71 99 38 71 99 38 71 99 38 71 99 38 71 99 38 99 139 53 99 139 53 99 139 53 99 139 53 99 139 53 99 139 53 99 139 53 99 139 53 99 139 53 99 139 53 99 139 53 99 139 53 99 139 53 99 139 53 99 139 53 99 139 53 77 109 41 77 109 41 77 109 41 77 109 41 77 109 41 77 109 41 77 109 41 77 109 41 77 109 41 77 109 41 77 109 41 77 109 41 77 109 41 77 109 41 77 109 41 77 109 41 80 112 43 80 112 43 80 112 43 80 112 43 80 112 43 80 112 43 80 112 43 80 112 43 80 112 43 80 112 43 80 112 43 80 112 43 80 112 43 80 112 43 80 112 43 80 112 43 105 147 56 105 147 56 105 147 56 105 147 56 105 147 56 105 147 56 105 147 56 105 147 56 105 147 56 105 147 56 105 147 56 105 147 56 105 147 56 105 147 56 105 147 56 66 93 35 66 93 35 66 93 35 66 93 35 66 93 35 66 93 35 66 93 35 66 93 35 66 93 35 66 93 35 66 93 35 66 93 35 66 93 35 66 93 35 66 93 35 66 93 35 91 128 48 91 128 48 91 128 48 91 128 48 91 128 48 91 128 48 91 128 48 91 128 48 91 128 48 91 128 48 91 128 48 91 128 48 91 128 48 91 128 48 91 128 48 91 128 48 71 100 38 71 100 38 71 100 38 71 100 38 71 100 38 71 100 38 71 100 38 71 100 38 71 100 38 71 100 38 71 100 38 71 100 38 71 100 38 71 100 38 71 100 38 71 100 38 78 109 41 78 109 41 78 109 41 78 109 41 78 109 41 78 109 41 78 109 41 78 109 41 78 109 41 78 109 41 78 109 41 78 109 41 78 109 41 78 109 41 78 109 41 78 109 41 74 104 39 74 104 39 74 104 39 74 104 39 74 104 39 74 104 39 74 104 39 74 104 39 74 104 39 74 104 39 74 104 39 74 104 39 74 104 39 74 104 39 74 104 39 74 104 39 82 115 44 82 115 44 82 115 44 82 115 44 82 115 44 82 115 44 82 115 44 82 115 44 82 115 44 82 115 44 82 115 44 82 115 44 82 115 44 82 115 44 82 115 44 82 115 44 78 109 41 78 109 41 78 109 41 78 109 41 78 109 41 78 109 41 78 109 41 78 109 41 78 109 41 78 109 41 78 109 41 78 109 41 78 109 41 78 109 41 78 109 41 78 109 41 84 118 45 84 118 45 84 118 45 84 118 45 84 118 45 84 118 45 84 118 45 84 118 45 84 118 45 84 118 45 84 118 45 84 118 45 84 118 45 84 118 45 84 118 45 84 118 45 86 121 46 86 121 46 86 121 46 86 121 46 86 121 46 86 121 46 86 121 46 86 121 46 86 121 46 86 121 46 86 121 46 86 121 46 86 121 46 86 121 46 86 121 46 86 121 46 82 115 44 82 115 44 82 115 44 82 115 44 82 115 44 82 115 44 82 115 44 82 115 44 82 115 44 82 115 44 82 115 44 82 115 44 82 115 44 82 115 44 82 115 44 82 115 44 90 126 48 90 126 48 90 126 48 90 126 48 90 126 48 90 126 48 90 126 48 90 126 48 90 126 48 90 126 48 90 126 48 90 126 48 90 126 48 90 126 48 90 126 48 90 126 48 71 99 38 71 99 38 71 99 38 71 99 38 71 99 38 71 99 38 71 99 38 71 99 38 71 99 38 71 99 38 71 99 38 71 99 38 71 99 38 71 99 38 71 99 38 71 99 38 99 139 53 99 139 53 99 139 53 99 139 53 99 139 53 99 139 53 99 139 53 99 139 53 99 139 53 99 139 53 99 139 53 99 139 53 99 139 53 99 139 53 99 139 53 99 139 53 77 109 41 77 109 41 77 109 41 77 109 41 77 109 41 77 109 41 77 109 41 77 109 41 77 109 41 77 109 41 77 109 41 77 109 41 77 109 41 77 109 41 77 109 41 77 109 41 80 112 43 80 112 43 80 112 43 80 112 43 80 112 43 80 112 43 80 112 43 80 112 43 80 112 43 80 112 43 80 112 43 80 112 43 80 112 43 80 112 43 80 112 43 80 112 43 105 147 56 105 147 56 105 147 56 105 147 56 105 147 56 105 147 56 105 147 56 105 147 56 105 147 56 105 147 56 105 147 56 105 147 56 105 147 56 105 147 56 105 147 56 66 93 35 66 93 35 66 93 35 66 93 35 66 93 35 66 93 35 66 93 35 66 93 35 66 93 35 66 93 35 66 93 35 66 93 35 66 93 35 66 93 35 66 93 35 66 93 35 91 128 48 91 128 48 91 128 48 91 128 48 91 128 48 91 128 48 91 128 48 91 128 48 91 128 48 91 128 48 91 128 48 91 128 48 91 128 48 91 128 48 91 128 48 91 128 48 71 100 38 71 100 38 71 100 38 71 100 38 71 100 38 71 100 38 71 100 38 71 100 38 71 100 38 71 100 38 71 100 38 71 100 38 71 100 38 71 100 38 71 100 38 71 100 38 78 109 41 78 109 41 78 109 41 78 109 41 78 109 41 78 109 41 78 109 41 78 109 41 78 109 41 78 109 41 78 109 41 78 109 41 78 109 41 78 109 41 78 109 41 78 109 41 74 104 39 74 104 39 74 104 39 74 104 39 74 104 39 74 104 39 74 104 39 74 104 39 74 104 39 74 104 39 74 104 39 74 104 39 74 104 39 74 104 39 74 104 39 74 104 39 82 115 44 82 115 44 82 115 44 82 115 44 82 115 44 82 115 44 82 115 44 82 115 44 82 115 44 82 115 44 82 115 44 82 115 44 82 115 44 82 115 44 82 115 44 82 115 44 78 109 41 78 109 41 78 109 41 78 109 41 78 109 41 78 109 41 78 109 41 78 109 41 78 109 41 78 109 41 78 109 41 78 109 41 78 109 41 78 109 41 78 109 41 78 109 41 84 118 45 84 118 45 84 118 45 84 118 45 84 118 45 84 118 45 84 118 45 84 118 45 84 118 45 84 118 45 84 118 45 84 118 45 84 118 45 84 118 45 84 118 45 84 118 45 86 121 46 86 121 46 86 121 46 86 121 46 86 121 46 86 121 46 86 121 46 86 121 46 86 121 46 86 121 46 86 121 46 86 121 46 86 121 46 86 121 46 86 121 46 86 121 46 82 115 44 82 115 44 82 115 44 82 115 44 82 115 44 82 115 44 82 115 44 82 115 44 82 115 44 82 115 44 82 115 44 82 115 44 82 115 44 82 115 44 82 115 44 82 115 44 90 126 48 90 126 48 90 126 48 90 126 48 90 126 48 90 126 48 90 126 48 90 126 48 90 126 48 90 126 48 90 126 48 90 126 48 90 126 48 90 126 48 90 126 48 90 126 48 71 99 38 71 99 38 71 99 38 71 99 38 71 99 38 71 99 38 71 99 38 71 99 38 71 99 38 71 99 38 71 99 38 71 99 38 71 99 38 71 99 38 71 99 38 71 99 38 99 139 53 99 139 53 99 139 53 99 139 53 99 139 53 99 139 53 99 139 53 99 139 53 99 139 53 99 139 53 99 139 53 99 139 53 99 139 53 99 139 53 99 139 53 99 139 53 77 109 41 77 109 41 77 109 41 77 109 41 77 109 41 77 109 41 77 109 41 77 109 41 77 109 41 77 109 41 77 109 41 77 109 41 77 109 41 77 109 41 77 109 41 77 109 41 80 112 43 80 112 43 80 112 43 80 112 43 80 112 43 80 112 43 80 112 43 80 112 43 80 112 43 80 112 43 80 112 43 80 112 43 80 112 43 80 112 43 80 112 43 80 112 43 105 147 56 105 147 56 105 147 56 105 147 56 105 147 56 105 147 56 105 147 56 105 147 56 105 147 56 105 147 56 105 147 56 105 147 56 105 147 56 105 147 56 105 147 56 66 93 35 66 93 35 66 93 35 66 93 35 66 93 35 66 93 35 66 93 35 66 93 35 66 93 35 66 93 35 66 93 35 66 93 35 66 93 35 66 93 35 66 93 35 66 93 35 91 128 48 91 128 48 91 128 48 91 128 48 91 128 48 91 128 48 91 128 48 91 128 48 91 128 48 91 128 48 91 128 48 91 128 48 91 128 48 91 128 48 91 128 48 91 128 48 71 100 38 71 100 38 71 100 38 71 100 38 71 100 38 71 100 38 71 100 38 71 100 38 71 100 38 71 100 38 71 100 38 71 100 38 71 100 38 71 100 38 71 100 38 71 100 38 78 109 41 78 109 41 78 109 41 78 109 41 78 109 41 78 109 41 78 109 41 78 109 41 78 109 41 78 109 41 78 109 41 78 109 41 78 109 41 78 109 41 78 109 41 78 109 41 74 104 39 74 104 39 74 104 39 74 104 39 74 104 39 74 104 39 74 104 39 74 104 39 74 104 39 74 104 39 74 104 39 74 104 39 74 104 39 74 104 39 74 104 39 74 104 39 82 115 44 82 115 44 82 115 44 82 115 44 82 115 44 82 115 44 82 115 44 82 115 44 82 115 44 82 115 44 82 115 44 82 115 44 82 115 44 82 115 44 82 115 44 82 115 44 78 109 41 78 109 41 78 109 41 78 109 41 78 109 41 78 109 41 78 109 41 78 109 41 78 109 41 78 109 41 78 109 41 78 109 41 78 109 41 78 109 41 78 109 41 78 109 41 84 118 45 84 118 45 84 118 45 84 118 45 84 118 45 84 118 45 84 118 45 84 118 45 84 118 45 84 118 45 84 118 45 84 118 45 84 118 45 84 118 45 84 118 45 84 118 45 86 121 46 86 121 46 86 121 46 86 121 46 86 121 46 86 121 46 86 121 46 86 121 46 86 121 46 86 121 46 86 121 46 86 121 46 86 121 46 86 121 46 86 121 46 86 121 46 82 115 44 82 115 44 82 115 44 82 115 44 82 115 44 82 115 44 82 115 44 82 115 44 82 115 44 82 115 44 82 115 44 82 115 44 82 115 44 82 115 44 82 115 44 82 115 44 90 126 48 90 126 48 90 126 48 90 126 48 90 126 48 90 126 48 90 126 48 90 126 48 90 126 48 90 126 48 90 126 48 90 126 48 90 126 48 90 126 48 90 126 48 90 126 48 71 99 38 71 99 38 71 99 38 71 99 38 71 99 38 71 99 38 71 99 38 71 99 38 71 99 38 71 99 38 71 99 38 71 99 38 71 99 38 71 99 38 71 99 38 71 99 38 99 139 53 99 139 53 99 139 53 99 139 53 99 139 53 99 139 53 99 139 53 99 139 53 99 139 53 99 139 53 99 139 53 99 139 53 99 139 53 99 139 53 99 139 53 99 139 53 77 109 41 77 109 41 77 109 41 77 109 41 77 109 41 77 109 41 77 109 41 77 109 41 77 109 41 77 109 41 77 109 41 77 109 41 77 109 41 77 109 41 77 109 41 77 109 41 80 112 43 80 112 43 80 112 43 80 112 43 80 112 43 80 112 43 80 112 43 80 112 43 80 112 43 80 112 43 80 112 43 80 112 43 80 112 43 80 112 43 80 112 43 80 112 43 105 147 56 105 147 56 105 147 56 105 147 56 105 147 56 105 147 56 105 147 56 105 147 56 105 147 56 105 147 56 105 147 56 105 147 56 105 147 56 105 147 56 105 147 56 66 93 35 66 93 35 66 93 35 66 93 35 66 93 35 66 93 35 66 93 35 66 93 35 66 93 35 66 93 35 66 93 35 66 93 35 66 93 35 66 93 35 66 93 35 66 93 35 91 128 48 91 128 48 91 128 48 91 128 48 91 128 48 91 128 48 91 128 48 91 128 48 91 128 48 91 128 48 91 128 48 91 128 48 91 128 48 91 128 48 91 128 48 91 128 48 71 100 38 71 100 38 71 100 38 71 100 38 71 100 38 71 100 38 71 100 38 71 100 38 71 100 38 71 100 38 71 100 38 71 100 38 71 100 38 71 100 38 71 100 38 71 100 38 78 109 41 78 109 41 78 109 41 78 109 41 78 109 41 78 109 41 78 109 41 78 109 41 78 109 41 78 109 41 78 109 41 78 109 41 78 109 41 78 109 41 78 109 41 78 109 41 74 104 39 74 104 39 74 104 39 74 104 39 74 104 39 74 104 39 74 104 39 74 104 39 74 104 39 74 104 39 74 104 39 74 104 39 74 104 39 74 104 39 74 104 39 74 104 39 82 115 44 82 115 44 82 115 44 82 115 44 82 115 44 82 115 44 82 115 44 82 115 44 82 115 44 82 115 44 82 115 44 82 115 44 82 115 44 82 115 44 82 115 44 82 115 44 78 109 41 78 109 41 78 109 41 78 109 41 78 109 41 78 109 41 78 109 41 78 109 41 78 109 41 78 109 41 78 109 41 78 109 41 78 109 41 78 109 41 78 109 41 78 109 41 84 118 45 84 118 45 84 118 45 84 118 45 84 118 45 84 118 45 84 118 45 84 118 45 84 118 45 84 118 45 84 118 45 84 118 45 84 118 45 84 118 45 84 118 45 84 118 45 86 121 46 86 121 46 86 121 46 86 121 46 86 121 46 86 121 46 86 121 46 86 121 46 86 121 46 86 121 46 86 121 46 86 121 46 86 121 46 86 121 46 86 121 46 86 121 46 82 115 44 82 115 44 82 115 44 82 115 44 82 115 44 82 115 44 82 115 44 82 115 44 82 115 44 82 115 44 82 115 44 82 115 44 82 115 44 82 115 44 82 115 44 82 115 44 90 126 48 90 126 48 90 126 48 90 126 48 90 126 48 90 126 48 90 126 48 90 126 48 90 126 48 90 126 48 90 126 48 90 126 48 90 126 48 90 126 48 90 126 48 90 126 48 71 99 38 71 99 38 71 99 38 71 99 38 71 99 38 71 99 38 71 99 38 71 99 38 71 99 38 71 99 38 71 99 38 71 99 38 71 99 38 71 99 38 71 99 38 71 99 38 99 139 53 99 139 53 99 139 53 99 139 53 99 139 53 99 139 53 99 139 53 99 139 53 99 139 53 99 139 53 99 139 53 99 139 53 99 139 53 99 139 53 99 139 53 99 139 53 77 109 41 77 109 41 77 109 41 77 109 41 77 109 41 77 109 41 77 109 41 77 109 41 77 109 41 77 109 41 77 109 41 77 109 41 77 109 41 77 109 41 77 109 41 77 109 41 80 112 43 80 112 43 80 112 43 80 112 43 80 112 43 80 112 43 80 112 43 80 112 43 80 112 43 80 112 43 80 112 43 80 112 43 80 112 43 80 112 43 80 112 43 80 112 43 105 147 56 105 147 56 105 147 56 105 147 56 105 147 56 105 147 56 105 147 56 105 147 56 105 147 56 105 147 56 105 147 56 105 147 56 105 147 56 105 147 56 105 147 56 66 93 35 66 93 35 66 93 35 66 93 35 66 93 35 66 93 35 66 93 35 66 93 35 66 93 35 66 93 35 66 93 35 66 93 35 66 93 35 66 93 35 66 93 35 66 93 35 91 128 48 91 128 48 91 128 48 91 128 48 91 128 48 91 128 48 91 128 48 91 128 48 91 128 48 91 128 48 91 128 48 91 128 48 91 128 48 91 128 48 91 128 48 91 128 48 71 100 38 71 100 38 71 100 38 71 100 38 71 100 38 71 100 38 71 100 38 71 100 38 71 100 38 71 100 38 71 100 38 71 100 38 71 100 38 71 100 38 71 100 38 71 100 38 78 109 41 78 109 41 78 109 41 78 109 41 78 109 41 78 109 41 78 109 41 78 109 41 78 109 41 78 109 41 78 109 41 78 109 41 78 109 41 78 109 41 78 109 41 78 109 41 74 104 39 74 104 39 74 104 39 74 104 39 74 104 39 74 104 39 74 104 39 74 104 39 74 104 39 74 104 39 74 104 39 74 104 39 74 104 39 74 104 39 74 104 39 74 104 39 82 115 44 82 115 44 82 115 44 82 115 44 82 115 44 82 115 44 82 115 44 82 115 44 82 115 44 82 115 44 82 115 44 82 115 44 82 115 44 82 115 44 82 115 44 82 115 44 78 109 41 78 109 41 78 109 41 78 109 41 78 109 41 78 109 41 78 109 41 78 109 41 78 109 41 78 109 41 78 109 41 78 109 41 78 109 41 78 109 41 78 109 41 78 109 41 84 118 45 84 118 45 84 118 45 84 118 45 84 118 45 84 118 45 84 118 45 84 118 45 84 118 45 84 118 45 84 118 45 84 118 45 84 118 45 84 118 45 84 118 45 84 118 45 86 121 46 86 121 46 86 121 46 86 121 46 86 121 46 86 121 46 86 121 46 86 121 46 86 121 46 86 121 46 86 121 46 86 121 46 86 121 46 86 121 46 86 121 46 86 121 46 82 115 44 82 115 44 82 115 44 82 115 44 82 115 44 82 115 44 82 115 44 82 115 44 82 115 44 82 115 44 82 115 44 82 115 44 82 115 44 82 115 44 82 115 44 82 115 44 90 126 48 90 126 48 90 126 48 90 126 48 90 126 48 90 126 48 90 126 48 90 126 48 90 126 48 90 126 48 90 126 48 90 126 48 90 126 48 90 126 48 90 126 48 90 126 48 71 99 38 71 99 38 71 99 38 71 99 38 71 99 38 71 99 38 71 99 38 71 99 38 71 99 38 71 99 38 71 99 38 71 99 38 71 99 38 71 99 38 71 99 38 71 99 38 99 139 53 99 139 53 99 139 53 99 139 53 99 139 53 99 139 53 99 139 53 99 139 53 99 139 53 99 139 53 99 139 53 99 139 53 99 139 53 99 139 53 99 139 53 99 139 53 77 109 41 77 109 41 77 109 41 77 109 41 77 109 41 77 109 41 77 109 41 77 109 41 77 109 41 77 109 41 77 109 41 77 109 41 77 109 41 77 109 41 77 109 41 77 109 41 80 112 43 80 112 43 80 112 43 80 112 43 80 112 43 80 112 43 80 112 43 80 112 43 80 112 43 80 112 43 80 112 43 80 112 43 80 112 43 80 112 43 80 112 43 80 112 43 105 147 56 105 147 56 105 147 56 105 147 56 105 147 56 105 147 56 105 147 56 105 147 56 105 147 56 105 147 56 105 147 56 105 147 56 105 147 56 105 147 56 105 147 56 66 93 35 66 93 35 66 93 35 66 93 35 66 93 35 66 93 35 66 93 35 66 93 35 66 93 35 66 93 35 66 93 35 66 93 35 66 93 35 66 93 35 66 93 35 66 93 35 91 128 48 91 128 48 91 128 48 91 128 48 91 128 48 91 128 48 91 128 48 91 128 48 91 128 48 91 128 48 91 128 48 91 128 48 91 128 48 91 128 48 91 128 48 91 128 48 71 100 38 71 100 38 71 100 38 71 100 38 71 100 38 71 100 38 71 100 38 71 100 38 71 100 38 71 100 38 71 100 38 71 100 38 71 100 38 71 100 38 71 100 38 71 100 38 78 109 41 78 109 41 78 109 41 78 109 41 78 109 41 78 109 41 78 109 41 78 109 41 78 109 41 78 109 41 78 109 41 78 109 41 78 109 41 78 109 41 78 109 41 78 109 41 74 104 39 74 104 39 74 104 39 74 104 39 74 104 39 74 104 39 74 104 39 74 104 39 74 104 39 74 104 39 74 104 39 74 104 39 74 104 39 74 104 39 74 104 39 74 104 39 82 115 44 82 115 44 82 115 44 82 115 44 82 115 44 82 115 44 82 115 44 82 115 44 82 115 44 82 115 44 82 115 44 82 115 44 82 115 44 82 115 44 82 115 44 82 115 44 78 109 41 78 109 41 78 109 41 78 109 41 78 109 41 78 109 41 78 109 41 78 109 41 78 109 41 78 109 41 78 109 41 78 109 41 78 109 41 78 109 41 78 109 41 78 109 41 84 118 45 84 118 45 84 118 45 84 118 45 84 118 45 84 118 45 84 118 45 84 118 45 84 118 45 84 118 45 84 118 45 84 118 45 84 118 45 84 118 45 84 118 45 84 118 45 86 121 46 86 121 46 86 121 46 86 121 46 86 121 46 86 121 46 86 121 46 86 121 46 86 121 46 86 121 46 86 121 46 86 121 46 86 121 46 86 121 46 86 121 46 86 121 46 82 115 44 82 115 44 82 115 44 82 115 44 82 115 44 82 115 44 82 115 44 82 115 44 82 115 44 82 115 44 82 115 44 82 115 44 82 115 44 82 115 44 82 115 44 82 115 44 90 126 48 90 126 48 90 126 48 90 126 48 90 126 48 90 126 48 90 126 48 90 126 48 90 126 48 90 126 48 90 126 48 90 126 48 90 126 48 90 126 48 90 126 48 90 126 48 71 99 38 71 99 38 71 99 38 71 99 38 71 99 38 71 99 38 71 99 38 71 99 38 71 99 38 71 99 38 71 99 38 71 99 38 71 99 38 71 99 38 71 99 38 71 99 38 99 139 53 99 139 53 99 139 53 99 139 53 99 139 53 99 139 53 99 139 53 99 139 53 99 139 53 99 139 53 99 139 53 99 139 53 99 139 53 99 139 53 99 139 53 99 139 53 77 109 41 77 109 41 77 109 41 77 109 41 77 109 41 77 109 41 77 109 41 77 109 41 77 109 41 77 109 41 77 109 41 77 109 41 77 109 41 77 109 41 77 109 41 77 109 41 80 112 43 80 112 43 80 112 43 80 112 43 80 112 43 80 112 43 80 112 43 80 112 43 80 112 43 80 112 43 80 112 43 80 112 43 80 112 43 80 112 43 80 112 43 80 112 43 105 147 56 105 147 56 105 147 56 105 147 56 105 147 56 105 147 56 105 147 56 105 147 56 105 147 56 105 147 56 105 147 56 105 147 56 105 147 56 105 147 56 105 147 56 66 93 35 66 93 35 66 93 35 66 93 35 66 93 35 66 93 35 66 93 35 66 93 35 66 93 35 66 93 35 66 93 35 66 93 35 66 93 35 66 93 35 66 93 35 66 93 35 91 128 48 91 128 48 91 128 48 91 128 48 91 128 48 91 128 48 91 128 48 91 128 48 91 128 48 91 128 48 91 128 48 91 128 48 91 128 48 91 128 48 91 128 48 91 128 48 71 100 38 71 100 38 71 100 38 71 100 38 71 100 38 71 100 38 71 100 38 71 100 38 71 100 38 71 100 38 71 100 38 71 100 38 71 100 38 71 100 38 71 100 38 71 100 38 78 109 41 78 109 41 78 109 41 78 109 41 78 109 41 78 109 41 78 109 41 78 109 41 78 109 41 78 109 41 78 109 41 78 109 41 78 109 41 78 109 41 78 109 41 78 109 41 74 104 39 74 104 39 74 104 39 74 104 39 74 104 39 74 104 39 74 104 39 74 104 39 74 104 39 74 104 39 74 104 39 74 104 39 74 104 39 74 104 39 74 104 39 74 104 39 82 115 44 82 115 44 82 115 44 82 115 44 82 115 44 82 115 44 82 115 44 82 115 44 82 115 44 82 115 44 82 115 44 82 115 44 82 115 44 82 115 44 82 115 44 82 115 44 78 109 41 78 109 41 78 109 41 78 109 41 78 109 41 78 109 41 78 109 41 78 109 41 78 109 41 78 109 41 78 109 41 78 109 41 78 109 41 78 109 41 78 109 41 78 109 41 84 118 45 84 118 45 84 118 45 84 118 45 84 118 45 84 118 45 84 118 45 84 118 45 84 118 45 84 118 45 84 118 45 84 118 45 84 118 45 84 118 45 84 118 45 84 118 45 86 121 46 86 121 46 86 121 46 86 121 46 86 121 46 86 121 46 86 121 46 86 121 46 86 121 46 86 121 46 86 121 46 86 121 46 86 121 46 86 121 46 86 121 46 86 121 46 82 115 44 82 115 44 82 115 44 82 115 44 82 115 44 82 115 44 82 115 44 82 115 44 82 115 44 82 115 44 82 115 44 82 115 44 82 115 44 82 115 44 82 115 44 82 115 44 90 126 48 90 126 48 90 126 48 90 126 48 90 126 48 90 126 48 90 126 48 90 126 48 90 126 48 90 126 48 90 126 48 90 126 48 90 126 48 90 126 48 90 126 48 90 126 48 71 99 38 71 99 38 71 99 38 71 99 38 71 99 38 71 99 38 71 99 38 71 99 38 71 99 38 71 99 38 71 99 38 71 99 38 71 99 38 71 99 38 71 99 38 71 99 38 99 139 53 99 139 53 99 139 53 99 139 53 99 139 53 99 139 53 99 139 53 99 139 53 99 139 53 99 139 53 99 139 53 99 139 53 99 139 53 99 139 53 99 139 53 99 139 53 77 109 41 77 109 41 77 109 41 77 109 41 77 109 41 77 109 41 77 109 41 77 109 41 77 109 41 77 109 41 77 109 41 77 109 41 77 109 41 77 109 41 77 109 41 77 109 41 80 112 43 80 112 43 80 112 43 80 112 43 80 112 43 80 112 43 80 112 43 80 112 43 80 112 43 80 112 43 80 112 43 80 112 43 80 112 43 80 112 43 80 112 43 80 112 43 105 147 56 105 147 56 105 147 56 105 147 56 105 147 56 105 147 56 105 147 56 105 147 56 105 147 56 105 147 56 105 147 56 105 147 56 105 147 56 105 147 56 105 147 56 66 93 35 66 93 35 66 93 35 66 93 35 66 93 35 66 93 35 66 93 35 66 93 35 66 93 35 66 93 35 66 93 35 66 93 35 66 93 35 66 93 35 66 93 35 66 93 35 91 128 48 91 128 48 91 128 48 91 128 48 91 128 48 91 128 48 91 128 48 91 128 48 91 128 48 91 128 48 91 128 48 91 128 48 91 128 48 91 128 48 91 128 48 91 128 48 71 100 38 71 100 38 71 100 38 71 100 38 71 100 38 71 100 38 71 100 38 71 100 38 71 100 38 71 100 38 71 100 38 71 100 38 71 100 38 71 100 38 71 100 38 71 100 38 78 109 41 78 109 41 78 109 41 78 109 41 78 109 41 78 109 41 78 109 41 78 109 41 78 109 41 78 109 41 78 109 41 78 109 41 78 109 41 78 109 41 78 109 41 78 109 41 74 104 39 74 104 39 74 104 39 74 104 39 74 104 39 74 104 39 74 104 39 74 104 39 74 104 39 74 104 39 74 104 39 74 104 39 74 104 39 74 104 39 74 104 39 74 104 39 82 115 44 82 115 44 82 115 44 82 115 44 82 115 44 82 115 44 82 115 44 82 115 44 82 115 44 82 115 44 82 115 44 82 115 44 82 115 44 82 115 44 82 115 44 82 115 44 78 109 41 78 109 41 78 109 41 78 109 41 78 109 41 78 109 41 78 109 41 78 109 41 78 109 41 78 109 41 78 109 41 78 109 41 78 109 41 78 109 41 78 109 41 78 109 41 84 118 45 84 118 45 84 118 45 84 118 45 84 118 45 84 118 45 84 118 45 84 118 45 84 118 45 84 118 45 84 118 45 84 118 45 84 118 45 84 118 45 84 118 45 84 118 45 86 121 46 86 121 46 86 121 46 86 121 46 86 121 46 86 121 46 86 121 46 86 121 46 86 121 46 86 121 46 86 121 46 86 121 46 86 121 46 86 121 46 86 121 46 86 121 46 82 115 44 82 115 44 82 115 44 82 115 44 82 115 44 82 115 44 82 115 44 82 115 44 82 115 44 82 115 44 82 115 44 82 115 44 82 115 44 82 115 44 82 115 44 82 115 44 90 126 48 90 126 48 90 126 48 90 126 48 90 126 48 90 126 48 90 126 48 90 126 48 90 126 48 90 126 48 90 126 48 90 126 48 90 126 48 90 126 48 90 126 48 90 126 48 71 99 38 71 99 38 71 99 38 71 99 38 71 99 38 71 99 38 71 99 38 71 99 38 71 99 38 71 99 38 71 99 38 71 99 38 71 99 38 71 99 38 71 99 38 71 99 38 99 139 53 99 139 53 99 139 53 99 139 53 99 139 53 99 139 53 99 139 53 99 139 53 99 139 53 99 139 53 99 139 53 99 139 53 99 139 53 99 139 53 99 139 53 99 139 53 77 109 41 77 109 41 77 109 41 77 109 41 77 109 41 77 109 41 77 109 41 77 109 41 77 109 41 77 109 41 77 109 41 77 109 41 77 109 41 77 109 41 77 109 41 77 109 41 80 112 43 80 112 43 80 112 43 80 112 43 80 112 43 80 112 43 80 112 43 80 112 43 80 112 43 80 112 43 80 112 43 80 112 43 80 112 43 80 112 43 80 112 43 80 112 43 105 147 56 105 147 56 105 147 56 105 147 56 105 147 56 105 147 56 105 147 56 105 147 56 105 147 56 105 147 56 105 147 56 105 147 56 105 147 56 105 147 56 105 147 56 66 93 35 66 93 35 66 93 35 66 93 35 66 93 35 66 93 35 66 93 35 66 93 35 66 93 35 66 93 35 66 93 35 66 93 35 66 93 35 66 93 35 66 93 35 66 93 35 91 128 48 91 128 48 91 128 48 91 128 48 91 128 48 91 128 48 91 128 48 91 128 48 91 128 48 91 128 48 91 128 48 91 128 48 91 128 48 91 128 48 91 128 48 91 128 48 71 100 38 71 100 38 71 100 38 71 100 38 71 100 38 71 100 38 71 100 38 71 100 38 71 100 38 71 100 38 71 100 38 71 100 38 71 100 38 71 100 38 71 100 38 71 100 38 78 109 41 78 109 41 78 109 41 78 109 41 78 109 41 78 109 41 78 109 41 78 109 41 78 109 41 78 109 41 78 109 41 78 109 41 78 109 41 78 109 41 78 109 41 78 109 41 74 104 39 74 104 39 74 104 39 74 104 39 74 104 39 74 104 39 74 104 39 74 104 39 74 104 39 74 104 39 74 104 39 74 104 39 74 104 39 74 104 39 74 104 39 74 104 39 82 115 44 82 115 44 82 115 44 82 115 44 82 115 44 82 115 44 82 115 44 82 115 44 82 115 44 82 115 44 82 115 44 82 115 44 82 115 44 82 115 44 82 115 44 82 115 44 78 109 41 78 109 41 78 109 41 78 109 41 78 109 41 78 109 41 78 109 41 78 109 41 78 109 41 78 109 41 78 109 41 78 109 41 78 109 41 78 109 41 78 109 41 78 109 41 84 118 45 84 118 45 84 118 45 84 118 45 84 118 45 84 118 45 84 118 45 84 118 45 84 118 45 84 118 45 84 118 45 84 118 45 84 118 45 84 118 45 84 118 45 84 118 45 86 121 46 86 121 46 86 121 46 86 121 46 86 121 46 86 121 46 86 121 46 86 121 46 86 121 46 86 121 46 86 121 46 86 121 46 86 121 46 86 121 46 86 121 46 86 121 46 82 115 44 82 115 44 82 115 44 82 115 44 82 115 44 82 115 44 82 115 44 82 115 44 82 115 44 82 115 44 82 115 44 82 115 44 82 115 44 82 115 44 82 115 44 82 115 44 90 126 48 90 126 48 90 126 48 90 126 48 90 126 48 90 126 48 90 126 48 90 126 48 90 126 48 90 126 48 90 126 48 90 126 48 90 126 48 90 126 48 90 126 48 90 126 48 71 99 38 71 99 38 71 99 38 71 99 38 71 99 38 71 99 38 71 99 38 71 99 38 71 99 38 71 99 38 71 99 38 71 99 38 71 99 38 71 99 38 71 99 38 71 99 38 99 139 53 99 139 53 99 139 53 99 139 53 99 139 53 99 139 53 99 139 53 99 139 53 99 139 53 99 139 53 99 139 53 99 139 53 99 139 53 99 139 53 99 139 53 99 139 53 77 109 41 77 109 41 77 109 41 77 109 41 77 109 41 77 109 41 77 109 41 77 109 41 77 109 41 77 109 41 77 109 41 77 109 41 77 109 41 77 109 41 77 109 41 77 109 41 80 112 43 80 112 43 80 112 43 80 112 43 80 112 43 80 112 43 80 112 43 80 112 43 80 112 43 80 112 43 80 112 43 80 112 43 80 112 43 80 112 43 80 112 43 80 112 43 105 147 56 105 147 56 105 147 56 105 147 56 105 147 56 105 147 56 105 147 56 105 147 56 105 147 56 105 147 56 105 147 56 105 147 56 105 147 56 105 147 56 105 147 56 66 93 35 66 93 35 66 93 35 66 93 35 66 93 35 66 93 35 66 93 35 66 93 35 66 93 35 66 93 35 66 93 35 66 93 35 66 93 35 66 93 35 66 93 35 66 93 35 91 128 48 91 128 48 91 128 48 91 128 48 91 128 48 91 128 48 91 128 48 91 128 48 91 128 48 91 128 48 91 128 48 91 128 48 91 128 48 91 128 48 91 128 48 91 128 48 71 100 38 71 100 38 71 100 38 71 100 38 71 100 38 71 100 38 71 100 38 71 100 38 71 100 38 71 100 38 71 100 38 71 100 38 71 100 38 71 100 38 71 100 38 71 100 38 78 109 41 78 109 41 78 109 41 78 109 41 78 109 41 78 109 41 78 109 41 78 109 41 78 109 41 78 109 41 78 109 41 78 109 41 78 109 41 78 109 41 78 109 41 78 109 41 74 104 39 74 104 39 74 104 39 74 104 39 74 104 39 74 104 39 74 104 39 74 104 39 74 104 39 74 104 39 74 104 39 74 104 39 74 104 39 74 104 39 74 104 39 74 104 39 82 115 44 82 115 44 82 115 44 82 115 44 82 115 44 82 115 44 82 115 44 82 115 44 82 115 44 82 115 44 82 115 44 82 115 44 82 115 44 82 115 44 82 115 44 82 115 44 78 109 41 78 109 41 78 109 41 78 109 41 78 109 41 78 109 41 78 109 41 78 109 41 78 109 41 78 109 41 78 109 41 78 109 41 78 109 41 78 109 41 78 109 41 78 109 41 84 118 45 84 118 45 84 118 45 84 118 45 84 118 45 84 118 45 84 118 45 84 118 45 84 118 45 84 118 45 84 118 45 84 118 45 84 118 45 84 118 45 84 118 45 84 118 45 86 121 46 86 121 46 86 121 46 86 121 46 86 121 46 86 121 46 86 121 46 86 121 46 86 121 46 86 121 46 86 121 46 86 121 46 86 121 46 86 121 46 86 121 46 86 121 46 82 115 44 82 115 44 82 115 44 82 115 44 82 115 44 82 115 44 82 115 44 82 115 44 82 115 44 82 115 44 82 115 44 82 115 44 82 115 44 82 115 44 82 115 44 82 115 44 90 126 48 90 126 48 90 126 48 90 126 48 90 126 48 90 126 48 90 126 48 90 126 48 90 126 48 90 126 48 90 126 48 90 126 48 90 126 48 90 126 48 90 126 48 90 126 48 71 99 38 71 99 38 71 99 38 71 99 38 71 99 38 71 99 38 71 99 38 71 99 38 71 99 38 71 99 38 71 99 38 71 99 38 71 99 38 71 99 38 71 99 38 71 99 38 99 139 53 99 139 53 99 139 53 99 139 53 99 139 53 99 139 53 99 139 53 99 139 53 99 139 53 99 139 53 99 139 53 99 139 53 99 139 53 99 139 53 99 139 53 99 139 53 77 109 41 77 109 41 77 109 41 77 109 41 77 109 41 77 109 41 77 109 41 77 109 41 77 109 41 77 109 41 77 109 41 77 109 41 77 109 41 77 109 41 77 109 41 77 109 41 80 112 43 80 112 43 80 112 43 80 112 43 80 112 43 80 112 43 80 112 43 80 112 43 80 112 43 80 112 43 80 112 43 80 112 43 80 112 43 80 112 43 80 112 43 80 112 43 105 147 56 105 147 56 105 147 56 105 147 56 105 147 56 105 147 56 105 147 56 105 147 56 105 147 56 105 147 56 105 147 56 105 147 56 105 147 56 105 147 56 105 147 56 66 93 35 66 93 35 66 93 35 66 93 35 66 93 35 66 93 35 66 93 35 66 93 35 66 93 35 66 93 35 66 93 35 66 93 35 66 93 35 66 93 35 66 93 35 66 93 35 91 128 48 91 128 48 91 128 48 91 128 48 91 128 48 91 128 48 91 128 48 91 128 48 91 128 48 91 128 48 91 128 48 91 128 48 91 128 48 91 128 48 91 128 48 91 128 48 71 100 38 71 100 38 71 100 38 71 100 38 71 100 38 71 100 38 71 100 38 71 100 38 71 100 38 71 100 38 71 100 38 71 100 38 71 100 38 71 100 38 71 100 38 71 100 38 78 109 41 78 109 41 78 109 41 78 109 41 78 109 41 78 109 41 78 109 41 78 109 41 78 109 41 78 109 41 78 109 41 78 109 41 78 109 41 78 109 41 78 109 41 78 109 41 74 104 39 74 104 39 74 104 39 74 104 39 74 104 39 74 104 39 74 104 39 74 104 39 74 104 39 74 104 39 74 104 39 74 104 39 74 104 39 74 104 39 74 104 39 74 104 39 82 115 44 82 115 44 82 115 44 82 115 44 82 115 44 82 115 44 82 115 44 82 115 44 82 115 44 82 115 44 82 115 44 82 115 44 82 115 44 82 115 44 82 115 44 82 115 44 78 109 41 78 109 41 78 109 41 78 109 41 78 109 41 78 109 41 78 109 41 78 109 41 78 109 41 78 109 41 78 109 41 78 109 41 78 109 41 78 109 41 78 109 41 78 109 41 72 101 38 72 101 38 72 101 38 72 101 38 72 101 38 72 101 38 72 101 38 72 101 38 72 101 38 72 101 38 72 101 38 72 101 38 72 101 38 72 101 38 72 101 38 72 101 38 94 132 50 94 132 50 94 132 50 94 132 50 94 132 50 94 132 50 94 132 50 94 132 50 94 132 50 94 132 50 94 132 50 94 132 50 94 132 50 94 132 50 94 132 50 94 132 50 73 102 39 73 102 39 73 102 39 73 102 39 73 102 39 73 102 39 73 102 39 73 102 39 73 102 39 73 102 39 73 102 39 73 102 39 73 102 39 73 102 39 73 102 39 73 102 39 89 125 47 89 125 47 89 125 47 89 125 47 89 125 47 89 125 47 89 125 47 89 125 47 89 125 47 89 125 47 89 125 47 89 125 47 89 125 47 89 125 47 89 125 47 89 125 47 82 115 44 82 115 44 82 115 44 82 115 44 82 115 44 82 115 44 82 115 44 82 115 44 82 115 44 82 115 44 82 115 44 82 115 44 82 115 44 82 115 44 82 115 44 82 115 44 72 101 38 72 101 38 72 101 38 72 101 38 72 101 38 72 101 38 72 101 38 72 101 38 72 101 38 72 101 38 72 101 38 72 101 38 72 101 38 72 101 38 72 101 38 72 101 38 80 112 42 80 112 42 80 112 42 80 112 42 80 112 42 80 112 42 80 112 42 80 112 42 80 112 42 80 112 42 80 112 42 80 112 42 80 112 42 80 112 42 80 112 42 80 112 42 75 105 40 75 105 40 75 105 40 75 105 40 75 105 40 75 105 40 75 105 40 75 105 40 75 105 40 75 105 40 75 105 40 75 105 40 75 105 40 75 105 40 75 105 40 75 105 40 82 115 44 82 115 44 82 115 44 82 115 44 82 115 44 82 115 44 82 115 44 82 115 44 82 115 44 82 115 44 82 115 44 82 115 44 82 115 44 82 115 44 82 115 44 80 112 42 80 112 42 80 112 42 80 112 42 80 112 42 80 112 42 80 112 42 80 112 42 80 112 42 80 112 42 80 112 42 80 112 42 80 112 42 80 112 42 80 112 42 80 112 42 76 107 41 76 107 41 76 107 41 76 107 41 76 107 41 76 107 41 76 107 41 76 107 41 76 107 41 76 107 41 76 107 41 76 107 41 76 107 41 76 107 41 76 107 41 76 107 41 67 94 36 67 94 36 67 94 36 67 94 36 67 94 36 67 94 36 67 94 36 67 94 36 67 94 36 67 94 36 67 94 36 67 94 36 67 94 36 67 94 36 67 94 36 67 94 36 98 137 52 98 137 52 98 137 52 98 137 52 98 137 52 98 137 52 98 137 52 98 137 52 98 137 52 98 137 52 98 137 52 98 137 52 98 137 52 98 137 52 98 137 52 98 137 52 69 97 37 69 97 37 69 97 37 69 97 37 69 97 37 69 97 37 69 97 37 69 97 37 69 97 37 69 97 37 69 97 37 69 97 37 69 97 37 69 97 37 69 97 37 69 97 37 68 96 36 68 96 36 68 96 36 68 96 36 68 96 36 68 96 36 68 96 36 68 96 36 68 96 36 68 96 36 68 96 36 68 96 36 68 96 36 68 96 36 68 96 36 68 96 36 75 106 40 75 106 40 75 106 40 75 106 40 75 106 40 75 106 40 75 106 40 75 106 40 75 106 40 75 106 40 75 106 40 75 106 40 75 106 40 75 106 40 75 106 40 75 106 40 72 101 38 72 101 38 72 101 38 72 101 38 72 101 38 72 101 38 72 101 38 72 101 38 72 101 38 72 101 38 72 101 38 72 101 38 72 101 38 72 101 38 72 101 38 72 101 38 94 132 50 94 132 50 94 132 50 94 132 50 94 132 50 94 132 50 94 132 50 94 132 50 94 132 50 94 132 50 94 132 50 94 132 50 94 132 50 94 132 50 94 132 50 94 132 50 73 102 39 73 102 39 73 102 39 73 102 39 73 102 39 73 102 39 73 102 39 73 102 39 73 102 39 73 102 39 73 102 39 73 102 39 73 102 39 73 102 39 73 102 39 73 102 39 89 125 47 89 125 47 89 125 47 89 125 47 89 125 47 89 125 47 89 125 47 89 125 47 89 125 47 89 125 47 89 125 47 89 125 47 89 125 47 89 125 47 89 125 47 89 125 47 82 115 44 82 115 44 82 115 44 82 115 44 82 115 44 82 115 44 82 115 44 82 115 44 82 115 44 82 115 44 82 115 44 82 115 44 82 115 44 82 115 44 82 115 44 82 115 44 72 101 38 72 101 38 72 101 38 72 101 38 72 101 38 72 101 38 72 101 38 72 101 38 72 101 38 72 101 38 72 101 38 72 101 38 72 101 38 72 101 38 72 101 38 72 101 38 80 112 42 80 112 42 80 112 42 80 112 42 80 112 42 80 112 42 80 112 42 80 112 42 80 112 42 80 112 42 80 112 42 80 112 42 80 112 42 80 112 42 80 112 42 80 112 42 75 105 40 75 105 40 75 105 40 75 105 40 75 105 40 75 105 40 75 105 40 75 105 40 75 105 40 75 105 40 75 105 40 75 105 40 75 105 40 75 105 40 75 105 40 75 105 40 82 115 44 82 115 44 82 115 44 82 115 44 82 115 44 82 115 44 82 115 44 82 115 44 82 115 44 82 115 44 82 115 44 82 115 44 82 115 44 82 115 44 82 115 44 80 112 42 80 112 42 80 112 42 80 112 42 80 112 42 80 112 42 80 112 42 80 112 42 80 112 42 80 112 42 80 112 42 80 112 42 80 112 42 80 112 42 80 112 42 80 112 42 76 107 41 76 107 41 76 107 41 76 107 41 76 107 41 76 107 41 76 107 41 76 107 41 76 107 41 76 107 41 76 107 41 76 107 41 76 107 41 76 107 41 76 107 41 76 107 41 67 94 36 67 94 36 67 94 36 67 94 36 67 94 36 67 94 36 67 94 36 67 94 36 67 94 36 67 94 36 67 94 36 67 94 36 67 94 36 67 94 36 67 94 36 67 94 36 98 137 52 98 137 52 98 137 52 98 137 52 98 137 52 98 137 52 98 137 52 98 137 52 98 137 52 98 137 52 98 137 52 98 137 52 98 137 52 98 137 52 98 137 52 98 137 52 69 97 37 69 97 37 69 97 37 69 97 37 69 97 37 69 97 37 69 97 37 69 97 37 69 97 37 69 97 37 69 97 37 69 97 37 69 97 37 69 97 37 69 97 37 69 97 37 68 96 36 68 96 36 68 96 36 68 96 36 68 96 36 68 96 36 68 96 36 68 96 36 68 96 36 68 96 36 68 96 36 68 96 36 68 96 36 68 96 36 68 96 36 68 96 36 75 106 40 75 106 40 75 106 40 75 106 40 75 106 40 75 106 40 75 106 40 75 106 40 75 106 40 75 106 40 75 106 40 75 106 40 75 106 40 75 106 40 75 106 40 75 106 40 72 101 38 72 101 38 72 101 38 72 101 38 72 101 38 72 101 38 72 101 38 72 101 38 72 101 38 72 101 38 72 101 38 72 101 38 72 101 38 72 101 38 72 101 38 72 101 38 94 132 50 94 132 50 94 132 50 94 132 50 94 132 50 94 132 50 94 132 50 94 132 50 94 132 50 94 132 50 94 132 50 94 132 50 94 132 50 94 132 50 94 132 50 94 132 50 73 102 39 73 102 39 73 102 39 73 102 39 73 102 39 73 102 39 73 102 39 73 102 39 73 102 39 73 102 39 73 102 39 73 102 39 73 102 39 73 102 39 73 102 39 73 102 39 89 125 47 89 125 47 89 125 47 89 125 47 89 125 47 89 125 47 89 125 47 89 125 47 89 125 47 89 125 47 89 125 47 89 125 47 89 125 47 89 125 47 89 125 47 89 125 47 82 115 44 82 115 44 82 115 44 82 115 44 82 115 44 82 115 44 82 115 44 82 115 44 82 115 44 82 115 44 82 115 44 82 115 44 82 115 44 82 115 44 82 115 44 82 115 44 72 101 38 72 101 38 72 101 38 72 101 38 72 101 38 72 101 38 72 101 38 72 101 38 72 101 38 72 101 38 72 101 38 72 101 38 72 101 38 72 101 38 72 101 38 72 101 38 80 112 42 80 112 42 80 112 42 80 112 42 80 112 42 80 112 42 80 112 42 80 112 42 80 112 42 80 112 42 80 112 42 80 112 42 80 112 42 80 112 42 80 112 42 80 112 42 75 105 40 75 105 40 75 105 40 75 105 40 75 105 40 75 105 40 75 105 40 75 105 40 75 105 40 75 105 40 75 105 40 75 105 40 75 105 40 75 105 40 75 105 40 75 105 40 82 115 44 82 115 44 82 115 44 82 115 44 82 115 44 82 115 44 82 115 44 82 115 44 82 115 44 82 115 44 82 115 44 82 115 44 82 115 44 82 115 44 82 115 44 80 112 42 80 112 42 80 112 42 80 112 42 80 112 42 80 112 42 80 112 42 80 112 42 80 112 42 80 112 42 80 112 42 80 112 42 80 112 42 80 112 42 80 112 42 80 112 42 76 107 41 76 107 41 76 107 41 76 107 41 76 107 41 76 107 41 76 107 41 76 107 41 76 107 41 76 107 41 76 107 41 76 107 41 76 107 41 76 107 41 76 107 41 76 107 41 67 94 36 67 94 36 67 94 36 67 94 36 67 94 36 67 94 36 67 94 36 67 94 36 67 94 36 67 94 36 67 94 36 67 94 36 67 94 36 67 94 36 67 94 36 67 94 36 98 137 52 98 137 52 98 137 52 98 137 52 98 137 52 98 137 52 98 137 52 98 137 52 98 137 52 98 137 52 98 137 52 98 137 52 98 137 52 98 137 52 98 137 52 98 137 52 69 97 37 69 97 37 69 97 37 69 97 37 69 97 37 69 97 37 69 97 37 69 97 37 69 97 37 69 97 37 69 97 37 69 97 37 69 97 37 69 97 37 69 97 37 69 97 37 68 96 36 68 96 36 68 96 36 68 96 36 68 96 36 68 96 36 68 96 36 68 96 36 68 96 36 68 96 36 68 96 36 68 96 36 68 96 36 68 96 36 68 96 36 68 96 36 75 106 40 75 106 40 75 106 40 75 106 40 75 106 40 75 106 40 75 106 40 75 106 40 75 106 40 75 106 40 75 106 40 75 106 40 75 106 40 75 106 40 75 106 40 75 106 40 72 101 38 72 101 38 72 101 38 72 101 38 72 101 38 72 101 38 72 101 38 72 101 38 72 101 38 72 101 38 72 101 38 72 101 38 72 101 38 72 101 38 72 101 38 72 101 38 94 132 50 94 132 50 94 132 50 94 132 50 94 132 50 94 132 50 94 132 50 94 132 50 94 132 50 94 132 50 94 132 50 94 132 50 94 132 50 94 132 50 94 132 50 94 132 50 73 102 39 73 102 39 73 102 39 73 102 39 73 102 39 73 102 39 73 102 39 73 102 39 73 102 39 73 102 39 73 102 39 73 102 39 73 102 39 73 102 39 73 102 39 73 102 39 89 125 47 89 125 47 89 125 47 89 125 47 89 125 47 89 125 47 89 125 47 89 125 47 89 125 47 89 125 47 89 125 47 89 125 47 89 125 47 89 125 47 89 125 47 89 125 47 82 115 44 82 115 44 82 115 44 82 115 44 82 115 44 82 115 44 82 115 44 82 115 44 82 115 44 82 115 44 82 115 44 82 115 44 82 115 44 82 115 44 82 115 44 82 115 44 72 101 38 72 101 38 72 101 38 72 101 38 72 101 38 72 101 38 72 101 38 72 101 38 72 101 38 72 101 38 72 101 38 72 101 38 72 101 38 72 101 38 72 101 38 72 101 38 80 112 42 80 112 42 80 112 42 80 112 42 80 112 42 80 112 42 80 112 42 80 112 42 80 112 42 80 112 42 80 112 42 80 112 42 80 112 42 80 112 42 80 112 42 80 112 42 75 105 40 75 105 40 75 105 40 75 105 40 75 105 40 75 105 40 75 105 40 75 105 40 75 105 40 75 105 40 75 105 40 75 105 40 75 105 40 75 105 40 75 105 40 75 105 40 82 115 44 82 115 44 82 115 44 82 115 44 82 115 44 82 115 44 82 115 44 82 115 44 82 115 44 82 115 44 82 115 44 82 115 44 82 115 44 82 115 44 82 115 44 80 112 42 80 112 42 80 112 42 80 112 42 80 112 42 80 112 42 80 112 42 80 112 42 80 112 42 80 112 42 80 112 42 80 112 42 80 112 42 80 112 42 80 112 42 80 112 42 76 107 41 76 107 41 76 107 41 76 107 41 76 107 41 76 107 41 76 107 41 76 107 41 76 107 41 76 107 41 76 107 41 76 107 41 76 107 41 76 107 41 76 107 41 76 107 41 67 94 36 67 94 36 67 94 36 67 94 36 67 94 36 67 94 36 67 94 36 67 94 36 67 94 36 67 94 36 67 94 36 67 94 36 67 94 36 67 94 36 67 94 36 67 94 36 98 137 52 98 137 52 98 137 52 98 137 52 98 137 52 98 137 52 98 137 52 98 137 52 98 137 52 98 137 52 98 137 52 98 137 52 98 137 52 98 137 52 98 137 52 98 137 52 69 97 37 69 97 37 69 97 37 69 97 37 69 97 37 69 97 37 69 97 37 69 97 37 69 97 37 69 97 37 69 97 37 69 97 37 69 97 37 69 97 37 69 97 37 69 97 37 68 96 36 68 96 36 68 96 36 68 96 36 68 96 36 68 96 36 68 96 36 68 96 36 68 96 36 68 96 36 68 96 36 68 96 36 68 96 36 68 96 36 68 96 36 68 96 36 75 106 40 75 106 40 75 106 40 75 106 40 75 106 40 75 106 40 75 106 40 75 106 40 75 106 40 75 106 40 75 106 40 75 106 40 75 106 40 75 106 40 75 106 40 75 106 40 72 101 38 72 101 38 72 101 38 72 101 38 72 101 38 72 101 38 72 101 38 72 101 38 72 101 38 72 101 38 72 101 38 72 101 38 72 101 38 72 101 38 72 101 38 72 101 38 94 132 50 94 132 50 94 132 50 94 132 50 94 132 50 94 132 50 94 132 50 94 132 50 94 132 50 94 132 50 94 132 50 94 132 50 94 132 50 94 132 50 94 132 50 94 132 50 73 102 39 73 102 39 73 102 39 73 102 39 73 102 39 73 102 39 73 102 39 73 102 39 73 102 39 73 102 39 73 102 39 73 102 39 73 102 39 73 102 39 73 102 39 73 102 39 89 125 47 89 125 47 89 125 47 89 125 47 89 125 47 89 125 47 89 125 47 89 125 47 89 125 47 89 125 47 89 125 47 89 125 47 89 125 47 89 125 47 89 125 47 89 125 47 82 115 44 82 115 44 82 115 44 82 115 44 82 115 44 82 115 44 82 115 44 82 115 44 82 115 44 82 115 44 82 115 44 82 115 44 82 115 44 82 115 44 82 115 44 82 115 44 72 101 38 72 101 38 72 101 38 72 101 38 72 101 38 72 101 38 72 101 38 72 101 38 72 101 38 72 101 38 72 101 38 72 101 38 72 101 38 72 101 38 72 101 38 72 101 38 80 112 42 80 112 42 80 112 42 80 112 42 80 112 42 80 112 42 80 112 42 80 112 42 80 112 42 80 112 42 80 112 42 80 112 42 80 112 42 80 112 42 80 112 42 80 112 42 75 105 40 75 105 40 75 105 40 75 105 40 75 105 40 75 105 40 75 105 40 75 105 40 75 105 40 75 105 40 75 105 40 75 105 40 75 105 40 75 105 40 75 105 40 75 105 40 82 115 44 82 115 44 82 115 44 82 115 44 82 115 44 82 115 44 82 115 44 82 115 44 82 115 44 82 115 44 82 115 44 82 115 44 82 115 44 82 115 44 82 115 44 80 112 42 80 112 42 80 112 42 80 112 42 80 112 42 80 112 42 80 112 42 80 112 42 80 112 42 80 112 42 80 112 42 80 112 42 80 112 42 80 112 42 80 112 42 80 112 42 76 107 41 76 107 41 76 107 41 76 107 41 76 107 41 76 107 41 76 107 41 76 107 41 76 107 41 76 107 41 76 107 41 76 107 41 76 107 41 76 107 41 76 107 41 76 107 41 67 94 36 67 94 36 67 94 36 67 94 36 67 94 36 67 94 36 67 94 36 67 94 36 67 94 36 67 94 36 67 94 36 67 94 36 67 94 36 67 94 36 67 94 36 67 94 36 98 137 52 98 137 52 98 137 52 98 137 52 98 137 52 98 137 52 98 137 52 98 137 52 98 137 52 98 137 52 98 137 52 98 137 52 98 137 52 98 137 52 98 137 52 98 137 52 69 97 37 69 97 37 69 97 37 69 97 37 69 97 37 69 97 37 69 97 37 69 97 37 69 97 37 69 97 37 69 97 37 69 97 37 69 97 37 69 97 37 69 97 37 69 97 37 68 96 36 68 96 36 68 96 36 68 96 36 68 96 36 68 96 36 68 96 36 68 96 36 68 96 36 68 96 36 68 96 36 68 96 36 68 96 36 68 96 36 68 96 36 68 96 36 75 106 40 75 106 40 75 106 40 75 106 40 75 106 40 75 106 40 75 106 40 75 106 40 75 106 40 75 106 40 75 106 40 75 106 40 75 106 40 75 106 40 75 106 40 75 106 40 72 101 38 72 101 38 72 101 38 72 101 38 72 101 38 72 101 38 72 101 38 72 101 38 72 101 38 72 101 38 72 101 38 72 101 38 72 101 38 72 101 38 72 101 38 72 101 38 94 132 50 94 132 50 94 132 50 94 132 50 94 132 50 94 132 50 94 132 50 94 132 50 94 132 50 94 132 50 94 132 50 94 132 50 94 132 50 94 132 50 94 132 50 94 132 50 73 102 39 73 102 39 73 102 39 73 102 39 73 102 39 73 102 39 73 102 39 73 102 39 73 102 39 73 102 39 73 102 39 73 102 39 73 102 39 73 102 39 73 102 39 73 102 39 89 125 47 89 125 47 89 125 47 89 125 47 89 125 47 89 125 47 89 125 47 89 125 47 89 125 47 89 125 47 89 125 47 89 125 47 89 125 47 89 125 47 89 125 47 89 125 47 82 115 44 82 115 44 82 115 44 82 115 44 82 115 44 82 115 44 82 115 44 82 115 44 82 115 44 82 115 44 82 115 44 82 115 44 82 115 44 82 115 44 82 115 44 82 115 44 72 101 38 72 101 38 72 101 38 72 101 38 72 101 38 72 101 38 72 101 38 72 101 38 72 101 38 72 101 38 72 101 38 72 101 38 72 101 38 72 101 38 72 101 38 72 101 38 80 112 42 80 112 42 80 112 42 80 112 42 80 112 42 80 112 42 80 112 42 80 112 42 80 112 42 80 112 42 80 112 42 80 112 42 80 112 42 80 112 42 80 112 42 80 112 42 75 105 40 75 105 40 75 105 40 75 105 40 75 105 40 75 105 40 75 105 40 75 105 40 75 105 40 75 105 40 75 105 40 75 105 40 75 105 40 75 105 40 75 105 40 75 105 40 82 115 44 82 115 44 82 115 44 82 115 44 82 115 44 82 115 44 82 115 44 82 115 44 82 115 44 82 115 44 82 115 44 82 115 44 82 115 44 82 115 44 82 115 44 80 112 42 80 112 42 80 112 42 80 112 42 80 112 42 80 112 42 80 112 42 80 112 42 80 112 42 80 112 42 80 112 42 80 112 42 80 112 42 80 112 42 80 112 42 80 112 42 76 107 41 76 107 41 76 107 41 76 107 41 76 107 41 76 107 41 76 107 41 76 107 41 76 107 41 76 107 41 76 107 41 76 107 41 76 107 41 76 107 41 76 107 41 76 107 41 67 94 36 67 94 36 67 94 36 67 94 36 67 94 36 67 94 36 67 94 36 67 94 36 67 94 36 67 94 36 67 94 36 67 94 36 67 94 36 67 94 36 67 94 36 67 94 36 98 137 52 98 137 52 98 137 52 98 137 52 98 137 52 98 137 52 98 137 52 98 137 52 98 137 52 98 137 52 98 137 52 98 137 52 98 137 52 98 137 52 98 137 52 98 137 52 69 97 37 69 97 37 69 97 37 69 97 37 69 97 37 69 97 37 69 97 37 69 97 37 69 97 37 69 97 37 69 97 37 69 97 37 69 97 37 69 97 37 69 97 37 69 97 37 68 96 36 68 96 36 68 96 36 68 96 36 68 96 36 68 96 36 68 96 36 68 96 36 68 96 36 68 96 36 68 96 36 68 96 36 68 96 36 68 96 36 68 96 36 68 96 36 75 106 40 75 106 40 75 106 40 75 106 40 75 106 40 75 106 40 75 106 40 75 106 40 75 106 40 75 106 40 75 106 40 75 106 40 75 106 40 75 106 40 75 106 40 75 106 40 72 101 38 72 101 38 72 101 38 72 101 38 72 101 38 72 101 38 72 101 38 72 101 38 72 101 38 72 101 38 72 101 38 72 101 38 72 101 38 72 101 38 72 101 38 72 101 38 94 132 50 94 132 50 94 132 50 94 132 50 94 132 50 94 132 50 94 132 50 94 132 50 94 132 50 94 132 50 94 132 50 94 132 50 94 132 50 94 132 50 94 132 50 94 132 50 73 102 39 73 102 39 73 102 39 73 102 39 73 102 39 73 102 39 73 102 39 73 102 39 73 102 39 73 102 39 73 102 39 73 102 39 73 102 39 73 102 39 73 102 39 73 102 39 89 125 47 89 125 47 89 125 47 89 125 47 89 125 47 89 125 47 89 125 47 89 125 47 89 125 47 89 125 47 89 125 47 89 125 47 89 125 47 89 125 47 89 125 47 89 125 47 82 115 44 82 115 44 82 115 44 82 115 44 82 115 44 82 115 44 82 115 44 82 115 44 82 115 44 82 115 44 82 115 44 82 115 44 82 115 44 82 115 44 82 115 44 82 115 44 72 101 38 72 101 38 72 101 38 72 101 38 72 101 38 72 101 38 72 101 38 72 101 38 72 101 38 72 101 38 72 101 38 72 101 38 72 101 38 72 101 38 72 101 38 72 101 38 80 112 42 80 112 42 80 112 42 80 112 42 80 112 42 80 112 42 80 112 42 80 112 42 80 112 42 80 112 42 80 112 42 80 112 42 80 112 42 80 112 42 80 112 42 80 112 42 75 105 40 75 105 40 75 105 40 75 105 40 75 105 40 75 105 40 75 105 40 75 105 40 75 105 40 75 105 40 75 105 40 75 105 40 75 105 40 75 105 40 75 105 40 75 105 40 82 115 44 82 115 44 82 115 44 82 115 44 82 115 44 82 115 44 82 115 44 82 115 44 82 115 44 82 115 44 82 115 44 82 115 44 82 115 44 82 115 44 82 115 44 80 112 42 80 112 42 80 112 42 80 112 42 80 112 42 80 112 42 80 112 42 80 112 42 80 112 42 80 112 42 80 112 42 80 112 42 80 112 42 80 112 42 80 112 42 80 112 42 76 107 41 76 107 41 76 107 41 76 107 41 76 107 41 76 107 41 76 107 41 76 107 41 76 107 41 76 107 41 76 107 41 76 107 41 76 107 41 76 107 41 76 107 41 76 107 41 67 94 36 67 94 36 67 94 36 67 94 36 67 94 36 67 94 36 67 94 36 67 94 36 67 94 36 67 94 36 67 94 36 67 94 36 67 94 36 67 94 36 67 94 36 67 94 36 98 137 52 98 137 52 98 137 52 98 137 52 98 137 52 98 137 52 98 137 52 98 137 52 98 137 52 98 137 52 98 137 52 98 137 52 98 137 52 98 137 52 98 137 52 98 137 52 69 97 37 69 97 37 69 97 37 69 97 37 69 97 37 69 97 37 69 97 37 69 97 37 69 97 37 69 97 37 69 97 37 69 97 37 69 97 37 69 97 37 69 97 37 69 97 37 68 96 36 68 96 36 68 96 36 68 96 36 68 96 36 68 96 36 68 96 36 68 96 36 68 96 36 68 96 36 68 96 36 68 96 36 68 96 36 68 96 36 68 96 36 68 96 36 75 106 40 75 106 40 75 106 40 75 106 40 75 106 40 75 106 40 75 106 40 75 106 40 75 106 40 75 106 40 75 106 40 75 106 40 75 106 40 75 106 40 75 106 40 75 106 40 72 101 38 72 101 38 72 101 38 72 101 38 72 101 38 72 101 38 72 101 38 72 101 38 72 101 38 72 101 38 72 101 38 72 101 38 72 101 38 72 101 38 72 101 38 72 101 38 94 132 50 94 132 50 94 132 50 94 132 50 94 132 50 94 132 50 94 132 50 94 132 50 94 132 50 94 132 50 94 132 50 94 132 50 94 132 50 94 132 50 94 132 50 94 132 50 73 102 39 73 102 39 73 102 39 73 102 39 73 102 39 73 102 39 73 102 39 73 102 39 73 102 39 73 102 39 73 102 39 73 102 39 73 102 39 73 102 39 73 102 39 73 102 39 89 125 47 89 125 47 89 125 47 89 125 47 89 125 47 89 125 47 89 125 47 89 125 47 89 125 47 89 125 47 89 125 47 89 125 47 89 125 47 89 125 47 89 125 47 89 125 47 82 115 44 82 115 44 82 115 44 82 115 44 82 115 44 82 115 44 82 115 44 82 115 44 82 115 44 82 115 44 82 115 44 82 115 44 82 115 44 82 115 44 82 115 44 82 115 44 72 101 38 72 101 38 72 101 38 72 101 38 72 101 38 72 101 38 72 101 38 72 101 38 72 101 38 72 101 38 72 101 38 72 101 38 72 101 38 72 101 38 72 101 38 72 101 38 80 112 42 80 112 42 80 112 42 80 112 42 80 112 42 80 112 42 80 112 42 80 112 42 80 112 42 80 112 42 80 112 42 80 112 42 80 112 42 80 112 42 80 112 42 80 112 42 75 105 40 75 105 40 75 105 40 75 105 40 75 105 40 75 105 40 75 105 40 75 105 40 75 105 40 75 105 40 75 105 40 75 105 40 75 105 40 75 105 40 75 105 40 75 105 40 82 115 44 82 115 44 82 115 44 82 115 44 82 115 44 82 115 44 82 115 44 82 115 44 82 115 44 82 115 44 82 115 44 82 115 44 82 115 44 82 115 44 82 115 44 80 112 42 80 112 42 80 112 42 80 112 42 80 112 42 80 112 42 80 112 42 80 112 42 80 112 42 80 112 42 80 112 42 80 112 42 80 112 42 80 112 42 80 112 42 80 112 42 76 107 41 76 107 41 76 107 41 76 107 41 76 107 41 76 107 41 76 107 41 76 107 41 76 107 41 76 107 41 76 107 41 76 107 41 76 107 41 76 107 41 76 107 41 76 107 41 67 94 36 67 94 36 67 94 36 67 94 36 67 94 36 67 94 36 67 94 36 67 94 36 67 94 36 67 94 36 67 94 36 67 94 36 67 94 36 67 94 36 67 94 36 67 94 36 98 137 52 98 137 52 98 137 52 98 137 52 98 137 52 98 137 52 98 137 52 98 137 52 98 137 52 98 137 52 98 137 52 98 137 52 98 137 52 98 137 52 98 137 52 98 137 52 69 97 37 69 97 37 69 97 37 69 97 37 69 97 37 69 97 37 69 97 37 69 97 37 69 97 37 69 97 37 69 97 37 69 97 37 69 97 37 69 97 37 69 97 37 69 97 37 68 96 36 68 96 36 68 96 36 68 96 36 68 96 36 68 96 36 68 96 36 68 96 36 68 96 36 68 96 36 68 96 36 68 96 36 68 96 36 68 96 36 68 96 36 68 96 36 75 106 40 75 106 40 75 106 40 75 106 40 75 106 40 75 106 40 75 106 40 75 106 40 75 106 40 75 106 40 75 106 40 75 106 40 75 106 40 75 106 40 75 106 40 75 106 40 72 101 38 72 101 38 72 101 38 72 101 38 72 101 38 72 101 38 72 101 38 72 101 38 72 101 38 72 101 38 72 101 38 72 101 38 72 101 38 72 101 38 72 101 38 72 101 38 94 132 50 94 132 50 94 132 50 94 132 50 94 132 50 94 132 50 94 132 50 94 132 50 94 132 50 94 132 50 94 132 50 94 132 50 94 132 50 94 132 50 94 132 50 94 132 50 73 102 39 73 102 39 73 102 39 73 102 39 73 102 39 73 102 39 73 102 39 73 102 39 73 102 39 73 102 39 73 102 39 73 102 39 73 102 39 73 102 39 73 102 39 73 102 39 89 125 47 89 125 47 89 125 47 89 125 47 89 125 47 89 125 47 89 125 47 89 125 47 89 125 47 89 125 47 89 125 47 89 125 47 89 125 47 89 125 47 89 125 47 89 125 47 82 115 44 82 115 44 82 115 44 82 115 44 82 115 44 82 115 44 82 115 44 82 115 44 82 115 44 82 115 44 82 115 44 82 115 44 82 115 44 82 115 44 82 115 44 82 115 44 72 101 38 72 101 38 72 101 38 72 101 38 72 101 38 72 101 38 72 101 38 72 101 38 72 101 38 72 101 38 72 101 38 72 101 38 72 101 38 72 101 38 72 101 38 72 101 38 80 112 42 80 112 42 80 112 42 80 112 42 80 112 42 80 112 42 80 112 42 80 112 42 80 112 42 80 112 42 80 112 42 80 112 42 80 112 42 80 112 42 80 112 42 80 112 42 75 105 40 75 105 40 75 105 40 75 105 40 75 105 40 75 105 40 75 105 40 75 105 40 75 105 40 75 105 40 75 105 40 75 105 40 75 105 40 75 105 40 75 105 40 75 105 40 82 115 44 82 115 44 82 115 44 82 115 44 82 115 44 82 115 44 82 115 44 82 115 44 82 115 44 82 115 44 82 115 44 82 115 44 82 115 44 82 115 44 82 115 44 80 112 42 80 112 42 80 112 42 80 112 42 80 112 42 80 112 42 80 112 42 80 112 42 80 112 42 80 112 42 80 112 42 80 112 42 80 112 42 80 112 42 80 112 42 80 112 42 76 107 41 76 107 41 76 107 41 76 107 41 76 107 41 76 107 41 76 107 41 76 107 41 76 107 41 76 107 41 76 107 41 76 107 41 76 107 41 76 107 41 76 107 41 76 107 41 67 94 36 67 94 36 67 94 36 67 94 36 67 94 36 67 94 36 67 94 36 67 94 36 67 94 36 67 94 36 67 94 36 67 94 36 67 94 36 67 94 36 67 94 36 67 94 36 98 137 52 98 137 52 98 137 52 98 137 52 98 137 52 98 137 52 98 137 52 98 137 52 98 137 52 98 137 52 98 137 52 98 137 52 98 137 52 98 137 52 98 137 52 98 137 52 69 97 37 69 97 37 69 97 37 69 97 37 69 97 37 69 97 37 69 97 37 69 97 37 69 97 37 69 97 37 69 97 37 69 97 37 69 97 37 69 97 37 69 97 37 69 97 37 68 96 36 68 96 36 68 96 36 68 96 36 68 96 36 68 96 36 68 96 36 68 96 36 68 96 36 68 96 36 68 96 36 68 96 36 68 96 36 68 96 36 68 96 36 68 96 36 75 106 40 75 106 40 75 106 40 75 106 40 75 106 40 75 106 40 75 106 40 75 106 40 75 106 40 75 106 40 75 106 40 75 106 40 75 106 40 75 106 40 75 106 40 75 106 40 72 101 38 72 101 38 72 101 38 72 101 38 72 101 38 72 101 38 72 101 38 72 101 38 72 101 38 72 101 38 72 101 38 72 101 38 72 101 38 72 101 38 72 101 38 72 101 38 94 132 50 94 132 50 94 132 50 94 132 50 94 132 50 94 132 50 94 132 50 94 132 50 94 132 50 94 132 50 94 132 50 94 132 50 94 132 50 94 132 50 94 132 50 94 132 50 73 102 39 73 102 39 73 102 39 73 102 39 73 102 39 73 102 39 73 102 39 73 102 39 73 102 39 73 102 39 73 102 39 73 102 39 73 102 39 73 102 39 73 102 39 73 102 39 89 125 47 89 125 47 89 125 47 89 125 47 89 125 47 89 125 47 89 125 47 89 125 47 89 125 47 89 125 47 89 125 47 89 125 47 89 125 47 89 125 47 89 125 47 89 125 47 82 115 44 82 115 44 82 115 44 82 115 44 82 115 44 82 115 44 82 115 44 82 115 44 82 115 44 82 115 44 82 115 44 82 115 44 82 115 44 82 115 44 82 115 44 82 115 44 72 101 38 72 101 38 72 101 38 72 101 38 72 101 38 72 101 38 72 101 38 72 101 38 72 101 38 72 101 38 72 101 38 72 101 38 72 101 38 72 101 38 72 101 38 72 101 38 80 112 42 80 112 42 80 112 42 80 112 42 80 112 42 80 112 42 80 112 42 80 112 42 80 112 42 80 112 42 80 112 42 80 112 42 80 112 42 80 112 42 80 112 42 80 112 42 75 105 40 75 105 40 75 105 40 75 105 40 75 105 40 75 105 40 75 105 40 75 105 40 75 105 40 75 105 40 75 105 40 75 105 40 75 105 40 75 105 40 75 105 40 75 105 40 82 115 44 82 115 44 82 115 44 82 115 44 82 115 44 82 115 44 82 115 44 82 115 44 82 115 44 82 115 44 82 115 44 82 115 44 82 115 44 82 115 44 82 115 44 80 112 42 80 112 42 80 112 42 80 112 42 80 112 42 80 112 42 80 112 42 80 112 42 80 112 42 80 112 42 80 112 42 80 112 42 80 112 42 80 112 42 80 112 42 80 112 42 76 107 41 76 107 41 76 107 41 76 107 41 76 107 41 76 107 41 76 107 41 76 107 41 76 107 41 76 107 41 76 107 41 76 107 41 76 107 41 76 107 41 76 107 41 76 107 41 67 94 36 67 94 36 67 94 36 67 94 36 67 94 36 67 94 36 67 94 36 67 94 36 67 94 36 67 94 36 67 94 36 67 94 36 67 94 36 67 94 36 67 94 36 67 94 36 98 137 52 98 137 52 98 137 52 98 137 52 98 137 52 98 137 52 98 137 52 98 137 52 98 137 52 98 137 52 98 137 52 98 137 52 98 137 52 98 137 52 98 137 52 98 137 52 69 97 37 69 97 37 69 97 37 69 97 37 69 97 37 69 97 37 69 97 37 69 97 37 69 97 37 69 97 37 69 97 37 69 97 37 69 97 37 69 97 37 69 97 37 69 97 37 68 96 36 68 96 36 68 96 36 68 96 36 68 96 36 68 96 36 68 96 36 68 96 36 68 96 36 68 96 36 68 96 36 68 96 36 68 96 36 68 96 36 68 96 36 68 96 36 75 106 40 75 106 40 75 106 40 75 106 40 75 106 40 75 106 40 75 106 40 75 106 40 75 106 40 75 106 40 75 106 40 75 106 40 75 106 40 75 106 40 75 106 40 75 106 40 72 101 38 72 101 38 72 101 38 72 101 38 72 101 38 72 101 38 72 101 38 72 101 38 72 101 38 72 101 38 72 101 38 72 101 38 72 101 38 72 101 38 72 101 38 72 101 38 94 132 50 94 132 50 94 132 50 94 132 50 94 132 50 94 132 50 94 132 50 94 132 50 94 132 50 94 132 50 94 132 50 94 132 50 94 132 50 94 132 50 94 132 50 94 132 50 73 102 39 73 102 39 73 102 39 73 102 39 73 102 39 73 102 39 73 102 39 73 102 39 73 102 39 73 102 39 73 102 39 73 102 39 73 102 39 73 102 39 73 102 39 73 102 39 89 125 47 89 125 47 89 125 47 89 125 47 89 125 47 89 125 47 89 125 47 89 125 47 89 125 47 89 125 47 89 125 47 89 125 47 89 125 47 89 125 47 89 125 47 89 125 47 82 115 44 82 115 44 82 115 44 82 115 44 82 115 44 82 115 44 82 115 44 82 115 44 82 115 44 82 115 44 82 115 44 82 115 44 82 115 44 82 115 44 82 115 44 82 115 44 72 101 38 72 101 38 72 101 38 72 101 38 72 101 38 72 101 38 72 101 38 72 101 38 72 101 38 72 101 38 72 101 38 72 101 38 72 101 38 72 101 38 72 101 38 72 101 38 80 112 42 80 112 42 80 112 42 80 112 42 80 112 42 80 112 42 80 112 42 80 112 42 80 112 42 80 112 42 80 112 42 80 112 42 80 112 42 80 112 42 80 112 42 80 112 42 75 105 40 75 105 40 75 105 40 75 105 40 75 105 40 75 105 40 75 105 40 75 105 40 75 105 40 75 105 40 75 105 40 75 105 40 75 105 40 75 105 40 75 105 40 75 105 40 82 115 44 82 115 44 82 115 44 82 115 44 82 115 44 82 115 44 82 115 44 82 115 44 82 115 44 82 115 44 82 115 44 82 115 44 82 115 44 82 115 44 82 115 44 80 112 42 80 112 42 80 112 42 80 112 42 80 112 42 80 112 42 80 112 42 80 112 42 80 112 42 80 112 42 80 112 42 80 112 42 80 112 42 80 112 42 80 112 42 80 112 42 76 107 41 76 107 41 76 107 41 76 107 41 76 107 41 76 107 41 76 107 41 76 107 41 76 107 41 76 107 41 76 107 41 76 107 41 76 107 41 76 107 41 76 107 41 76 107 41 67 94 36 67 94 36 67 94 36 67 94 36 67 94 36 67 94 36 67 94 36 67 94 36 67 94 36 67 94 36 67 94 36 67 94 36 67 94 36 67 94 36 67 94 36 67 94 36 98 137 52 98 137 52 98 137 52 98 137 52 98 137 52 98 137 52 98 137 52 98 137 52 98 137 52 98 137 52 98 137 52 98 137 52 98 137 52 98 137 52 98 137 52 98 137 52 69 97 37 69 97 37 69 97 37 69 97 37 69 97 37 69 97 37 69 97 37 69 97 37 69 97 37 69 97 37 69 97 37 69 97 37 69 97 37 69 97 37 69 97 37 69 97 37 68 96 36 68 96 36 68 96 36 68 96 36 68 96 36 68 96 36 68 96 36 68 96 36 68 96 36 68 96 36 68 96 36 68 96 36 68 96 36 68 96 36 68 96 36 68 96 36 75 106 40 75 106 40 75 106 40 75 106 40 75 106 40 75 106 40 75 106 40 75 106 40 75 106 40 75 106 40 75 106 40 75 106 40 75 106 40 75 106 40 75 106 40 75 106 40 72 101 38 72 101 38 72 101 38 72 101 38 72 101 38 72 101 38 72 101 38 72 101 38 72 101 38 72 101 38 72 101 38 72 101 38 72 101 38 72 101 38 72 101 38 72 101 38 94 132 50 94 132 50 94 132 50 94 132 50 94 132 50 94 132 50 94 132 50 94 132 50 94 132 50 94 132 50 94 132 50 94 132 50 94 132 50 94 132 50 94 132 50 94 132 50 73 102 39 73 102 39 73 102 39 73 102 39 73 102 39 73 102 39 73 102 39 73 102 39 73 102 39 73 102 39 73 102 39 73 102 39 73 102 39 73 102 39 73 102 39 73 102 39 89 125 47 89 125 47 89 125 47 89 125 47 89 125 47 89 125 47 89 125 47 89 125 47 89 125 47 89 125 47 89 125 47 89 125 47 89 125 47 89 125 47 89 125 47 89 125 47 82 115 44 82 115 44 82 115 44 82 115 44 82 115 44 82 115 44 82 115 44 82 115 44 82 115 44 82 115 44 82 115 44 82 115 44 82 115 44 82 115 44 82 115 44 82 115 44 72 101 38 72 101 38 72 101 38 72 101 38 72 101 38 72 101 38 72 101 38 72 101 38 72 101 38 72 101 38 72 101 38 72 101 38 72 101 38 72 101 38 72 101 38 72 101 38 80 112 42 80 112 42 80 112 42 80 112 42 80 112 42 80 112 42 80 112 42 80 112 42 80 112 42 80 112 42 80 112 42 80 112 42 80 112 42 80 112 42 80 112 42 80 112 42 75 105 40 75 105 40 75 105 40 75 105 40 75 105 40 75 105 40 75 105 40 75 105 40 75 105 40 75 105 40 75 105 40 75 105 40 75 105 40 75 105 40 75 105 40 75 105 40 82 115 44 82 115 44 82 115 44 82 115 44 82 115 44 82 115 44 82 115 44 82 115 44 82 115 44 82 115 44 82 115 44 82 115 44 82 115 44 82 115 44 82 115 44 80 112 42 80 112 42 80 112 42 80 112 42 80 112 42 80 112 42 80 112 42 80 112 42 80 112 42 80 112 42 80 112 42 80 112 42 80 112 42 80 112 42 80 112 42 80 112 42 76 107 41 76 107 41 76 107 41 76 107 41 76 107 41 76 107 41 76 107 41 76 107 41 76 107 41 76 107 41 76 107 41 76 107 41 76 107 41 76 107 41 76 107 41 76 107 41 67 94 36 67 94 36 67 94 36 67 94 36 67 94 36 67 94 36 67 94 36 67 94 36 67 94 36 67 94 36 67 94 36 67 94 36 67 94 36 67 94 36 67 94 36 67 94 36 98 137 52 98 137 52 98 137 52 98 137 52 98 137 52 98 137 52 98 137 52 98 137 52 98 137 52 98 137 52 98 137 52 98 137 52 98 137 52 98 137 52 98 137 52 98 137 52 69 97 37 69 97 37 69 97 37 69 97 37 69 97 37 69 97 37 69 97 37 69 97 37 69 97 37 69 97 37 69 97 37 69 97 37 69 97 37 69 97 37 69 97 37 69 97 37 68 96 36 68 96 36 68 96 36 68 96 36 68 96 36 68 96 36 68 96 36 68 96 36 68 96 36 68 96 36 68 96 36 68 96 36 68 96 36 68 96 36 68 96 36 68 96 36 75 106 40 75 106 40 75 106 40 75 106 40 75 106 40 75 106 40 75 106 40 75 106 40 75 106 40 75 106 40 75 106 40 75 106 40 75 106 40 75 106 40 75 106 40 75 106 40 72 101 38 72 101 38 72 101 38 72 101 38 72 101 38 72 101 38 72 101 38 72 101 38 72 101 38 72 101 38 72 101 38 72 101 38 72 101 38 72 101 38 72 101 38 72 101 38 94 132 50 94 132 50 94 132 50 94 132 50 94 132 50 94 132 50 94 132 50 94 132 50 94 132 50 94 132 50 94 132 50 94 132 50 94 132 50 94 132 50 94 132 50 94 132 50 73 102 39 73 102 39 73 102 39 73 102 39 73 102 39 73 102 39 73 102 39 73 102 39 73 102 39 73 102 39 73 102 39 73 102 39 73 102 39 73 102 39 73 102 39 73 102 39 89 125 47 89 125 47 89 125 47 89 125 47 89 125 47 89 125 47 89 125 47 89 125 47 89 125 47 89 125 47 89 125 47 89 125 47 89 125 47 89 125 47 89 125 47 89 125 47 82 115 44 82 115 44 82 115 44 82 115 44 82 115 44 82 115 44 82 115 44 82 115 44 82 115 44 82 115 44 82 115 44 82 115 44 82 115 44 82 115 44 82 115 44 82 115 44 72 101 38 72 101 38 72 101 38 72 101 38 72 101 38 72 101 38 72 101 38 72 101 38 72 101 38 72 101 38 72 101 38 72 101 38 72 101 38 72 101 38 72 101 38 72 101 38 80 112 42 80 112 42 80 112 42 80 112 42 80 112 42 80 112 42 80 112 42 80 112 42 80 112 42 80 112 42 80 112 42 80 112 42 80 112 42 80 112 42 80 112 42 80 112 42 75 105 40 75 105 40 75 105 40 75 105 40 75 105 40 75 105 40 75 105 40 75 105 40 75 105 40 75 105 40 75 105 40 75 105 40 75 105 40 75 105 40 75 105 40 75 105 40 82 115 44 82 115 44 82 115 44 82 115 44 82 115 44 82 115 44 82 115 44 82 115 44 82 115 44 82 115 44 82 115 44 82 115 44 82 115 44 82 115 44 82 115 44 80 112 42 80 112 42 80 112 42 80 112 42 80 112 42 80 112 42 80 112 42 80 112 42 80 112 42 80 112 42 80 112 42 80 112 42 80 112 42 80 112 42 80 112 42 80 112 42 76 107 41 76 107 41 76 107 41 76 107 41 76 107 41 76 107 41 76 107 41 76 107 41 76 107 41 76 107 41 76 107 41 76 107 41 76 107 41 76 107 41 76 107 41 76 107 41 67 94 36 67 94 36 67 94 36 67 94 36 67 94 36 67 94 36 67 94 36 67 94 36 67 94 36 67 94 36 67 94 36 67 94 36 67 94 36 67 94 36 67 94 36 67 94 36 98 137 52 98 137 52 98 137 52 98 137 52 98 137 52 98 137 52 98 137 52 98 137 52 98 137 52 98 137 52 98 137 52 98 137 52 98 137 52 98 137 52 98 137 52 98 137 52 69 97 37 69 97 37 69 97 37 69 97 37 69 97 37 69 97 37 69 97 37 69 97 37 69 97 37 69 97 37 69 97 37 69 97 37 69 97 37 69 97 37 69 97 37 69 97 37 68 96 36 68 96 36 68 96 36 68 96 36 68 96 36 68 96 36 68 96 36 68 96 36 68 96 36 68 96 36 68 96 36 68 96 36 68 96 36 68 96 36 68 96 36 68 96 36 75 106 40 75 106 40 75 106 40 75 106 40 75 106 40 75 106 40 75 106 40 75 106 40 75 106 40 75 106 40 75 106 40 75 106 40 75 106 40 75 106 40 75 106 40 75 106 40 72 101 38 72 101 38 72 101 38 72 101 38 72 101 38 72 101 38 72 101 38 72 101 38 72 101 38 72 101 38 72 101 38 72 101 38 72 101 38 72 101 38 72 101 38 72 101 38 94 132 50 94 132 50 94 132 50 94 132 50 94 132 50 94 132 50 94 132 50 94 132 50 94 132 50 94 132 50 94 132 50 94 132 50 94 132 50 94 132 50 94 132 50 94 132 50 73 102 39 73 102 39 73 102 39 73 102 39 73 102 39 73 102 39 73 102 39 73 102 39 73 102 39 73 102 39 73 102 39 73 102 39 73 102 39 73 102 39 73 102 39 73 102 39 89 125 47 89 125 47 89 125 47 89 125 47 89 125 47 89 125 47 89 125 47 89 125 47 89 125 47 89 125 47 89 125 47 89 125 47 89 125 47 89 125 47 89 125 47 89 125 47 82 115 44 82 115 44 82 115 44 82 115 44 82 115 44 82 115 44 82 115 44 82 115 44 82 115 44 82 115 44 82 115 44 82 115 44 82 115 44 82 115 44 82 115 44 82 115 44 72 101 38 72 101 38 72 101 38 72 101 38 72 101 38 72 101 38 72 101 38 72 101 38 72 101 38 72 101 38 72 101 38 72 101 38 72 101 38 72 101 38 72 101 38 72 101 38 80 112 42 80 112 42 80 112 42 80 112 42 80 112 42 80 112 42 80 112 42 80 112 42 80 112 42 80 112 42 80 112 42 80 112 42 80 112 42 80 112 42 80 112 42 80 112 42 75 105 40 75 105 40 75 105 40 75 105 40 75 105 40 75 105 40 75 105 40 75 105 40 75 105 40 75 105 40 75 105 40 75 105 40 75 105 40 75 105 40 75 105 40 75 105 40 82 115 44 82 115 44 82 115 44 82 115 44 82 115 44 82 115 44 82 115 44 82 115 44 82 115 44 82 115 44 82 115 44 82 115 44 82 115 44 82 115 44 82 115 44 80 112 42 80 112 42 80 112 42 80 112 42 80 112 42 80 112 42 80 112 42 80 112 42 80 112 42 80 112 42 80 112 42 80 112 42 80 112 42 80 112 42 80 112 42 80 112 42 76 107 41 76 107 41 76 107 41 76 107 41 76 107 41 76 107 41 76 107 41 76 107 41 76 107 41 76 107 41 76 107 41 76 107 41 76 107 41 76 107 41 76 107 41 76 107 41 67 94 36 67 94 36 67 94 36 67 94 36 67 94 36 67 94 36 67 94 36 67 94 36 67 94 36 67 94 36 67 94 36 67 94 36 67 94 36 67 94 36 67 94 36 67 94 36 98 137 52 98 137 52 98 137 52 98 137 52 98 137 52 98 137 52 98 137 52 98 137 52 98 137 52 98 137 52 98 137 52 98 137 52 98 137 52 98 137 52 98 137 52 98 137 52 69 97 37 69 97 37 69 97 37 69 97 37 69 97 37 69 97 37 69 97 37 69 97 37 69 97 37 69 97 37 69 97 37 69 97 37 69 97 37 69 97 37 69 97 37 69 97 37 68 96 36 68 96 36 68 96 36 68 96 36 68 96 36 68 96 36 68 96 36 68 96 36 68 96 36 68 96 36 68 96 36 68 96 36 68 96 36 68 96 36 68 96 36 68 96 36 75 106 40 75 106 40 75 106 40 75 106 40 75 106 40 75 106 40 75 106 40 75 106 40 75 106 40 75 106 40 75 106 40 75 106 40 75 106 40 75 106 40 75 106 40 75 106 40 72 101 38 72 101 38 72 101 38 72 101 38 72 101 38 72 101 38 72 101 38 72 101 38 72 101 38 72 101 38 72 101 38 72 101 38 72 101 38 72 101 38 72 101 38 72 101 38 94 132 50 94 132 50 94 132 50 94 132 50 94 132 50 94 132 50 94 132 50 94 132 50 94 132 50 94 132 50 94 132 50 94 132 50 94 132 50 94 132 50 94 132 50 94 132 50 73 102 39 73 102 39 73 102 39 73 102 39 73 102 39 73 102 39 73 102 39 73 102 39 73 102 39 73 102 39 73 102 39 73 102 39 73 102 39 73 102 39 73 102 39 73 102 39 89 125 47 89 125 47 89 125 47 89 125 47 89 125 47 89 125 47 89 125 47 89 125 47 89 125 47 89 125 47 89 125 47 89 125 47 89 125 47 89 125 47 89 125 47 89 125 47 82 115 44 82 115 44 82 115 44 82 115 44 82 115 44 82 115 44 82 115 44 82 115 44 82 115 44 82 115 44 82 115 44 82 115 44 82 115 44 82 115 44 82 115 44 82 115 44 72 101 38 72 101 38 72 101 38 72 101 38 72 101 38 72 101 38 72 101 38 72 101 38 72 101 38 72 101 38 72 101 38 72 101 38 72 101 38 72 101 38 72 101 38 72 101 38 80 112 42 80 112 42 80 112 42 80 112 42 80 112 42 80 112 42 80 112 42 80 112 42 80 112 42 80 112 42 80 112 42 80 112 42 80 112 42 80 112 42 80 112 42 80 112 42 75 105 40 75 105 40 75 105 40 75 105 40 75 105 40 75 105 40 75 105 40 75 105 40 75 105 40 75 105 40 75 105 40 75 105 40 75 105 40 75 105 40 75 105 40 75 105 40 82 115 44 82 115 44 82 115 44 82 115 44 82 115 44 82 115 44 82 115 44 82 115 44 82 115 44 82 115 44 82 115 44 82 115 44 82 115 44 82 115 44 82 115 44 80 112 42 80 112 42 80 112 42 80 112 42 80 112 42 80 112 42 80 112 42 80 112 42 80 112 42 80 112 42 80 112 42 80 112 42 80 112 42 80 112 42 80 112 42 80 112 42 76 107 41 76 107 41 76 107 41 76 107 41 76 107 41 76 107 41 76 107 41 76 107 41 76 107 41 76 107 41 76 107 41 76 107 41 76 107 41 76 107 41 76 107 41 76 107 41 67 94 36 67 94 36 67 94 36 67 94 36 67 94 36 67 94 36 67 94 36 67 94 36 67 94 36 67 94 36 67 94 36 67 94 36 67 94 36 67 94 36 67 94 36 67 94 36 98 137 52 98 137 52 98 137 52 98 137 52 98 137 52 98 137 52 98 137 52 98 137 52 98 137 52 98 137 52 98 137 52 98 137 52 98 137 52 98 137 52 98 137 52 98 137 52 69 97 37 69 97 37 69 97 37 69 97 37 69 97 37 69 97 37 69 97 37 69 97 37 69 97 37 69 97 37 69 97 37 69 97 37 69 97 37 69 97 37 69 97 37 69 97 37 68 96 36 68 96 36 68 96 36 68 96 36 68 96 36 68 96 36 68 96 36 68 96 36 68 96 36 68 96 36 68 96 36 68 96 36 68 96 36 68 96 36 68 96 36 68 96 36 75 106 40 75 106 40 75 106 40 75 106 40 75 106 40 75 106 40 75 106 40 75 106 40 75 106 40 75 106 40 75 106 40 75 106 40 75 106 40 75 106 40 75 106 40 75 106 40 72 101 38 72 101 38 72 101 38 72 101 38 72 101 38 72 101 38 72 101 38 72 101 38 72 101 38 72 101 38 72 101 38 72 101 38 72 101 38 72 101 38 72 101 38 72 101 38 94 132 50 94 132 50 94 132 50 94 132 50 94 132 50 94 132 50 94 132 50 94 132 50 94 132 50 94 132 50 94 132 50 94 132 50 94 132 50 94 132 50 94 132 50 94 132 50 73 102 39 73 102 39 73 102 39 73 102 39 73 102 39 73 102 39 73 102 39 73 102 39 73 102 39 73 102 39 73 102 39 73 102 39 73 102 39 73 102 39 73 102 39 73 102 39 89 125 47 89 125 47 89 125 47 89 125 47 89 125 47 89 125 47 89 125 47 89 125 47 89 125 47 89 125 47 89 125 47 89 125 47 89 125 47 89 125 47 89 125 47 89 125 47 82 115 44 82 115 44 82 115 44 82 115 44 82 115 44 82 115 44 82 115 44 82 115 44 82 115 44 82 115 44 82 115 44 82 115 44 82 115 44 82 115 44 82 115 44 82 115 44 72 101 38 72 101 38 72 101 38 72 101 38 72 101 38 72 101 38 72 101 38 72 101 38 72 101 38 72 101 38 72 101 38 72 101 38 72 101 38 72 101 38 72 101 38 72 101 38 80 112 42 80 112 42 80 112 42 80 112 42 80 112 42 80 112 42 80 112 42 80 112 42 80 112 42 80 112 42 80 112 42 80 112 42 80 112 42 80 112 42 80 112 42 80 112 42 75 105 40 75 105 40 75 105 40 75 105 40 75 105 40 75 105 40 75 105 40 75 105 40 75 105 40 75 105 40 75 105 40 75 105 40 75 105 40 75 105 40 75 105 40 75 105 40 82 115 44 82 115 44 82 115 44 82 115 44 82 115 44 82 115 44 82 115 44 82 115 44 82 115 44 82 115 44 82 115 44 82 115 44 82 115 44 82 115 44 82 115 44 80 112 42 80 112 42 80 112 42 80 112 42 80 112 42 80 112 42 80 112 42 80 112 42 80 112 42 80 112 42 80 112 42 80 112 42 80 112 42 80 112 42 80 112 42 80 112 42 76 107 41 76 107 41 76 107 41 76 107 41 76 107 41 76 107 41 76 107 41 76 107 41 76 107 41 76 107 41 76 107 41 76 107 41 76 107 41 76 107 41 76 107 41 76 107 41 67 94 36 67 94 36 67 94 36 67 94 36 67 94 36 67 94 36 67 94 36 67 94 36 67 94 36 67 94 36 67 94 36 67 94 36 67 94 36 67 94 36 67 94 36 67 94 36 98 137 52 98 137 52 98 137 52 98 137 52 98 137 52 98 137 52 98 137 52 98 137 52 98 137 52 98 137 52 98 137 52 98 137 52 98 137 52 98 137 52 98 137 52 98 137 52 69 97 37 69 97 37 69 97 37 69 97 37 69 97 37 69 97 37 69 97 37 69 97 37 69 97 37 69 97 37 69 97 37 69 97 37 69 97 37 69 97 37 69 97 37 69 97 37 68 96 36 68 96 36 68 96 36 68 96 36 68 96 36 68 96 36 68 96 36 68 96 36 68 96 36 68 96 36 68 96 36 68 96 36 68 96 36 68 96 36 68 96 36 68 96 36 75 106 40 75 106 40 75 106 40 75 106 40 75 106 40 75 106 40 75 106 40 75 106 40 75 106 40 75 106 40 75 106 40 75 106 40 75 106 40 75 106 40 75 106 40 75 106 40 101 142 54 101 142 54 101 142 54 101 142 54 101 142 54 101 142 54 101 142 54 101 142 54 101 142 54 101 142 54 101 142 54 101 142 54 101 142 54 101 142 54 101 142 54 101 142 54 82 115 44 82 115 44 82 115 44 82 115 44 82 115 44 82 115 44 82 115 44 82 115 44 82 115 44 82 115 44 82 115 44 82 115 44 82 115 44 82 115 44 82 115 44 82 115 44 70 99 37 70 99 37 70 99 37 70 99 37 70 99 37 70 99 37 70 99 37 70 99 37 70 99 37 70 99 37 70 99 37 70 99 37 70 99 37 70 99 37 70 99 37 70 99 37 75 106 40 75 106 40 75 106 40 75 106 40 75 106 40 75 106 40 75 106 40 75 106 40 75 106 40 75 106 40 75 106 40 75 106 40 75 106 40 75 106 40 75 106 40 75 106 40 83 117 44 83 117 44 83 117 44 83 117 44 83 117 44 83 117 44 83 117 44 83 117 44 83 117 44 83 117 44 83 117 44 83 117 44 83 117 44 83 117 44 83 117 44 83 117 44 79 111 42 79 111 42 79 111 42 79 111 42 79 111 42 79 111 42 79 111 42 79 111 42 79 111 42 79 111 42 79 111 42 79 111 42 79 111 42 79 111 42 79 111 42 79 111 42 72 102 39 72 102 39 72 102 39 72 102 39 72 102 39 72 102 39 72 102 39 72 102 39 72 102 39 72 102 39 72 102 39 72 102 39 72 102 39 72 102 39 72 102 39 72 102 39 66 93 35 66 93 35 66 93 35 66 93 35 66 93 35 66 93 35 66 93 35 66 93 35 66 93 35 66 93 35 66 93 35 66 93 35 66 93 35 66 93 35 66 93 35 66 93 35 75 106 40 75 106 40 75 106 40 75 106 40 75 106 40 75 106 40 75 106 40 75 106 40 75 106 40 75 106 40 75 106 40 75 106 40 75 106 40 75 106 40 75 106 40 79 111 42 79 111 42 79 111 42 79 111 42 79 111 42 79 111 42 79 111 42 79 111 42 79 111 42 79 111 42 79 111 42 79 111 42 79 111 42 79 111 42 79 111 42 79 111 42 75 106 40 75 106 40 75 106 40 75 106 40 75 106 40 75 106 40 75 106 40 75 106 40 75 106 40 75 106 40 75 106 40 75 106 40 75 106 40 75 106 40 75 106 40 75 106 40 68 96 36 68 96 36 68 96 36 68 96 36 68 96 36 68 96 36 68 96 36 68 96 36 68 96 36 68 96 36 68 96 36 68 96 36 68 96 36 68 96 36 68 96 36 68 96 36 87 122 46 87 122 46 87 122 46 87 122 46 87 122 46 87 122 46 87 122 46 87 122 46 87 122 46 87 122 46 87 122 46 87 122 46 87 122 46 87 122 46 87 122 46 87 122 46 90 126 48 90 126 48 90 126 48 90 126 48 90 126 48 90 126 48 90 126 48 90 126 48 90 126 48 90 126 48 90 126 48 90 126 48 90 126 48 90 126 48 90 126 48 90 126 48 66 93 35 66 93 35 66 93 35 66 93 35 66 93 35 66 93 35 66 93 35 66 93 35 66 93 35 66 93 35 66 93 35 66 93 35 66 93 35 66 93 35 66 93 35 66 93 35 82 115 44 82 115 44 82 115 44 82 115 44 82 115 44 82 115 44 82 115 44 82 115 44 82 115 44 82 115 44 82 115 44 82 115 44 82 115 44 82 115 44 82 115 44 82 115 44 101 142 54 101 142 54 101 142 54 101 142 54 101 142 54 101 142 54 101 142 54 101 142 54 101 142 54 101 142 54 101 142 54 101 142 54 101 142 54 101 142 54 101 142 54 101 142 54 82 115 44 82 115 44 82 115 44 82 115 44 82 115 44 82 115 44 82 115 44 82 115 44 82 115 44 82 115 44 82 115 44 82 115 44 82 115 44 82 115 44 82 115 44 82 115 44 70 99 37 70 99 37 70 99 37 70 99 37 70 99 37 70 99 37 70 99 37 70 99 37 70 99 37 70 99 37 70 99 37 70 99 37 70 99 37 70 99 37 70 99 37 70 99 37 75 106 40 75 106 40 75 106 40 75 106 40 75 106 40 75 106 40 75 106 40 75 106 40 75 106 40 75 106 40 75 106 40 75 106 40 75 106 40 75 106 40 75 106 40 75 106 40 83 117 44 83 117 44 83 117 44 83 117 44 83 117 44 83 117 44 83 117 44 83 117 44 83 117 44 83 117 44 83 117 44 83 117 44 83 117 44 83 117 44 83 117 44 83 117 44 79 111 42 79 111 42 79 111 42 79 111 42 79 111 42 79 111 42 79 111 42 79 111 42 79 111 42 79 111 42 79 111 42 79 111 42 79 111 42 79 111 42 79 111 42 79 111 42 72 102 39 72 102 39 72 102 39 72 102 39 72 102 39 72 102 39 72 102 39 72 102 39 72 102 39 72 102 39 72 102 39 72 102 39 72 102 39 72 102 39 72 102 39 72 102 39 66 93 35 66 93 35 66 93 35 66 93 35 66 93 35 66 93 35 66 93 35 66 93 35 66 93 35 66 93 35 66 93 35 66 93 35 66 93 35 66 93 35 66 93 35 66 93 35 75 106 40 75 106 40 75 106 40 75 106 40 75 106 40 75 106 40 75 106 40 75 106 40 75 106 40 75 106 40 75 106 40 75 106 40 75 106 40 75 106 40 75 106 40 79 111 42 79 111 42 79 111 42 79 111 42 79 111 42 79 111 42 79 111 42 79 111 42 79 111 42 79 111 42 79 111 42 79 111 42 79 111 42 79 111 42 79 111 42 79 111 42 75 106 40 75 106 40 75 106 40 75 106 40 75 106 40 75 106 40 75 106 40 75 106 40 75 106 40 75 106 40 75 106 40 75 106 40 75 106 40 75 106 40 75 106 40 75 106 40 68 96 36 68 96 36 68 96 36 68 96 36 68 96 36 68 96 36 68 96 36 68 96 36 68 96 36 68 96 36 68 96 36 68 96 36 68 96 36 68 96 36 68 96 36 68 96 36 87 122 46 87 122 46 87 122 46 87 122 46 87 122 46 87 122 46 87 122 46 87 122 46 87 122 46 87 122 46 87 122 46 87 122 46 87 122 46 87 122 46 87 122 46 87 122 46 90 126 48 90 126 48 90 126 48 90 126 48 90 126 48 90 126 48 90 126 48 90 126 48 90 126 48 90 126 48 90 126 48 90 126 48 90 126 48 90 126 48 90 126 48 90 126 48 66 93 35 66 93 35 66 93 35 66 93 35 66 93 35 66 93 35 66 93 35 66 93 35 66 93 35 66 93 35 66 93 35 66 93 35 66 93 35 66 93 35 66 93 35 66 93 35 82 115 44 82 115 44 82 115 44 82 115 44 82 115 44 82 115 44 82 115 44 82 115 44 82 115 44 82 115 44 82 115 44 82 115 44 82 115 44 82 115 44 82 115 44 82 115 44 101 142 54 101 142 54 101 142 54 101 142 54 101 142 54 101 142 54 101 142 54 101 142 54 101 142 54 101 142 54 101 142 54 101 142 54 101 142 54 101 142 54 101 142 54 101 142 54 82 115 44 82 115 44 82 115 44 82 115 44 82 115 44 82 115 44 82 115 44 82 115 44 82 115 44 82 115 44 82 115 44 82 115 44 82 115 44 82 115 44 82 115 44 82 115 44 70 99 37 70 99 37 70 99 37 70 99 37 70 99 37 70 99 37 70 99 37 70 99 37 70 99 37 70 99 37 70 99 37 70 99 37 70 99 37 70 99 37 70 99 37 70 99 37 75 106 40 75 106 40 75 106 40 75 106 40 75 106 40 75 106 40 75 106 40 75 106 40 75 106 40 75 106 40 75 106 40 75 106 40 75 106 40 75 106 40 75 106 40 75 106 40 83 117 44 83 117 44 83 117 44 83 117 44 83 117 44 83 117 44 83 117 44 83 117 44 83 117 44 83 117 44 83 117 44 83 117 44 83 117 44 83 117 44 83 117 44 83 117 44 79 111 42 79 111 42 79 111 42 79 111 42 79 111 42 79 111 42 79 111 42 79 111 42 79 111 42 79 111 42 79 111 42 79 111 42 79 111 42 79 111 42 79 111 42 79 111 42 72 102 39 72 102 39 72 102 39 72 102 39 72 102 39 72 102 39 72 102 39 72 102 39 72 102 39 72 102 39 72 102 39 72 102 39 72 102 39 72 102 39 72 102 39 72 102 39 66 93 35 66 93 35 66 93 35 66 93 35 66 93 35 66 93 35 66 93 35 66 93 35 66 93 35 66 93 35 66 93 35 66 93 35 66 93 35 66 93 35 66 93 35 66 93 35 75 106 40 75 106 40 75 106 40 75 106 40 75 106 40 75 106 40 75 106 40 75 106 40 75 106 40 75 106 40 75 106 40 75 106 40 75 106 40 75 106 40 75 106 40 79 111 42 79 111 42 79 111 42 79 111 42 79 111 42 79 111 42 79 111 42 79 111 42 79 111 42 79 111 42 79 111 42 79 111 42 79 111 42 79 111 42 79 111 42 79 111 42 75 106 40 75 106 40 75 106 40 75 106 40 75 106 40 75 106 40 75 106 40 75 106 40 75 106 40 75 106 40 75 106 40 75 106 40 75 106 40 75 106 40 75 106 40 75 106 40 68 96 36 68 96 36 68 96 36 68 96 36 68 96 36 68 96 36 68 96 36 68 96 36 68 96 36 68 96 36 68 96 36 68 96 36 68 96 36 68 96 36 68 96 36 68 96 36 87 122 46 87 122 46 87 122 46 87 122 46 87 122 46 87 122 46 87 122 46 87 122 46 87 122 46 87 122 46 87 122 46 87 122 46 87 122 46 87 122 46 87 122 46 87 122 46 90 126 48 90 126 48 90 126 48 90 126 48 90 126 48 90 126 48 90 126 48 90 126 48 90 126 48 90 126 48 90 126 48 90 126 48 90 126 48 90 126 48 90 126 48 90 126 48 66 93 35 66 93 35 66 93 35 66 93 35 66 93 35 66 93 35 66 93 35 66 93 35 66 93 35 66 93 35 66 93 35 66 93 35 66 93 35 66 93 35 66 93 35 66 93 35 82 115 44 82 115 44 82 115 44 82 115 44 82 115 44 82 115 44 82 115 44 82 115 44 82 115 44 82 115 44 82 115 44 82 115 44 82 115 44 82 115 44 82 115 44 82 115 44 101 142 54 101 142 54 101 142 54 101 142 54 101 142 54 101 142 54 101 142 54 101 142 54 101 142 54 101 142 54 101 142 54 101 142 54 101 142 54 101 142 54 101 142 54 101 142 54 82 115 44 82 115 44 82 115 44 82 115 44 82 115 44 82 115 44 82 115 44 82 115 44 82 115 44 82 115 44 82 115 44 82 115 44 82 115 44 82 115 44 82 115 44 82 115 44 70 99 37 70 99 37 70 99 37 70 99 37 70 99 37 70 99 37 70 99 37 70 99 37 70 99 37 70 99 37 70 99 37 70 99 37 70 99 37 70 99 37 70 99 37 70 99 37 75 106 40 75 106 40 75 106 40 75 106 40 75 106 40 75 106 40 75 106 40 75 106 40 75 106 40 75 106 40 75 106 40 75 106 40 75 106 40 75 106 40 75 106 40 75 106 40 83 117 44 83 117 44 83 117 44 83 117 44 83 117 44 83 117 44 83 117 44 83 117 44 83 117 44 83 117 44 83 117 44 83 117 44 83 117 44 83 117 44 83 117 44 83 117 44 79 111 42 79 111 42 79 111 42 79 111 42 79 111 42 79 111 42 79 111 42 79 111 42 79 111 42 79 111 42 79 111 42 79 111 42 79 111 42 79 111 42 79 111 42 79 111 42 72 102 39 72 102 39 72 102 39 72 102 39 72 102 39 72 102 39 72 102 39 72 102 39 72 102 39 72 102 39 72 102 39 72 102 39 72 102 39 72 102 39 72 102 39 72 102 39 66 93 35 66 93 35 66 93 35 66 93 35 66 93 35 66 93 35 66 93 35 66 93 35 66 93 35 66 93 35 66 93 35 66 93 35 66 93 35 66 93 35 66 93 35 66 93 35 75 106 40 75 106 40 75 106 40 75 106 40 75 106 40 75 106 40 75 106 40 75 106 40 75 106 40 75 106 40 75 106 40 75 106 40 75 106 40 75 106 40 75 106 40 79 111 42 79 111 42 79 111 42 79 111 42 79 111 42 79 111 42 79 111 42 79 111 42 79 111 42 79 111 42 79 111 42 79 111 42 79 111 42 79 111 42 79 111 42 79 111 42 75 106 40 75 106 40 75 106 40 75 106 40 75 106 40 75 106 40 75 106 40 75 106 40 75 106 40 75 106 40 75 106 40 75 106 40 75 106 40 75 106 40 75 106 40 75 106 40 68 96 36 68 96 36 68 96 36 68 96 36 68 96 36 68 96 36 68 96 36 68 96 36 68 96 36 68 96 36 68 96 36 68 96 36 68 96 36 68 96 36 68 96 36 68 96 36 87 122 46 87 122 46 87 122 46 87 122 46 87 122 46 87 122 46 87 122 46 87 122 46 87 122 46 87 122 46 87 122 46 87 122 46 87 122 46 87 122 46 87 122 46 87 122 46 90 126 48 90 126 48 90 126 48 90 126 48 90 126 48 90 126 48 90 126 48 90 126 48 90 126 48 90 126 48 90 126 48 90 126 48 90 126 48 90 126 48 90 126 48 90 126 48 66 93 35 66 93 35 66 93 35 66 93 35 66 93 35 66 93 35 66 93 35 66 93 35 66 93 35 66 93 35 66 93 35 66 93 35 66 93 35 66 93 35 66 93 35 66 93 35 82 115 44 82 115 44 82 115 44 82 115 44 82 115 44 82 115 44 82 115 44 82 115 44 82 115 44 82 115 44 82 115 44 82 115 44 82 115 44 82 115 44 82 115 44 82 115 44 101 142 54 101 142 54 101 142 54 101 142 54 101 142 54 101 142 54 101 142 54 101 142 54 101 142 54 101 142 54 101 142 54 101 142 54 101 142 54 101 142 54 101 142 54 101 142 54 82 115 44 82 115 44 82 115 44 82 115 44 82 115 44 82 115 44 82 115 44 82 115 44 82 115 44 82 115 44 82 115 44 82 115 44 82 115 44 82 115 44 82 115 44 82 115 44 70 99 37 70 99 37 70 99 37 70 99 37 70 99 37 70 99 37 70 99 37 70 99 37 70 99 37 70 99 37 70 99 37 70 99 37 70 99 37 70 99 37 70 99 37 70 99 37 75 106 40 75 106 40 75 106 40 75 106 40 75 106 40 75 106 40 75 106 40 75 106 40 75 106 40 75 106 40 75 106 40 75 106 40 75 106 40 75 106 40 75 106 40 75 106 40 83 117 44 83 117 44 83 117 44 83 117 44 83 117 44 83 117 44 83 117 44 83 117 44 83 117 44 83 117 44 83 117 44 83 117 44 83 117 44 83 117 44 83 117 44 83 117 44 79 111 42 79 111 42 79 111 42 79 111 42 79 111 42 79 111 42 79 111 42 79 111 42 79 111 42 79 111 42 79 111 42 79 111 42 79 111 42 79 111 42 79 111 42 79 111 42 72 102 39 72 102 39 72 102 39 72 102 39 72 102 39 72 102 39 72 102 39 72 102 39 72 102 39 72 102 39 72 102 39 72 102 39 72 102 39 72 102 39 72 102 39 72 102 39 66 93 35 66 93 35 66 93 35 66 93 35 66 93 35 66 93 35 66 93 35 66 93 35 66 93 35 66 93 35 66 93 35 66 93 35 66 93 35 66 93 35 66 93 35 66 93 35 75 106 40 75 106 40 75 106 40 75 106 40 75 106 40 75 106 40 75 106 40 75 106 40 75 106 40 75 106 40 75 106 40 75 106 40 75 106 40 75 106 40 75 106 40 79 111 42 79 111 42 79 111 42 79 111 42 79 111 42 79 111 42 79 111 42 79 111 42 79 111 42 79 111 42 79 111 42 79 111 42 79 111 42 79 111 42 79 111 42 79 111 42 75 106 40 75 106 40 75 106 40 75 106 40 75 106 40 75 106 40 75 106 40 75 106 40 75 106 40 75 106 40 75 106 40 75 106 40 75 106 40 75 106 40 75 106 40 75 106 40 68 96 36 68 96 36 68 96 36 68 96 36 68 96 36 68 96 36 68 96 36 68 96 36 68 96 36 68 96 36 68 96 36 68 96 36 68 96 36 68 96 36 68 96 36 68 96 36 87 122 46 87 122 46 87 122 46 87 122 46 87 122 46 87 122 46 87 122 46 87 122 46 87 122 46 87 122 46 87 122 46 87 122 46 87 122 46 87 122 46 87 122 46 87 122 46 90 126 48 90 126 48 90 126 48 90 126 48 90 126 48 90 126 48 90 126 48 90 126 48 90 126 48 90 126 48 90 126 48 90 126 48 90 126 48 90 126 48 90 126 48 90 126 48 66 93 35 66 93 35 66 93 35 66 93 35 66 93 35 66 93 35 66 93 35 66 93 35 66 93 35 66 93 35 66 93 35 66 93 35 66 93 35 66 93 35 66 93 35 66 93 35 82 115 44 82 115 44 82 115 44 82 115 44 82 115 44 82 115 44 82 115 44 82 115 44 82 115 44 82 115 44 82 115 44 82 115 44 82 115 44 82 115 44 82 115 44 82 115 44 101 142 54 101 142 54 101 142 54 101 142 54 101 142 54 101 142 54 101 142 54 101 142 54 101 142 54 101 142 54 101 142 54 101 142 54 101 142 54 101 142 54 101 142 54 101 142 54 82 115 44 82 115 44 82 115 44 82 115 44 82 115 44 82 115 44 82 115 44 82 115 44 82 115 44 82 115 44 82 115 44 82 115 44 82 115 44 82 115 44 82 115 44 82 115 44 70 99 37 70 99 37 70 99 37 70 99 37 70 99 37 70 99 37 70 99 37 70 99 37 70 99 37 70 99 37 70 99 37 70 99 37 70 99 37 70 99 37 70 99 37 70 99 37 75 106 40 75 106 40 75 106 40 75 106 40 75 106 40 75 106 40 75 106 40 75 106 40 75 106 40 75 106 40 75 106 40 75 106 40 75 106 40 75 106 40 75 106 40 75 106 40 83 117 44 83 117 44 83 117 44 83 117 44 83 117 44 83 117 44 83 117 44 83 117 44 83 117 44 83 117 44 83 117 44 83 117 44 83 117 44 83 117 44 83 117 44 83 117 44 79 111 42 79 111 42 79 111 42 79 111 42 79 111 42 79 111 42 79 111 42 79 111 42 79 111 42 79 111 42 79 111 42 79 111 42 79 111 42 79 111 42 79 111 42 79 111 42 72 102 39 72 102 39 72 102 39 72 102 39 72 102 39 72 102 39 72 102 39 72 102 39 72 102 39 72 102 39 72 102 39 72 102 39 72 102 39 72 102 39 72 102 39 72 102 39 66 93 35 66 93 35 66 93 35 66 93 35 66 93 35 66 93 35 66 93 35 66 93 35 66 93 35 66 93 35 66 93 35 66 93 35 66 93 35 66 93 35 66 93 35 66 93 35 75 106 40 75 106 40 75 106 40 75 106 40 75 106 40 75 106 40 75 106 40 75 106 40 75 106 40 75 106 40 75 106 40 75 106 40 75 106 40 75 106 40 75 106 40 79 111 42 79 111 42 79 111 42 79 111 42 79 111 42 79 111 42 79 111 42 79 111 42 79 111 42 79 111 42 79 111 42 79 111 42 79 111 42 79 111 42 79 111 42 79 111 42 75 106 40 75 106 40 75 106 40 75 106 40 75 106 40 75 106 40 75 106 40 75 106 40 75 106 40 75 106 40 75 106 40 75 106 40 75 106 40 75 106 40 75 106 40 75 106 40 68 96 36 68 96 36 68 96 36 68 96 36 68 96 36 68 96 36 68 96 36 68 96 36 68 96 36 68 96 36 68 96 36 68 96 36 68 96 36 68 96 36 68 96 36 68 96 36 87 122 46 87 122 46 87 122 46 87 122 46 87 122 46 87 122 46 87 122 46 87 122 46 87 122 46 87 122 46 87 122 46 87 122 46 87 122 46 87 122 46 87 122 46 87 122 46 90 126 48 90 126 48 90 126 48 90 126 48 90 126 48 90 126 48 90 126 48 90 126 48 90 126 48 90 126 48 90 126 48 90 126 48 90 126 48 90 126 48 90 126 48 90 126 48 66 93 35 66 93 35 66 93 35 66 93 35 66 93 35 66 93 35 66 93 35 66 93 35 66 93 35 66 93 35 66 93 35 66 93 35 66 93 35 66 93 35 66 93 35 66 93 35 82 115 44 82 115 44 82 115 44 82 115 44 82 115 44 82 115 44 82 115 44 82 115 44 82 115 44 82 115 44 82 115 44 82 115 44 82 115 44 82 115 44 82 115 44 82 115 44 101 142 54 101 142 54 101 142 54 101 142 54 101 142 54 101 142 54 101 142 54 101 142 54 101 142 54 101 142 54 101 142 54 101 142 54 101 142 54 101 142 54 101 142 54 101 142 54 82 115 44 82 115 44 82 115 44 82 115 44 82 115 44 82 115 44 82 115 44 82 115 44 82 115 44 82 115 44 82 115 44 82 115 44 82 115 44 82 115 44 82 115 44 82 115 44 70 99 37 70 99 37 70 99 37 70 99 37 70 99 37 70 99 37 70 99 37 70 99 37 70 99 37 70 99 37 70 99 37 70 99 37 70 99 37 70 99 37 70 99 37 70 99 37 75 106 40 75 106 40 75 106 40 75 106 40 75 106 40 75 106 40 75 106 40 75 106 40 75 106 40 75 106 40 75 106 40 75 106 40 75 106 40 75 106 40 75 106 40 75 106 40 83 117 44 83 117 44 83 117 44 83 117 44 83 117 44 83 117 44 83 117 44 83 117 44 83 117 44 83 117 44 83 117 44 83 117 44 83 117 44 83 117 44 83 117 44 83 117 44 79 111 42 79 111 42 79 111 42 79 111 42 79 111 42 79 111 42 79 111 42 79 111 42 79 111 42 79 111 42 79 111 42 79 111 42 79 111 42 79 111 42 79 111 42 79 111 42 72 102 39 72 102 39 72 102 39 72 102 39 72 102 39 72 102 39 72 102 39 72 102 39 72 102 39 72 102 39 72 102 39 72 102 39 72 102 39 72 102 39 72 102 39 72 102 39 66 93 35 66 93 35 66 93 35 66 93 35 66 93 35 66 93 35 66 93 35 66 93 35 66 93 35 66 93 35 66 93 35 66 93 35 66 93 35 66 93 35 66 93 35 66 93 35 75 106 40 75 106 40 75 106 40 75 106 40 75 106 40 75 106 40 75 106 40 75 106 40 75 106 40 75 106 40 75 106 40 75 106 40 75 106 40 75 106 40 75 106 40 79 111 42 79 111 42 79 111 42 79 111 42 79 111 42 79 111 42 79 111 42 79 111 42 79 111 42 79 111 42 79 111 42 79 111 42 79 111 42 79 111 42 79 111 42 79 111 42 75 106 40 75 106 40 75 106 40 75 106 40 75 106 40 75 106 40 75 106 40 75 106 40 75 106 40 75 106 40 75 106 40 75 106 40 75 106 40 75 106 40 75 106 40 75 106 40 68 96 36 68 96 36 68 96 36 68 96 36 68 96 36 68 96 36 68 96 36 68 96 36 68 96 36 68 96 36 68 96 36 68 96 36 68 96 36 68 96 36 68 96 36 68 96 36 87 122 46 87 122 46 87 122 46 87 122 46 87 122 46 87 122 46 87 122 46 87 122 46 87 122 46 87 122 46 87 122 46 87 122 46 87 122 46 87 122 46 87 122 46 87 122 46 90 126 48 90 126 48 90 126 48 90 126 48 90 126 48 90 126 48 90 126 48 90 126 48 90 126 48 90 126 48 90 126 48 90 126 48 90 126 48 90 126 48 90 126 48 90 126 48 66 93 35 66 93 35 66 93 35 66 93 35 66 93 35 66 93 35 66 93 35 66 93 35 66 93 35 66 93 35 66 93 35 66 93 35 66 93 35 66 93 35 66 93 35 66 93 35 82 115 44 82 115 44 82 115 44 82 115 44 82 115 44 82 115 44 82 115 44 82 115 44 82 115 44 82 115 44 82 115 44 82 115 44 82 115 44 82 115 44 82 115 44 82 115 44 101 142 54 101 142 54 101 142 54 101 142 54 101 142 54 101 142 54 101 142 54 101 142 54 101 142 54 101 142 54 101 142 54 101 142 54 101 142 54 101 142 54 101 142 54 101 142 54 82 115 44 82 115 44 82 115 44 82 115 44 82 115 44 82 115 44 82 115 44 82 115 44 82 115 44 82 115 44 82 115 44 82 115 44 82 115 44 82 115 44 82 115 44 82 115 44 70 99 37 70 99 37 70 99 37 70 99 37 70 99 37 70 99 37 70 99 37 70 99 37 70 99 37 70 99 37 70 99 37 70 99 37 70 99 37 70 99 37 70 99 37 70 99 37 75 106 40 75 106 40 75 106 40 75 106 40 75 106 40 75 106 40 75 106 40 75 106 40 75 106 40 75 106 40 75 106 40 75 106 40 75 106 40 75 106 40 75 106 40 75 106 40 83 117 44 83 117 44 83 117 44 83 117 44 83 117 44 83 117 44 83 117 44 83 117 44 83 117 44 83 117 44 83 117 44 83 117 44 83 117 44 83 117 44 83 117 44 83 117 44 79 111 42 79 111 42 79 111 42 79 111 42 79 111 42 79 111 42 79 111 42 79 111 42 79 111 42 79 111 42 79 111 42 79 111 42 79 111 42 79 111 42 79 111 42 79 111 42 72 102 39 72 102 39 72 102 39 72 102 39 72 102 39 72 102 39 72 102 39 72 102 39 72 102 39 72 102 39 72 102 39 72 102 39 72 102 39 72 102 39 72 102 39 72 102 39 66 93 35 66 93 35 66 93 35 66 93 35 66 93 35 66 93 35 66 93 35 66 93 35 66 93 35 66 93 35 66 93 35 66 93 35 66 93 35 66 93 35 66 93 35 66 93 35 75 106 40 75 106 40 75 106 40 75 106 40 75 106 40 75 106 40 75 106 40 75 106 40 75 106 40 75 106 40 75 106 40 75 106 40 75 106 40 75 106 40 75 106 40 79 111 42 79 111 42 79 111 42 79 111 42 79 111 42 79 111 42 79 111 42 79 111 42 79 111 42 79 111 42 79 111 42 79 111 42 79 111 42 79 111 42 79 111 42 79 111 42 75 106 40 75 106 40 75 106 40 75 106 40 75 106 40 75 106 40 75 106 40 75 106 40 75 106 40 75 106 40 75 106 40 75 106 40 75 106 40 75 106 40 75 106 40 75 106 40 68 96 36 68 96 36 68 96 36 68 96 36 68 96 36 68 96 36 68 96 36 68 96 36 68 96 36 68 96 36 68 96 36 68 96 36 68 96 36 68 96 36 68 96 36 68 96 36 87 122 46 87 122 46 87 122 46 87 122 46 87 122 46 87 122 46 87 122 46 87 122 46 87 122 46 87 122 46 87 122 46 87 122 46 87 122 46 87 122 46 87 122 46 87 122 46 90 126 48 90 126 48 90 126 48 90 126 48 90 126 48 90 126 48 90 126 48 90 126 48 90 126 48 90 126 48 90 126 48 90 126 48 90 126 48 90 126 48 90 126 48 90 126 48 66 93 35 66 93 35 66 93 35 66 93 35 66 93 35 66 93 35 66 93 35 66 93 35 66 93 35 66 93 35 66 93 35 66 93 35 66 93 35 66 93 35 66 93 35 66 93 35 82 115 44 82 115 44 82 115 44 82 115 44 82 115 44 82 115 44 82 115 44 82 115 44 82 115 44 82 115 44 82 115 44 82 115 44 82 115 44 82 115 44 82 115 44 82 115 44 101 142 54 101 142 54 101 142 54 101 142 54 101 142 54 101 142 54 101 142 54 101 142 54 101 142 54 101 142 54 101 142 54 101 142 54 101 142 54 101 142 54 101 142 54 101 142 54 82 115 44 82 115 44 82 115 44 82 115 44 82 115 44 82 115 44 82 115 44 82 115 44 82 115 44 82 115 44 82 115 44 82 115 44 82 115 44 82 115 44 82 115 44 82 115 44 70 99 37 70 99 37 70 99 37 70 99 37 70 99 37 70 99 37 70 99 37 70 99 37 70 99 37 70 99 37 70 99 37 70 99 37 70 99 37 70 99 37 70 99 37 70 99 37 75 106 40 75 106 40 75 106 40 75 106 40 75 106 40 75 106 40 75 106 40 75 106 40 75 106 40 75 106 40 75 106 40 75 106 40 75 106 40 75 106 40 75 106 40 75 106 40 83 117 44 83 117 44 83 117 44 83 117 44 83 117 44 83 117 44 83 117 44 83 117 44 83 117 44 83 117 44 83 117 44 83 117 44 83 117 44 83 117 44 83 117 44 83 117 44 79 111 42 79 111 42 79 111 42 79 111 42 79 111 42 79 111 42 79 111 42 79 111 42 79 111 42 79 111 42 79 111 42 79 111 42 79 111 42 79 111 42 79 111 42 79 111 42 72 102 39 72 102 39 72 102 39 72 102 39 72 102 39 72 102 39 72 102 39 72 102 39 72 102 39 72 102 39 72 102 39 72 102 39 72 102 39 72 102 39 72 102 39 72 102 39 66 93 35 66 93 35 66 93 35 66 93 35 66 93 35 66 93 35 66 93 35 66 93 35 66 93 35 66 93 35 66 93 35 66 93 35 66 93 35 66 93 35 66 93 35 66 93 35 75 106 40 75 106 40 75 106 40 75 106 40 75 106 40 75 106 40 75 106 40 75 106 40 75 106 40 75 106 40 75 106 40 75 106 40 75 106 40 75 106 40 75 106 40 79 111 42 79 111 42 79 111 42 79 111 42 79 111 42 79 111 42 79 111 42 79 111 42 79 111 42 79 111 42 79 111 42 79 111 42 79 111 42 79 111 42 79 111 42 79 111 42 75 106 40 75 106 40 75 106 40 75 106 40 75 106 40 75 106 40 75 106 40 75 106 40 75 106 40 75 106 40 75 106 40 75 106 40 75 106 40 75 106 40 75 106 40 75 106 40 68 96 36 68 96 36 68 96 36 68 96 36 68 96 36 68 96 36 68 96 36 68 96 36 68 96 36 68 96 36 68 96 36 68 96 36 68 96 36 68 96 36 68 96 36 68 96 36 87 122 46 87 122 46 87 122 46 87 122 46 87 122 46 87 122 46 87 122 46 87 122 46 87 122 46 87 122 46 87 122 46 87 122 46 87 122 46 87 122 46 87 122 46 87 122 46 90 126 48 90 126 48 90 126 48 90 126 48 90 126 48 90 126 48 90 126 48 90 126 48 90 126 48 90 126 48 90 126 48 90 126 48 90 126 48 90 126 48 90 126 48 90 126 48 66 93 35 66 93 35 66 93 35 66 93 35 66 93 35 66 93 35 66 93 35 66 93 35 66 93 35 66 93 35 66 93 35 66 93 35 66 93 35 66 93 35 66 93 35 66 93 35 82 115 44 82 115 44 82 115 44 82 115 44 82 115 44 82 115 44 82 115 44 82 115 44 82 115 44 82 115 44 82 115 44 82 115 44 82 115 44 82 115 44 82 115 44 82 115 44 101 142 54 101 142 54 101 142 54 101 142 54 101 142 54 101 142 54 101 142 54 101 142 54 101 142 54 101 142 54 101 142 54 101 142 54 101 142 54 101 142 54 101 142 54 101 142 54 82 115 44 82 115 44 82 115 44 82 115 44 82 115 44 82 115 44 82 115 44 82 115 44 82 115 44 82 115 44 82 115 44 82 115 44 82 115 44 82 115 44 82 115 44 82 115 44 70 99 37 70 99 37 70 99 37 70 99 37 70 99 37 70 99 37 70 99 37 70 99 37 70 99 37 70 99 37 70 99 37 70 99 37 70 99 37 70 99 37 70 99 37 70 99 37 75 106 40 75 106 40 75 106 40 75 106 40 75 106 40 75 106 40 75 106 40 75 106 40 75 106 40 75 106 40 75 106 40 75 106 40 75 106 40 75 106 40 75 106 40 75 106 40 83 117 44 83 117 44 83 117 44 83 117 44 83 117 44 83 117 44 83 117 44 83 117 44 83 117 44 83 117 44 83 117 44 83 117 44 83 117 44 83 117 44 83 117 44 83 117 44 79 111 42 79 111 42 79 111 42 79 111 42 79 111 42 79 111 42 79 111 42 79 111 42 79 111 42 79 111 42 79 111 42 79 111 42 79 111 42 79 111 42 79 111 42 79 111 42 72 102 39 72 102 39 72 102 39 72 102 39 72 102 39 72 102 39 72 102 39 72 102 39 72 102 39 72 102 39 72 102 39 72 102 39 72 102 39 72 102 39 72 102 39 72 102 39 66 93 35 66 93 35 66 93 35 66 93 35 66 93 35 66 93 35 66 93 35 66 93 35 66 93 35 66 93 35 66 93 35 66 93 35 66 93 35 66 93 35 66 93 35 66 93 35 75 106 40 75 106 40 75 106 40 75 106 40 75 106 40 75 106 40 75 106 40 75 106 40 75 106 40 75 106 40 75 106 40 75 106 40 75 106 40 75 106 40 75 106 40 79 111 42 79 111 42 79 111 42 79 111 42 79 111 42 79 111 42 79 111 42 79 111 42 79 111 42 79 111 42 79 111 42 79 111 42 79 111 42 79 111 42 79 111 42 79 111 42 75 106 40 75 106 40 75 106 40 75 106 40 75 106 40 75 106 40 75 106 40 75 106 40 75 106 40 75 106 40 75 106 40 75 106 40 75 106 40 75 106 40 75 106 40 75 106 40 68 96 36 68 96 36 68 96 36 68 96 36 68 96 36 68 96 36 68 96 36 68 96 36 68 96 36 68 96 36 68 96 36 68 96 36 68 96 36 68 96 36 68 96 36 68 96 36 87 122 46 87 122 46 87 122 46 87 122 46 87 122 46 87 122 46 87 122 46 87 122 46 87 122 46 87 122 46 87 122 46 87 122 46 87 122 46 87 122 46 87 122 46 87 122 46 90 126 48 90 126 48 90 126 48 90 126 48 90 126 48 90 126 48 90 126 48 90 126 48 90 126 48 90 126 48 90 126 48 90 126 48 90 126 48 90 126 48 90 126 48 90 126 48 66 93 35 66 93 35 66 93 35 66 93 35 66 93 35 66 93 35 66 93 35 66 93 35 66 93 35 66 93 35 66 93 35 66 93 35 66 93 35 66 93 35 66 93 35 66 93 35 82 115 44 82 115 44 82 115 44 82 115 44 82 115 44 82 115 44 82 115 44 82 115 44 82 115 44 82 115 44 82 115 44 82 115 44 82 115 44 82 115 44 82 115 44 82 115 44 101 142 54 101 142 54 101 142 54 101 142 54 101 142 54 101 142 54 101 142 54 101 142 54 101 142 54 101 142 54 101 142 54 101 142 54 101 142 54 101 142 54 101 142 54 101 142 54 82 115 44 82 115 44 82 115 44 82 115 44 82 115 44 82 115 44 82 115 44 82 115 44 82 115 44 82 115 44 82 115 44 82 115 44 82 115 44 82 115 44 82 115 44 82 115 44 70 99 37 70 99 37 70 99 37 70 99 37 70 99 37 70 99 37 70 99 37 70 99 37 70 99 37 70 99 37 70 99 37 70 99 37 70 99 37 70 99 37 70 99 37 70 99 37 75 106 40 75 106 40 75 106 40 75 106 40 75 106 40 75 106 40 75 106 40 75 106 40 75 106 40 75 106 40 75 106 40 75 106 40 75 106 40 75 106 40 75 106 40 75 106 40 83 117 44 83 117 44 83 117 44 83 117 44 83 117 44 83 117 44 83 117 44 83 117 44 83 117 44 83 117 44 83 117 44 83 117 44 83 117 44 83 117 44 83 117 44 83 117 44 79 111 42 79 111 42 79 111 42 79 111 42 79 111 42 79 111 42 79 111 42 79 111 42 79 111 42 79 111 42 79 111 42 79 111 42 79 111 42 79 111 42 79 111 42 79 111 42 72 102 39 72 102 39 72 102 39 72 102 39 72 102 39 72 102 39 72 102 39 72 102 39 72 102 39 72 102 39 72 102 39 72 102 39 72 102 39 72 102 39 72 102 39 72 102 39 66 93 35 66 93 35 66 93 35 66 93 35 66 93 35 66 93 35 66 93 35 66 93 35 66 93 35 66 93 35 66 93 35 66 93 35 66 93 35 66 93 35 66 93 35 66 93 35 75 106 40 75 106 40 75 106 40 75 106 40 75 106 40 75 106 40 75 106 40 75 106 40 75 106 40 75 106 40 75 106 40 75 106 40 75 106 40 75 106 40 75 106 40 79 111 42 79 111 42 79 111 42 79 111 42 79 111 42 79 111 42 79 111 42 79 111 42 79 111 42 79 111 42 79 111 42 79 111 42 79 111 42 79 111 42 79 111 42 79 111 42 75 106 40 75 106 40 75 106 40 75 106 40 75 106 40 75 106 40 75 106 40 75 106 40 75 106 40 75 106 40 75 106 40 75 106 40 75 106 40 75 106 40 75 106 40 75 106 40 68 96 36 68 96 36 68 96 36 68 96 36 68 96 36 68 96 36 68 96 36 68 96 36 68 96 36 68 96 36 68 96 36 68 96 36 68 96 36 68 96 36 68 96 36 68 96 36 87 122 46 87 122 46 87 122 46 87 122 46 87 122 46 87 122 46 87 122 46 87 122 46 87 122 46 87 122 46 87 122 46 87 122 46 87 122 46 87 122 46 87 122 46 87 122 46 90 126 48 90 126 48 90 126 48 90 126 48 90 126 48 90 126 48 90 126 48 90 126 48 90 126 48 90 126 48 90 126 48 90 126 48 90 126 48 90 126 48 90 126 48 90 126 48 66 93 35 66 93 35 66 93 35 66 93 35 66 93 35 66 93 35 66 93 35 66 93 35 66 93 35 66 93 35 66 93 35 66 93 35 66 93 35 66 93 35 66 93 35 66 93 35 82 115 44 82 115 44 82 115 44 82 115 44 82 115 44 82 115 44 82 115 44 82 115 44 82 115 44 82 115 44 82 115 44 82 115 44 82 115 44 82 115 44 82 115 44 82 115 44 101 142 54 101 142 54 101 142 54 101 142 54 101 142 54 101 142 54 101 142 54 101 142 54 101 142 54 101 142 54 101 142 54 101 142 54 101 142 54 101 142 54 101 142 54 101 142 54 82 115 44 82 115 44 82 115 44 82 115 44 82 115 44 82 115 44 82 115 44 82 115 44 82 115 44 82 115 44 82 115 44 82 115 44 82 115 44 82 115 44 82 115 44 82 115 44 70 99 37 70 99 37 70 99 37 70 99 37 70 99 37 70 99 37 70 99 37 70 99 37 70 99 37 70 99 37 70 99 37 70 99 37 70 99 37 70 99 37 70 99 37 70 99 37 75 106 40 75 106 40 75 106 40 75 106 40 75 106 40 75 106 40 75 106 40 75 106 40 75 106 40 75 106 40 75 106 40 75 106 40 75 106 40 75 106 40 75 106 40 75 106 40 83 117 44 83 117 44 83 117 44 83 117 44 83 117 44 83 117 44 83 117 44 83 117 44 83 117 44 83 117 44 83 117 44 83 117 44 83 117 44 83 117 44 83 117 44 83 117 44 79 111 42 79 111 42 79 111 42 79 111 42 79 111 42 79 111 42 79 111 42 79 111 42 79 111 42 79 111 42 79 111 42 79 111 42 79 111 42 79 111 42 79 111 42 79 111 42 72 102 39 72 102 39 72 102 39 72 102 39 72 102 39 72 102 39 72 102 39 72 102 39 72 102 39 72 102 39 72 102 39 72 102 39 72 102 39 72 102 39 72 102 39 72 102 39 66 93 35 66 93 35 66 93 35 66 93 35 66 93 35 66 93 35 66 93 35 66 93 35 66 93 35 66 93 35 66 93 35 66 93 35 66 93 35 66 93 35 66 93 35 66 93 35 75 106 40 75 106 40 75 106 40 75 106 40 75 106 40 75 106 40 75 106 40 75 106 40 75 106 40 75 106 40 75 106 40 75 106 40 75 106 40 75 106 40 75 106 40 79 111 42 79 111 42 79 111 42 79 111 42 79 111 42 79 111 42 79 111 42 79 111 42 79 111 42 79 111 42 79 111 42 79 111 42 79 111 42 79 111 42 79 111 42 79 111 42 75 106 40 75 106 40 75 106 40 75 106 40 75 106 40 75 106 40 75 106 40 75 106 40 75 106 40 75 106 40 75 106 40 75 106 40 75 106 40 75 106 40 75 106 40 75 106 40 68 96 36 68 96 36 68 96 36 68 96 36 68 96 36 68 96 36 68 96 36 68 96 36 68 96 36 68 96 36 68 96 36 68 96 36 68 96 36 68 96 36 68 96 36 68 96 36 87 122 46 87 122 46 87 122 46 87 122 46 87 122 46 87 122 46 87 122 46 87 122 46 87 122 46 87 122 46 87 122 46 87 122 46 87 122 46 87 122 46 87 122 46 87 122 46 90 126 48 90 126 48 90 126 48 90 126 48 90 126 48 90 126 48 90 126 48 90 126 48 90 126 48 90 126 48 90 126 48 90 126 48 90 126 48 90 126 48 90 126 48 90 126 48 66 93 35 66 93 35 66 93 35 66 93 35 66 93 35 66 93 35 66 93 35 66 93 35 66 93 35 66 93 35 66 93 35 66 93 35 66 93 35 66 93 35 66 93 35 66 93 35 82 115 44 82 115 44 82 115 44 82 115 44 82 115 44 82 115 44 82 115 44 82 115 44 82 115 44 82 115 44 82 115 44 82 115 44 82 115 44 82 115 44 82 115 44 82 115 44 101 142 54 101 142 54 101 142 54 101 142 54 101 142 54 101 142 54 101 142 54 101 142 54 101 142 54 101 142 54 101 142 54 101 142 54 101 142 54 101 142 54 101 142 54 101 142 54 82 115 44 82 115 44 82 115 44 82 115 44 82 115 44 82 115 44 82 115 44 82 115 44 82 115 44 82 115 44 82 115 44 82 115 44 82 115 44 82 115 44 82 115 44 82 115 44 70 99 37 70 99 37 70 99 37 70 99 37 70 99 37 70 99 37 70 99 37 70 99 37 70 99 37 70 99 37 70 99 37 70 99 37 70 99 37 70 99 37 70 99 37 70 99 37 75 106 40 75 106 40 75 106 40 75 106 40 75 106 40 75 106 40 75 106 40 75 106 40 75 106 40 75 106 40 75 106 40 75 106 40 75 106 40 75 106 40 75 106 40 75 106 40 83 117 44 83 117 44 83 117 44 83 117 44 83 117 44 83 117 44 83 117 44 83 117 44 83 117 44 83 117 44 83 117 44 83 117 44 83 117 44 83 117 44 83 117 44 83 117 44 79 111 42 79 111 42 79 111 42 79 111 42 79 111 42 79 111 42 79 111 42 79 111 42 79 111 42 79 111 42 79 111 42 79 111 42 79 111 42 79 111 42 79 111 42 79 111 42 72 102 39 72 102 39 72 102 39 72 102 39 72 102 39 72 102 39 72 102 39 72 102 39 72 102 39 72 102 39 72 102 39 72 102 39 72 102 39 72 102 39 72 102 39 72 102 39 66 93 35 66 93 35 66 93 35 66 93 35 66 93 35 66 93 35 66 93 35 66 93 35 66 93 35 66 93 35 66 93 35 66 93 35 66 93 35 66 93 35 66 93 35 66 93 35 75 106 40 75 106 40 75 106 40 75 106 40 75 106 40 75 106 40 75 106 40 75 106 40 75 106 40 75 106 40 75 106 40 75 106 40 75 106 40 75 106 40 75 106 40 79 111 42 79 111 42 79 111 42 79 111 42 79 111 42 79 111 42 79 111 42 79 111 42 79 111 42 79 111 42 79 111 42 79 111 42 79 111 42 79 111 42 79 111 42 79 111 42 75 106 40 75 106 40 75 106 40 75 106 40 75 106 40 75 106 40 75 106 40 75 106 40 75 106 40 75 106 40 75 106 40 75 106 40 75 106 40 75 106 40 75 106 40 75 106 40 68 96 36 68 96 36 68 96 36 68 96 36 68 96 36 68 96 36 68 96 36 68 96 36 68 96 36 68 96 36 68 96 36 68 96 36 68 96 36 68 96 36 68 96 36 68 96 36 87 122 46 87 122 46 87 122 46 87 122 46 87 122 46 87 122 46 87 122 46 87 122 46 87 122 46 87 122 46 87 122 46 87 122 46 87 122 46 87 122 46 87 122 46 87 122 46 90 126 48 90 126 48 90 126 48 90 126 48 90 126 48 90 126 48 90 126 48 90 126 48 90 126 48 90 126 48 90 126 48 90 126 48 90 126 48 90 126 48 90 126 48 90 126 48 66 93 35 66 93 35 66 93 35 66 93 35 66 93 35 66 93 35 66 93 35 66 93 35 66 93 35 66 93 35 66 93 35 66 93 35 66 93 35 66 93 35 66 93 35 66 93 35 82 115 44 82 115 44 82 115 44 82 115 44 82 115 44 82 115 44 82 115 44 82 115 44 82 115 44 82 115 44 82 115 44 82 115 44 82 115 44 82 115 44 82 115 44 82 115 44 101 142 54 101 142 54 101 142 54 101 142 54 101 142 54 101 142 54 101 142 54 101 142 54 101 142 54 101 142 54 101 142 54 101 142 54 101 142 54 101 142 54 101 142 54 101 142 54 82 115 44 82 115 44 82 115 44 82 115 44 82 115 44 82 115 44 82 115 44 82 115 44 82 115 44 82 115 44 82 115 44 82 115 44 82 115 44 82 115 44 82 115 44 82 115 44 70 99 37 70 99 37 70 99 37 70 99 37 70 99 37 70 99 37 70 99 37 70 99 37 70 99 37 70 99 37 70 99 37 70 99 37 70 99 37 70 99 37 70 99 37 70 99 37 75 106 40 75 106 40 75 106 40 75 106 40 75 106 40 75 106 40 75 106 40 75 106 40 75 106 40 75 106 40 75 106 40 75 106 40 75 106 40 75 106 40 75 106 40 75 106 40 83 117 44 83 117 44 83 117 44 83 117 44 83 117 44 83 117 44 83 117 44 83 117 44 83 117 44 83 117 44 83 117 44 83 117 44 83 117 44 83 117 44 83 117 44 83 117 44 79 111 42 79 111 42 79 111 42 79 111 42 79 111 42 79 111 42 79 111 42 79 111 42 79 111 42 79 111 42 79 111 42 79 111 42 79 111 42 79 111 42 79 111 42 79 111 42 72 102 39 72 102 39 72 102 39 72 102 39 72 102 39 72 102 39 72 102 39 72 102 39 72 102 39 72 102 39 72 102 39 72 102 39 72 102 39 72 102 39 72 102 39 72 102 39 66 93 35 66 93 35 66 93 35 66 93 35 66 93 35 66 93 35 66 93 35 66 93 35 66 93 35 66 93 35 66 93 35 66 93 35 66 93 35 66 93 35 66 93 35 66 93 35 75 106 40 75 106 40 75 106 40 75 106 40 75 106 40 75 106 40 75 106 40 75 106 40 75 106 40 75 106 40 75 106 40 75 106 40 75 106 40 75 106 40 75 106 40 79 111 42 79 111 42 79 111 42 79 111 42 79 111 42 79 111 42 79 111 42 79 111 42 79 111 42 79 111 42 79 111 42 79 111 42 79 111 42 79 111 42 79 111 42 79 111 42 75 106 40 75 106 40 75 106 40 75 106 40 75 106 40 75 106 40 75 106 40 75 106 40 75 106 40 75 106 40 75 106 40 75 106 40 75 106 40 75 106 40 75 106 40 75 106 40 68 96 36 68 96 36 68 96 36 68 96 36 68 96 36 68 96 36 68 96 36 68 96 36 68 96 36 68 96 36 68 96 36 68 96 36 68 96 36 68 96 36 68 96 36 68 96 36 87 122 46 87 122 46 87 122 46 87 122 46 87 122 46 87 122 46 87 122 46 87 122 46 87 122 46 87 122 46 87 122 46 87 122 46 87 122 46 87 122 46 87 122 46 87 122 46 90 126 48 90 126 48 90 126 48 90 126 48 90 126 48 90 126 48 90 126 48 90 126 48 90 126 48 90 126 48 90 126 48 90 126 48 90 126 48 90 126 48 90 126 48 90 126 48 66 93 35 66 93 35 66 93 35 66 93 35 66 93 35 66 93 35 66 93 35 66 93 35 66 93 35 66 93 35 66 93 35 66 93 35 66 93 35 66 93 35 66 93 35 66 93 35 82 115 44 82 115 44 82 115 44 82 115 44 82 115 44 82 115 44 82 115 44 82 115 44 82 115 44 82 115 44 82 115 44 82 115 44 82 115 44 82 115 44 82 115 44 82 115 44 101 142 54 101 142 54 101 142 54 101 142 54 101 142 54 101 142 54 101 142 54 101 142 54 101 142 54 101 142 54 101 142 54 101 142 54 101 142 54 101 142 54 101 142 54 101 142 54 82 115 44 82 115 44 82 115 44 82 115 44 82 115 44 82 115 44 82 115 44 82 115 44 82 115 44 82 115 44 82 115 44 82 115 44 82 115 44 82 115 44 82 115 44 82 115 44 70 99 37 70 99 37 70 99 37 70 99 37 70 99 37 70 99 37 70 99 37 70 99 37 70 99 37 70 99 37 70 99 37 70 99 37 70 99 37 70 99 37 70 99 37 70 99 37 75 106 40 75 106 40 75 106 40 75 106 40 75 106 40 75 106 40 75 106 40 75 106 40 75 106 40 75 106 40 75 106 40 75 106 40 75 106 40 75 106 40 75 106 40 75 106 40 83 117 44 83 117 44 83 117 44 83 117 44 83 117 44 83 117 44 83 117 44 83 117 44 83 117 44 83 117 44 83 117 44 83 117 44 83 117 44 83 117 44 83 117 44 83 117 44 79 111 42 79 111 42 79 111 42 79 111 42 79 111 42 79 111 42 79 111 42 79 111 42 79 111 42 79 111 42 79 111 42 79 111 42 79 111 42 79 111 42 79 111 42 79 111 42 72 102 39 72 102 39 72 102 39 72 102 39 72 102 39 72 102 39 72 102 39 72 102 39 72 102 39 72 102 39 72 102 39 72 102 39 72 102 39 72 102 39 72 102 39 72 102 39 66 93 35 66 93 35 66 93 35 66 93 35 66 93 35 66 93 35 66 93 35 66 93 35 66 93 35 66 93 35 66 93 35 66 93 35 66 93 35 66 93 35 66 93 35 66 93 35 75 106 40 75 106 40 75 106 40 75 106 40 75 106 40 75 106 40 75 106 40 75 106 40 75 106 40 75 106 40 75 106 40 75 106 40 75 106 40 75 106 40 75 106 40 79 111 42 79 111 42 79 111 42 79 111 42 79 111 42 79 111 42 79 111 42 79 111 42 79 111 42 79 111 42 79 111 42 79 111 42 79 111 42 79 111 42 79 111 42 79 111 42 75 106 40 75 106 40 75 106 40 75 106 40 75 106 40 75 106 40 75 106 40 75 106 40 75 106 40 75 106 40 75 106 40 75 106 40 75 106 40 75 106 40 75 106 40 75 106 40 68 96 36 68 96 36 68 96 36 68 96 36 68 96 36 68 96 36 68 96 36 68 96 36 68 96 36 68 96 36 68 96 36 68 96 36 68 96 36 68 96 36 68 96 36 68 96 36 87 122 46 87 122 46 87 122 46 87 122 46 87 122 46 87 122 46 87 122 46 87 122 46 87 122 46 87 122 46 87 122 46 87 122 46 87 122 46 87 122 46 87 122 46 87 122 46 90 126 48 90 126 48 90 126 48 90 126 48 90 126 48 90 126 48 90 126 48 90 126 48 90 126 48 90 126 48 90 126 48 90 126 48 90 126 48 90 126 48 90 126 48 90 126 48 66 93 35 66 93 35 66 93 35 66 93 35 66 93 35 66 93 35 66 93 35 66 93 35 66 93 35 66 93 35 66 93 35 66 93 35 66 93 35 66 93 35 66 93 35 66 93 35 82 115 44 82 115 44 82 115 44 82 115 44 82 115 44 82 115 44 82 115 44 82 115 44 82 115 44 82 115 44 82 115 44 82 115 44 82 115 44 82 115 44 82 115 44 82 115 44 101 142 54 101 142 54 101 142 54 101 142 54 101 142 54 101 142 54 101 142 54 101 142 54 101 142 54 101 142 54 101 142 54 101 142 54 101 142 54 101 142 54 101 142 54 101 142 54 82 115 44 82 115 44 82 115 44 82 115 44 82 115 44 82 115 44 82 115 44 82 115 44 82 115 44 82 115 44 82 115 44 82 115 44 82 115 44 82 115 44 82 115 44 82 115 44 70 99 37 70 99 37 70 99 37 70 99 37 70 99 37 70 99 37 70 99 37 70 99 37 70 99 37 70 99 37 70 99 37 70 99 37 70 99 37 70 99 37 70 99 37 70 99 37 75 106 40 75 106 40 75 106 40 75 106 40 75 106 40 75 106 40 75 106 40 75 106 40 75 106 40 75 106 40 75 106 40 75 106 40 75 106 40 75 106 40 75 106 40 75 106 40 83 117 44 83 117 44 83 117 44 83 117 44 83 117 44 83 117 44 83 117 44 83 117 44 83 117 44 83 117 44 83 117 44 83 117 44 83 117 44 83 117 44 83 117 44 83 117 44 79 111 42 79 111 42 79 111 42 79 111 42 79 111 42 79 111 42 79 111 42 79 111 42 79 111 42 79 111 42 79 111 42 79 111 42 79 111 42 79 111 42 79 111 42 79 111 42 72 102 39 72 102 39 72 102 39 72 102 39 72 102 39 72 102 39 72 102 39 72 102 39 72 102 39 72 102 39 72 102 39 72 102 39 72 102 39 72 102 39 72 102 39 72 102 39 66 93 35 66 93 35 66 93 35 66 93 35 66 93 35 66 93 35 66 93 35 66 93 35 66 93 35 66 93 35 66 93 35 66 93 35 66 93 35 66 93 35 66 93 35 66 93 35 75 106 40 75 106 40 75 106 40 75 106 40 75 106 40 75 106 40 75 106 40 75 106 40 75 106 40 75 106 40 75 106 40 75 106 40 75 106 40 75 106 40 75 106 40 79 111 42 79 111 42 79 111 42 79 111 42 79 111 42 79 111 42 79 111 42 79 111 42 79 111 42 79 111 42 79 111 42 79 111 42 79 111 42 79 111 42 79 111 42 79 111 42 75 106 40 75 106 40 75 106 40 75 106 40 75 106 40 75 106 40 75 106 40 75 106 40 75 106 40 75 106 40 75 106 40 75 106 40 75 106 40 75 106 40 75 106 40 75 106 40 68 96 36 68 96 36 68 96 36 68 96 36 68 96 36 68 96 36 68 96 36 68 96 36 68 96 36 68 96 36 68 96 36 68 96 36 68 96 36 68 96 36 68 96 36 68 96 36 87 122 46 87 122 46 87 122 46 87 122 46 87 122 46 87 122 46 87 122 46 87 122 46 87 122 46 87 122 46 87 122 46 87 122 46 87 122 46 87 122 46 87 122 46 87 122 46 90 126 48 90 126 48 90 126 48 90 126 48 90 126 48 90 126 48 90 126 48 90 126 48 90 126 48 90 126 48 90 126 48 90 126 48 90 126 48 90 126 48 90 126 48 90 126 48 66 93 35 66 93 35 66 93 35 66 93 35 66 93 35 66 93 35 66 93 35 66 93 35 66 93 35 66 93 35 66 93 35 66 93 35 66 93 35 66 93 35 66 93 35 66 93 35 82 115 44 82 115 44 82 115 44 82 115 44 82 115 44 82 115 44 82 115 44 82 115 44 82 115 44 82 115 44 82 115 44 82 115 44 82 115 44 82 115 44 82 115 44 82 115 44 70 99 37 70 99 37 70 99 37 70 99 37 70 99 37 70 99 37 70 99 37 70 99 37 70 99 37 70 99 37 70 99 37 70 99 37 70 99 37 70 99 37 70 99 37 70 99 37 92 128 49 92 128 49 92 128 49 92 128 49 92 128 49 92 128 49 92 128 49 92 128 49 92 128 49 92 128 49 92 128 49 92 128 49 92 128 49 92 128 49 92 128 49 92 128 49 64 90 34 64 90 34 64 90 34 64 90 34 64 90 34 64 90 34 64 90 34 64 90 34 64 90 34 64 90 34 64 90 34 64 90 34 64 90 34 64 90 34 64 90 34 64 90 34 80 112 42 80 112 42 80 112 42 80 112 42 80 112 42 80 112 42 80 112 42 80 112 42 80 112 42 80 112 42 80 112 42 80 112 42 80 112 42 80 112 42 80 112 42 80 112 42 68 96 36 68 96 36 68 96 36 68 96 36 68 96 36 68 96 36 68 96 36 68 96 36 68 96 36 68 96 36 68 96 36 68 96 36 68 96 36 68 96 36 68 96 36 68 96 36 83 117 44 83 117 44 83 117 44 83 117 44 83 117 44 83 117 44 83 117 44 83 117 44 83 117 44 83 117 44 83 117 44 83 117 44 83 117 44 83 117 44 83 117 44 83 117 44 70 99 37 70 99 37 70 99 37 70 99 37 70 99 37 70 99 37 70 99 37 70 99 37 70 99 37 70 99 37 70 99 37 70 99 37 70 99 37 70 99 37 70 99 37 70 99 37 106 149 57 106 149 57 106 149 57 106 149 57 106 149 57 106 149 57 106 149 57 106 149 57 106 149 57 106 149 57 106 149 57 106 149 57 106 149 57 106 149 57 106 149 57 106 149 57 88 123 47 88 123 47 88 123 47 88 123 47 88 123 47 88 123 47 88 123 47 88 123 47 88 123 47 88 123 47 88 123 47 88 123 47 88 123 47 88 123 47 88 123 47 80 112 43 80 112 43 80 112 43 80 112 43 80 112 43 80 112 43 80 112 43 80 112 43 80 112 43 80 112 43 80 112 43 80 112 43 80 112 43 80 112 43 80 112 43 80 112 43 92 128 49 92 128 49 92 128 49 92 128 49 92 128 49 92 128 49 92 128 49 92 128 49 92 128 49 92 128 49 92 128 49 92 128 49 92 128 49 92 128 49 92 128 49 92 128 49 84 118 45 84 118 45 84 118 45 84 118 45 84 118 45 84 118 45 84 118 45 84 118 45 84 118 45 84 118 45 84 118 45 84 118 45 84 118 45 84 118 45 84 118 45 84 118 45 87 122 46 87 122 46 87 122 46 87 122 46 87 122 46 87 122 46 87 122 46 87 122 46 87 122 46 87 122 46 87 122 46 87 122 46 87 122 46 87 122 46 87 122 46 87 122 46 74 104 39 74 104 39 74 104 39 74 104 39 74 104 39 74 104 39 74 104 39 74 104 39 74 104 39 74 104 39 74 104 39 74 104 39 74 104 39 74 104 39 74 104 39 74 104 39 92 128 49 92 128 49 92 128 49 92 128 49 92 128 49 92 128 49 92 128 49 92 128 49 92 128 49 92 128 49 92 128 49 92 128 49 92 128 49 92 128 49 92 128 49 92 128 49 95 133 50 95 133 50 95 133 50 95 133 50 95 133 50 95 133 50 95 133 50 95 133 50 95 133 50 95 133 50 95 133 50 95 133 50 95 133 50 95 133 50 95 133 50 95 133 50 70 99 37 70 99 37 70 99 37 70 99 37 70 99 37 70 99 37 70 99 37 70 99 37 70 99 37 70 99 37 70 99 37 70 99 37 70 99 37 70 99 37 70 99 37 70 99 37 92 128 49 92 128 49 92 128 49 92 128 49 92 128 49 92 128 49 92 128 49 92 128 49 92 128 49 92 128 49 92 128 49 92 128 49 92 128 49 92 128 49 92 128 49 92 128 49 64 90 34 64 90 34 64 90 34 64 90 34 64 90 34 64 90 34 64 90 34 64 90 34 64 90 34 64 90 34 64 90 34 64 90 34 64 90 34 64 90 34 64 90 34 64 90 34 80 112 42 80 112 42 80 112 42 80 112 42 80 112 42 80 112 42 80 112 42 80 112 42 80 112 42 80 112 42 80 112 42 80 112 42 80 112 42 80 112 42 80 112 42 80 112 42 68 96 36 68 96 36 68 96 36 68 96 36 68 96 36 68 96 36 68 96 36 68 96 36 68 96 36 68 96 36 68 96 36 68 96 36 68 96 36 68 96 36 68 96 36 68 96 36 83 117 44 83 117 44 83 117 44 83 117 44 83 117 44 83 117 44 83 117 44 83 117 44 83 117 44 83 117 44 83 117 44 83 117 44 83 117 44 83 117 44 83 117 44 83 117 44 70 99 37 70 99 37 70 99 37 70 99 37 70 99 37 70 99 37 70 99 37 70 99 37 70 99 37 70 99 37 70 99 37 70 99 37 70 99 37 70 99 37 70 99 37 70 99 37 106 149 57 106 149 57 106 149 57 106 149 57 106 149 57 106 149 57 106 149 57 106 149 57 106 149 57 106 149 57 106 149 57 106 149 57 106 149 57 106 149 57 106 149 57 106 149 57 88 123 47 88 123 47 88 123 47 88 123 47 88 123 47 88 123 47 88 123 47 88 123 47 88 123 47 88 123 47 88 123 47 88 123 47 88 123 47 88 123 47 88 123 47 80 112 43 80 112 43 80 112 43 80 112 43 80 112 43 80 112 43 80 112 43 80 112 43 80 112 43 80 112 43 80 112 43 80 112 43 80 112 43 80 112 43 80 112 43 80 112 43 92 128 49 92 128 49 92 128 49 92 128 49 92 128 49 92 128 49 92 128 49 92 128 49 92 128 49 92 128 49 92 128 49 92 128 49 92 128 49 92 128 49 92 128 49 92 128 49 84 118 45 84 118 45 84 118 45 84 118 45 84 118 45 84 118 45 84 118 45 84 118 45 84 118 45 84 118 45 84 118 45 84 118 45 84 118 45 84 118 45 84 118 45 84 118 45 87 122 46 87 122 46 87 122 46 87 122 46 87 122 46 87 122 46 87 122 46 87 122 46 87 122 46 87 122 46 87 122 46 87 122 46 87 122 46 87 122 46 87 122 46 87 122 46 74 104 39 74 104 39 74 104 39 74 104 39 74 104 39 74 104 39 74 104 39 74 104 39 74 104 39 74 104 39 74 104 39 74 104 39 74 104 39 74 104 39 74 104 39 74 104 39 92 128 49 92 128 49 92 128 49 92 128 49 92 128 49 92 128 49 92 128 49 92 128 49 92 128 49 92 128 49 92 128 49 92 128 49 92 128 49 92 128 49 92 128 49 92 128 49 95 133 50 95 133 50 95 133 50 95 133 50 95 133 50 95 133 50 95 133 50 95 133 50 95 133 50 95 133 50 95 133 50 95 133 50 95 133 50 95 133 50 95 133 50 95 133 50 70 99 37 70 99 37 70 99 37 70 99 37 70 99 37 70 99 37 70 99 37 70 99 37 70 99 37 70 99 37 70 99 37 70 99 37 70 99 37 70 99 37 70 99 37 70 99 37 92 128 49 92 128 49 92 128 49 92 128 49 92 128 49 92 128 49 92 128 49 92 128 49 92 128 49 92 128 49 92 128 49 92 128 49 92 128 49 92 128 49 92 128 49 92 128 49 64 90 34 64 90 34 64 90 34 64 90 34 64 90 34 64 90 34 64 90 34 64 90 34 64 90 34 64 90 34 64 90 34 64 90 34 64 90 34 64 90 34 64 90 34 64 90 34 80 112 42 80 112 42 80 112 42 80 112 42 80 112 42 80 112 42 80 112 42 80 112 42 80 112 42 80 112 42 80 112 42 80 112 42 80 112 42 80 112 42 80 112 42 80 112 42 68 96 36 68 96 36 68 96 36 68 96 36 68 96 36 68 96 36 68 96 36 68 96 36 68 96 36 68 96 36 68 96 36 68 96 36 68 96 36 68 96 36 68 96 36 68 96 36 83 117 44 83 117 44 83 117 44 83 117 44 83 117 44 83 117 44 83 117 44 83 117 44 83 117 44 83 117 44 83 117 44 83 117 44 83 117 44 83 117 44 83 117 44 83 117 44 70 99 37 70 99 37 70 99 37 70 99 37 70 99 37 70 99 37 70 99 37 70 99 37 70 99 37 70 99 37 70 99 37 70 99 37 70 99 37 70 99 37 70 99 37 70 99 37 106 149 57 106 149 57 106 149 57 106 149 57 106 149 57 106 149 57 106 149 57 106 149 57 106 149 57 106 149 57 106 149 57 106 149 57 106 149 57 106 149 57 106 149 57 106 149 57 88 123 47 88 123 47 88 123 47 88 123 47 88 123 47 88 123 47 88 123 47 88 123 47 88 123 47 88 123 47 88 123 47 88 123 47 88 123 47 88 123 47 88 123 47 80 112 43 80 112 43 80 112 43 80 112 43 80 112 43 80 112 43 80 112 43 80 112 43 80 112 43 80 112 43 80 112 43 80 112 43 80 112 43 80 112 43 80 112 43 80 112 43 92 128 49 92 128 49 92 128 49 92 128 49 92 128 49 92 128 49 92 128 49 92 128 49 92 128 49 92 128 49 92 128 49 92 128 49 92 128 49 92 128 49 92 128 49 92 128 49 84 118 45 84 118 45 84 118 45 84 118 45 84 118 45 84 118 45 84 118 45 84 118 45 84 118 45 84 118 45 84 118 45 84 118 45 84 118 45 84 118 45 84 118 45 84 118 45 87 122 46 87 122 46 87 122 46 87 122 46 87 122 46 87 122 46 87 122 46 87 122 46 87 122 46 87 122 46 87 122 46 87 122 46 87 122 46 87 122 46 87 122 46 87 122 46 74 104 39 74 104 39 74 104 39 74 104 39 74 104 39 74 104 39 74 104 39 74 104 39 74 104 39 74 104 39 74 104 39 74 104 39 74 104 39 74 104 39 74 104 39 74 104 39 92 128 49 92 128 49 92 128 49 92 128 49 92 128 49 92 128 49 92 128 49 92 128 49 92 128 49 92 128 49 92 128 49 92 128 49 92 128 49 92 128 49 92 128 49 92 128 49 95 133 50 95 133 50 95 133 50 95 133 50 95 133 50 95 133 50 95 133 50 95 133 50 95 133 50 95 133 50 95 133 50 95 133 50 95 133 50 95 133 50 95 133 50 95 133 50 70 99 37 70 99 37 70 99 37 70 99 37 70 99 37 70 99 37 70 99 37 70 99 37 70 99 37 70 99 37 70 99 37 70 99 37 70 99 37 70 99 37 70 99 37 70 99 37 92 128 49 92 128 49 92 128 49 92 128 49 92 128 49 92 128 49 92 128 49 92 128 49 92 128 49 92 128 49 92 128 49 92 128 49 92 128 49 92 128 49 92 128 49 92 128 49 64 90 34 64 90 34 64 90 34 64 90 34 64 90 34 64 90 34 64 90 34 64 90 34 64 90 34 64 90 34 64 90 34 64 90 34 64 90 34 64 90 34 64 90 34 64 90 34 80 112 42 80 112 42 80 112 42 80 112 42 80 112 42 80 112 42 80 112 42 80 112 42 80 112 42 80 112 42 80 112 42 80 112 42 80 112 42 80 112 42 80 112 42 80 112 42 68 96 36 68 96 36 68 96 36 68 96 36 68 96 36 68 96 36 68 96 36 68 96 36 68 96 36 68 96 36 68 96 36 68 96 36 68 96 36 68 96 36 68 96 36 68 96 36 83 117 44 83 117 44 83 117 44 83 117 44 83 117 44 83 117 44 83 117 44 83 117 44 83 117 44 83 117 44 83 117 44 83 117 44 83 117 44 83 117 44 83 117 44 83 117 44 70 99 37 70 99 37 70 99 37 70 99 37 70 99 37 70 99 37 70 99 37 70 99 37 70 99 37 70 99 37 70 99 37 70 99 37 70 99 37 70 99 37 70 99 37 70 99 37 106 149 57 106 149 57 106 149 57 106 149 57 106 149 57 106 149 57 106 149 57 106 149 57 106 149 57 106 149 57 106 149 57 106 149 57 106 149 57 106 149 57 106 149 57 106 149 57 88 123 47 88 123 47 88 123 47 88 123 47 88 123 47 88 123 47 88 123 47 88 123 47 88 123 47 88 123 47 88 123 47 88 123 47 88 123 47 88 123 47 88 123 47 80 112 43 80 112 43 80 112 43 80 112 43 80 112 43 80 112 43 80 112 43 80 112 43 80 112 43 80 112 43 80 112 43 80 112 43 80 112 43 80 112 43 80 112 43 80 112 43 92 128 49 92 128 49 92 128 49 92 128 49 92 128 49 92 128 49 92 128 49 92 128 49 92 128 49 92 128 49 92 128 49 92 128 49 92 128 49 92 128 49 92 128 49 92 128 49 84 118 45 84 118 45 84 118 45 84 118 45 84 118 45 84 118 45 84 118 45 84 118 45 84 118 45 84 118 45 84 118 45 84 118 45 84 118 45 84 118 45 84 118 45 84 118 45 87 122 46 87 122 46 87 122 46 87 122 46 87 122 46 87 122 46 87 122 46 87 122 46 87 122 46 87 122 46 87 122 46 87 122 46 87 122 46 87 122 46 87 122 46 87 122 46 74 104 39 74 104 39 74 104 39 74 104 39 74 104 39 74 104 39 74 104 39 74 104 39 74 104 39 74 104 39 74 104 39 74 104 39 74 104 39 74 104 39 74 104 39 74 104 39 92 128 49 92 128 49 92 128 49 92 128 49 92 128 49 92 128 49 92 128 49 92 128 49 92 128 49 92 128 49 92 128 49 92 128 49 92 128 49 92 128 49 92 128 49 92 128 49 95 133 50 95 133 50 95 133 50 95 133 50 95 133 50 95 133 50 95 133 50 95 133 50 95 133 50 95 133 50 95 133 50 95 133 50 95 133 50 95 133 50 95 133 50 95 133 50 70 99 37 70 99 37 70 99 37 70 99 37 70 99 37 70 99 37 70 99 37 70 99 37 70 99 37 70 99 37 70 99 37 70 99 37 70 99 37 70 99 37 70 99 37 70 99 37 92 128 49 92 128 49 92 128 49 92 128 49 92 128 49 92 128 49 92 128 49 92 128 49 92 128 49 92 128 49 92 128 49 92 128 49 92 128 49 92 128 49 92 128 49 92 128 49 64 90 34 64 90 34 64 90 34 64 90 34 64 90 34 64 90 34 64 90 34 64 90 34 64 90 34 64 90 34 64 90 34 64 90 34 64 90 34 64 90 34 64 90 34 64 90 34 80 112 42 80 112 42 80 112 42 80 112 42 80 112 42 80 112 42 80 112 42 80 112 42 80 112 42 80 112 42 80 112 42 80 112 42 80 112 42 80 112 42 80 112 42 80 112 42 68 96 36 68 96 36 68 96 36 68 96 36 68 96 36 68 96 36 68 96 36 68 96 36 68 96 36 68 96 36 68 96 36 68 96 36 68 96 36 68 96 36 68 96 36 68 96 36 83 117 44 83 117 44 83 117 44 83 117 44 83 117 44 83 117 44 83 117 44 83 117 44 83 117 44 83 117 44 83 117 44 83 117 44 83 117 44 83 117 44 83 117 44 83 117 44 70 99 37 70 99 37 70 99 37 70 99 37 70 99 37 70 99 37 70 99 37 70 99 37 70 99 37 70 99 37 70 99 37 70 99 37 70 99 37 70 99 37 70 99 37 70 99 37 106 149 57 106 149 57 106 149 57 106 149 57 106 149 57 106 149 57 106 149 57 106 149 57 106 149 57 106 149 57 106 149 57 106 149 57 106 149 57 106 149 57 106 149 57 106 149 57 88 123 47 88 123 47 88 123 47 88 123 47 88 123 47 88 123 47 88 123 47 88 123 47 88 123 47 88 123 47 88 123 47 88 123 47 88 123 47 88 123 47 88 123 47 80 112 43 80 112 43 80 112 43 80 112 43 80 112 43 80 112 43 80 112 43 80 112 43 80 112 43 80 112 43 80 112 43 80 112 43 80 112 43 80 112 43 80 112 43 80 112 43 92 128 49 92 128 49 92 128 49 92 128 49 92 128 49 92 128 49 92 128 49 92 128 49 92 128 49 92 128 49 92 128 49 92 128 49 92 128 49 92 128 49 92 128 49 92 128 49 84 118 45 84 118 45 84 118 45 84 118 45 84 118 45 84 118 45 84 118 45 84 118 45 84 118 45 84 118 45 84 118 45 84 118 45 84 118 45 84 118 45 84 118 45 84 118 45 87 122 46 87 122 46 87 122 46 87 122 46 87 122 46 87 122 46 87 122 46 87 122 46 87 122 46 87 122 46 87 122 46 87 122 46 87 122 46 87 122 46 87 122 46 87 122 46 74 104 39 74 104 39 74 104 39 74 104 39 74 104 39 74 104 39 74 104 39 74 104 39 74 104 39 74 104 39 74 104 39 74 104 39 74 104 39 74 104 39 74 104 39 74 104 39 92 128 49 92 128 49 92 128 49 92 128 49 92 128 49 92 128 49 92 128 49 92 128 49 92 128 49 92 128 49 92 128 49 92 128 49 92 128 49 92 128 49 92 128 49 92 128 49 95 133 50 95 133 50 95 133 50 95 133 50 95 133 50 95 133 50 95 133 50 95 133 50 95 133 50 95 133 50 95 133 50 95 133 50 95 133 50 95 133 50 95 133 50 95 133 50 70 99 37 70 99 37 70 99 37 70 99 37 70 99 37 70 99 37 70 99 37 70 99 37 70 99 37 70 99 37 70 99 37 70 99 37 70 99 37 70 99 37 70 99 37 70 99 37 92 128 49 92 128 49 92 128 49 92 128 49 92 128 49 92 128 49 92 128 49 92 128 49 92 128 49 92 128 49 92 128 49 92 128 49 92 128 49 92 128 49 92 128 49 92 128 49 64 90 34 64 90 34 64 90 34 64 90 34 64 90 34 64 90 34 64 90 34 64 90 34 64 90 34 64 90 34 64 90 34 64 90 34 64 90 34 64 90 34 64 90 34 64 90 34 80 112 42 80 112 42 80 112 42 80 112 42 80 112 42 80 112 42 80 112 42 80 112 42 80 112 42 80 112 42 80 112 42 80 112 42 80 112 42 80 112 42 80 112 42 80 112 42 68 96 36 68 96 36 68 96 36 68 96 36 68 96 36 68 96 36 68 96 36 68 96 36 68 96 36 68 96 36 68 96 36 68 96 36 68 96 36 68 96 36 68 96 36 68 96 36 83 117 44 83 117 44 83 117 44 83 117 44 83 117 44 83 117 44 83 117 44 83 117 44 83 117 44 83 117 44 83 117 44 83 117 44 83 117 44 83 117 44 83 117 44 83 117 44 70 99 37 70 99 37 70 99 37 70 99 37 70 99 37 70 99 37 70 99 37 70 99 37 70 99 37 70 99 37 70 99 37 70 99 37 70 99 37 70 99 37 70 99 37 70 99 37 106 149 57 106 149 57 106 149 57 106 149 57 106 149 57 106 149 57 106 149 57 106 149 57 106 149 57 106 149 57 106 149 57 106 149 57 106 149 57 106 149 57 106 149 57 106 149 57 88 123 47 88 123 47 88 123 47 88 123 47 88 123 47 88 123 47 88 123 47 88 123 47 88 123 47 88 123 47 88 123 47 88 123 47 88 123 47 88 123 47 88 123 47 80 112 43 80 112 43 80 112 43 80 112 43 80 112 43 80 112 43 80 112 43 80 112 43 80 112 43 80 112 43 80 112 43 80 112 43 80 112 43 80 112 43 80 112 43 80 112 43 92 128 49 92 128 49 92 128 49 92 128 49 92 128 49 92 128 49 92 128 49 92 128 49 92 128 49 92 128 49 92 128 49 92 128 49 92 128 49 92 128 49 92 128 49 92 128 49 84 118 45 84 118 45 84 118 45 84 118 45 84 118 45 84 118 45 84 118 45 84 118 45 84 118 45 84 118 45 84 118 45 84 118 45 84 118 45 84 118 45 84 118 45 84 118 45 87 122 46 87 122 46 87 122 46 87 122 46 87 122 46 87 122 46 87 122 46 87 122 46 87 122 46 87 122 46 87 122 46 87 122 46 87 122 46 87 122 46 87 122 46 87 122 46 74 104 39 74 104 39 74 104 39 74 104 39 74 104 39 74 104 39 74 104 39 74 104 39 74 104 39 74 104 39 74 104 39 74 104 39 74 104 39 74 104 39 74 104 39 74 104 39 92 128 49 92 128 49 92 128 49 92 128 49 92 128 49 92 128 49 92 128 49 92 128 49 92 128 49 92 128 49 92 128 49 92 128 49 92 128 49 92 128 49 92 128 49 92 128 49 95 133 50 95 133 50 95 133 50 95 133 50 95 133 50 95 133 50 95 133 50 95 133 50 95 133 50 95 133 50 95 133 50 95 133 50 95 133 50 95 133 50 95 133 50 95 133 50 70 99 37 70 99 37 70 99 37 70 99 37 70 99 37 70 99 37 70 99 37 70 99 37 70 99 37 70 99 37 70 99 37 70 99 37 70 99 37 70 99 37 70 99 37 70 99 37 92 128 49 92 128 49 92 128 49 92 128 49 92 128 49 92 128 49 92 128 49 92 128 49 92 128 49 92 128 49 92 128 49 92 128 49 92 128 49 92 128 49 92 128 49 92 128 49 64 90 34 64 90 34 64 90 34 64 90 34 64 90 34 64 90 34 64 90 34 64 90 34 64 90 34 64 90 34 64 90 34 64 90 34 64 90 34 64 90 34 64 90 34 64 90 34 80 112 42 80 112 42 80 112 42 80 112 42 80 112 42 80 112 42 80 112 42 80 112 42 80 112 42 80 112 42 80 112 42 80 112 42 80 112 42 80 112 42 80 112 42 80 112 42 68 96 36 68 96 36 68 96 36 68 96 36 68 96 36 68 96 36 68 96 36 68 96 36 68 96 36 68 96 36 68 96 36 68 96 36 68 96 36 68 96 36 68 96 36 68 96 36 83 117 44 83 117 44 83 117 44 83 117 44 83 117 44 83 117 44 83 117 44 83 117 44 83 117 44 83 117 44 83 117 44 83 117 44 83 117 44 83 117 44 83 117 44 83 117 44 70 99 37 70 99 37 70 99 37 70 99 37 70 99 37 70 99 37 70 99 37 70 99 37 70 99 37 70 99 37 70 99 37 70 99 37 70 99 37 70 99 37 70 99 37 70 99 37 106 149 57 106 149 57 106 149 57 106 149 57 106 149 57 106 149 57 106 149 57 106 149 57 106 149 57 106 149 57 106 149 57 106 149 57 106 149 57 106 149 57 106 149 57 106 149 57 88 123 47 88 123 47 88 123 47 88 123 47 88 123 47 88 123 47 88 123 47 88 123 47 88 123 47 88 123 47 88 123 47 88 123 47 88 123 47 88 123 47 88 123 47 80 112 43 80 112 43 80 112 43 80 112 43 80 112 43 80 112 43 80 112 43 80 112 43 80 112 43 80 112 43 80 112 43 80 112 43 80 112 43 80 112 43 80 112 43 80 112 43 92 128 49 92 128 49 92 128 49 92 128 49 92 128 49 92 128 49 92 128 49 92 128 49 92 128 49 92 128 49 92 128 49 92 128 49 92 128 49 92 128 49 92 128 49 92 128 49 84 118 45 84 118 45 84 118 45 84 118 45 84 118 45 84 118 45 84 118 45 84 118 45 84 118 45 84 118 45 84 118 45 84 118 45 84 118 45 84 118 45 84 118 45 84 118 45 87 122 46 87 122 46 87 122 46 87 122 46 87 122 46 87 122 46 87 122 46 87 122 46 87 122 46 87 122 46 87 122 46 87 122 46 87 122 46 87 122 46 87 122 46 87 122 46 74 104 39 74 104 39 74 104 39 74 104 39 74 104 39 74 104 39 74 104 39 74 104 39 74 104 39 74 104 39 74 104 39 74 104 39 74 104 39 74 104 39 74 104 39 74 104 39 92 128 49 92 128 49 92 128 49 92 128 49 92 128 49 92 128 49 92 128 49 92 128 49 92 128 49 92 128 49 92 128 49 92 128 49 92 128 49 92 128 49 92 128 49 92 128 49 95 133 50 95 133 50 95 133 50 95 133 50 95 133 50 95 133 50 95 133 50 95 133 50 95 133 50 95 133 50 95 133 50 95 133 50 95 133 50 95 133 50 95 133 50 95 133 50 70 99 37 70 99 37 70 99 37 70 99 37 70 99 37 70 99 37 70 99 37 70 99 37 70 99 37 70 99 37 70 99 37 70 99 37 70 99 37 70 99 37 70 99 37 70 99 37 92 128 49 92 128 49 92 128 49 92 128 49 92 128 49 92 128 49 92 128 49 92 128 49 92 128 49 92 128 49 92 128 49 92 128 49 92 128 49 92 128 49 92 128 49 92 128 49 64 90 34 64 90 34 64 90 34 64 90 34 64 90 34 64 90 34 64 90 34 64 90 34 64 90 34 64 90 34 64 90 34 64 90 34 64 90 34 64 90 34 64 90 34 64 90 34 80 112 42 80 112 42 80 112 42 80 112 42 80 112 42 80 112 42 80 112 42 80 112 42 80 112 42 80 112 42 80 112 42 80 112 42 80 112 42 80 112 42 80 112 42 80 112 42 68 96 36 68 96 36 68 96 36 68 96 36 68 96 36 68 96 36 68 96 36 68 96 36 68 96 36 68 96 36 68 96 36 68 96 36 68 96 36 68 96 36 68 96 36 68 96 36 83 117 44 83 117 44 83 117 44 83 117 44 83 117 44 83 117 44 83 117 44 83 117 44 83 117 44 83 117 44 83 117 44 83 117 44 83 117 44 83 117 44 83 117 44 83 117 44 70 99 37 70 99 37 70 99 37 70 99 37 70 99 37 70 99 37 70 99 37 70 99 37 70 99 37 70 99 37 70 99 37 70 99 37 70 99 37 70 99 37 70 99 37 70 99 37 106 149 57 106 149 57 106 149 57 106 149 57 106 149 57 106 149 57 106 149 57 106 149 57 106 149 57 106 149 57 106 149 57 106 149 57 106 149 57 106 149 57 106 149 57 106 149 57 88 123 47 88 123 47 88 123 47 88 123 47 88 123 47 88 123 47 88 123 47 88 123 47 88 123 47 88 123 47 88 123 47 88 123 47 88 123 47 88 123 47 88 123 47 80 112 43 80 112 43 80 112 43 80 112 43 80 112 43 80 112 43 80 112 43 80 112 43 80 112 43 80 112 43 80 112 43 80 112 43 80 112 43 80 112 43 80 112 43 80 112 43 92 128 49 92 128 49 92 128 49 92 128 49 92 128 49 92 128 49 92 128 49 92 128 49 92 128 49 92 128 49 92 128 49 92 128 49 92 128 49 92 128 49 92 128 49 92 128 49 84 118 45 84 118 45 84 118 45 84 118 45 84 118 45 84 118 45 84 118 45 84 118 45 84 118 45 84 118 45 84 118 45 84 118 45 84 118 45 84 118 45 84 118 45 84 118 45 87 122 46 87 122 46 87 122 46 87 122 46 87 122 46 87 122 46 87 122 46 87 122 46 87 122 46 87 122 46 87 122 46 87 122 46 87 122 46 87 122 46 87 122 46 87 122 46 74 104 39 74 104 39 74 104 39 74 104 39 74 104 39 74 104 39 74 104 39 74 104 39 74 104 39 74 104 39 74 104 39 74 104 39 74 104 39 74 104 39 74 104 39 74 104 39 92 128 49 92 128 49 92 128 49 92 128 49 92 128 49 92 128 49 92 128 49 92 128 49 92 128 49 92 128 49 92 128 49 92 128 49 92 128 49 92 128 49 92 128 49 92 128 49 95 133 50 95 133 50 95 133 50 95 133 50 95 133 50 95 133 50 95 133 50 95 133 50 95 133 50 95 133 50 95 133 50 95 133 50 95 133 50 95 133 50 95 133 50 95 133 50 70 99 37 70 99 37 70 99 37 70 99 37 70 99 37 70 99 37 70 99 37 70 99 37 70 99 37 70 99 37 70 99 37 70 99 37 70 99 37 70 99 37 70 99 37 70 99 37 92 128 49 92 128 49 92 128 49 92 128 49 92 128 49 92 128 49 92 128 49 92 128 49 92 128 49 92 128 49 92 128 49 92 128 49 92 128 49 92 128 49 92 128 49 92 128 49 64 90 34 64 90 34 64 90 34 64 90 34 64 90 34 64 90 34 64 90 34 64 90 34 64 90 34 64 90 34 64 90 34 64 90 34 64 90 34 64 90 34 64 90 34 64 90 34 80 112 42 80 112 42 80 112 42 80 112 42 80 112 42 80 112 42 80 112 42 80 112 42 80 112 42 80 112 42 80 112 42 80 112 42 80 112 42 80 112 42 80 112 42 80 112 42 68 96 36 68 96 36 68 96 36 68 96 36 68 96 36 68 96 36 68 96 36 68 96 36 68 96 36 68 96 36 68 96 36 68 96 36 68 96 36 68 96 36 68 96 36 68 96 36 83 117 44 83 117 44 83 117 44 83 117 44 83 117 44 83 117 44 83 117 44 83 117 44 83 117 44 83 117 44 83 117 44 83 117 44 83 117 44 83 117 44 83 117 44 83 117 44 70 99 37 70 99 37 70 99 37 70 99 37 70 99 37 70 99 37 70 99 37 70 99 37 70 99 37 70 99 37 70 99 37 70 99 37 70 99 37 70 99 37 70 99 37 70 99 37 106 149 57 106 149 57 106 149 57 106 149 57 106 149 57 106 149 57 106 149 57 106 149 57 106 149 57 106 149 57 106 149 57 106 149 57 106 149 57 106 149 57 106 149 57 106 149 57 88 123 47 88 123 47 88 123 47 88 123 47 88 123 47 88 123 47 88 123 47 88 123 47 88 123 47 88 123 47 88 123 47 88 123 47 88 123 47 88 123 47 88 123 47 80 112 43 80 112 43 80 112 43 80 112 43 80 112 43 80 112 43 80 112 43 80 112 43 80 112 43 80 112 43 80 112 43 80 112 43 80 112 43 80 112 43 80 112 43 80 112 43 92 128 49 92 128 49 92 128 49 92 128 49 92 128 49 92 128 49 92 128 49 92 128 49 92 128 49 92 128 49 92 128 49 92 128 49 92 128 49 92 128 49 92 128 49 92 128 49 84 118 45 84 118 45 84 118 45 84 118 45 84 118 45 84 118 45 84 118 45 84 118 45 84 118 45 84 118 45 84 118 45 84 118 45 84 118 45 84 118 45 84 118 45 84 118 45 87 122 46 87 122 46 87 122 46 87 122 46 87 122 46 87 122 46 87 122 46 87 122 46 87 122 46 87 122 46 87 122 46 87 122 46 87 122 46 87 122 46 87 122 46 87 122 46 74 104 39 74 104 39 74 104 39 74 104 39 74 104 39 74 104 39 74 104 39 74 104 39 74 104 39 74 104 39 74 104 39 74 104 39 74 104 39 74 104 39 74 104 39 74 104 39 92 128 49 92 128 49 92 128 49 92 128 49 92 128 49 92 128 49 92 128 49 92 128 49 92 128 49 92 128 49 92 128 49 92 128 49 92 128 49 92 128 49 92 128 49 92 128 49 95 133 50 95 133 50 95 133 50 95 133 50 95 133 50 95 133 50 95 133 50 95 133 50 95 133 50 95 133 50 95 133 50 95 133 50 95 133 50 95 133 50 95 133 50 95 133 50 70 99 37 70 99 37 70 99 37 70 99 37 70 99 37 70 99 37 70 99 37 70 99 37 70 99 37 70 99 37 70 99 37 70 99 37 70 99 37 70 99 37 70 99 37 70 99 37 92 128 49 92 128 49 92 128 49 92 128 49 92 128 49 92 128 49 92 128 49 92 128 49 92 128 49 92 128 49 92 128 49 92 128 49 92 128 49 92 128 49 92 128 49 92 128 49 64 90 34 64 90 34 64 90 34 64 90 34 64 90 34 64 90 34 64 90 34 64 90 34 64 90 34 64 90 34 64 90 34 64 90 34 64 90 34 64 90 34 64 90 34 64 90 34 80 112 42 80 112 42 80 112 42 80 112 42 80 112 42 80 112 42 80 112 42 80 112 42 80 112 42 80 112 42 80 112 42 80 112 42 80 112 42 80 112 42 80 112 42 80 112 42 68 96 36 68 96 36 68 96 36 68 96 36 68 96 36 68 96 36 68 96 36 68 96 36 68 96 36 68 96 36 68 96 36 68 96 36 68 96 36 68 96 36 68 96 36 68 96 36 83 117 44 83 117 44 83 117 44 83 117 44 83 117 44 83 117 44 83 117 44 83 117 44 83 117 44 83 117 44 83 117 44 83 117 44 83 117 44 83 117 44 83 117 44 83 117 44 70 99 37 70 99 37 70 99 37 70 99 37 70 99 37 70 99 37 70 99 37 70 99 37 70 99 37 70 99 37 70 99 37 70 99 37 70 99 37 70 99 37 70 99 37 70 99 37 106 149 57 106 149 57 106 149 57 106 149 57 106 149 57 106 149 57 106 149 57 106 149 57 106 149 57 106 149 57 106 149 57 106 149 57 106 149 57 106 149 57 106 149 57 106 149 57 88 123 47 88 123 47 88 123 47 88 123 47 88 123 47 88 123 47 88 123 47 88 123 47 88 123 47 88 123 47 88 123 47 88 123 47 88 123 47 88 123 47 88 123 47 80 112 43 80 112 43 80 112 43 80 112 43 80 112 43 80 112 43 80 112 43 80 112 43 80 112 43 80 112 43 80 112 43 80 112 43 80 112 43 80 112 43 80 112 43 80 112 43 92 128 49 92 128 49 92 128 49 92 128 49 92 128 49 92 128 49 92 128 49 92 128 49 92 128 49 92 128 49 92 128 49 92 128 49 92 128 49 92 128 49 92 128 49 92 128 49 84 118 45 84 118 45 84 118 45 84 118 45 84 118 45 84 118 45 84 118 45 84 118 45 84 118 45 84 118 45 84 118 45 84 118 45 84 118 45 84 118 45 84 118 45 84 118 45 87 122 46 87 122 46 87 122 46 87 122 46 87 122 46 87 122 46 87 122 46 87 122 46 87 122 46 87 122 46 87 122 46 87 122 46 87 122 46 87 122 46 87 122 46 87 122 46 74 104 39 74 104 39 74 104 39 74 104 39 74 104 39 74 104 39 74 104 39 74 104 39 74 104 39 74 104 39 74 104 39 74 104 39 74 104 39 74 104 39 74 104 39 74 104 39 92 128 49 92 128 49 92 128 49 92 128 49 92 128 49 92 128 49 92 128 49 92 128 49 92 128 49 92 128 49 92 128 49 92 128 49 92 128 49 92 128 49 92 128 49 92 128 49 95 133 50 95 133 50 95 133 50 95 133 50 95 133 50 95 133 50 95 133 50 95 133 50 95 133 50 95 133 50 95 133 50 95 133 50 95 133 50 95 133 50 95 133 50 95 133 50 70 99 37 70 99 37 70 99 37 70 99 37 70 99 37 70 99 37 70 99 37 70 99 37 70 99 37 70 99 37 70 99 37 70 99 37 70 99 37 70 99 37 70 99 37 70 99 37 92 128 49 92 128 49 92 128 49 92 128 49 92 128 49 92 128 49 92 128 49 92 128 49 92 128 49 92 128 49 92 128 49 92 128 49 92 128 49 92 128 49 92 128 49 92 128 49 64 90 34 64 90 34 64 90 34 64 90 34 64 90 34 64 90 34 64 90 34 64 90 34 64 90 34 64 90 34 64 90 34 64 90 34 64 90 34 64 90 34 64 90 34 64 90 34 80 112 42 80 112 42 80 112 42 80 112 42 80 112 42 80 112 42 80 112 42 80 112 42 80 112 42 80 112 42 80 112 42 80 112 42 80 112 42 80 112 42 80 112 42 80 112 42 68 96 36 68 96 36 68 96 36 68 96 36 68 96 36 68 96 36 68 96 36 68 96 36 68 96 36 68 96 36 68 96 36 68 96 36 68 96 36 68 96 36 68 96 36 68 96 36 83 117 44 83 117 44 83 117 44 83 117 44 83 117 44 83 117 44 83 117 44 83 117 44 83 117 44 83 117 44 83 117 44 83 117 44 83 117 44 83 117 44 83 117 44 83 117 44 70 99 37 70 99 37 70 99 37 70 99 37 70 99 37 70 99 37 70 99 37 70 99 37 70 99 37 70 99 37 70 99 37 70 99 37 70 99 37 70 99 37 70 99 37 70 99 37 106 149 57 106 149 57 106 149 57 106 149 57 106 149 57 106 149 57 106 149 57 106 149 57 106 149 57 106 149 57 106 149 57 106 149 57 106 149 57 106 149 57 106 149 57 106 149 57 88 123 47 88 123 47 88 123 47 88 123 47 88 123 47 88 123 47 88 123 47 88 123 47 88 123 47 88 123 47 88 123 47 88 123 47 88 123 47 88 123 47 88 123 47 80 112 43 80 112 43 80 112 43 80 112 43 80 112 43 80 112 43 80 112 43 80 112 43 80 112 43 80 112 43 80 112 43 80 112 43 80 112 43 80 112 43 80 112 43 80 112 43 92 128 49 92 128 49 92 128 49 92 128 49 92 128 49 92 128 49 92 128 49 92 128 49 92 128 49 92 128 49 92 128 49 92 128 49 92 128 49 92 128 49 92 128 49 92 128 49 84 118 45 84 118 45 84 118 45 84 118 45 84 118 45 84 118 45 84 118 45 84 118 45 84 118 45 84 118 45 84 118 45 84 118 45 84 118 45 84 118 45 84 118 45 84 118 45 87 122 46 87 122 46 87 122 46 87 122 46 87 122 46 87 122 46 87 122 46 87 122 46 87 122 46 87 122 46 87 122 46 87 122 46 87 122 46 87 122 46 87 122 46 87 122 46 74 104 39 74 104 39 74 104 39 74 104 39 74 104 39 74 104 39 74 104 39 74 104 39 74 104 39 74 104 39 74 104 39 74 104 39 74 104 39 74 104 39 74 104 39 74 104 39 92 128 49 92 128 49 92 128 49 92 128 49 92 128 49 92 128 49 92 128 49 92 128 49 92 128 49 92 128 49 92 128 49 92 128 49 92 128 49 92 128 49 92 128 49 92 128 49 95 133 50 95 133 50 95 133 50 95 133 50 95 133 50 95 133 50 95 133 50 95 133 50 95 133 50 95 133 50 95 133 50 95 133 50 95 133 50 95 133 50 95 133 50 95 133 50 70 99 37 70 99 37 70 99 37 70 99 37 70 99 37 70 99 37 70 99 37 70 99 37 70 99 37 70 99 37 70 99 37 70 99 37 70 99 37 70 99 37 70 99 37 70 99 37 92 128 49 92 128 49 92 128 49 92 128 49 92 128 49 92 128 49 92 128 49 92 128 49 92 128 49 92 128 49 92 128 49 92 128 49 92 128 49 92 128 49 92 128 49 92 128 49 64 90 34 64 90 34 64 90 34 64 90 34 64 90 34 64 90 34 64 90 34 64 90 34 64 90 34 64 90 34 64 90 34 64 90 34 64 90 34 64 90 34 64 90 34 64 90 34 80 112 42 80 112 42 80 112 42 80 112 42 80 112 42 80 112 42 80 112 42 80 112 42 80 112 42 80 112 42 80 112 42 80 112 42 80 112 42 80 112 42 80 112 42 80 112 42 68 96 36 68 96 36 68 96 36 68 96 36 68 96 36 68 96 36 68 96 36 68 96 36 68 96 36 68 96 36 68 96 36 68 96 36 68 96 36 68 96 36 68 96 36 68 96 36 83 117 44 83 117 44 83 117 44 83 117 44 83 117 44 83 117 44 83 117 44 83 117 44 83 117 44 83 117 44 83 117 44 83 117 44 83 117 44 83 117 44 83 117 44 83 117 44 70 99 37 70 99 37 70 99 37 70 99 37 70 99 37 70 99 37 70 99 37 70 99 37 70 99 37 70 99 37 70 99 37 70 99 37 70 99 37 70 99 37 70 99 37 70 99 37 106 149 57 106 149 57 106 149 57 106 149 57 106 149 57 106 149 57 106 149 57 106 149 57 106 149 57 106 149 57 106 149 57 106 149 57 106 149 57 106 149 57 106 149 57 106 149 57 88 123 47 88 123 47 88 123 47 88 123 47 88 123 47 88 123 47 88 123 47 88 123 47 88 123 47 88 123 47 88 123 47 88 123 47 88 123 47 88 123 47 88 123 47 80 112 43 80 112 43 80 112 43 80 112 43 80 112 43 80 112 43 80 112 43 80 112 43 80 112 43 80 112 43 80 112 43 80 112 43 80 112 43 80 112 43 80 112 43 80 112 43 92 128 49 92 128 49 92 128 49 92 128 49 92 128 49 92 128 49 92 128 49 92 128 49 92 128 49 92 128 49 92 128 49 92 128 49 92 128 49 92 128 49 92 128 49 92 128 49 84 118 45 84 118 45 84 118 45 84 118 45 84 118 45 84 118 45 84 118 45 84 118 45 84 118 45 84 118 45 84 118 45 84 118 45 84 118 45 84 118 45 84 118 45 84 118 45 87 122 46 87 122 46 87 122 46 87 122 46 87 122 46 87 122 46 87 122 46 87 122 46 87 122 46 87 122 46 87 122 46 87 122 46 87 122 46 87 122 46 87 122 46 87 122 46 74 104 39 74 104 39 74 104 39 74 104 39 74 104 39 74 104 39 74 104 39 74 104 39 74 104 39 74 104 39 74 104 39 74 104 39 74 104 39 74 104 39 74 104 39 74 104 39 92 128 49 92 128 49 92 128 49 92 128 49 92 128 49 92 128 49 92 128 49 92 128 49 92 128 49 92 128 49 92 128 49 92 128 49 92 128 49 92 128 49 92 128 49 92 128 49 95 133 50 95 133 50 95 133 50 95 133 50 95 133 50 95 133 50 95 133 50 95 133 50 95 133 50 95 133 50 95 133 50 95 133 50 95 133 50 95 133 50 95 133 50 95 133 50 70 99 37 70 99 37 70 99 37 70 99 37 70 99 37 70 99 37 70 99 37 70 99 37 70 99 37 70 99 37 70 99 37 70 99 37 70 99 37 70 99 37 70 99 37 70 99 37 92 128 49 92 128 49 92 128 49 92 128 49 92 128 49 92 128 49 92 128 49 92 128 49 92 128 49 92 128 49 92 128 49 92 128 49 92 128 49 92 128 49 92 128 49 92 128 49 64 90 34 64 90 34 64 90 34 64 90 34 64 90 34 64 90 34 64 90 34 64 90 34 64 90 34 64 90 34 64 90 34 64 90 34 64 90 34 64 90 34 64 90 34 64 90 34 80 112 42 80 112 42 80 112 42 80 112 42 80 112 42 80 112 42 80 112 42 80 112 42 80 112 42 80 112 42 80 112 42 80 112 42 80 112 42 80 112 42 80 112 42 80 112 42 68 96 36 68 96 36 68 96 36 68 96 36 68 96 36 68 96 36 68 96 36 68 96 36 68 96 36 68 96 36 68 96 36 68 96 36 68 96 36 68 96 36 68 96 36 68 96 36 83 117 44 83 117 44 83 117 44 83 117 44 83 117 44 83 117 44 83 117 44 83 117 44 83 117 44 83 117 44 83 117 44 83 117 44 83 117 44 83 117 44 83 117 44 83 117 44 70 99 37 70 99 37 70 99 37 70 99 37 70 99 37 70 99 37 70 99 37 70 99 37 70 99 37 70 99 37 70 99 37 70 99 37 70 99 37 70 99 37 70 99 37 70 99 37 106 149 57 106 149 57 106 149 57 106 149 57 106 149 57 106 149 57 106 149 57 106 149 57 106 149 57 106 149 57 106 149 57 106 149 57 106 149 57 106 149 57 106 149 57 106 149 57 88 123 47 88 123 47 88 123 47 88 123 47 88 123 47 88 123 47 88 123 47 88 123 47 88 123 47 88 123 47 88 123 47 88 123 47 88 123 47 88 123 47 88 123 47 80 112 43 80 112 43 80 112 43 80 112 43 80 112 43 80 112 43 80 112 43 80 112 43 80 112 43 80 112 43 80 112 43 80 112 43 80 112 43 80 112 43 80 112 43 80 112 43 92 128 49 92 128 49 92 128 49 92 128 49 92 128 49 92 128 49 92 128 49 92 128 49 92 128 49 92 128 49 92 128 49 92 128 49 92 128 49 92 128 49 92 128 49 92 128 49 84 118 45 84 118 45 84 118 45 84 118 45 84 118 45 84 118 45 84 118 45 84 118 45 84 118 45 84 118 45 84 118 45 84 118 45 84 118 45 84 118 45 84 118 45 84 118 45 87 122 46 87 122 46 87 122 46 87 122 46 87 122 46 87 122 46 87 122 46 87 122 46 87 122 46 87 122 46 87 122 46 87 122 46 87 122 46 87 122 46 87 122 46 87 122 46 74 104 39 74 104 39 74 104 39 74 104 39 74 104 39 74 104 39 74 104 39 74 104 39 74 104 39 74 104 39 74 104 39 74 104 39 74 104 39 74 104 39 74 104 39 74 104 39 92 128 49 92 128 49 92 128 49 92 128 49 92 128 49 92 128 49 92 128 49 92 128 49 92 128 49 92 128 49 92 128 49 92 128 49 92 128 49 92 128 49 92 128 49 92 128 49 95 133 50 95 133 50 95 133 50 95 133 50 95 133 50 95 133 50 95 133 50 95 133 50 95 133 50 95 133 50 95 133 50 95 133 50 95 133 50 95 133 50 95 133 50 95 133 50 70 99 37 70 99 37 70 99 37 70 99 37 70 99 37 70 99 37 70 99 37 70 99 37 70 99 37 70 99 37 70 99 37 70 99 37 70 99 37 70 99 37 70 99 37 70 99 37 92 128 49 92 128 49 92 128 49 92 128 49 92 128 49 92 128 49 92 128 49 92 128 49 92 128 49 92 128 49 92 128 49 92 128 49 92 128 49 92 128 49 92 128 49 92 128 49 64 90 34 64 90 34 64 90 34 64 90 34 64 90 34 64 90 34 64 90 34 64 90 34 64 90 34 64 90 34 64 90 34 64 90 34 64 90 34 64 90 34 64 90 34 64 90 34 80 112 42 80 112 42 80 112 42 80 112 42 80 112 42 80 112 42 80 112 42 80 112 42 80 112 42 80 112 42 80 112 42 80 112 42 80 112 42 80 112 42 80 112 42 80 112 42 68 96 36 68 96 36 68 96 36 68 96 36 68 96 36 68 96 36 68 96 36 68 96 36 68 96 36 68 96 36 68 96 36 68 96 36 68 96 36 68 96 36 68 96 36 68 96 36 83 117 44 83 117 44 83 117 44 83 117 44 83 117 44 83 117 44 83 117 44 83 117 44 83 117 44 83 117 44 83 117 44 83 117 44 83 117 44 83 117 44 83 117 44 83 117 44 70 99 37 70 99 37 70 99 37 70 99 37 70 99 37 70 99 37 70 99 37 70 99 37 70 99 37 70 99 37 70 99 37 70 99 37 70 99 37 70 99 37 70 99 37 70 99 37 106 149 57 106 149 57 106 149 57 106 149 57 106 149 57 106 149 57 106 149 57 106 149 57 106 149 57 106 149 57 106 149 57 106 149 57 106 149 57 106 149 57 106 149 57 106 149 57 88 123 47 88 123 47 88 123 47 88 123 47 88 123 47 88 123 47 88 123 47 88 123 47 88 123 47 88 123 47 88 123 47 88 123 47 88 123 47 88 123 47 88 123 47 80 112 43 80 112 43 80 112 43 80 112 43 80 112 43 80 112 43 80 112 43 80 112 43 80 112 43 80 112 43 80 112 43 80 112 43 80 112 43 80 112 43 80 112 43 80 112 43 92 128 49 92 128 49 92 128 49 92 128 49 92 128 49 92 128 49 92 128 49 92 128 49 92 128 49 92 128 49 92 128 49 92 128 49 92 128 49 92 128 49 92 128 49 92 128 49 84 118 45 84 118 45 84 118 45 84 118 45 84 118 45 84 118 45 84 118 45 84 118 45 84 118 45 84 118 45 84 118 45 84 118 45 84 118 45 84 118 45 84 118 45 84 118 45 87 122 46 87 122 46 87 122 46 87 122 46 87 122 46 87 122 46 87 122 46 87 122 46 87 122 46 87 122 46 87 122 46 87 122 46 87 122 46 87 122 46 87 122 46 87 122 46 74 104 39 74 104 39 74 104 39 74 104 39 74 104 39 74 104 39 74 104 39 74 104 39 74 104 39 74 104 39 74 104 39 74 104 39 74 104 39 74 104 39 74 104 39 74 104 39 92 128 49 92 128 49 92 128 49 92 128 49 92 128 49 92 128 49 92 128 49 92 128 49 92 128 49 92 128 49 92 128 49 92 128 49 92 128 49 92 128 49 92 128 49 92 128 49 95 133 50 95 133 50 95 133 50 95 133 50 95 133 50 95 133 50 95 133 50 95 133 50 95 133 50 95 133 50 95 133 50 95 133 50 95 133 50 95 133 50 95 133 50 95 133 50 70 99 37 70 99 37 70 99 37 70 99 37 70 99 37 70 99 37 70 99 37 70 99 37 70 99 37 70 99 37 70 99 37 70 99 37 70 99 37 70 99 37 70 99 37 70 99 37 92 128 49 92 128 49 92 128 49 92 128 49 92 128 49 92 128 49 92 128 49 92 128 49 92 128 49 92 128 49 92 128 49 92 128 49 92 128 49 92 128 49 92 128 49 92 128 49 64 90 34 64 90 34 64 90 34 64 90 34 64 90 34 64 90 34 64 90 34 64 90 34 64 90 34 64 90 34 64 90 34 64 90 34 64 90 34 64 90 34 64 90 34 64 90 34 80 112 42 80 112 42 80 112 42 80 112 42 80 112 42 80 112 42 80 112 42 80 112 42 80 112 42 80 112 42 80 112 42 80 112 42 80 112 42 80 112 42 80 112 42 80 112 42 68 96 36 68 96 36 68 96 36 68 96 36 68 96 36 68 96 36 68 96 36 68 96 36 68 96 36 68 96 36 68 96 36 68 96 36 68 96 36 68 96 36 68 96 36 68 96 36 83 117 44 83 117 44 83 117 44 83 117 44 83 117 44 83 117 44 83 117 44 83 117 44 83 117 44 83 117 44 83 117 44 83 117 44 83 117 44 83 117 44 83 117 44 83 117 44 70 99 37 70 99 37 70 99 37 70 99 37 70 99 37 70 99 37 70 99 37 70 99 37 70 99 37 70 99 37 70 99 37 70 99 37 70 99 37 70 99 37 70 99 37 70 99 37 106 149 57 106 149 57 106 149 57 106 149 57 106 149 57 106 149 57 106 149 57 106 149 57 106 149 57 106 149 57 106 149 57 106 149 57 106 149 57 106 149 57 106 149 57 106 149 57 88 123 47 88 123 47 88 123 47 88 123 47 88 123 47 88 123 47 88 123 47 88 123 47 88 123 47 88 123 47 88 123 47 88 123 47 88 123 47 88 123 47 88 123 47 80 112 43 80 112 43 80 112 43 80 112 43 80 112 43 80 112 43 80 112 43 80 112 43 80 112 43 80 112 43 80 112 43 80 112 43 80 112 43 80 112 43 80 112 43 80 112 43 92 128 49 92 128 49 92 128 49 92 128 49 92 128 49 92 128 49 92 128 49 92 128 49 92 128 49 92 128 49 92 128 49 92 128 49 92 128 49 92 128 49 92 128 49 92 128 49 84 118 45 84 118 45 84 118 45 84 118 45 84 118 45 84 118 45 84 118 45 84 118 45 84 118 45 84 118 45 84 118 45 84 118 45 84 118 45 84 118 45 84 118 45 84 118 45 87 122 46 87 122 46 87 122 46 87 122 46 87 122 46 87 122 46 87 122 46 87 122 46 87 122 46 87 122 46 87 122 46 87 122 46 87 122 46 87 122 46 87 122 46 87 122 46 74 104 39 74 104 39 74 104 39 74 104 39 74 104 39 74 104 39 74 104 39 74 104 39 74 104 39 74 104 39 74 104 39 74 104 39 74 104 39 74 104 39 74 104 39 74 104 39 92 128 49 92 128 49 92 128 49 92 128 49 92 128 49 92 128 49 92 128 49 92 128 49 92 128 49 92 128 49 92 128 49 92 128 49 92 128 49 92 128 49 92 128 49 92 128 49 95 133 50 95 133 50 95 133 50 95 133 50 95 133 50 95 133 50 95 133 50 95 133 50 95 133 50 95 133 50 95 133 50 95 133 50 95 133 50 95 133 50 95 133 50 95 133 50 70 99 37 70 99 37 70 99 37 70 99 37 70 99 37 70 99 37 70 99 37 70 99 37 70 99 37 70 99 37 70 99 37 70 99 37 70 99 37 70 99 37 70 99 37 70 99 37 92 128 49 92 128 49 92 128 49 92 128 49 92 128 49 92 128 49 92 128 49 92 128 49 92 128 49 92 128 49 92 128 49 92 128 49 92 128 49 92 128 49 92 128 49 92 128 49 64 90 34 64 90 34 64 90 34 64 90 34 64 90 34 64 90 34 64 90 34 64 90 34 64 90 34 64 90 34 64 90 34 64 90 34 64 90 34 64 90 34 64 90 34 64 90 34 80 112 42 80 112 42 80 112 42 80 112 42 80 112 42 80 112 42 80 112 42 80 112 42 80 112 42 80 112 42 80 112 42 80 112 42 80 112 42 80 112 42 80 112 42 80 112 42 68 96 36 68 96 36 68 96 36 68 96 36 68 96 36 68 96 36 68 96 36 68 96 36 68 96 36 68 96 36 68 96 36 68 96 36 68 96 36 68 96 36 68 96 36 68 96 36 83 117 44 83 117 44 83 117 44 83 117 44 83 117 44 83 117 44 83 117 44 83 117 44 83 117 44 83 117 44 83 117 44 83 117 44 83 117 44 83 117 44 83 117 44 83 117 44 70 99 37 70 99 37 70 99 37 70 99 37 70 99 37 70 99 37 70 99 37 70 99 37 70 99 37 70 99 37 70 99 37 70 99 37 70 99 37 70 99 37 70 99 37 70 99 37 106 149 57 106 149 57 106 149 57 106 149 57 106 149 57 106 149 57 106 149 57 106 149 57 106 149 57 106 149 57 106 149 57 106 149 57 106 149 57 106 149 57 106 149 57 106 149 57 88 123 47 88 123 47 88 123 47 88 123 47 88 123 47 88 123 47 88 123 47 88 123 47 88 123 47 88 123 47 88 123 47 88 123 47 88 123 47 88 123 47 88 123 47 80 112 43 80 112 43 80 112 43 80 112 43 80 112 43 80 112 43 80 112 43 80 112 43 80 112 43 80 112 43 80 112 43 80 112 43 80 112 43 80 112 43 80 112 43 80 112 43 92 128 49 92 128 49 92 128 49 92 128 49 92 128 49 92 128 49 92 128 49 92 128 49 92 128 49 92 128 49 92 128 49 92 128 49 92 128 49 92 128 49 92 128 49 92 128 49 84 118 45 84 118 45 84 118 45 84 118 45 84 118 45 84 118 45 84 118 45 84 118 45 84 118 45 84 118 45 84 118 45 84 118 45 84 118 45 84 118 45 84 118 45 84 118 45 87 122 46 87 122 46 87 122 46 87 122 46 87 122 46 87 122 46 87 122 46 87 122 46 87 122 46 87 122 46 87 122 46 87 122 46 87 122 46 87 122 46 87 122 46 87 122 46 74 104 39 74 104 39 74 104 39 74 104 39 74 104 39 74 104 39 74 104 39 74 104 39 74 104 39 74 104 39 74 104 39 74 104 39 74 104 39 74 104 39 74 104 39 74 104 39 92 128 49 92 128 49 92 128 49 92 128 49 92 128 49 92 128 49 92 128 49 92 128 49 92 128 49 92 128 49 92 128 49 92 128 49 92 128 49 92 128 49 92 128 49 92 128 49 95 133 50 95 133 50 95 133 50 95 133 50 95 133 50 95 133 50 95 133 50 95 133 50 95 133 50 95 133 50 95 133 50 95 133 50 95 133 50 95 133 50 95 133 50 95 133 50 89 125 47 89 125 47 89 125 47 89 125 47 89 125 47 89 125 47 89 125 47 89 125 47 89 125 47 89 125 47 89 125 47 89 125 47 89 125 47 89 125 47 89 125 47 89 125 47 88 123 47 88 123 47 88 123 47 88 123 47 88 123 47 88 123 47 88 123 47 88 123 47 88 123 47 88 123 47 88 123 47 88 123 47 88 123 47 88 123 47 88 123 47 88 123 47 105 147 56 105 147 56 105 147 56 105 147 56 105 147 56 105 147 56 105 147 56 105 147 56 105 147 56 105 147 56 105 147 56 105 147 56 105 147 56 105 147 56 105 147 56 105 147 56 67 94 36 67 94 36 67 94 36 67 94 36 67 94 36 67 94 36 67 94 36 67 94 36 67 94 36 67 94 36 67 94 36 67 94 36 67 94 36 67 94 36 67 94 36 67 94 36 98 137 52 98 137 52 98 137 52 98 137 52 98 137 52 98 137 52 98 137 52 98 137 52 98 137 52 98 137 52 98 137 52 98 137 52 98 137 52 98 137 52 98 137 52 98 137 52 93 131 50 93 131 50 93 131 50 93 131 50 93 131 50 93 131 50 93 131 50 93 131 50 93 131 50 93 131 50 93 131 50 93 131 50 93 131 50 93 131 50 93 131 50 93 131 50 81 113 43 81 113 43 81 113 43 81 113 43 81 113 43 81 113 43 81 113 43 81 113 43 81 113 43 81 113 43 81 113 43 81 113 43 81 113 43 81 113 43 81 113 43 81 113 43 80 112 43 80 112 43 80 112 43 80 112 43 80 112 43 80 112 43 80 112 43 80 112 43 80 112 43 80 112 43 80 112 43 80 112 43 80 112 43 80 112 43 80 112 43 80 112 43 69 96 37 69 96 37 69 96 37 69 96 37 69 96 37 69 96 37 69 96 37 69 96 37 69 96 37 69 96 37 69 96 37 69 96 37 69 96 37 69 96 37 69 96 37 81 114 43 81 114 43 81 114 43 81 114 43 81 114 43 81 114 43 81 114 43 81 114 43 81 114 43 81 114 43 81 114 43 81 114 43 81 114 43 81 114 43 81 114 43 81 114 43 81 114 43 81 114 43 81 114 43 81 114 43 81 114 43 81 114 43 81 114 43 81 114 43 81 114 43 81 114 43 81 114 43 81 114 43 81 114 43 81 114 43 81 114 43 81 114 43 74 103 39 74 103 39 74 103 39 74 103 39 74 103 39 74 103 39 74 103 39 74 103 39 74 103 39 74 103 39 74 103 39 74 103 39 74 103 39 74 103 39 74 103 39 74 103 39 92 129 49 92 129 49 92 129 49 92 129 49 92 129 49 92 129 49 92 129 49 92 129 49 92 129 49 92 129 49 92 129 49 92 129 49 92 129 49 92 129 49 92 129 49 92 129 49 86 120 46 86 120 46 86 120 46 86 120 46 86 120 46 86 120 46 86 120 46 86 120 46 86 120 46 86 120 46 86 120 46 86 120 46 86 120 46 86 120 46 86 120 46 86 120 46 76 106 40 76 106 40 76 106 40 76 106 40 76 106 40 76 106 40 76 106 40 76 106 40 76 106 40 76 106 40 76 106 40 76 106 40 76 106 40 76 106 40 76 106 40 76 106 40 66 93 35 66 93 35 66 93 35 66 93 35 66 93 35 66 93 35 66 93 35 66 93 35 66 93 35 66 93 35 66 93 35 66 93 35 66 93 35 66 93 35 66 93 35 66 93 35 89 125 47 89 125 47 89 125 47 89 125 47 89 125 47 89 125 47 89 125 47 89 125 47 89 125 47 89 125 47 89 125 47 89 125 47 89 125 47 89 125 47 89 125 47 89 125 47 88 123 47 88 123 47 88 123 47 88 123 47 88 123 47 88 123 47 88 123 47 88 123 47 88 123 47 88 123 47 88 123 47 88 123 47 88 123 47 88 123 47 88 123 47 88 123 47 105 147 56 105 147 56 105 147 56 105 147 56 105 147 56 105 147 56 105 147 56 105 147 56 105 147 56 105 147 56 105 147 56 105 147 56 105 147 56 105 147 56 105 147 56 105 147 56 67 94 36 67 94 36 67 94 36 67 94 36 67 94 36 67 94 36 67 94 36 67 94 36 67 94 36 67 94 36 67 94 36 67 94 36 67 94 36 67 94 36 67 94 36 67 94 36 98 137 52 98 137 52 98 137 52 98 137 52 98 137 52 98 137 52 98 137 52 98 137 52 98 137 52 98 137 52 98 137 52 98 137 52 98 137 52 98 137 52 98 137 52 98 137 52 93 131 50 93 131 50 93 131 50 93 131 50 93 131 50 93 131 50 93 131 50 93 131 50 93 131 50 93 131 50 93 131 50 93 131 50 93 131 50 93 131 50 93 131 50 93 131 50 81 113 43 81 113 43 81 113 43 81 113 43 81 113 43 81 113 43 81 113 43 81 113 43 81 113 43 81 113 43 81 113 43 81 113 43 81 113 43 81 113 43 81 113 43 81 113 43 80 112 43 80 112 43 80 112 43 80 112 43 80 112 43 80 112 43 80 112 43 80 112 43 80 112 43 80 112 43 80 112 43 80 112 43 80 112 43 80 112 43 80 112 43 80 112 43 69 96 37 69 96 37 69 96 37 69 96 37 69 96 37 69 96 37 69 96 37 69 96 37 69 96 37 69 96 37 69 96 37 69 96 37 69 96 37 69 96 37 69 96 37 81 114 43 81 114 43 81 114 43 81 114 43 81 114 43 81 114 43 81 114 43 81 114 43 81 114 43 81 114 43 81 114 43 81 114 43 81 114 43 81 114 43 81 114 43 81 114 43 81 114 43 81 114 43 81 114 43 81 114 43 81 114 43 81 114 43 81 114 43 81 114 43 81 114 43 81 114 43 81 114 43 81 114 43 81 114 43 81 114 43 81 114 43 81 114 43 74 103 39 74 103 39 74 103 39 74 103 39 74 103 39 74 103 39 74 103 39 74 103 39 74 103 39 74 103 39 74 103 39 74 103 39 74 103 39 74 103 39 74 103 39 74 103 39 92 129 49 92 129 49 92 129 49 92 129 49 92 129 49 92 129 49 92 129 49 92 129 49 92 129 49 92 129 49 92 129 49 92 129 49 92 129 49 92 129 49 92 129 49 92 129 49 86 120 46 86 120 46 86 120 46 86 120 46 86 120 46 86 120 46 86 120 46 86 120 46 86 120 46 86 120 46 86 120 46 86 120 46 86 120 46 86 120 46 86 120 46 86 120 46 76 106 40 76 106 40 76 106 40 76 106 40 76 106 40 76 106 40 76 106 40 76 106 40 76 106 40 76 106 40 76 106 40 76 106 40 76 106 40 76 106 40 76 106 40 76 106 40 66 93 35 66 93 35 66 93 35 66 93 35 66 93 35 66 93 35 66 93 35 66 93 35 66 93 35 66 93 35 66 93 35 66 93 35 66 93 35 66 93 35 66 93 35 66 93 35 89 125 47 89 125 47 89 125 47 89 125 47 89 125 47 89 125 47 89 125 47 89 125 47 89 125 47 89 125 47 89 125 47 89 125 47 89 125 47 89 125 47 89 125 47 89 125 47 88 123 47 88 123 47 88 123 47 88 123 47 88 123 47 88 123 47 88 123 47 88 123 47 88 123 47 88 123 47 88 123 47 88 123 47 88 123 47 88 123 47 88 123 47 88 123 47 105 147 56 105 147 56 105 147 56 105 147 56 105 147 56 105 147 56 105 147 56 105 147 56 105 147 56 105 147 56 105 147 56 105 147 56 105 147 56 105 147 56 105 147 56 105 147 56 67 94 36 67 94 36 67 94 36 67 94 36 67 94 36 67 94 36 67 94 36 67 94 36 67 94 36 67 94 36 67 94 36 67 94 36 67 94 36 67 94 36 67 94 36 67 94 36 98 137 52 98 137 52 98 137 52 98 137 52 98 137 52 98 137 52 98 137 52 98 137 52 98 137 52 98 137 52 98 137 52 98 137 52 98 137 52 98 137 52 98 137 52 98 137 52 93 131 50 93 131 50 93 131 50 93 131 50 93 131 50 93 131 50 93 131 50 93 131 50 93 131 50 93 131 50 93 131 50 93 131 50 93 131 50 93 131 50 93 131 50 93 131 50 81 113 43 81 113 43 81 113 43 81 113 43 81 113 43 81 113 43 81 113 43 81 113 43 81 113 43 81 113 43 81 113 43 81 113 43 81 113 43 81 113 43 81 113 43 81 113 43 80 112 43 80 112 43 80 112 43 80 112 43 80 112 43 80 112 43 80 112 43 80 112 43 80 112 43 80 112 43 80 112 43 80 112 43 80 112 43 80 112 43 80 112 43 80 112 43 69 96 37 69 96 37 69 96 37 69 96 37 69 96 37 69 96 37 69 96 37 69 96 37 69 96 37 69 96 37 69 96 37 69 96 37 69 96 37 69 96 37 69 96 37 81 114 43 81 114 43 81 114 43 81 114 43 81 114 43 81 114 43 81 114 43 81 114 43 81 114 43 81 114 43 81 114 43 81 114 43 81 114 43 81 114 43 81 114 43 81 114 43 81 114 43 81 114 43 81 114 43 81 114 43 81 114 43 81 114 43 81 114 43 81 114 43 81 114 43 81 114 43 81 114 43 81 114 43 81 114 43 81 114 43 81 114 43 81 114 43 74 103 39 74 103 39 74 103 39 74 103 39 74 103 39 74 103 39 74 103 39 74 103 39 74 103 39 74 103 39 74 103 39 74 103 39 74 103 39 74 103 39 74 103 39 74 103 39 92 129 49 92 129 49 92 129 49 92 129 49 92 129 49 92 129 49 92 129 49 92 129 49 92 129 49 92 129 49 92 129 49 92 129 49 92 129 49 92 129 49 92 129 49 92 129 49 86 120 46 86 120 46 86 120 46 86 120 46 86 120 46 86 120 46 86 120 46 86 120 46 86 120 46 86 120 46 86 120 46 86 120 46 86 120 46 86 120 46 86 120 46 86 120 46 76 106 40 76 106 40 76 106 40 76 106 40 76 106 40 76 106 40 76 106 40 76 106 40 76 106 40 76 106 40 76 106 40 76 106 40 76 106 40 76 106 40 76 106 40 76 106 40 66 93 35 66 93 35 66 93 35 66 93 35 66 93 35 66 93 35 66 93 35 66 93 35 66 93 35 66 93 35 66 93 35 66 93 35 66 93 35 66 93 35 66 93 35 66 93 35 89 125 47 89 125 47 89 125 47 89 125 47 89 125 47 89 125 47 89 125 47 89 125 47 89 125 47 89 125 47 89 125 47 89 125 47 89 125 47 89 125 47 89 125 47 89 125 47 88 123 47 88 123 47 88 123 47 88 123 47 88 123 47 88 123 47 88 123 47 88 123 47 88 123 47 88 123 47 88 123 47 88 123 47 88 123 47 88 123 47 88 123 47 88 123 47 105 147 56 105 147 56 105 147 56 105 147 56 105 147 56 105 147 56 105 147 56 105 147 56 105 147 56 105 147 56 105 147 56 105 147 56 105 147 56 105 147 56 105 147 56 105 147 56 67 94 36 67 94 36 67 94 36 67 94 36 67 94 36 67 94 36 67 94 36 67 94 36 67 94 36 67 94 36 67 94 36 67 94 36 67 94 36 67 94 36 67 94 36 67 94 36 98 137 52 98 137 52 98 137 52 98 137 52 98 137 52 98 137 52 98 137 52 98 137 52 98 137 52 98 137 52 98 137 52 98 137 52 98 137 52 98 137 52 98 137 52 98 137 52 93 131 50 93 131 50 93 131 50 93 131 50 93 131 50 93 131 50 93 131 50 93 131 50 93 131 50 93 131 50 93 131 50 93 131 50 93 131 50 93 131 50 93 131 50 93 131 50 81 113 43 81 113 43 81 113 43 81 113 43 81 113 43 81 113 43 81 113 43 81 113 43 81 113 43 81 113 43 81 113 43 81 113 43 81 113 43 81 113 43 81 113 43 81 113 43 80 112 43 80 112 43 80 112 43 80 112 43 80 112 43 80 112 43 80 112 43 80 112 43 80 112 43 80 112 43 80 112 43 80 112 43 80 112 43 80 112 43 80 112 43 80 112 43 69 96 37 69 96 37 69 96 37 69 96 37 69 96 37 69 96 37 69 96 37 69 96 37 69 96 37 69 96 37 69 96 37 69 96 37 69 96 37 69 96 37 69 96 37 81 114 43 81 114 43 81 114 43 81 114 43 81 114 43 81 114 43 81 114 43 81 114 43 81 114 43 81 114 43 81 114 43 81 114 43 81 114 43 81 114 43 81 114 43 81 114 43 81 114 43 81 114 43 81 114 43 81 114 43 81 114 43 81 114 43 81 114 43 81 114 43 81 114 43 81 114 43 81 114 43 81 114 43 81 114 43 81 114 43 81 114 43 81 114 43 74 103 39 74 103 39 74 103 39 74 103 39 74 103 39 74 103 39 74 103 39 74 103 39 74 103 39 74 103 39 74 103 39 74 103 39 74 103 39 74 103 39 74 103 39 74 103 39 92 129 49 92 129 49 92 129 49 92 129 49 92 129 49 92 129 49 92 129 49 92 129 49 92 129 49 92 129 49 92 129 49 92 129 49 92 129 49 92 129 49 92 129 49 92 129 49 86 120 46 86 120 46 86 120 46 86 120 46 86 120 46 86 120 46 86 120 46 86 120 46 86 120 46 86 120 46 86 120 46 86 120 46 86 120 46 86 120 46 86 120 46 86 120 46 76 106 40 76 106 40 76 106 40 76 106 40 76 106 40 76 106 40 76 106 40 76 106 40 76 106 40 76 106 40 76 106 40 76 106 40 76 106 40 76 106 40 76 106 40 76 106 40 66 93 35 66 93 35 66 93 35 66 93 35 66 93 35 66 93 35 66 93 35 66 93 35 66 93 35 66 93 35 66 93 35 66 93 35 66 93 35 66 93 35 66 93 35 66 93 35 89 125 47 89 125 47 89 125 47 89 125 47 89 125 47 89 125 47 89 125 47 89 125 47 89 125 47 89 125 47 89 125 47 89 125 47 89 125 47 89 125 47 89 125 47 89 125 47 88 123 47 88 123 47 88 123 47 88 123 47 88 123 47 88 123 47 88 123 47 88 123 47 88 123 47 88 123 47 88 123 47 88 123 47 88 123 47 88 123 47 88 123 47 88 123 47 105 147 56 105 147 56 105 147 56 105 147 56 105 147 56 105 147 56 105 147 56 105 147 56 105 147 56 105 147 56 105 147 56 105 147 56 105 147 56 105 147 56 105 147 56 105 147 56 67 94 36 67 94 36 67 94 36 67 94 36 67 94 36 67 94 36 67 94 36 67 94 36 67 94 36 67 94 36 67 94 36 67 94 36 67 94 36 67 94 36 67 94 36 67 94 36 98 137 52 98 137 52 98 137 52 98 137 52 98 137 52 98 137 52 98 137 52 98 137 52 98 137 52 98 137 52 98 137 52 98 137 52 98 137 52 98 137 52 98 137 52 98 137 52 93 131 50 93 131 50 93 131 50 93 131 50 93 131 50 93 131 50 93 131 50 93 131 50 93 131 50 93 131 50 93 131 50 93 131 50 93 131 50 93 131 50 93 131 50 93 131 50 81 113 43 81 113 43 81 113 43 81 113 43 81 113 43 81 113 43 81 113 43 81 113 43 81 113 43 81 113 43 81 113 43 81 113 43 81 113 43 81 113 43 81 113 43 81 113 43 80 112 43 80 112 43 80 112 43 80 112 43 80 112 43 80 112 43 80 112 43 80 112 43 80 112 43 80 112 43 80 112 43 80 112 43 80 112 43 80 112 43 80 112 43 80 112 43 69 96 37 69 96 37 69 96 37 69 96 37 69 96 37 69 96 37 69 96 37 69 96 37 69 96 37 69 96 37 69 96 37 69 96 37 69 96 37 69 96 37 69 96 37 81 114 43 81 114 43 81 114 43 81 114 43 81 114 43 81 114 43 81 114 43 81 114 43 81 114 43 81 114 43 81 114 43 81 114 43 81 114 43 81 114 43 81 114 43 81 114 43 81 114 43 81 114 43 81 114 43 81 114 43 81 114 43 81 114 43 81 114 43 81 114 43 81 114 43 81 114 43 81 114 43 81 114 43 81 114 43 81 114 43 81 114 43 81 114 43 74 103 39 74 103 39 74 103 39 74 103 39 74 103 39 74 103 39 74 103 39 74 103 39 74 103 39 74 103 39 74 103 39 74 103 39 74 103 39 74 103 39 74 103 39 74 103 39 92 129 49 92 129 49 92 129 49 92 129 49 92 129 49 92 129 49 92 129 49 92 129 49 92 129 49 92 129 49 92 129 49 92 129 49 92 129 49 92 129 49 92 129 49 92 129 49 86 120 46 86 120 46 86 120 46 86 120 46 86 120 46 86 120 46 86 120 46 86 120 46 86 120 46 86 120 46 86 120 46 86 120 46 86 120 46 86 120 46 86 120 46 86 120 46 76 106 40 76 106 40 76 106 40 76 106 40 76 106 40 76 106 40 76 106 40 76 106 40 76 106 40 76 106 40 76 106 40 76 106 40 76 106 40 76 106 40 76 106 40 76 106 40 66 93 35 66 93 35 66 93 35 66 93 35 66 93 35 66 93 35 66 93 35 66 93 35 66 93 35 66 93 35 66 93 35 66 93 35 66 93 35 66 93 35 66 93 35 66 93 35 89 125 47 89 125 47 89 125 47 89 125 47 89 125 47 89 125 47 89 125 47 89 125 47 89 125 47 89 125 47 89 125 47 89 125 47 89 125 47 89 125 47 89 125 47 89 125 47 88 123 47 88 123 47 88 123 47 88 123 47 88 123 47 88 123 47 88 123 47 88 123 47 88 123 47 88 123 47 88 123 47 88 123 47 88 123 47 88 123 47 88 123 47 88 123 47 105 147 56 105 147 56 105 147 56 105 147 56 105 147 56 105 147 56 105 147 56 105 147 56 105 147 56 105 147 56 105 147 56 105 147 56 105 147 56 105 147 56 105 147 56 105 147 56 67 94 36 67 94 36 67 94 36 67 94 36 67 94 36 67 94 36 67 94 36 67 94 36 67 94 36 67 94 36 67 94 36 67 94 36 67 94 36 67 94 36 67 94 36 67 94 36 98 137 52 98 137 52 98 137 52 98 137 52 98 137 52 98 137 52 98 137 52 98 137 52 98 137 52 98 137 52 98 137 52 98 137 52 98 137 52 98 137 52 98 137 52 98 137 52 93 131 50 93 131 50 93 131 50 93 131 50 93 131 50 93 131 50 93 131 50 93 131 50 93 131 50 93 131 50 93 131 50 93 131 50 93 131 50 93 131 50 93 131 50 93 131 50 81 113 43 81 113 43 81 113 43 81 113 43 81 113 43 81 113 43 81 113 43 81 113 43 81 113 43 81 113 43 81 113 43 81 113 43 81 113 43 81 113 43 81 113 43 81 113 43 80 112 43 80 112 43 80 112 43 80 112 43 80 112 43 80 112 43 80 112 43 80 112 43 80 112 43 80 112 43 80 112 43 80 112 43 80 112 43 80 112 43 80 112 43 80 112 43 69 96 37 69 96 37 69 96 37 69 96 37 69 96 37 69 96 37 69 96 37 69 96 37 69 96 37 69 96 37 69 96 37 69 96 37 69 96 37 69 96 37 69 96 37 81 114 43 81 114 43 81 114 43 81 114 43 81 114 43 81 114 43 81 114 43 81 114 43 81 114 43 81 114 43 81 114 43 81 114 43 81 114 43 81 114 43 81 114 43 81 114 43 81 114 43 81 114 43 81 114 43 81 114 43 81 114 43 81 114 43 81 114 43 81 114 43 81 114 43 81 114 43 81 114 43 81 114 43 81 114 43 81 114 43 81 114 43 81 114 43 74 103 39 74 103 39 74 103 39 74 103 39 74 103 39 74 103 39 74 103 39 74 103 39 74 103 39 74 103 39 74 103 39 74 103 39 74 103 39 74 103 39 74 103 39 74 103 39 92 129 49 92 129 49 92 129 49 92 129 49 92 129 49 92 129 49 92 129 49 92 129 49 92 129 49 92 129 49 92 129 49 92 129 49 92 129 49 92 129 49 92 129 49 92 129 49 86 120 46 86 120 46 86 120 46 86 120 46 86 120 46 86 120 46 86 120 46 86 120 46 86 120 46 86 120 46 86 120 46 86 120 46 86 120 46 86 120 46 86 120 46 86 120 46 76 106 40 76 106 40 76 106 40 76 106 40 76 106 40 76 106 40 76 106 40 76 106 40 76 106 40 76 106 40 76 106 40 76 106 40 76 106 40 76 106 40 76 106 40 76 106 40 66 93 35 66 93 35 66 93 35 66 93 35 66 93 35 66 93 35 66 93 35 66 93 35 66 93 35 66 93 35 66 93 35 66 93 35 66 93 35 66 93 35 66 93 35 66 93 35 89 125 47 89 125 47 89 125 47 89 125 47 89 125 47 89 125 47 89 125 47 89 125 47 89 125 47 89 125 47 89 125 47 89 125 47 89 125 47 89 125 47 89 125 47 89 125 47 88 123 47 88 123 47 88 123 47 88 123 47 88 123 47 88 123 47 88 123 47 88 123 47 88 123 47 88 123 47 88 123 47 88 123 47 88 123 47 88 123 47 88 123 47 88 123 47 105 147 56 105 147 56 105 147 56 105 147 56 105 147 56 105 147 56 105 147 56 105 147 56 105 147 56 105 147 56 105 147 56 105 147 56 105 147 56 105 147 56 105 147 56 105 147 56 67 94 36 67 94 36 67 94 36 67 94 36 67 94 36 67 94 36 67 94 36 67 94 36 67 94 36 67 94 36 67 94 36 67 94 36 67 94 36 67 94 36 67 94 36 67 94 36 98 137 52 98 137 52 98 137 52 98 137 52 98 137 52 98 137 52 98 137 52 98 137 52 98 137 52 98 137 52 98 137 52 98 137 52 98 137 52 98 137 52 98 137 52 98 137 52 93 131 50 93 131 50 93 131 50 93 131 50 93 131 50 93 131 50 93 131 50 93 131 50 93 131 50 93 131 50 93 131 50 93 131 50 93 131 50 93 131 50 93 131 50 93 131 50 81 113 43 81 113 43 81 113 43 81 113 43 81 113 43 81 113 43 81 113 43 81 113 43 81 113 43 81 113 43 81 113 43 81 113 43 81 113 43 81 113 43 81 113 43 81 113 43 80 112 43 80 112 43 80 112 43 80 112 43 80 112 43 80 112 43 80 112 43 80 112 43 80 112 43 80 112 43 80 112 43 80 112 43 80 112 43 80 112 43 80 112 43 80 112 43 69 96 37 69 96 37 69 96 37 69 96 37 69 96 37 69 96 37 69 96 37 69 96 37 69 96 37 69 96 37 69 96 37 69 96 37 69 96 37 69 96 37 69 96 37 81 114 43 81 114 43 81 114 43 81 114 43 81 114 43 81 114 43 81 114 43 81 114 43 81 114 43 81 114 43 81 114 43 81 114 43 81 114 43 81 114 43 81 114 43 81 114 43 81 114 43 81 114 43 81 114 43 81 114 43 81 114 43 81 114 43 81 114 43 81 114 43 81 114 43 81 114 43 81 114 43 81 114 43 81 114 43 81 114 43 81 114 43 81 114 43 74 103 39 74 103 39 74 103 39 74 103 39 74 103 39 74 103 39 74 103 39 74 103 39 74 103 39 74 103 39 74 103 39 74 103 39 74 103 39 74 103 39 74 103 39 74 103 39 92 129 49 92 129 49 92 129 49 92 129 49 92 129 49 92 129 49 92 129 49 92 129 49 92 129 49 92 129 49 92 129 49 92 129 49 92 129 49 92 129 49 92 129 49 92 129 49 86 120 46 86 120 46 86 120 46 86 120 46 86 120 46 86 120 46 86 120 46 86 120 46 86 120 46 86 120 46 86 120 46 86 120 46 86 120 46 86 120 46 86 120 46 86 120 46 76 106 40 76 106 40 76 106 40 76 106 40 76 106 40 76 106 40 76 106 40 76 106 40 76 106 40 76 106 40 76 106 40 76 106 40 76 106 40 76 106 40 76 106 40 76 106 40 66 93 35 66 93 35 66 93 35 66 93 35 66 93 35 66 93 35 66 93 35 66 93 35 66 93 35 66 93 35 66 93 35 66 93 35 66 93 35 66 93 35 66 93 35 66 93 35 89 125 47 89 125 47 89 125 47 89 125 47 89 125 47 89 125 47 89 125 47 89 125 47 89 125 47 89 125 47 89 125 47 89 125 47 89 125 47 89 125 47 89 125 47 89 125 47 88 123 47 88 123 47 88 123 47 88 123 47 88 123 47 88 123 47 88 123 47 88 123 47 88 123 47 88 123 47 88 123 47 88 123 47 88 123 47 88 123 47 88 123 47 88 123 47 105 147 56 105 147 56 105 147 56 105 147 56 105 147 56 105 147 56 105 147 56 105 147 56 105 147 56 105 147 56 105 147 56 105 147 56 105 147 56 105 147 56 105 147 56 105 147 56 67 94 36 67 94 36 67 94 36 67 94 36 67 94 36 67 94 36 67 94 36 67 94 36 67 94 36 67 94 36 67 94 36 67 94 36 67 94 36 67 94 36 67 94 36 67 94 36 98 137 52 98 137 52 98 137 52 98 137 52 98 137 52 98 137 52 98 137 52 98 137 52 98 137 52 98 137 52 98 137 52 98 137 52 98 137 52 98 137 52 98 137 52 98 137 52 93 131 50 93 131 50 93 131 50 93 131 50 93 131 50 93 131 50 93 131 50 93 131 50 93 131 50 93 131 50 93 131 50 93 131 50 93 131 50 93 131 50 93 131 50 93 131 50 81 113 43 81 113 43 81 113 43 81 113 43 81 113 43 81 113 43 81 113 43 81 113 43 81 113 43 81 113 43 81 113 43 81 113 43 81 113 43 81 113 43 81 113 43 81 113 43 80 112 43 80 112 43 80 112 43 80 112 43 80 112 43 80 112 43 80 112 43 80 112 43 80 112 43 80 112 43 80 112 43 80 112 43 80 112 43 80 112 43 80 112 43 80 112 43 69 96 37 69 96 37 69 96 37 69 96 37 69 96 37 69 96 37 69 96 37 69 96 37 69 96 37 69 96 37 69 96 37 69 96 37 69 96 37 69 96 37 69 96 37 81 114 43 81 114 43 81 114 43 81 114 43 81 114 43 81 114 43 81 114 43 81 114 43 81 114 43 81 114 43 81 114 43 81 114 43 81 114 43 81 114 43 81 114 43 81 114 43 81 114 43 81 114 43 81 114 43 81 114 43 81 114 43 81 114 43 81 114 43 81 114 43 81 114 43 81 114 43 81 114 43 81 114 43 81 114 43 81 114 43 81 114 43 81 114 43 74 103 39 74 103 39 74 103 39 74 103 39 74 103 39 74 103 39 74 103 39 74 103 39 74 103 39 74 103 39 74 103 39 74 103 39 74 103 39 74 103 39 74 103 39 74 103 39 92 129 49 92 129 49 92 129 49 92 129 49 92 129 49 92 129 49 92 129 49 92 129 49 92 129 49 92 129 49 92 129 49 92 129 49 92 129 49 92 129 49 92 129 49 92 129 49 86 120 46 86 120 46 86 120 46 86 120 46 86 120 46 86 120 46 86 120 46 86 120 46 86 120 46 86 120 46 86 120 46 86 120 46 86 120 46 86 120 46 86 120 46 86 120 46 76 106 40 76 106 40 76 106 40 76 106 40 76 106 40 76 106 40 76 106 40 76 106 40 76 106 40 76 106 40 76 106 40 76 106 40 76 106 40 76 106 40 76 106 40 76 106 40 66 93 35 66 93 35 66 93 35 66 93 35 66 93 35 66 93 35 66 93 35 66 93 35 66 93 35 66 93 35 66 93 35 66 93 35 66 93 35 66 93 35 66 93 35 66 93 35 89 125 47 89 125 47 89 125 47 89 125 47 89 125 47 89 125 47 89 125 47 89 125 47 89 125 47 89 125 47 89 125 47 89 125 47 89 125 47 89 125 47 89 125 47 89 125 47 88 123 47 88 123 47 88 123 47 88 123 47 88 123 47 88 123 47 88 123 47 88 123 47 88 123 47 88 123 47 88 123 47 88 123 47 88 123 47 88 123 47 88 123 47 88 123 47 105 147 56 105 147 56 105 147 56 105 147 56 105 147 56 105 147 56 105 147 56 105 147 56 105 147 56 105 147 56 105 147 56 105 147 56 105 147 56 105 147 56 105 147 56 105 147 56 67 94 36 67 94 36 67 94 36 67 94 36 67 94 36 67 94 36 67 94 36 67 94 36 67 94 36 67 94 36 67 94 36 67 94 36 67 94 36 67 94 36 67 94 36 67 94 36 98 137 52 98 137 52 98 137 52 98 137 52 98 137 52 98 137 52 98 137 52 98 137 52 98 137 52 98 137 52 98 137 52 98 137 52 98 137 52 98 137 52 98 137 52 98 137 52 93 131 50 93 131 50 93 131 50 93 131 50 93 131 50 93 131 50 93 131 50 93 131 50 93 131 50 93 131 50 93 131 50 93 131 50 93 131 50 93 131 50 93 131 50 93 131 50 81 113 43 81 113 43 81 113 43 81 113 43 81 113 43 81 113 43 81 113 43 81 113 43 81 113 43 81 113 43 81 113 43 81 113 43 81 113 43 81 113 43 81 113 43 81 113 43 80 112 43 80 112 43 80 112 43 80 112 43 80 112 43 80 112 43 80 112 43 80 112 43 80 112 43 80 112 43 80 112 43 80 112 43 80 112 43 80 112 43 80 112 43 80 112 43 69 96 37 69 96 37 69 96 37 69 96 37 69 96 37 69 96 37 69 96 37 69 96 37 69 96 37 69 96 37 69 96 37 69 96 37 69 96 37 69 96 37 69 96 37 81 114 43 81 114 43 81 114 43 81 114 43 81 114 43 81 114 43 81 114 43 81 114 43 81 114 43 81 114 43 81 114 43 81 114 43 81 114 43 81 114 43 81 114 43 81 114 43 81 114 43 81 114 43 81 114 43 81 114 43 81 114 43 81 114 43 81 114 43 81 114 43 81 114 43 81 114 43 81 114 43 81 114 43 81 114 43 81 114 43 81 114 43 81 114 43 74 103 39 74 103 39 74 103 39 74 103 39 74 103 39 74 103 39 74 103 39 74 103 39 74 103 39 74 103 39 74 103 39 74 103 39 74 103 39 74 103 39 74 103 39 74 103 39 92 129 49 92 129 49 92 129 49 92 129 49 92 129 49 92 129 49 92 129 49 92 129 49 92 129 49 92 129 49 92 129 49 92 129 49 92 129 49 92 129 49 92 129 49 92 129 49 86 120 46 86 120 46 86 120 46 86 120 46 86 120 46 86 120 46 86 120 46 86 120 46 86 120 46 86 120 46 86 120 46 86 120 46 86 120 46 86 120 46 86 120 46 86 120 46 76 106 40 76 106 40 76 106 40 76 106 40 76 106 40 76 106 40 76 106 40 76 106 40 76 106 40 76 106 40 76 106 40 76 106 40 76 106 40 76 106 40 76 106 40 76 106 40 66 93 35 66 93 35 66 93 35 66 93 35 66 93 35 66 93 35 66 93 35 66 93 35 66 93 35 66 93 35 66 93 35 66 93 35 66 93 35 66 93 35 66 93 35 66 93 35 89 125 47 89 125 47 89 125 47 89 125 47 89 125 47 89 125 47 89 125 47 89 125 47 89 125 47 89 125 47 89 125 47 89 125 47 89 125 47 89 125 47 89 125 47 89 125 47 88 123 47 88 123 47 88 123 47 88 123 47 88 123 47 88 123 47 88 123 47 88 123 47 88 123 47 88 123 47 88 123 47 88 123 47 88 123 47 88 123 47 88 123 47 88 123 47 105 147 56 105 147 56 105 147 56 105 147 56 105 147 56 105 147 56 105 147 56 105 147 56 105 147 56 105 147 56 105 147 56 105 147 56 105 147 56 105 147 56 105 147 56 105 147 56 67 94 36 67 94 36 67 94 36 67 94 36 67 94 36 67 94 36 67 94 36 67 94 36 67 94 36 67 94 36 67 94 36 67 94 36 67 94 36 67 94 36 67 94 36 67 94 36 98 137 52 98 137 52 98 137 52 98 137 52 98 137 52 98 137 52 98 137 52 98 137 52 98 137 52 98 137 52 98 137 52 98 137 52 98 137 52 98 137 52 98 137 52 98 137 52 93 131 50 93 131 50 93 131 50 93 131 50 93 131 50 93 131 50 93 131 50 93 131 50 93 131 50 93 131 50 93 131 50 93 131 50 93 131 50 93 131 50 93 131 50 93 131 50 81 113 43 81 113 43 81 113 43 81 113 43 81 113 43 81 113 43 81 113 43 81 113 43 81 113 43 81 113 43 81 113 43 81 113 43 81 113 43 81 113 43 81 113 43 81 113 43 80 112 43 80 112 43 80 112 43 80 112 43 80 112 43 80 112 43 80 112 43 80 112 43 80 112 43 80 112 43 80 112 43 80 112 43 80 112 43 80 112 43 80 112 43 80 112 43 69 96 37 69 96 37 69 96 37 69 96 37 69 96 37 69 96 37 69 96 37 69 96 37 69 96 37 69 96 37 69 96 37 69 96 37 69 96 37 69 96 37 69 96 37 81 114 43 81 114 43 81 114 43 81 114 43 81 114 43 81 114 43 81 114 43 81 114 43 81 114 43 81 114 43 81 114 43 81 114 43 81 114 43 81 114 43 81 114 43 81 114 43 81 114 43 81 114 43 81 114 43 81 114 43 81 114 43 81 114 43 81 114 43 81 114 43 81 114 43 81 114 43 81 114 43 81 114 43 81 114 43 81 114 43 81 114 43 81 114 43 74 103 39 74 103 39 74 103 39 74 103 39 74 103 39 74 103 39 74 103 39 74 103 39 74 103 39 74 103 39 74 103 39 74 103 39 74 103 39 74 103 39 74 103 39 74 103 39 92 129 49 92 129 49 92 129 49 92 129 49 92 129 49 92 129 49 92 129 49 92 129 49 92 129 49 92 129 49 92 129 49 92 129 49 92 129 49 92 129 49 92 129 49 92 129 49 86 120 46 86 120 46 86 120 46 86 120 46 86 120 46 86 120 46 86 120 46 86 120 46 86 120 46 86 120 46 86 120 46 86 120 46 86 120 46 86 120 46 86 120 46 86 120 46 76 106 40 76 106 40 76 106 40 76 106 40 76 106 40 76 106 40 76 106 40 76 106 40 76 106 40 76 106 40 76 106 40 76 106 40 76 106 40 76 106 40 76 106 40 76 106 40 66 93 35 66 93 35 66 93 35 66 93 35 66 93 35 66 93 35 66 93 35 66 93 35 66 93 35 66 93 35 66 93 35 66 93 35 66 93 35 66 93 35 66 93 35 66 93 35 89 125 47 89 125 47 89 125 47 89 125 47 89 125 47 89 125 47 89 125 47 89 125 47 89 125 47 89 125 47 89 125 47 89 125 47 89 125 47 89 125 47 89 125 47 89 125 47 88 123 47 88 123 47 88 123 47 88 123 47 88 123 47 88 123 47 88 123 47 88 123 47 88 123 47 88 123 47 88 123 47 88 123 47 88 123 47 88 123 47 88 123 47 88 123 47 105 147 56 105 147 56 105 147 56 105 147 56 105 147 56 105 147 56 105 147 56 105 147 56 105 147 56 105 147 56 105 147 56 105 147 56 105 147 56 105 147 56 105 147 56 105 147 56 67 94 36 67 94 36 67 94 36 67 94 36 67 94 36 67 94 36 67 94 36 67 94 36 67 94 36 67 94 36 67 94 36 67 94 36 67 94 36 67 94 36 67 94 36 67 94 36 98 137 52 98 137 52 98 137 52 98 137 52 98 137 52 98 137 52 98 137 52 98 137 52 98 137 52 98 137 52 98 137 52 98 137 52 98 137 52 98 137 52 98 137 52 98 137 52 93 131 50 93 131 50 93 131 50 93 131 50 93 131 50 93 131 50 93 131 50 93 131 50 93 131 50 93 131 50 93 131 50 93 131 50 93 131 50 93 131 50 93 131 50 93 131 50 81 113 43 81 113 43 81 113 43 81 113 43 81 113 43 81 113 43 81 113 43 81 113 43 81 113 43 81 113 43 81 113 43 81 113 43 81 113 43 81 113 43 81 113 43 81 113 43 80 112 43 80 112 43 80 112 43 80 112 43 80 112 43 80 112 43 80 112 43 80 112 43 80 112 43 80 112 43 80 112 43 80 112 43 80 112 43 80 112 43 80 112 43 80 112 43 69 96 37 69 96 37 69 96 37 69 96 37 69 96 37 69 96 37 69 96 37 69 96 37 69 96 37 69 96 37 69 96 37 69 96 37 69 96 37 69 96 37 69 96 37 81 114 43 81 114 43 81 114 43 81 114 43 81 114 43 81 114 43 81 114 43 81 114 43 81 114 43 81 114 43 81 114 43 81 114 43 81 114 43 81 114 43 81 114 43 81 114 43 81 114 43 81 114 43 81 114 43 81 114 43 81 114 43 81 114 43 81 114 43 81 114 43 81 114 43 81 114 43 81 114 43 81 114 43 81 114 43 81 114 43 81 114 43 81 114 43 74 103 39 74 103 39 74 103 39 74 103 39 74 103 39 74 103 39 74 103 39 74 103 39 74 103 39 74 103 39 74 103 39 74 103 39 74 103 39 74 103 39 74 103 39 74 103 39 92 129 49 92 129 49 92 129 49 92 129 49 92 129 49 92 129 49 92 129 49 92 129 49 92 129 49 92 129 49 92 129 49 92 129 49 92 129 49 92 129 49 92 129 49 92 129 49 86 120 46 86 120 46 86 120 46 86 120 46 86 120 46 86 120 46 86 120 46 86 120 46 86 120 46 86 120 46 86 120 46 86 120 46 86 120 46 86 120 46 86 120 46 86 120 46 76 106 40 76 106 40 76 106 40 76 106 40 76 106 40 76 106 40 76 106 40 76 106 40 76 106 40 76 106 40 76 106 40 76 106 40 76 106 40 76 106 40 76 106 40 76 106 40 66 93 35 66 93 35 66 93 35 66 93 35 66 93 35 66 93 35 66 93 35 66 93 35 66 93 35 66 93 35 66 93 35 66 93 35 66 93 35 66 93 35 66 93 35 66 93 35 89 125 47 89 125 47 89 125 47 89 125 47 89 125 47 89 125 47 89 125 47 89 125 47 89 125 47 89 125 47 89 125 47 89 125 47 89 125 47 89 125 47 89 125 47 89 125 47 88 123 47 88 123 47 88 123 47 88 123 47 88 123 47 88 123 47 88 123 47 88 123 47 88 123 47 88 123 47 88 123 47 88 123 47 88 123 47 88 123 47 88 123 47 88 123 47 105 147 56 105 147 56 105 147 56 105 147 56 105 147 56 105 147 56 105 147 56 105 147 56 105 147 56 105 147 56 105 147 56 105 147 56 105 147 56 105 147 56 105 147 56 105 147 56 67 94 36 67 94 36 67 94 36 67 94 36 67 94 36 67 94 36 67 94 36 67 94 36 67 94 36 67 94 36 67 94 36 67 94 36 67 94 36 67 94 36 67 94 36 67 94 36 98 137 52 98 137 52 98 137 52 98 137 52 98 137 52 98 137 52 98 137 52 98 137 52 98 137 52 98 137 52 98 137 52 98 137 52 98 137 52 98 137 52 98 137 52 98 137 52 93 131 50 93 131 50 93 131 50 93 131 50 93 131 50 93 131 50 93 131 50 93 131 50 93 131 50 93 131 50 93 131 50 93 131 50 93 131 50 93 131 50 93 131 50 93 131 50 81 113 43 81 113 43 81 113 43 81 113 43 81 113 43 81 113 43 81 113 43 81 113 43 81 113 43 81 113 43 81 113 43 81 113 43 81 113 43 81 113 43 81 113 43 81 113 43 80 112 43 80 112 43 80 112 43 80 112 43 80 112 43 80 112 43 80 112 43 80 112 43 80 112 43 80 112 43 80 112 43 80 112 43 80 112 43 80 112 43 80 112 43 80 112 43 69 96 37 69 96 37 69 96 37 69 96 37 69 96 37 69 96 37 69 96 37 69 96 37 69 96 37 69 96 37 69 96 37 69 96 37 69 96 37 69 96 37 69 96 37 81 114 43 81 114 43 81 114 43 81 114 43 81 114 43 81 114 43 81 114 43 81 114 43 81 114 43 81 114 43 81 114 43 81 114 43 81 114 43 81 114 43 81 114 43 81 114 43 81 114 43 81 114 43 81 114 43 81 114 43 81 114 43 81 114 43 81 114 43 81 114 43 81 114 43 81 114 43 81 114 43 81 114 43 81 114 43 81 114 43 81 114 43 81 114 43 74 103 39 74 103 39 74 103 39 74 103 39 74 103 39 74 103 39 74 103 39 74 103 39 74 103 39 74 103 39 74 103 39 74 103 39 74 103 39 74 103 39 74 103 39 74 103 39 92 129 49 92 129 49 92 129 49 92 129 49 92 129 49 92 129 49 92 129 49 92 129 49 92 129 49 92 129 49 92 129 49 92 129 49 92 129 49 92 129 49 92 129 49 92 129 49 86 120 46 86 120 46 86 120 46 86 120 46 86 120 46 86 120 46 86 120 46 86 120 46 86 120 46 86 120 46 86 120 46 86 120 46 86 120 46 86 120 46 86 120 46 86 120 46 76 106 40 76 106 40 76 106 40 76 106 40 76 106 40 76 106 40 76 106 40 76 106 40 76 106 40 76 106 40 76 106 40 76 106 40 76 106 40 76 106 40 76 106 40 76 106 40 66 93 35 66 93 35 66 93 35 66 93 35 66 93 35 66 93 35 66 93 35 66 93 35 66 93 35 66 93 35 66 93 35 66 93 35 66 93 35 66 93 35 66 93 35 66 93 35 89 125 47 89 125 47 89 125 47 89 125 47 89 125 47 89 125 47 89 125 47 89 125 47 89 125 47 89 125 47 89 125 47 89 125 47 89 125 47 89 125 47 89 125 47 89 125 47 88 123 47 88 123 47 88 123 47 88 123 47 88 123 47 88 123 47 88 123 47 88 123 47 88 123 47 88 123 47 88 123 47 88 123 47 88 123 47 88 123 47 88 123 47 88 123 47 105 147 56 105 147 56 105 147 56 105 147 56 105 147 56 105 147 56 105 147 56 105 147 56 105 147 56 105 147 56 105 147 56 105 147 56 105 147 56 105 147 56 105 147 56 105 147 56 67 94 36 67 94 36 67 94 36 67 94 36 67 94 36 67 94 36 67 94 36 67 94 36 67 94 36 67 94 36 67 94 36 67 94 36 67 94 36 67 94 36 67 94 36 67 94 36 98 137 52 98 137 52 98 137 52 98 137 52 98 137 52 98 137 52 98 137 52 98 137 52 98 137 52 98 137 52 98 137 52 98 137 52 98 137 52 98 137 52 98 137 52 98 137 52 93 131 50 93 131 50 93 131 50 93 131 50 93 131 50 93 131 50 93 131 50 93 131 50 93 131 50 93 131 50 93 131 50 93 131 50 93 131 50 93 131 50 93 131 50 93 131 50 81 113 43 81 113 43 81 113 43 81 113 43 81 113 43 81 113 43 81 113 43 81 113 43 81 113 43 81 113 43 81 113 43 81 113 43 81 113 43 81 113 43 81 113 43 81 113 43 80 112 43 80 112 43 80 112 43 80 112 43 80 112 43 80 112 43 80 112 43 80 112 43 80 112 43 80 112 43 80 112 43 80 112 43 80 112 43 80 112 43 80 112 43 80 112 43 69 96 37 69 96 37 69 96 37 69 96 37 69 96 37 69 96 37 69 96 37 69 96 37 69 96 37 69 96 37 69 96 37 69 96 37 69 96 37 69 96 37 69 96 37 81 114 43 81 114 43 81 114 43 81 114 43 81 114 43 81 114 43 81 114 43 81 114 43 81 114 43 81 114 43 81 114 43 81 114 43 81 114 43 81 114 43 81 114 43 81 114 43 81 114 43 81 114 43 81 114 43 81 114 43 81 114 43 81 114 43 81 114 43 81 114 43 81 114 43 81 114 43 81 114 43 81 114 43 81 114 43 81 114 43 81 114 43 81 114 43 74 103 39 74 103 39 74 103 39 74 103 39 74 103 39 74 103 39 74 103 39 74 103 39 74 103 39 74 103 39 74 103 39 74 103 39 74 103 39 74 103 39 74 103 39 74 103 39 92 129 49 92 129 49 92 129 49 92 129 49 92 129 49 92 129 49 92 129 49 92 129 49 92 129 49 92 129 49 92 129 49 92 129 49 92 129 49 92 129 49 92 129 49 92 129 49 86 120 46 86 120 46 86 120 46 86 120 46 86 120 46 86 120 46 86 120 46 86 120 46 86 120 46 86 120 46 86 120 46 86 120 46 86 120 46 86 120 46 86 120 46 86 120 46 76 106 40 76 106 40 76 106 40 76 106 40 76 106 40 76 106 40 76 106 40 76 106 40 76 106 40 76 106 40 76 106 40 76 106 40 76 106 40 76 106 40 76 106 40 76 106 40 66 93 35 66 93 35 66 93 35 66 93 35 66 93 35 66 93 35 66 93 35 66 93 35 66 93 35 66 93 35 66 93 35 66 93 35 66 93 35 66 93 35 66 93 35 66 93 35 89 125 47 89 125 47 89 125 47 89 125 47 89 125 47 89 125 47 89 125 47 89 125 47 89 125 47 89 125 47 89 125 47 89 125 47 89 125 47 89 125 47 89 125 47 89 125 47 88 123 47 88 123 47 88 123 47 88 123 47 88 123 47 88 123 47 88 123 47 88 123 47 88 123 47 88 123 47 88 123 47 88 123 47 88 123 47 88 123 47 88 123 47 88 123 47 105 147 56 105 147 56 105 147 56 105 147 56 105 147 56 105 147 56 105 147 56 105 147 56 105 147 56 105 147 56 105 147 56 105 147 56 105 147 56 105 147 56 105 147 56 105 147 56 67 94 36 67 94 36 67 94 36 67 94 36 67 94 36 67 94 36 67 94 36 67 94 36 67 94 36 67 94 36 67 94 36 67 94 36 67 94 36 67 94 36 67 94 36 67 94 36 98 137 52 98 137 52 98 137 52 98 137 52 98 137 52 98 137 52 98 137 52 98 137 52 98 137 52 98 137 52 98 137 52 98 137 52 98 137 52 98 137 52 98 137 52 98 137 52 93 131 50 93 131 50 93 131 50 93 131 50 93 131 50 93 131 50 93 131 50 93 131 50 93 131 50 93 131 50 93 131 50 93 131 50 93 131 50 93 131 50 93 131 50 93 131 50 81 113 43 81 113 43 81 113 43 81 113 43 81 113 43 81 113 43 81 113 43 81 113 43 81 113 43 81 113 43 81 113 43 81 113 43 81 113 43 81 113 43 81 113 43 81 113 43 80 112 43 80 112 43 80 112 43 80 112 43 80 112 43 80 112 43 80 112 43 80 112 43 80 112 43 80 112 43 80 112 43 80 112 43 80 112 43 80 112 43 80 112 43 80 112 43 69 96 37 69 96 37 69 96 37 69 96 37 69 96 37 69 96 37 69 96 37 69 96 37 69 96 37 69 96 37 69 96 37 69 96 37 69 96 37 69 96 37 69 96 37 81 114 43 81 114 43 81 114 43 81 114 43 81 114 43 81 114 43 81 114 43 81 114 43 81 114 43 81 114 43 81 114 43 81 114 43 81 114 43 81 114 43 81 114 43 81 114 43 81 114 43 81 114 43 81 114 43 81 114 43 81 114 43 81 114 43 81 114 43 81 114 43 81 114 43 81 114 43 81 114 43 81 114 43 81 114 43 81 114 43 81 114 43 81 114 43 74 103 39 74 103 39 74 103 39 74 103 39 74 103 39 74 103 39 74 103 39 74 103 39 74 103 39 74 103 39 74 103 39 74 103 39 74 103 39 74 103 39 74 103 39 74 103 39 92 129 49 92 129 49 92 129 49 92 129 49 92 129 49 92 129 49 92 129 49 92 129 49 92 129 49 92 129 49 92 129 49 92 129 49 92 129 49 92 129 49 92 129 49 92 129 49 86 120 46 86 120 46 86 120 46 86 120 46 86 120 46 86 120 46 86 120 46 86 120 46 86 120 46 86 120 46 86 120 46 86 120 46 86 120 46 86 120 46 86 120 46 86 120 46 76 106 40 76 106 40 76 106 40 76 106 40 76 106 40 76 106 40 76 106 40 76 106 40 76 106 40 76 106 40 76 106 40 76 106 40 76 106 40 76 106 40 76 106 40 76 106 40 66 93 35 66 93 35 66 93 35 66 93 35 66 93 35 66 93 35 66 93 35 66 93 35 66 93 35 66 93 35 66 93 35 66 93 35 66 93 35 66 93 35 66 93 35 66 93 35 89 125 47 89 125 47 89 125 47 89 125 47 89 125 47 89 125 47 89 125 47 89 125 47 89 125 47 89 125 47 89 125 47 89 125 47 89 125 47 89 125 47 89 125 47 89 125 47 88 123 47 88 123 47 88 123 47 88 123 47 88 123 47 88 123 47 88 123 47 88 123 47 88 123 47 88 123 47 88 123 47 88 123 47 88 123 47 88 123 47 88 123 47 88 123 47 105 147 56 105 147 56 105 147 56 105 147 56 105 147 56 105 147 56 105 147 56 105 147 56 105 147 56 105 147 56 105 147 56 105 147 56 105 147 56 105 147 56 105 147 56 105 147 56 67 94 36 67 94 36 67 94 36 67 94 36 67 94 36 67 94 36 67 94 36 67 94 36 67 94 36 67 94 36 67 94 36 67 94 36 67 94 36 67 94 36 67 94 36 67 94 36 98 137 52 98 137 52 98 137 52 98 137 52 98 137 52 98 137 52 98 137 52 98 137 52 98 137 52 98 137 52 98 137 52 98 137 52 98 137 52 98 137 52 98 137 52 98 137 52 93 131 50 93 131 50 93 131 50 93 131 50 93 131 50 93 131 50 93 131 50 93 131 50 93 131 50 93 131 50 93 131 50 93 131 50 93 131 50 93 131 50 93 131 50 93 131 50 81 113 43 81 113 43 81 113 43 81 113 43 81 113 43 81 113 43 81 113 43 81 113 43 81 113 43 81 113 43 81 113 43 81 113 43 81 113 43 81 113 43 81 113 43 81 113 43 80 112 43 80 112 43 80 112 43 80 112 43 80 112 43 80 112 43 80 112 43 80 112 43 80 112 43 80 112 43 80 112 43 80 112 43 80 112 43 80 112 43 80 112 43 80 112 43 69 96 37 69 96 37 69 96 37 69 96 37 69 96 37 69 96 37 69 96 37 69 96 37 69 96 37 69 96 37 69 96 37 69 96 37 69 96 37 69 96 37 69 96 37 81 114 43 81 114 43 81 114 43 81 114 43 81 114 43 81 114 43 81 114 43 81 114 43 81 114 43 81 114 43 81 114 43 81 114 43 81 114 43 81 114 43 81 114 43 81 114 43 81 114 43 81 114 43 81 114 43 81 114 43 81 114 43 81 114 43 81 114 43 81 114 43 81 114 43 81 114 43 81 114 43 81 114 43 81 114 43 81 114 43 81 114 43 81 114 43 74 103 39 74 103 39 74 103 39 74 103 39 74 103 39 74 103 39 74 103 39 74 103 39 74 103 39 74 103 39 74 103 39 74 103 39 74 103 39 74 103 39 74 103 39 74 103 39 92 129 49 92 129 49 92 129 49 92 129 49 92 129 49 92 129 49 92 129 49 92 129 49 92 129 49 92 129 49 92 129 49 92 129 49 92 129 49 92 129 49 92 129 49 92 129 49 86 120 46 86 120 46 86 120 46 86 120 46 86 120 46 86 120 46 86 120 46 86 120 46 86 120 46 86 120 46 86 120 46 86 120 46 86 120 46 86 120 46 86 120 46 86 120 46 76 106 40 76 106 40 76 106 40 76 106 40 76 106 40 76 106 40 76 106 40 76 106 40 76 106 40 76 106 40 76 106 40 76 106 40 76 106 40 76 106 40 76 106 40 76 106 40 66 93 35 66 93 35 66 93 35 66 93 35 66 93 35 66 93 35 66 93 35 66 93 35 66 93 35 66 93 35 66 93 35 66 93 35 66 93 35 66 93 35 66 93 35 66 93 35 89 125 47 89 125 47 89 125 47 89 125 47 89 125 47 89 125 47 89 125 47 89 125 47 89 125 47 89 125 47 89 125 47 89 125 47 89 125 47 89 125 47 89 125 47 89 125 47 88 123 47 88 123 47 88 123 47 88 123 47 88 123 47 88 123 47 88 123 47 88 123 47 88 123 47 88 123 47 88 123 47 88 123 47 88 123 47 88 123 47 88 123 47 88 123 47 105 147 56 105 147 56 105 147 56 105 147 56 105 147 56 105 147 56 105 147 56 105 147 56 105 147 56 105 147 56 105 147 56 105 147 56 105 147 56 105 147 56 105 147 56 105 147 56 67 94 36 67 94 36 67 94 36 67 94 36 67 94 36 67 94 36 67 94 36 67 94 36 67 94 36 67 94 36 67 94 36 67 94 36 67 94 36 67 94 36 67 94 36 67 94 36 98 137 52 98 137 52 98 137 52 98 137 52 98 137 52 98 137 52 98 137 52 98 137 52 98 137 52 98 137 52 98 137 52 98 137 52 98 137 52 98 137 52 98 137 52 98 137 52 93 131 50 93 131 50 93 131 50 93 131 50 93 131 50 93 131 50 93 131 50 93 131 50 93 131 50 93 131 50 93 131 50 93 131 50 93 131 50 93 131 50 93 131 50 93 131 50 81 113 43 81 113 43 81 113 43 81 113 43 81 113 43 81 113 43 81 113 43 81 113 43 81 113 43 81 113 43 81 113 43 81 113 43 81 113 43 81 113 43 81 113 43 81 113 43 80 112 43 80 112 43 80 112 43 80 112 43 80 112 43 80 112 43 80 112 43 80 112 43 80 112 43 80 112 43 80 112 43 80 112 43 80 112 43 80 112 43 80 112 43 80 112 43 69 96 37 69 96 37 69 96 37 69 96 37 69 96 37 69 96 37 69 96 37 69 96 37 69 96 37 69 96 37 69 96 37 69 96 37 69 96 37 69 96 37 69 96 37 81 114 43 81 114 43 81 114 43 81 114 43 81 114 43 81 114 43 81 114 43 81 114 43 81 114 43 81 114 43 81 114 43 81 114 43 81 114 43 81 114 43 81 114 43 81 114 43 81 114 43 81 114 43 81 114 43 81 114 43 81 114 43 81 114 43 81 114 43 81 114 43 81 114 43 81 114 43 81 114 43 81 114 43 81 114 43 81 114 43 81 114 43 81 114 43 74 103 39 74 103 39 74 103 39 74 103 39 74 103 39 74 103 39 74 103 39 74 103 39 74 103 39 74 103 39 74 103 39 74 103 39 74 103 39 74 103 39 74 103 39 74 103 39 92 129 49 92 129 49 92 129 49 92 129 49 92 129 49 92 129 49 92 129 49 92 129 49 92 129 49 92 129 49 92 129 49 92 129 49 92 129 49 92 129 49 92 129 49 92 129 49 86 120 46 86 120 46 86 120 46 86 120 46 86 120 46 86 120 46 86 120 46 86 120 46 86 120 46 86 120 46 86 120 46 86 120 46 86 120 46 86 120 46 86 120 46 86 120 46 76 106 40 76 106 40 76 106 40 76 106 40 76 106 40 76 106 40 76 106 40 76 106 40 76 106 40 76 106 40 76 106 40 76 106 40 76 106 40 76 106 40 76 106 40 76 106 40 66 93 35 66 93 35 66 93 35 66 93 35 66 93 35 66 93 35 66 93 35 66 93 35 66 93 35 66 93 35 66 93 35 66 93 35 66 93 35 66 93 35 66 93 35 66 93 35 72 102 39 72 102 39 72 102 39 72 102 39 72 102 39 72 102 39 72 102 39 72 102 39 72 102 39 72 102 39 72 102 39 72 102 39 72 102 39 72 102 39 72 102 39 72 102 39 82 115 44 82 115 44 82 115 44 82 115 44 82 115 44 82 115 44 82 115 44 82 115 44 82 115 44 82 115 44 82 115 44 82 115 44 82 115 44 82 115 44 82 115 44 82 115 44 74 104 39 74 104 39 74 104 39 74 104 39 74 104 39 74 104 39 74 104 39 74 104 39 74 104 39 74 104 39 74 104 39 74 104 39 74 104 39 74 104 39 74 104 39 74 104 39 75 105 40 75 105 40 75 105 40 75 105 40 75 105 40 75 105 40 75 105 40 75 105 40 75 105 40 75 105 40 75 105 40 75 105 40 75 105 40 75 105 40 75 105 40 75 105 40 89 125 48 89 125 48 89 125 48 89 125 48 89 125 48 89 125 48 89 125 48 89 125 48 89 125 48 89 125 48 89 125 48 89 125 48 89 125 48 89 125 48 89 125 48 89 125 48 83 116 44 83 116 44 83 116 44 83 116 44 83 116 44 83 116 44 83 116 44 83 116 44 83 116 44 83 116 44 83 116 44 83 116 44 83 116 44 83 116 44 83 116 44 83 116 44 81 113 43 81 113 43 81 113 43 81 113 43 81 113 43 81 113 43 81 113 43 81 113 43 81 113 43 81 113 43 81 113 43 81 113 43 81 113 43 81 113 43 81 113 43 81 113 43 80 112 43 80 112 43 80 112 43 80 112 43 80 112 43 80 112 43 80 112 43 80 112 43 80 112 43 80 112 43 80 112 43 80 112 43 80 112 43 80 112 43 80 112 43 80 112 43 77 109 41 77 109 41 77 109 41 77 109 41 77 109 41 77 109 41 77 109 41 77 109 41 77 109 41 77 109 41 77 109 41 77 109 41 77 109 41 77 109 41 77 109 41 104 146 55 104 146 55 104 146 55 104 146 55 104 146 55 104 146 55 104 146 55 104 146 55 104 146 55 104 146 55 104 146 55 104 146 55 104 146 55 104 146 55 104 146 55 104 146 55 68 95 36 68 95 36 68 95 36 68 95 36 68 95 36 68 95 36 68 95 36 68 95 36 68 95 36 68 95 36 68 95 36 68 95 36 68 95 36 68 95 36 68 95 36 68 95 36 92 129 49 92 129 49 92 129 49 92 129 49 92 129 49 92 129 49 92 129 49 92 129 49 92 129 49 92 129 49 92 129 49 92 129 49 92 129 49 92 129 49 92 129 49 92 129 49 72 101 38 72 101 38 72 101 38 72 101 38 72 101 38 72 101 38 72 101 38 72 101 38 72 101 38 72 101 38 72 101 38 72 101 38 72 101 38 72 101 38 72 101 38 72 101 38 78 110 42 78 110 42 78 110 42 78 110 42 78 110 42 78 110 42 78 110 42 78 110 42 78 110 42 78 110 42 78 110 42 78 110 42 78 110 42 78 110 42 78 110 42 78 110 42 74 104 39 74 104 39 74 104 39 74 104 39 74 104 39 74 104 39 74 104 39 74 104 39 74 104 39 74 104 39 74 104 39 74 104 39 74 104 39 74 104 39 74 104 39 74 104 39 86 121 46 86 121 46 86 121 46 86 121 46 86 121 46 86 121 46 86 121 46 86 121 46 86 121 46 86 121 46 86 121 46 86 121 46 86 121 46 86 121 46 86 121 46 86 121 46 72 102 39 72 102 39 72 102 39 72 102 39 72 102 39 72 102 39 72 102 39 72 102 39 72 102 39 72 102 39 72 102 39 72 102 39 72 102 39 72 102 39 72 102 39 72 102 39 82 115 44 82 115 44 82 115 44 82 115 44 82 115 44 82 115 44 82 115 44 82 115 44 82 115 44 82 115 44 82 115 44 82 115 44 82 115 44 82 115 44 82 115 44 82 115 44 74 104 39 74 104 39 74 104 39 74 104 39 74 104 39 74 104 39 74 104 39 74 104 39 74 104 39 74 104 39 74 104 39 74 104 39 74 104 39 74 104 39 74 104 39 74 104 39 75 105 40 75 105 40 75 105 40 75 105 40 75 105 40 75 105 40 75 105 40 75 105 40 75 105 40 75 105 40 75 105 40 75 105 40 75 105 40 75 105 40 75 105 40 75 105 40 89 125 48 89 125 48 89 125 48 89 125 48 89 125 48 89 125 48 89 125 48 89 125 48 89 125 48 89 125 48 89 125 48 89 125 48 89 125 48 89 125 48 89 125 48 89 125 48 83 116 44 83 116 44 83 116 44 83 116 44 83 116 44 83 116 44 83 116 44 83 116 44 83 116 44 83 116 44 83 116 44 83 116 44 83 116 44 83 116 44 83 116 44 83 116 44 81 113 43 81 113 43 81 113 43 81 113 43 81 113 43 81 113 43 81 113 43 81 113 43 81 113 43 81 113 43 81 113 43 81 113 43 81 113 43 81 113 43 81 113 43 81 113 43 80 112 43 80 112 43 80 112 43 80 112 43 80 112 43 80 112 43 80 112 43 80 112 43 80 112 43 80 112 43 80 112 43 80 112 43 80 112 43 80 112 43 80 112 43 80 112 43 77 109 41 77 109 41 77 109 41 77 109 41 77 109 41 77 109 41 77 109 41 77 109 41 77 109 41 77 109 41 77 109 41 77 109 41 77 109 41 77 109 41 77 109 41 104 146 55 104 146 55 104 146 55 104 146 55 104 146 55 104 146 55 104 146 55 104 146 55 104 146 55 104 146 55 104 146 55 104 146 55 104 146 55 104 146 55 104 146 55 104 146 55 68 95 36 68 95 36 68 95 36 68 95 36 68 95 36 68 95 36 68 95 36 68 95 36 68 95 36 68 95 36 68 95 36 68 95 36 68 95 36 68 95 36 68 95 36 68 95 36 92 129 49 92 129 49 92 129 49 92 129 49 92 129 49 92 129 49 92 129 49 92 129 49 92 129 49 92 129 49 92 129 49 92 129 49 92 129 49 92 129 49 92 129 49 92 129 49 72 101 38 72 101 38 72 101 38 72 101 38 72 101 38 72 101 38 72 101 38 72 101 38 72 101 38 72 101 38 72 101 38 72 101 38 72 101 38 72 101 38 72 101 38 72 101 38 78 110 42 78 110 42 78 110 42 78 110 42 78 110 42 78 110 42 78 110 42 78 110 42 78 110 42 78 110 42 78 110 42 78 110 42 78 110 42 78 110 42 78 110 42 78 110 42 74 104 39 74 104 39 74 104 39 74 104 39 74 104 39 74 104 39 74 104 39 74 104 39 74 104 39 74 104 39 74 104 39 74 104 39 74 104 39 74 104 39 74 104 39 74 104 39 86 121 46 86 121 46 86 121 46 86 121 46 86 121 46 86 121 46 86 121 46 86 121 46 86 121 46 86 121 46 86 121 46 86 121 46 86 121 46 86 121 46 86 121 46 86 121 46 72 102 39 72 102 39 72 102 39 72 102 39 72 102 39 72 102 39 72 102 39 72 102 39 72 102 39 72 102 39 72 102 39 72 102 39 72 102 39 72 102 39 72 102 39 72 102 39 82 115 44 82 115 44 82 115 44 82 115 44 82 115 44 82 115 44 82 115 44 82 115 44 82 115 44 82 115 44 82 115 44 82 115 44 82 115 44 82 115 44 82 115 44 82 115 44 74 104 39 74 104 39 74 104 39 74 104 39 74 104 39 74 104 39 74 104 39 74 104 39 74 104 39 74 104 39 74 104 39 74 104 39 74 104 39 74 104 39 74 104 39 74 104 39 75 105 40 75 105 40 75 105 40 75 105 40 75 105 40 75 105 40 75 105 40 75 105 40 75 105 40 75 105 40 75 105 40 75 105 40 75 105 40 75 105 40 75 105 40 75 105 40 89 125 48 89 125 48 89 125 48 89 125 48 89 125 48 89 125 48 89 125 48 89 125 48 89 125 48 89 125 48 89 125 48 89 125 48 89 125 48 89 125 48 89 125 48 89 125 48 83 116 44 83 116 44 83 116 44 83 116 44 83 116 44 83 116 44 83 116 44 83 116 44 83 116 44 83 116 44 83 116 44 83 116 44 83 116 44 83 116 44 83 116 44 83 116 44 81 113 43 81 113 43 81 113 43 81 113 43 81 113 43 81 113 43 81 113 43 81 113 43 81 113 43 81 113 43 81 113 43 81 113 43 81 113 43 81 113 43 81 113 43 81 113 43 80 112 43 80 112 43 80 112 43 80 112 43 80 112 43 80 112 43 80 112 43 80 112 43 80 112 43 80 112 43 80 112 43 80 112 43 80 112 43 80 112 43 80 112 43 80 112 43 77 109 41 77 109 41 77 109 41 77 109 41 77 109 41 77 109 41 77 109 41 77 109 41 77 109 41 77 109 41 77 109 41 77 109 41 77 109 41 77 109 41 77 109 41 104 146 55 104 146 55 104 146 55 104 146 55 104 146 55 104 146 55 104 146 55 104 146 55 104 146 55 104 146 55 104 146 55 104 146 55 104 146 55 104 146 55 104 146 55 104 146 55 68 95 36 68 95 36 68 95 36 68 95 36 68 95 36 68 95 36 68 95 36 68 95 36 68 95 36 68 95 36 68 95 36 68 95 36 68 95 36 68 95 36 68 95 36 68 95 36 92 129 49 92 129 49 92 129 49 92 129 49 92 129 49 92 129 49 92 129 49 92 129 49 92 129 49 92 129 49 92 129 49 92 129 49 92 129 49 92 129 49 92 129 49 92 129 49 72 101 38 72 101 38 72 101 38 72 101 38 72 101 38 72 101 38 72 101 38 72 101 38 72 101 38 72 101 38 72 101 38 72 101 38 72 101 38 72 101 38 72 101 38 72 101 38 78 110 42 78 110 42 78 110 42 78 110 42 78 110 42 78 110 42 78 110 42 78 110 42 78 110 42 78 110 42 78 110 42 78 110 42 78 110 42 78 110 42 78 110 42 78 110 42 74 104 39 74 104 39 74 104 39 74 104 39 74 104 39 74 104 39 74 104 39 74 104 39 74 104 39 74 104 39 74 104 39 74 104 39 74 104 39 74 104 39 74 104 39 74 104 39 86 121 46 86 121 46 86 121 46 86 121 46 86 121 46 86 121 46 86 121 46 86 121 46 86 121 46 86 121 46 86 121 46 86 121 46 86 121 46 86 121 46 86 121 46 86 121 46 72 102 39 72 102 39 72 102 39 72 102 39 72 102 39 72 102 39 72 102 39 72 102 39 72 102 39 72 102 39 72 102 39 72 102 39 72 102 39 72 102 39 72 102 39 72 102 39 82 115 44 82 115 44 82 115 44 82 115 44 82 115 44 82 115 44 82 115 44 82 115 44 82 115 44 82 115 44 82 115 44 82 115 44 82 115 44 82 115 44 82 115 44 82 115 44 74 104 39 74 104 39 74 104 39 74 104 39 74 104 39 74 104 39 74 104 39 74 104 39 74 104 39 74 104 39 74 104 39 74 104 39 74 104 39 74 104 39 74 104 39 74 104 39 75 105 40 75 105 40 75 105 40 75 105 40 75 105 40 75 105 40 75 105 40 75 105 40 75 105 40 75 105 40 75 105 40 75 105 40 75 105 40 75 105 40 75 105 40 75 105 40 89 125 48 89 125 48 89 125 48 89 125 48 89 125 48 89 125 48 89 125 48 89 125 48 89 125 48 89 125 48 89 125 48 89 125 48 89 125 48 89 125 48 89 125 48 89 125 48 83 116 44 83 116 44 83 116 44 83 116 44 83 116 44 83 116 44 83 116 44 83 116 44 83 116 44 83 116 44 83 116 44 83 116 44 83 116 44 83 116 44 83 116 44 83 116 44 81 113 43 81 113 43 81 113 43 81 113 43 81 113 43 81 113 43 81 113 43 81 113 43 81 113 43 81 113 43 81 113 43 81 113 43 81 113 43 81 113 43 81 113 43 81 113 43 80 112 43 80 112 43 80 112 43 80 112 43 80 112 43 80 112 43 80 112 43 80 112 43 80 112 43 80 112 43 80 112 43 80 112 43 80 112 43 80 112 43 80 112 43 80 112 43 77 109 41 77 109 41 77 109 41 77 109 41 77 109 41 77 109 41 77 109 41 77 109 41 77 109 41 77 109 41 77 109 41 77 109 41 77 109 41 77 109 41 77 109 41 104 146 55 104 146 55 104 146 55 104 146 55 104 146 55 104 146 55 104 146 55 104 146 55 104 146 55 104 146 55 104 146 55 104 146 55 104 146 55 104 146 55 104 146 55 104 146 55 68 95 36 68 95 36 68 95 36 68 95 36 68 95 36 68 95 36 68 95 36 68 95 36 68 95 36 68 95 36 68 95 36 68 95 36 68 95 36 68 95 36 68 95 36 68 95 36 92 129 49 92 129 49 92 129 49 92 129 49 92 129 49 92 129 49 92 129 49 92 129 49 92 129 49 92 129 49 92 129 49 92 129 49 92 129 49 92 129 49 92 129 49 92 129 49 72 101 38 72 101 38 72 101 38 72 101 38 72 101 38 72 101 38 72 101 38 72 101 38 72 101 38 72 101 38 72 101 38 72 101 38 72 101 38 72 101 38 72 101 38 72 101 38 78 110 42 78 110 42 78 110 42 78 110 42 78 110 42 78 110 42 78 110 42 78 110 42 78 110 42 78 110 42 78 110 42 78 110 42 78 110 42 78 110 42 78 110 42 78 110 42 74 104 39 74 104 39 74 104 39 74 104 39 74 104 39 74 104 39 74 104 39 74 104 39 74 104 39 74 104 39 74 104 39 74 104 39 74 104 39 74 104 39 74 104 39 74 104 39 86 121 46 86 121 46 86 121 46 86 121 46 86 121 46 86 121 46 86 121 46 86 121 46 86 121 46 86 121 46 86 121 46 86 121 46 86 121 46 86 121 46 86 121 46 86 121 46 72 102 39 72 102 39 72 102 39 72 102 39 72 102 39 72 102 39 72 102 39 72 102 39 72 102 39 72 102 39 72 102 39 72 102 39 72 102 39 72 102 39 72 102 39 72 102 39 82 115 44 82 115 44 82 115 44 82 115 44 82 115 44 82 115 44 82 115 44 82 115 44 82 115 44 82 115 44 82 115 44 82 115 44 82 115 44 82 115 44 82 115 44 82 115 44 74 104 39 74 104 39 74 104 39 74 104 39 74 104 39 74 104 39 74 104 39 74 104 39 74 104 39 74 104 39 74 104 39 74 104 39 74 104 39 74 104 39 74 104 39 74 104 39 75 105 40 75 105 40 75 105 40 75 105 40 75 105 40 75 105 40 75 105 40 75 105 40 75 105 40 75 105 40 75 105 40 75 105 40 75 105 40 75 105 40 75 105 40 75 105 40 89 125 48 89 125 48 89 125 48 89 125 48 89 125 48 89 125 48 89 125 48 89 125 48 89 125 48 89 125 48 89 125 48 89 125 48 89 125 48 89 125 48 89 125 48 89 125 48 83 116 44 83 116 44 83 116 44 83 116 44 83 116 44 83 116 44 83 116 44 83 116 44 83 116 44 83 116 44 83 116 44 83 116 44 83 116 44 83 116 44 83 116 44 83 116 44 81 113 43 81 113 43 81 113 43 81 113 43 81 113 43 81 113 43 81 113 43 81 113 43 81 113 43 81 113 43 81 113 43 81 113 43 81 113 43 81 113 43 81 113 43 81 113 43 80 112 43 80 112 43 80 112 43 80 112 43 80 112 43 80 112 43 80 112 43 80 112 43 80 112 43 80 112 43 80 112 43 80 112 43 80 112 43 80 112 43 80 112 43 80 112 43 77 109 41 77 109 41 77 109 41 77 109 41 77 109 41 77 109 41 77 109 41 77 109 41 77 109 41 77 109 41 77 109 41 77 109 41 77 109 41 77 109 41 77 109 41 104 146 55 104 146 55 104 146 55 104 146 55 104 146 55 104 146 55 104 146 55 104 146 55 104 146 55 104 146 55 104 146 55 104 146 55 104 146 55 104 146 55 104 146 55 104 146 55 68 95 36 68 95 36 68 95 36 68 95 36 68 95 36 68 95 36 68 95 36 68 95 36 68 95 36 68 95 36 68 95 36 68 95 36 68 95 36 68 95 36 68 95 36 68 95 36 92 129 49 92 129 49 92 129 49 92 129 49 92 129 49 92 129 49 92 129 49 92 129 49 92 129 49 92 129 49 92 129 49 92 129 49 92 129 49 92 129 49 92 129 49 92 129 49 72 101 38 72 101 38 72 101 38 72 101 38 72 101 38 72 101 38 72 101 38 72 101 38 72 101 38 72 101 38 72 101 38 72 101 38 72 101 38 72 101 38 72 101 38 72 101 38 78 110 42 78 110 42 78 110 42 78 110 42 78 110 42 78 110 42 78 110 42 78 110 42 78 110 42 78 110 42 78 110 42 78 110 42 78 110 42 78 110 42 78 110 42 78 110 42 74 104 39 74 104 39 74 104 39 74 104 39 74 104 39 74 104 39 74 104 39 74 104 39 74 104 39 74 104 39 74 104 39 74 104 39 74 104 39 74 104 39 74 104 39 74 104 39 86 121 46 86 121 46 86 121 46 86 121 46 86 121 46 86 121 46 86 121 46 86 121 46 86 121 46 86 121 46 86 121 46 86 121 46 86 121 46 86 121 46 86 121 46 86 121 46 72 102 39 72 102 39 72 102 39 72 102 39 72 102 39 72 102 39 72 102 39 72 102 39 72 102 39 72 102 39 72 102 39 72 102 39 72 102 39 72 102 39 72 102 39 72 102 39 82 115 44 82 115 44 82 115 44 82 115 44 82 115 44 82 115 44 82 115 44 82 115 44 82 115 44 82 115 44 82 115 44 82 115 44 82 115 44 82 115 44 82 115 44 82 115 44 74 104 39 74 104 39 74 104 39 74 104 39 74 104 39 74 104 39 74 104 39 74 104 39 74 104 39 74 104 39 74 104 39 74 104 39 74 104 39 74 104 39 74 104 39 74 104 39 75 105 40 75 105 40 75 105 40 75 105 40 75 105 40 75 105 40 75 105 40 75 105 40 75 105 40 75 105 40 75 105 40 75 105 40 75 105 40 75 105 40 75 105 40 75 105 40 89 125 48 89 125 48 89 125 48 89 125 48 89 125 48 89 125 48 89 125 48 89 125 48 89 125 48 89 125 48 89 125 48 89 125 48 89 125 48 89 125 48 89 125 48 89 125 48 83 116 44 83 116 44 83 116 44 83 116 44 83 116 44 83 116 44 83 116 44 83 116 44 83 116 44 83 116 44 83 116 44 83 116 44 83 116 44 83 116 44 83 116 44 83 116 44 81 113 43 81 113 43 81 113 43 81 113 43 81 113 43 81 113 43 81 113 43 81 113 43 81 113 43 81 113 43 81 113 43 81 113 43 81 113 43 81 113 43 81 113 43 81 113 43 80 112 43 80 112 43 80 112 43 80 112 43 80 112 43 80 112 43 80 112 43 80 112 43 80 112 43 80 112 43 80 112 43 80 112 43 80 112 43 80 112 43 80 112 43 80 112 43 77 109 41 77 109 41 77 109 41 77 109 41 77 109 41 77 109 41 77 109 41 77 109 41 77 109 41 77 109 41 77 109 41 77 109 41 77 109 41 77 109 41 77 109 41 104 146 55 104 146 55 104 146 55 104 146 55 104 146 55 104 146 55 104 146 55 104 146 55 104 146 55 104 146 55 104 146 55 104 146 55 104 146 55 104 146 55 104 146 55 104 146 55 68 95 36 68 95 36 68 95 36 68 95 36 68 95 36 68 95 36 68 95 36 68 95 36 68 95 36 68 95 36 68 95 36 68 95 36 68 95 36 68 95 36 68 95 36 68 95 36 92 129 49 92 129 49 92 129 49 92 129 49 92 129 49 92 129 49 92 129 49 92 129 49 92 129 49 92 129 49 92 129 49 92 129 49 92 129 49 92 129 49 92 129 49 92 129 49 72 101 38 72 101 38 72 101 38 72 101 38 72 101 38 72 101 38 72 101 38 72 101 38 72 101 38 72 101 38 72 101 38 72 101 38 72 101 38 72 101 38 72 101 38 72 101 38 78 110 42 78 110 42 78 110 42 78 110 42 78 110 42 78 110 42 78 110 42 78 110 42 78 110 42 78 110 42 78 110 42 78 110 42 78 110 42 78 110 42 78 110 42 78 110 42 74 104 39 74 104 39 74 104 39 74 104 39 74 104 39 74 104 39 74 104 39 74 104 39 74 104 39 74 104 39 74 104 39 74 104 39 74 104 39 74 104 39 74 104 39 74 104 39 86 121 46 86 121 46 86 121 46 86 121 46 86 121 46 86 121 46 86 121 46 86 121 46 86 121 46 86 121 46 86 121 46 86 121 46 86 121 46 86 121 46 86 121 46 86 121 46 72 102 39 72 102 39 72 102 39 72 102 39 72 102 39 72 102 39 72 102 39 72 102 39 72 102 39 72 102 39 72 102 39 72 102 39 72 102 39 72 102 39 72 102 39 72 102 39 82 115 44 82 115 44 82 115 44 82 115 44 82 115 44 82 115 44 82 115 44 82 115 44 82 115 44 82 115 44 82 115 44 82 115 44 82 115 44 82 115 44 82 115 44 82 115 44 74 104 39 74 104 39 74 104 39 74 104 39 74 104 39 74 104 39 74 104 39 74 104 39 74 104 39 74 104 39 74 104 39 74 104 39 74 104 39 74 104 39 74 104 39 74 104 39 75 105 40 75 105 40 75 105 40 75 105 40 75 105 40 75 105 40 75 105 40 75 105 40 75 105 40 75 105 40 75 105 40 75 105 40 75 105 40 75 105 40 75 105 40 75 105 40 89 125 48 89 125 48 89 125 48 89 125 48 89 125 48 89 125 48 89 125 48 89 125 48 89 125 48 89 125 48 89 125 48 89 125 48 89 125 48 89 125 48 89 125 48 89 125 48 83 116 44 83 116 44 83 116 44 83 116 44 83 116 44 83 116 44 83 116 44 83 116 44 83 116 44 83 116 44 83 116 44 83 116 44 83 116 44 83 116 44 83 116 44 83 116 44 81 113 43 81 113 43 81 113 43 81 113 43 81 113 43 81 113 43 81 113 43 81 113 43 81 113 43 81 113 43 81 113 43 81 113 43 81 113 43 81 113 43 81 113 43 81 113 43 80 112 43 80 112 43 80 112 43 80 112 43 80 112 43 80 112 43 80 112 43 80 112 43 80 112 43 80 112 43 80 112 43 80 112 43 80 112 43 80 112 43 80 112 43 80 112 43 77 109 41 77 109 41 77 109 41 77 109 41 77 109 41 77 109 41 77 109 41 77 109 41 77 109 41 77 109 41 77 109 41 77 109 41 77 109 41 77 109 41 77 109 41 104 146 55 104 146 55 104 146 55 104 146 55 104 146 55 104 146 55 104 146 55 104 146 55 104 146 55 104 146 55 104 146 55 104 146 55 104 146 55 104 146 55 104 146 55 104 146 55 68 95 36 68 95 36 68 95 36 68 95 36 68 95 36 68 95 36 68 95 36 68 95 36 68 95 36 68 95 36 68 95 36 68 95 36 68 95 36 68 95 36 68 95 36 68 95 36 92 129 49 92 129 49 92 129 49 92 129 49 92 129 49 92 129 49 92 129 49 92 129 49 92 129 49 92 129 49 92 129 49 92 129 49 92 129 49 92 129 49 92 129 49 92 129 49 72 101 38 72 101 38 72 101 38 72 101 38 72 101 38 72 101 38 72 101 38 72 101 38 72 101 38 72 101 38 72 101 38 72 101 38 72 101 38 72 101 38 72 101 38 72 101 38 78 110 42 78 110 42 78 110 42 78 110 42 78 110 42 78 110 42 78 110 42 78 110 42 78 110 42 78 110 42 78 110 42 78 110 42 78 110 42 78 110 42 78 110 42 78 110 42 74 104 39 74 104 39 74 104 39 74 104 39 74 104 39 74 104 39 74 104 39 74 104 39 74 104 39 74 104 39 74 104 39 74 104 39 74 104 39 74 104 39 74 104 39 74 104 39 86 121 46 86 121 46 86 121 46 86 121 46 86 121 46 86 121 46 86 121 46 86 121 46 86 121 46 86 121 46 86 121 46 86 121 46 86 121 46 86 121 46 86 121 46 86 121 46 72 102 39 72 102 39 72 102 39 72 102 39 72 102 39 72 102 39 72 102 39 72 102 39 72 102 39 72 102 39 72 102 39 72 102 39 72 102 39 72 102 39 72 102 39 72 102 39 82 115 44 82 115 44 82 115 44 82 115 44 82 115 44 82 115 44 82 115 44 82 115 44 82 115 44 82 115 44 82 115 44 82 115 44 82 115 44 82 115 44 82 115 44 82 115 44 74 104 39 74 104 39 74 104 39 74 104 39 74 104 39 74 104 39 74 104 39 74 104 39 74 104 39 74 104 39 74 104 39 74 104 39 74 104 39 74 104 39 74 104 39 74 104 39 75 105 40 75 105 40 75 105 40 75 105 40 75 105 40 75 105 40 75 105 40 75 105 40 75 105 40 75 105 40 75 105 40 75 105 40 75 105 40 75 105 40 75 105 40 75 105 40 89 125 48 89 125 48 89 125 48 89 125 48 89 125 48 89 125 48 89 125 48 89 125 48 89 125 48 89 125 48 89 125 48 89 125 48 89 125 48 89 125 48 89 125 48 89 125 48 83 116 44 83 116 44 83 116 44 83 116 44 83 116 44 83 116 44 83 116 44 83 116 44 83 116 44 83 116 44 83 116 44 83 116 44 83 116 44 83 116 44 83 116 44 83 116 44 81 113 43 81 113 43 81 113 43 81 113 43 81 113 43 81 113 43 81 113 43 81 113 43 81 113 43 81 113 43 81 113 43 81 113 43 81 113 43 81 113 43 81 113 43 81 113 43 80 112 43 80 112 43 80 112 43 80 112 43 80 112 43 80 112 43 80 112 43 80 112 43 80 112 43 80 112 43 80 112 43 80 112 43 80 112 43 80 112 43 80 112 43 80 112 43 77 109 41 77 109 41 77 109 41 77 109 41 77 109 41 77 109 41 77 109 41 77 109 41 77 109 41 77 109 41 77 109 41 77 109 41 77 109 41 77 109 41 77 109 41 104 146 55 104 146 55 104 146 55 104 146 55 104 146 55 104 146 55 104 146 55 104 146 55 104 146 55 104 146 55 104 146 55 104 146 55 104 146 55 104 146 55 104 146 55 104 146 55 68 95 36 68 95 36 68 95 36 68 95 36 68 95 36 68 95 36 68 95 36 68 95 36 68 95 36 68 95 36 68 95 36 68 95 36 68 95 36 68 95 36 68 95 36 68 95 36 92 129 49 92 129 49 92 129 49 92 129 49 92 129 49 92 129 49 92 129 49 92 129 49 92 129 49 92 129 49 92 129 49 92 129 49 92 129 49 92 129 49 92 129 49 92 129 49 72 101 38 72 101 38 72 101 38 72 101 38 72 101 38 72 101 38 72 101 38 72 101 38 72 101 38 72 101 38 72 101 38 72 101 38 72 101 38 72 101 38 72 101 38 72 101 38 78 110 42 78 110 42 78 110 42 78 110 42 78 110 42 78 110 42 78 110 42 78 110 42 78 110 42 78 110 42 78 110 42 78 110 42 78 110 42 78 110 42 78 110 42 78 110 42 74 104 39 74 104 39 74 104 39 74 104 39 74 104 39 74 104 39 74 104 39 74 104 39 74 104 39 74 104 39 74 104 39 74 104 39 74 104 39 74 104 39 74 104 39 74 104 39 86 121 46 86 121 46 86 121 46 86 121 46 86 121 46 86 121 46 86 121 46 86 121 46 86 121 46 86 121 46 86 121 46 86 121 46 86 121 46 86 121 46 86 121 46 86 121 46 72 102 39 72 102 39 72 102 39 72 102 39 72 102 39 72 102 39 72 102 39 72 102 39 72 102 39 72 102 39 72 102 39 72 102 39 72 102 39 72 102 39 72 102 39 72 102 39 82 115 44 82 115 44 82 115 44 82 115 44 82 115 44 82 115 44 82 115 44 82 115 44 82 115 44 82 115 44 82 115 44 82 115 44 82 115 44 82 115 44 82 115 44 82 115 44 74 104 39 74 104 39 74 104 39 74 104 39 74 104 39 74 104 39 74 104 39 74 104 39 74 104 39 74 104 39 74 104 39 74 104 39 74 104 39 74 104 39 74 104 39 74 104 39 75 105 40 75 105 40 75 105 40 75 105 40 75 105 40 75 105 40 75 105 40 75 105 40 75 105 40 75 105 40 75 105 40 75 105 40 75 105 40 75 105 40 75 105 40 75 105 40 89 125 48 89 125 48 89 125 48 89 125 48 89 125 48 89 125 48 89 125 48 89 125 48 89 125 48 89 125 48 89 125 48 89 125 48 89 125 48 89 125 48 89 125 48 89 125 48 83 116 44 83 116 44 83 116 44 83 116 44 83 116 44 83 116 44 83 116 44 83 116 44 83 116 44 83 116 44 83 116 44 83 116 44 83 116 44 83 116 44 83 116 44 83 116 44 81 113 43 81 113 43 81 113 43 81 113 43 81 113 43 81 113 43 81 113 43 81 113 43 81 113 43 81 113 43 81 113 43 81 113 43 81 113 43 81 113 43 81 113 43 81 113 43 80 112 43 80 112 43 80 112 43 80 112 43 80 112 43 80 112 43 80 112 43 80 112 43 80 112 43 80 112 43 80 112 43 80 112 43 80 112 43 80 112 43 80 112 43 80 112 43 77 109 41 77 109 41 77 109 41 77 109 41 77 109 41 77 109 41 77 109 41 77 109 41 77 109 41 77 109 41 77 109 41 77 109 41 77 109 41 77 109 41 77 109 41 104 146 55 104 146 55 104 146 55 104 146 55 104 146 55 104 146 55 104 146 55 104 146 55 104 146 55 104 146 55 104 146 55 104 146 55 104 146 55 104 146 55 104 146 55 104 146 55 68 95 36 68 95 36 68 95 36 68 95 36 68 95 36 68 95 36 68 95 36 68 95 36 68 95 36 68 95 36 68 95 36 68 95 36 68 95 36 68 95 36 68 95 36 68 95 36 92 129 49 92 129 49 92 129 49 92 129 49 92 129 49 92 129 49 92 129 49 92 129 49 92 129 49 92 129 49 92 129 49 92 129 49 92 129 49 92 129 49 92 129 49 92 129 49 72 101 38 72 101 38 72 101 38 72 101 38 72 101 38 72 101 38 72 101 38 72 101 38 72 101 38 72 101 38 72 101 38 72 101 38 72 101 38 72 101 38 72 101 38 72 101 38 78 110 42 78 110 42 78 110 42 78 110 42 78 110 42 78 110 42 78 110 42 78 110 42 78 110 42 78 110 42 78 110 42 78 110 42 78 110 42 78 110 42 78 110 42 78 110 42 74 104 39 74 104 39 74 104 39 74 104 39 74 104 39 74 104 39 74 104 39 74 104 39 74 104 39 74 104 39 74 104 39 74 104 39 74 104 39 74 104 39 74 104 39 74 104 39 86 121 46 86 121 46 86 121 46 86 121 46 86 121 46 86 121 46 86 121 46 86 121 46 86 121 46 86 121 46 86 121 46 86 121 46 86 121 46 86 121 46 86 121 46 86 121 46 72 102 39 72 102 39 72 102 39 72 102 39 72 102 39 72 102 39 72 102 39 72 102 39 72 102 39 72 102 39 72 102 39 72 102 39 72 102 39 72 102 39 72 102 39 72 102 39 82 115 44 82 115 44 82 115 44 82 115 44 82 115 44 82 115 44 82 115 44 82 115 44 82 115 44 82 115 44 82 115 44 82 115 44 82 115 44 82 115 44 82 115 44 82 115 44 74 104 39 74 104 39 74 104 39 74 104 39 74 104 39 74 104 39 74 104 39 74 104 39 74 104 39 74 104 39 74 104 39 74 104 39 74 104 39 74 104 39 74 104 39 74 104 39 75 105 40 75 105 40 75 105 40 75 105 40 75 105 40 75 105 40 75 105 40 75 105 40 75 105 40 75 105 40 75 105 40 75 105 40 75 105 40 75 105 40 75 105 40 75 105 40 89 125 48 89 125 48 89 125 48 89 125 48 89 125 48 89 125 48 89 125 48 89 125 48 89 125 48 89 125 48 89 125 48 89 125 48 89 125 48 89 125 48 89 125 48 89 125 48 83 116 44 83 116 44 83 116 44 83 116 44 83 116 44 83 116 44 83 116 44 83 116 44 83 116 44 83 116 44 83 116 44 83 116 44 83 116 44 83 116 44 83 116 44 83 116 44 81 113 43 81 113 43 81 113 43 81 113 43 81 113 43 81 113 43 81 113 43 81 113 43 81 113 43 81 113 43 81 113 43 81 113 43 81 113 43 81 113 43 81 113 43 81 113 43 80 112 43 80 112 43 80 112 43 80 112 43 80 112 43 80 112 43 80 112 43 80 112 43 80 112 43 80 112 43 80 112 43 80 112 43 80 112 43 80 112 43 80 112 43 80 112 43 77 109 41 77 109 41 77 109 41 77 109 41 77 109 41 77 109 41 77 109 41 77 109 41 77 109 41 77 109 41 77 109 41 77 109 41 77 109 41 77 109 41 77 109 41 104 146 55 104 146 55 104 146 55 104 146 55 104 146 55 104 146 55 104 146 55 104 146 55 104 146 55 104 146 55 104 146 55 104 146 55 104 146 55 104 146 55 104 146 55 104 146 55 68 95 36 68 95 36 68 95 36 68 95 36 68 95 36 68 95 36 68 95 36 68 95 36 68 95 36 68 95 36 68 95 36 68 95 36 68 95 36 68 95 36 68 95 36 68 95 36 92 129 49 92 129 49 92 129 49 92 129 49 92 129 49 92 129 49 92 129 49 92 129 49 92 129 49 92 129 49 92 129 49 92 129 49 92 129 49 92 129 49 92 129 49 92 129 49 72 101 38 72 101 38 72 101 38 72 101 38 72 101 38 72 101 38 72 101 38 72 101 38 72 101 38 72 101 38 72 101 38 72 101 38 72 101 38 72 101 38 72 101 38 72 101 38 78 110 42 78 110 42 78 110 42 78 110 42 78 110 42 78 110 42 78 110 42 78 110 42 78 110 42 78 110 42 78 110 42 78 110 42 78 110 42 78 110 42 78 110 42 78 110 42 74 104 39 74 104 39 74 104 39 74 104 39 74 104 39 74 104 39 74 104 39 74 104 39 74 104 39 74 104 39 74 104 39 74 104 39 74 104 39 74 104 39 74 104 39 74 104 39 86 121 46 86 121 46 86 121 46 86 121 46 86 121 46 86 121 46 86 121 46 86 121 46 86 121 46 86 121 46 86 121 46 86 121 46 86 121 46 86 121 46 86 121 46 86 121 46 72 102 39 72 102 39 72 102 39 72 102 39 72 102 39 72 102 39 72 102 39 72 102 39 72 102 39 72 102 39 72 102 39 72 102 39 72 102 39 72 102 39 72 102 39 72 102 39 82 115 44 82 115 44 82 115 44 82 115 44 82 115 44 82 115 44 82 115 44 82 115 44 82 115 44 82 115 44 82 115 44 82 115 44 82 115 44 82 115 44 82 115 44 82 115 44 74 104 39 74 104 39 74 104 39 74 104 39 74 104 39 74 104 39 74 104 39 74 104 39 74 104 39 74 104 39 74 104 39 74 104 39 74 104 39 74 104 39 74 104 39 74 104 39 75 105 40 75 105 40 75 105 40 75 105 40 75 105 40 75 105 40 75 105 40 75 105 40 75 105 40 75 105 40 75 105 40 75 105 40 75 105 40 75 105 40 75 105 40 75 105 40 89 125 48 89 125 48 89 125 48 89 125 48 89 125 48 89 125 48 89 125 48 89 125 48 89 125 48 89 125 48 89 125 48 89 125 48 89 125 48 89 125 48 89 125 48 89 125 48 83 116 44 83 116 44 83 116 44 83 116 44 83 116 44 83 116 44 83 116 44 83 116 44 83 116 44 83 116 44 83 116 44 83 116 44 83 116 44 83 116 44 83 116 44 83 116 44 81 113 43 81 113 43 81 113 43 81 113 43 81 113 43 81 113 43 81 113 43 81 113 43 81 113 43 81 113 43 81 113 43 81 113 43 81 113 43 81 113 43 81 113 43 81 113 43 80 112 43 80 112 43 80 112 43 80 112 43 80 112 43 80 112 43 80 112 43 80 112 43 80 112 43 80 112 43 80 112 43 80 112 43 80 112 43 80 112 43 80 112 43 80 112 43 77 109 41 77 109 41 77 109 41 77 109 41 77 109 41 77 109 41 77 109 41 77 109 41 77 109 41 77 109 41 77 109 41 77 109 41 77 109 41 77 109 41 77 109 41 104 146 55 104 146 55 104 146 55 104 146 55 104 146 55 104 146 55 104 146 55 104 146 55 104 146 55 104 146 55 104 146 55 104 146 55 104 146 55 104 146 55 104 146 55 104 146 55 68 95 36 68 95 36 68 95 36 68 95 36 68 95 36 68 95 36 68 95 36 68 95 36 68 95 36 68 95 36 68 95 36 68 95 36 68 95 36 68 95 36 68 95 36 68 95 36 92 129 49 92 129 49 92 129 49 92 129 49 92 129 49 92 129 49 92 129 49 92 129 49 92 129 49 92 129 49 92 129 49 92 129 49 92 129 49 92 129 49 92 129 49 92 129 49 72 101 38 72 101 38 72 101 38 72 101 38 72 101 38 72 101 38 72 101 38 72 101 38 72 101 38 72 101 38 72 101 38 72 101 38 72 101 38 72 101 38 72 101 38 72 101 38 78 110 42 78 110 42 78 110 42 78 110 42 78 110 42 78 110 42 78 110 42 78 110 42 78 110 42 78 110 42 78 110 42 78 110 42 78 110 42 78 110 42 78 110 42 78 110 42 74 104 39 74 104 39 74 104 39 74 104 39 74 104 39 74 104 39 74 104 39 74 104 39 74 104 39 74 104 39 74 104 39 74 104 39 74 104 39 74 104 39 74 104 39 74 104 39 86 121 46 86 121 46 86 121 46 86 121 46 86 121 46 86 121 46 86 121 46 86 121 46 86 121 46 86 121 46 86 121 46 86 121 46 86 121 46 86 121 46 86 121 46 86 121 46 72 102 39 72 102 39 72 102 39 72 102 39 72 102 39 72 102 39 72 102 39 72 102 39 72 102 39 72 102 39 72 102 39 72 102 39 72 102 39 72 102 39 72 102 39 72 102 39 82 115 44 82 115 44 82 115 44 82 115 44 82 115 44 82 115 44 82 115 44 82 115 44 82 115 44 82 115 44 82 115 44 82 115 44 82 115 44 82 115 44 82 115 44 82 115 44 74 104 39 74 104 39 74 104 39 74 104 39 74 104 39 74 104 39 74 104 39 74 104 39 74 104 39 74 104 39 74 104 39 74 104 39 74 104 39 74 104 39 74 104 39 74 104 39 75 105 40 75 105 40 75 105 40 75 105 40 75 105 40 75 105 40 75 105 40 75 105 40 75 105 40 75 105 40 75 105 40 75 105 40 75 105 40 75 105 40 75 105 40 75 105 40 89 125 48 89 125 48 89 125 48 89 125 48 89 125 48 89 125 48 89 125 48 89 125 48 89 125 48 89 125 48 89 125 48 89 125 48 89 125 48 89 125 48 89 125 48 89 125 48 83 116 44 83 116 44 83 116 44 83 116 44 83 116 44 83 116 44 83 116 44 83 116 44 83 116 44 83 116 44 83 116 44 83 116 44 83 116 44 83 116 44 83 116 44 83 116 44 81 113 43 81 113 43 81 113 43 81 113 43 81 113 43 81 113 43 81 113 43 81 113 43 81 113 43 81 113 43 81 113 43 81 113 43 81 113 43 81 113 43 81 113 43 81 113 43 80 112 43 80 112 43 80 112 43 80 112 43 80 112 43 80 112 43 80 112 43 80 112 43 80 112 43 80 112 43 80 112 43 80 112 43 80 112 43 80 112 43 80 112 43 80 112 43 77 109 41 77 109 41 77 109 41 77 109 41 77 109 41 77 109 41 77 109 41 77 109 41 77 109 41 77 109 41 77 109 41 77 109 41 77 109 41 77 109 41 77 109 41 104 146 55 104 146 55 104 146 55 104 146 55 104 146 55 104 146 55 104 146 55 104 146 55 104 146 55 104 146 55 104 146 55 104 146 55 104 146 55 104 146 55 104 146 55 104 146 55 68 95 36 68 95 36 68 95 36 68 95 36 68 95 36 68 95 36 68 95 36 68 95 36 68 95 36 68 95 36 68 95 36 68 95 36 68 95 36 68 95 36 68 95 36 68 95 36 92 129 49 92 129 49 92 129 49 92 129 49 92 129 49 92 129 49 92 129 49 92 129 49 92 129 49 92 129 49 92 129 49 92 129 49 92 129 49 92 129 49 92 129 49 92 129 49 72 101 38 72 101 38 72 101 38 72 101 38 72 101 38 72 101 38 72 101 38 72 101 38 72 101 38 72 101 38 72 101 38 72 101 38 72 101 38 72 101 38 72 101 38 72 101 38 78 110 42 78 110 42 78 110 42 78 110 42 78 110 42 78 110 42 78 110 42 78 110 42 78 110 42 78 110 42 78 110 42 78 110 42 78 110 42 78 110 42 78 110 42 78 110 42 74 104 39 74 104 39 74 104 39 74 104 39 74 104 39 74 104 39 74 104 39 74 104 39 74 104 39 74 104 39 74 104 39 74 104 39 74 104 39 74 104 39 74 104 39 74 104 39 86 121 46 86 121 46 86 121 46 86 121 46 86 121 46 86 121 46 86 121 46 86 121 46 86 121 46 86 121 46 86 121 46 86 121 46 86 121 46 86 121 46 86 121 46 86 121 46 72 102 39 72 102 39 72 102 39 72 102 39 72 102 39 72 102 39 72 102 39 72 102 39 72 102 39 72 102 39 72 102 39 72 102 39 72 102 39 72 102 39 72 102 39 72 102 39 82 115 44 82 115 44 82 115 44 82 115 44 82 115 44 82 115 44 82 115 44 82 115 44 82 115 44 82 115 44 82 115 44 82 115 44 82 115 44 82 115 44 82 115 44 82 115 44 74 104 39 74 104 39 74 104 39 74 104 39 74 104 39 74 104 39 74 104 39 74 104 39 74 104 39 74 104 39 74 104 39 74 104 39 74 104 39 74 104 39 74 104 39 74 104 39 75 105 40 75 105 40 75 105 40 75 105 40 75 105 40 75 105 40 75 105 40 75 105 40 75 105 40 75 105 40 75 105 40 75 105 40 75 105 40 75 105 40 75 105 40 75 105 40 89 125 48 89 125 48 89 125 48 89 125 48 89 125 48 89 125 48 89 125 48 89 125 48 89 125 48 89 125 48 89 125 48 89 125 48 89 125 48 89 125 48 89 125 48 89 125 48 83 116 44 83 116 44 83 116 44 83 116 44 83 116 44 83 116 44 83 116 44 83 116 44 83 116 44 83 116 44 83 116 44 83 116 44 83 116 44 83 116 44 83 116 44 83 116 44 81 113 43 81 113 43 81 113 43 81 113 43 81 113 43 81 113 43 81 113 43 81 113 43 81 113 43 81 113 43 81 113 43 81 113 43 81 113 43 81 113 43 81 113 43 81 113 43 80 112 43 80 112 43 80 112 43 80 112 43 80 112 43 80 112 43 80 112 43 80 112 43 80 112 43 80 112 43 80 112 43 80 112 43 80 112 43 80 112 43 80 112 43 80 112 43 77 109 41 77 109 41 77 109 41 77 109 41 77 109 41 77 109 41 77 109 41 77 109 41 77 109 41 77 109 41 77 109 41 77 109 41 77 109 41 77 109 41 77 109 41 104 146 55 104 146 55 104 146 55 104 146 55 104 146 55 104 146 55 104 146 55 104 146 55 104 146 55 104 146 55 104 146 55 104 146 55 104 146 55 104 146 55 104 146 55 104 146 55 68 95 36 68 95 36 68 95 36 68 95 36 68 95 36 68 95 36 68 95 36 68 95 36 68 95 36 68 95 36 68 95 36 68 95 36 68 95 36 68 95 36 68 95 36 68 95 36 92 129 49 92 129 49 92 129 49 92 129 49 92 129 49 92 129 49 92 129 49 92 129 49 92 129 49 92 129 49 92 129 49 92 129 49 92 129 49 92 129 49 92 129 49 92 129 49 72 101 38 72 101 38 72 101 38 72 101 38 72 101 38 72 101 38 72 101 38 72 101 38 72 101 38 72 101 38 72 101 38 72 101 38 72 101 38 72 101 38 72 101 38 72 101 38 78 110 42 78 110 42 78 110 42 78 110 42 78 110 42 78 110 42 78 110 42 78 110 42 78 110 42 78 110 42 78 110 42 78 110 42 78 110 42 78 110 42 78 110 42 78 110 42 74 104 39 74 104 39 74 104 39 74 104 39 74 104 39 74 104 39 74 104 39 74 104 39 74 104 39 74 104 39 74 104 39 74 104 39 74 104 39 74 104 39 74 104 39 74 104 39 86 121 46 86 121 46 86 121 46 86 121 46 86 121 46 86 121 46 86 121 46 86 121 46 86 121 46 86 121 46 86 121 46 86 121 46 86 121 46 86 121 46 86 121 46 86 121 46 72 102 39 72 102 39 72 102 39 72 102 39 72 102 39 72 102 39 72 102 39 72 102 39 72 102 39 72 102 39 72 102 39 72 102 39 72 102 39 72 102 39 72 102 39 72 102 39 82 115 44 82 115 44 82 115 44 82 115 44 82 115 44 82 115 44 82 115 44 82 115 44 82 115 44 82 115 44 82 115 44 82 115 44 82 115 44 82 115 44 82 115 44 82 115 44 74 104 39 74 104 39 74 104 39 74 104 39 74 104 39 74 104 39 74 104 39 74 104 39 74 104 39 74 104 39 74 104 39 74 104 39 74 104 39 74 104 39 74 104 39 74 104 39 75 105 40 75 105 40 75 105 40 75 105 40 75 105 40 75 105 40 75 105 40 75 105 40 75 105 40 75 105 40 75 105 40 75 105 40 75 105 40 75 105 40 75 105 40 75 105 40 89 125 48 89 125 48 89 125 48 89 125 48 89 125 48 89 125 48 89 125 48 89 125 48 89 125 48 89 125 48 89 125 48 89 125 48 89 125 48 89 125 48 89 125 48 89 125 48 83 116 44 83 116 44 83 116 44 83 116 44 83 116 44 83 116 44 83 116 44 83 116 44 83 116 44 83 116 44 83 116 44 83 116 44 83 116 44 83 116 44 83 116 44 83 116 44 81 113 43 81 113 43 81 113 43 81 113 43 81 113 43 81 113 43 81 113 43 81 113 43 81 113 43 81 113 43 81 113 43 81 113 43 81 113 43 81 113 43 81 113 43 81 113 43 80 112 43 80 112 43 80 112 43 80 112 43 80 112 43 80 112 43 80 112 43 80 112 43 80 112 43 80 112 43 80 112 43 80 112 43 80 112 43 80 112 43 80 112 43 80 112 43 77 109 41 77 109 41 77 109 41 77 109 41 77 109 41 77 109 41 77 109 41 77 109 41 77 109 41 77 109 41 77 109 41 77 109 41 77 109 41 77 109 41 77 109 41 104 146 55 104 146 55 104 146 55 104 146 55 104 146 55 104 146 55 104 146 55 104 146 55 104 146 55 104 146 55 104 146 55 104 146 55 104 146 55 104 146 55 104 146 55 104 146 55 68 95 36 68 95 36 68 95 36 68 95 36 68 95 36 68 95 36 68 95 36 68 95 36 68 95 36 68 95 36 68 95 36 68 95 36 68 95 36 68 95 36 68 95 36 68 95 36 92 129 49 92 129 49 92 129 49 92 129 49 92 129 49 92 129 49 92 129 49 92 129 49 92 129 49 92 129 49 92 129 49 92 129 49 92 129 49 92 129 49 92 129 49 92 129 49 72 101 38 72 101 38 72 101 38 72 101 38 72 101 38 72 101 38 72 101 38 72 101 38 72 101 38 72 101 38 72 101 38 72 101 38 72 101 38 72 101 38 72 101 38 72 101 38 78 110 42 78 110 42 78 110 42 78 110 42 78 110 42 78 110 42 78 110 42 78 110 42 78 110 42 78 110 42 78 110 42 78 110 42 78 110 42 78 110 42 78 110 42 78 110 42 74 104 39 74 104 39 74 104 39 74 104 39 74 104 39 74 104 39 74 104 39 74 104 39 74 104 39 74 104 39 74 104 39 74 104 39 74 104 39 74 104 39 74 104 39 74 104 39 86 121 46 86 121 46 86 121 46 86 121 46 86 121 46 86 121 46 86 121 46 86 121 46 86 121 46 86 121 46 86 121 46 86 121 46 86 121 46 86 121 46 86 121 46 86 121 46 72 102 39 72 102 39 72 102 39 72 102 39 72 102 39 72 102 39 72 102 39 72 102 39 72 102 39 72 102 39 72 102 39 72 102 39 72 102 39 72 102 39 72 102 39 72 102 39 82 115 44 82 115 44 82 115 44 82 115 44 82 115 44 82 115 44 82 115 44 82 115 44 82 115 44 82 115 44 82 115 44 82 115 44 82 115 44 82 115 44 82 115 44 82 115 44 74 104 39 74 104 39 74 104 39 74 104 39 74 104 39 74 104 39 74 104 39 74 104 39 74 104 39 74 104 39 74 104 39 74 104 39 74 104 39 74 104 39 74 104 39 74 104 39 75 105 40 75 105 40 75 105 40 75 105 40 75 105 40 75 105 40 75 105 40 75 105 40 75 105 40 75 105 40 75 105 40 75 105 40 75 105 40 75 105 40 75 105 40 75 105 40 89 125 48 89 125 48 89 125 48 89 125 48 89 125 48 89 125 48 89 125 48 89 125 48 89 125 48 89 125 48 89 125 48 89 125 48 89 125 48 89 125 48 89 125 48 89 125 48 83 116 44 83 116 44 83 116 44 83 116 44 83 116 44 83 116 44 83 116 44 83 116 44 83 116 44 83 116 44 83 116 44 83 116 44 83 116 44 83 116 44 83 116 44 83 116 44 81 113 43 81 113 43 81 113 43 81 113 43 81 113 43 81 113 43 81 113 43 81 113 43 81 113 43 81 113 43 81 113 43 81 113 43 81 113 43 81 113 43 81 113 43 81 113 43 80 112 43 80 112 43 80 112 43 80 112 43 80 112 43 80 112 43 80 112 43 80 112 43 80 112 43 80 112 43 80 112 43 80 112 43 80 112 43 80 112 43 80 112 43 80 112 43 77 109 41 77 109 41 77 109 41 77 109 41 77 109 41 77 109 41 77 109 41 77 109 41 77 109 41 77 109 41 77 109 41 77 109 41 77 109 41 77 109 41 77 109 41 104 146 55 104 146 55 104 146 55 104 146 55 104 146 55 104 146 55 104 146 55 104 146 55 104 146 55 104 146 55 104 146 55 104 146 55 104 146 55 104 146 55 104 146 55 104 146 55 68 95 36 68 95 36 68 95 36 68 95 36 68 95 36 68 95 36 68 95 36 68 95 36 68 95 36 68 95 36 68 95 36 68 95 36 68 95 36 68 95 36 68 95 36 68 95 36 92 129 49 92 129 49 92 129 49 92 129 49 92 129 49 92 129 49 92 129 49 92 129 49 92 129 49 92 129 49 92 129 49 92 129 49 92 129 49 92 129 49 92 129 49 92 129 49 72 101 38 72 101 38 72 101 38 72 101 38 72 101 38 72 101 38 72 101 38 72 101 38 72 101 38 72 101 38 72 101 38 72 101 38 72 101 38 72 101 38 72 101 38 72 101 38 78 110 42 78 110 42 78 110 42 78 110 42 78 110 42 78 110 42 78 110 42 78 110 42 78 110 42 78 110 42 78 110 42 78 110 42 78 110 42 78 110 42 78 110 42 78 110 42 74 104 39 74 104 39 74 104 39 74 104 39 74 104 39 74 104 39 74 104 39 74 104 39 74 104 39 74 104 39 74 104 39 74 104 39 74 104 39 74 104 39 74 104 39 74 104 39 86 121 46 86 121 46 86 121 46 86 121 46 86 121 46 86 121 46 86 121 46 86 121 46 86 121 46 86 121 46 86 121 46 86 121 46 86 121 46 86 121 46 86 121 46 86 121 46 72 102 39 72 102 39 72 102 39 72 102 39 72 102 39 72 102 39 72 102 39 72 102 39 72 102 39 72 102 39 72 102 39 72 102 39 72 102 39 72 102 39 72 102 39 72 102 39 82 115 44 82 115 44 82 115 44 82 115 44 82 115 44 82 115 44 82 115 44 82 115 44 82 115 44 82 115 44 82 115 44 82 115 44 82 115 44 82 115 44 82 115 44 82 115 44 74 104 39 74 104 39 74 104 39 74 104 39 74 104 39 74 104 39 74 104 39 74 104 39 74 104 39 74 104 39 74 104 39 74 104 39 74 104 39 74 104 39 74 104 39 74 104 39 75 105 40 75 105 40 75 105 40 75 105 40 75 105 40 75 105 40 75 105 40 75 105 40 75 105 40 75 105 40 75 105 40 75 105 40 75 105 40 75 105 40 75 105 40 75 105 40 89 125 48 89 125 48 89 125 48 89 125 48 89 125 48 89 125 48 89 125 48 89 125 48 89 125 48 89 125 48 89 125 48 89 125 48 89 125 48 89 125 48 89 125 48 89 125 48 83 116 44 83 116 44 83 116 44 83 116 44 83 116 44 83 116 44 83 116 44 83 116 44 83 116 44 83 116 44 83 116 44 83 116 44 83 116 44 83 116 44 83 116 44 83 116 44 81 113 43 81 113 43 81 113 43 81 113 43 81 113 43 81 113 43 81 113 43 81 113 43 81 113 43 81 113 43 81 113 43 81 113 43 81 113 43 81 113 43 81 113 43 81 113 43 80 112 43 80 112 43 80 112 43 80 112 43 80 112 43 80 112 43 80 112 43 80 112 43 80 112 43 80 112 43 80 112 43 80 112 43 80 112 43 80 112 43 80 112 43 80 112 43 77 109 41 77 109 41 77 109 41 77 109 41 77 109 41 77 109 41 77 109 41 77 109 41 77 109 41 77 109 41 77 109 41 77 109 41 77 109 41 77 109 41 77 109 41 104 146 55 104 146 55 104 146 55 104 146 55 104 146 55 104 146 55 104 146 55 104 146 55 104 146 55 104 146 55 104 146 55 104 146 55 104 146 55 104 146 55 104 146 55 104 146 55 68 95 36 68 95 36 68 95 36 68 95 36 68 95 36 68 95 36 68 95 36 68 95 36 68 95 36 68 95 36 68 95 36 68 95 36 68 95 36 68 95 36 68 95 36 68 95 36 92 129 49 92 129 49 92 129 49 92 129 49 92 129 49 92 129 49 92 129 49 92 129 49 92 129 49 92 129 49 92 129 49 92 129 49 92 129 49 92 129 49 92 129 49 92 129 49 72 101 38 72 101 38 72 101 38 72 101 38 72 101 38 72 101 38 72 101 38 72 101 38 72 101 38 72 101 38 72 101 38 72 101 38 72 101 38 72 101 38 72 101 38 72 101 38 78 110 42 78 110 42 78 110 42 78 110 42 78 110 42 78 110 42 78 110 42 78 110 42 78 110 42 78 110 42 78 110 42 78 110 42 78 110 42 78 110 42 78 110 42 78 110 42 74 104 39 74 104 39 74 104 39 74 104 39 74 104 39 74 104 39 74 104 39 74 104 39 74 104 39 74 104 39 74 104 39 74 104 39 74 104 39 74 104 39 74 104 39 74 104 39 86 121 46 86 121 46 86 121 46 86 121 46 86 121 46 86 121 46 86 121 46 86 121 46 86 121 46 86 121 46 86 121 46 86 121 46 86 121 46 86 121 46 86 121 46 86 121 46 