P3
255 255
255
0 0 255 0 0 255 0 0 255 0 0 255 0 0 255 0 0 255 0 0 255 0 0 255 0 0 255 0 0 255 0 0 255 0 0 255 0 0 255 0 0 255 0 0 255 0 0 255 0 0 255 0 0 255 0 0 255 0 0 255 0 0 255 0 0 255 0 0 255 1 1 255 1 1 255 0 0 255 0 0 255 0 0 255 0 0 254 0 0 254 0 0 255 0 0 255 0 0 255 0 0 255 1 1 255 0 0 255 0 0 255 0 0 255 1 1 255 0 0 255 0 0 254 0 0 255 1 1 255 0 0 255 0 0 255 0 0 254 0 0 255 0 0 255 0 0 254 0 0 255 0 0 255 0 0 255 0 0 255 0 0 255 1 1 255 1 1 255 0 0 255 0 0 255 0 0 255 0 0 254 0 0 255 0 0 255 0 0 255 0 0 255 0 0 254 0 0 255 0 0 255 0 0 255 0 0 255 0 0 255 0 0 255 0 0 255 0 0 255 0 0 255 0 0 255 0 0 255 0 0 255 0 0 255 0 0 255 1 1 255 0 0 254 0 0 254 0 0 255 0 0 255 0 0 255 0 0 255 0 0 255 0 0 255 0 0 255 0 0 255 0 0 255 0 0 255 0 0 255 0 0 254 0 0 255 0 0 255 0 0 255 0 0 255 0 0 255 0 0 255 1 1 255 0 0 255 0 0 255 0 0 255 0 0 255 0 0 255 0 0 255 0 0 255 1 1 255 0 0 255 0 0 255 0 0 255 0 0 255 0 0 254 1 1 255 0 0 255 0 0 255 1 1 255 0 0 255 0 0 255 0 0 255 0 0 255 0 0 255 0 0 255 0 0 255 0 0 255 1 1 255 0 0 255 0 0 255 0 0 255 0 0 255 0 0 255 0 0 255 0 0 255 0 0 255 0 0 255 0 0 255 0 0 255 0 0 255 0 0 255 0 0 255 0 0 255 0 0 255 0 0 255 0 0 254 0 0 255 0 0 255 0 0 255 0 0 255 0 0 255 0 0 255 0 0 255 0 0 255 0 0 255 0 0 255 0 0 255 1 1 255 0 0 255 0 0 255 0 0 255 1 1 255 0 0 255 0 0 255 1 1 255 0 0 255 0 0 255 0 0 255 1 1 255 0 0 255 0 0 254 0 0 255 0 0 255 0 0 255 0 0 255 0 0 255 1 1 255 0 0 255 0 0 255 0 0 255 0 0 255 0 0 255 1 1 255 1 1 255 1 1 255 0 0 255 0 0 255 1 1 255 0 0 255 0 0 255 0 0 255 0 0 255 0 0 255 1 1 255 1 1 255 0 0 255 0 0 255 0 0 255 0 0 255 1 1 255 0 0 255 0 0 255 0 0 255 0 0 255 0 0 255 0 0 255 1 1 255 1 1 255 0 0 255 0 0 255 1 1 255 0 0 255 0 0 255 0 0 255 0 0 255 1 1 255 0 0 255 0 0 255 1 1 255 0 0 255 0 0 255 0 0 255 0 0 254 1 1 255 0 0 255 1 1 255 0 0 255 0 0 255 0 0 255 0 0 255 0 0 255 0 0 255 0 0 255 0 0 255 0 0 255 0 0 255 0 0 255 0 0 255 0 0 255 0 0 255 0 0 255 0 0 255 0 0 255 0 0 255 0 0 255 0 0 255 0 0 255 0 0 255 0 0 255 0 0 254 0 0 255 0 0 255 0 0 255 0 0 255 0 0 255 1 1 255 0 0 254 0 0 255 0 0 255 1 1 255 0 0 255 0 0 255 0 0 254 0 0 255 0 0 255 0 0 255 0 0 255 0 0 255 0 0 255 0 0 255 0 0 255 0 0 255 0 0 255 0 0 255 0 0 255 0 0 254 0 0 255 0 0 255 0 0 255 0 0 255 1 1 255 0 0 255 1 1 255 0 0 255 1 1 255 0 0 255 0 0 255 0 0 255 0 0 255 0 0 255 0 0 255 0 0 254 0 0 255 0 0 255 0 0 255 0 0 255 0 0 255 0 0 255 0 0 255 0 0 255 0 0 255 0 0 255 0 0 255 0 0 255 0 0 255 0 0 255 0 0 255 0 0 255 0 0 255 0 0 255 0 0 255 0 0 255 0 0 255 0 0 255 0 0 255 1 1 255 1 1 255 0 0 255 0 0 255 1 1 255 0 0 255 0 0 255 0 0 255 0 0 255 0 0 254 0 0 255 0 0 254 0 0 255 1 1 255 0 0 255 0 0 255 0 0 254 0 0 255 0 0 255 1 1 255 0 0 255 0 0 255 0 0 255 0 0 255 0 0 254 0 0 255 0 0 254 0 0 254 1 1 255 0 0 255 0 0 255 0 0 255 0 0 255 0 0 255 0 0 255 0 0 255 0 0 255 1 1 255 1 1 255 0 0 255 0 0 255 0 0 255 0 0 255 0 0 255 0 0 255 0 0 255 0 0 254 0 0 255 0 0 255 0 0 254 0 0 255 0 0 255 0 0 255 0 0 255 0 0 255 0 0 254 0 0 255 0 0 255 0 0 255 0 0 255 1 1 255 0 0 255 0 0 255 0 0 255 0 0 254 1 1 255 0 0 254 0 0 255 0 0 255 0 0 255 0 0 255 0 0 254 0 0 255 0 0 255 0 0 255 0 0 255 0 0 255 0 0 255 1 1 255 0 0 255 0 0 255 0 0 255 0 0 255 0 0 255 0 0 255 1 1 255 0 0 255 0 0 255 0 0 255 0 0 255 1 1 255 0 0 255 0 0 255 0 0 255 0 0 254 0 0 255 0 0 255 0 0 255 1 1 255 0 0 255 0 0 255 0 0 255 0 0 255 0 0 255 0 0 255 0 0 255 0 0 255 0 0 255 0 0 255 0 0 255 0 0 255 0 0 255 0 0 255 0 0 254 0 0 255 0 0 254 0 0 255 0 0 255 0 0 255 0 0 255 0 0 255 0 0 255 0 0 254 0 0 255 0 0 255 0 0 255 0 0 255 0 0 255 0 0 254 0 0 255 0 0 255 0 0 255 0 0 255 0 0 255 1 1 255 0 0 255 0 0 255 0 0 255 0 0 255 0 0 255 0 0 255 0 0 254 0 0 255 0 0 255 1 1 255 0 0 255 0 0 255 0 0 255 1 1 255 0 0 255 0 0 254 0 0 255 0 0 255 0 0 255 0 0 255 0 0 255 0 0 255 0 0 255 0 0 255 0 0 255 1 1 255 0 0 255 0 0 255 0 0 255 0 0 255 0 0 255 0 0 255 0 0 255 0 0 255 0 0 255 0 0 255 0 0 255 0 0 255 1 1 255 0 0 255 0 0 255 0 0 255 0 0 254 0 0 255 1 1 255 0 0 255 0 0 255 0 0 255 0 0 255 0 0 255 0 0 255 1 1 255 0 0 255 0 0 255 0 0 255 0 0 255 1 1 255 1 1 255 0 0 255 0 0 254 0 0 255 0 0 255 0 0 255 0 0 255 0 0 255 0 0 254 0 0 254 0 0 255 0 0 255 0 0 255 1 1 255 0 0 255 0 0 255 0 0 255 0 0 254 0 0 255 0 0 255 0 0 255 0 0 255 0 0 255 0 0 255 0 0 255 0 0 255 0 0 255 0 0 255 1 1 255 0 0 255 0 0 255 0 0 255 0 0 255 0 0 255 0 0 255 1 1 255 0 0 255 0 0 255 0 0 255 0 0 255 1 1 255 0 0 255 0 0 255 0 0 255 0 0 255 0 0 255 0 0 255 0 0 255 0 0 255 0 0 255 0 0 255 0 0 255 0 0 255 1 1 255 0 0 255 0 0 255 0 0 255 0 0 255 0 0 255 1 1 255 0 0 254 0 0 255 0 0 255 0 0 255 0 0 255 0 0 255 0 0 255 0 0 255 0 0 255 0 0 255 0 0 255 0 0 255 0 0 255 0 0 254 0 0 255 0 0 255 0 0 254 0 0 255 0 0 254 0 0 255 0 0 255 0 0 255 0 0 255 0 0 255 0 0 255 0 0 255 0 0 255 1 1 255 0 0 255 0 0 255 0 0 255 0 0 255 0 0 255 0 0 255 1 1 255 0 0 255 0 0 255 0 0 255 0 0 255 0 0 255 0 0 255 1 1 255 0 0 255 0 0 255 0 0 254 0 0 255 0 0 255 0 0 255 0 0 255 0 0 254 0 0 255 0 0 255 1 1 255 0 0 255 0 0 255 0 0 255 0 0 255 0 0 255 0 0 255 0 0 254 0 0 255 1 1 255 0 0 255 0 0 254 0 0 255 0 0 255 0 0 255 0 0 255 1 1 255 0 0 254 0 0 255 0 0 255 0 0 255 0 0 255 1 1 255 0 0 255 0 0 255 0 0 255 0 0 255 0 0 255 0 0 255 0 0 255 0 0 254 1 1 255 0 0 255 1 1 255 0 0 255 0 0 255 0 0 255 0 0 255 0 0 255 0 0 255 0 0 255 0 0 255 0 0 255 0 0 255 0 0 255 0 0 255 0 0 255 0 0 255 0 0 255 0 0 255 0 0 255 0 0 255 0 0 255 0 0 255 0 0 255 0 0 255 0 0 255 0 0 255 0 0 255 0 0 255 0 0 255 0 0 255 0 0 255 0 0 255 0 0 255 0 0 255 0 0 254 0 0 255 0 0 255 0 0 255 0 0 255 0 0 255 0 0 255 0 0 255 0 0 255 1 1 255 0 0 255 0 0 255 0 0 255 0 0 255 0 0 255 0 0 255 0 0 255 1 1 255 0 0 254 0 0 255 0 0 255 0 0 255 0 0 255 0 0 255 0 0 255 0 0 255 0 0 255 0 0 255 0 0 254 0 0 255 0 0 255 0 0 255 0 0 255 0 0 255 0 0 255 0 0 255 0 0 255 0 0 255 0 0 255 0 0 255 0 0 255 0 0 255 0 0 255 0 0 255 0 0 255 0 0 255 0 0 255 0 0 255 1 1 255 0 0 255 0 0 255 0 0 255 0 0 255 0 0 255 0 0 254 0 0 255 0 0 255 0 0 255 0 0 255 0 0 255 1 1 255 0 0 255 0 0 255 0 0 255 0 0 255 0 0 255 0 0 255 0 0 254 0 0 255 0 0 255 0 0 255 0 0 255 1 1 255 0 0 255 0 0 255 0 0 255 0 0 255 0 0 255 0 0 255 0 0 255 0 0 255 0 0 255 0 0 255 0 0 255 0 0 255 0 0 255 1 1 255 0 0 255 0 0 255 0 0 255 0 0 255 0 0 255 1 1 255 0 0 255 0 0 255 0 0 255 0 0 255 0 0 255 0 0 255 0 0 255 0 0 255 0 0 255 0 0 254 0 0 255 0 0 255 0 0 255 0 0 254 0 0 255 0 0 255 0 0 255 0 0 255 0 0 255 0 0 254 0 0 255 1 1 255 1 1 255 0 0 255 0 0 255 0 0 254 1 1 255 0 0 255 0 0 255 0 0 255 0 0 255 0 0 254 0 0 255 0 0 255 0 0 255 0 0 255 0 0 255 0 0 255 0 0 254 0 0 255 0 0 255 0 0 255 0 0 255 0 0 255 0 0 255 0 0 255 1 1 255 0 0 255 0 0 255 0 0 255 0 0 255 0 0 255 0 0 255 0 0 255 0 0 255 0 0 255 0 0 255 0 0 255 0 0 255 0 0 255 0 0 255 1 1 255 0 0 255 0 0 255 0 0 255 0 0 255 0 0 255 0 0 255 0 0 255 1 1 255 0 0 255 0 0 255 0 0 255 0 0 255 0 0 255 0 0 255 0 0 255 0 0 255 1 1 255 0 0 255 0 0 255 0 0 255 0 0 255 0 0 255 0 0 255 0 0 255 0 0 255 0 0 255 0 0 255 0 0 255 0 0 255 0 0 255 0 0 255 0 0 255 0 0 255 0 0 255 0 0 255 0 0 255 0 0 255 0 0 255 0 0 254 0 0 255 0 0 255 0 0 255 0 0 255 0 0 255 1 1 255 0 0 255 0 0 255 0 0 255 0 0 255 0 0 255 1 1 255 0 0 255 1 1 255 0 0 255 0 0 254 1 1 255 0 0 255 0 0 255 0 0 255 1 1 255 0 0 255 0 0 255 0 0 255 0 0 255 0 0 255 0 0 255 0 0 255 1 1 255 0 0 255 0 0 255 0 0 255 0 0 255 0 0 255 0 0 255 0 0 255 0 0 255 0 0 255 0 0 255 0 0 255 0 0 255 1 1 255 0 0 255 0 0 255 0 0 255 0 0 255 0 0 255 0 0 255 0 0 254 0 0 255 0 0 255 0 0 255 0 0 255 0 0 254 1 1 255 0 0 255 0 0 255 1 1 255 0 0 255 1 1 255 0 0 255 1 1 255 0 0 255 1 1 255 0 0 255 0 0 255 0 0 255 0 0 255 0 0 255 0 0 255 0 0 254 0 0 255 0 0 255 0 0 255 0 0 255 0 0 255 0 0 255 0 0 255 0 0 255 0 0 254 0 0 255 0 0 255 0 0 255 0 0 255 0 0 255 0 0 254 0 0 255 0 0 255 0 0 255 0 0 255 0 0 255 1 1 255 0 0 255 0 0 255 0 0 255 0 0 255 0 0 255 0 0 255 0 0 255 0 0 255 0 0 255 0 0 255 1 1 255 0 0 255 0 0 255 0 0 255 0 0 255 0 0 255 0 0 255 0 0 255 0 0 255 1 1 255 0 0 254 0 0 255 0 0 255 0 0 254 0 0 255 0 0 255 0 0 255 0 0 255 0 0 255 0 0 255 0 0 255 0 0 255 0 0 254 0 0 255 0 0 255 0 0 254 0 0 255 0 0 254 0 0 255 0 0 255 0 0 255 1 1 255 0 0 255 0 0 255 0 0 255 0 0 255 0 0 255 0 0 255 0 0 255 0 0 255 0 0 255 0 0 255 0 0 255 0 0 255 1 1 255 0 0 255 0 0 254 0 0 255 0 0 255 0 0 255 0 0 255 0 0 255 0 0 255 0 0 254 0 0 255 0 0 255 0 0 254 0 0 255 0 0 255 0 0 255 0 0 255 0 0 255 0 0 255 1 1 255 0 0 255 0 0 255 0 0 255 0 0 255 0 0 255 0 0 255 0 0 255 0 0 255 0 0 255 0 0 255 0 0 255 0 0 255 0 0 255 0 0 255 0 0 254 0 0 255 0 0 255 0 0 255 0 0 255 0 0 255 0 0 255 0 0 255 0 0 254 0 0 255 0 0 255 0 0 255 0 0 255 0 0 255 0 0 255 0 0 255 0 0 255 0 0 254 0 0 255 0 0 254 0 0 255 0 0 255 0 0 255 0 0 255 0 0 254 0 0 255 0 0 255 0 0 255 0 0 255 0 0 255 0 0 255 0 0 255 0 0 255 0 0 255 0 0 255 0 0 255 0 0 255 0 0 255 0 0 255 0 0 255 0 0 255 0 0 255 0 0 255 0 0 255 0 0 255 1 1 255 0 0 255 1 1 255 0 0 255 0 0 254 0 0 254 0 0 255 1 1 255 0 0 255 0 0 255 0 0 255 0 0 254 0 0 255 0 0 255 0 0 255 0 0 255 1 1 255 0 0 255 0 0 255 0 0 255 1 1 255 0 0 255 0 0 255 0 0 254 0 0 255 0 0 255 0 0 255 1 1 255 0 0 254 0 0 255 0 0 255 0 0 255 0 0 255 0 0 255 0 0 255 0 0 255 0 0 255 0 0 255 0 0 255 0 0 255 0 0 255 0 0 255 0 0 254 0 0 255 0 0 255 0 0 255 0 0 255 0 0 255 0 0 255 0 0 255 0 0 255 1 1 255 1 1 255 0 0 255 0 0 255 0 0 255 0 0 255 0 0 255 0 0 255 0 0 255 0 0 255 0 0 255 0 0 255 0 0 255 0 0 255 0 0 255 0 0 255 0 0 255 0 0 255 0 0 255 0 0 255 0 0 254 0 0 255 0 0 255 0 0 255 0 0 255 0 0 255 0 0 255 1 1 255 0 0 254 0 0 255 0 0 255 0 0 255 0 0 255 0 0 255 0 0 255 0 0 255 0 0 255 0 0 255 0 0 255 0 0 255 1 1 255 0 0 255 0 0 255 0 0 255 0 0 255 1 1 255 0 0 255 0 0 255 1 1 255 0 0 255 0 0 255 0 0 255 0 0 255 0 0 255 0 0 255 1 1 255 0 0 255 0 0 255 0 0 255 0 0 255 0 0 255 0 0 255 0 0 255 0 0 255 1 1 255 0 0 254 0 0 254 0 0 255 0 0 255 0 0 255 0 0 255 0 0 255 0 0 255 0 0 255 0 0 255 0 0 255 0 0 255 0 0 255 0 0 255 0 0 255 0 0 255 0 0 255 0 0 255 0 0 255 0 0 255 0 0 254 0 0 255 0 0 255 1 1 255 0 0 255 0 0 255 1 1 255 0 0 255 0 0 255 0 0 255 0 0 255 0 0 255 0 0 255 0 0 255 0 0 255 0 0 255 0 0 255 0 0 255 0 0 255 0 0 255 0 0 255 0 0 255 0 0 255 0 0 255 0 0 255 0 0 255 0 0 255 1 1 255 1 1 255 0 0 255 0 0 255 0 0 255 0 0 255 0 0 255 0 0 255 1 1 255 1 1 255 0 0 255 0 0 255 0 0 255 0 0 255 1 1 255 0 0 255 0 0 255 0 0 255 0 0 255 0 0 255 0 0 255 0 0 255 0 0 255 0 0 255 0 0 255 0 0 255 0 0 255 0 0 255 0 0 255 0 0 254 0 0 255 1 1 255 0 0 255 0 0 255 0 0 255 0 0 255 0 0 255 0 0 255 0 0 255 0 0 255 0 0 255 0 0 254 0 0 255 0 0 255 0 0 255 0 0 255 0 0 255 0 0 254 0 0 255 1 1 255 0 0 255 0 0 255 0 0 255 0 0 255 0 0 254 0 0 255 1 1 255 0 0 255 0 0 255 0 0 255 0 0 254 0 0 255 0 0 254 0 0 255 0 0 255 0 0 255 0 0 255 0 0 254 0 0 255 0 0 255 0 0 255 0 0 255 0 0 255 1 1 255 1 1 255 0 0 255 0 0 255 0 0 255 0 0 255 1 1 255 0 0 254 0 0 254 0 0 255 0 0 255 0 0 255 0 0 255 0 0 255 0 0 255 0 0 255 0 0 255 0 0 255 0 0 255 0 0 255 0 0 255 0 0 255 0 0 255 0 0 255 1 1 255 0 0 255 0 0 255 0 0 255 0 0 255 0 0 255 0 0 255 0 0 254 0 0 255 0 0 255 0 0 255 0 0 255 0 0 255 0 0 255 0 0 255 0 0 255 0 0 255 0 0 255 0 0 255 0 0 255 0 0 255 0 0 255 1 1 255 0 0 255 0 0 255 0 0 255 0 0 255 1 1 255 0 0 255 0 0 255 0 0 255 0 0 255 0 0 255 0 0 255 0 0 255 0 0 255 0 0 255 0 0 255 0 0 255 0 0 255 0 0 255 0 0 255 0 0 254 0 0 255 0 0 255 0 0 255 0 0 255 0 0 255 0 0 255 0 0 255 0 0 255 0 0 255 0 0 255 1 1 255 0 0 254 0 0 255 0 0 255 0 0 255 0 0 255 0 0 255 0 0 255 1 1 255 0 0 255 0 0 254 0 0 255 0 0 255 0 0 255 0 0 255 0 0 255 0 0 255 0 0 255 0 0 255 0 0 255 0 0 255 0 0 255 0 0 255 0 0 255 0 0 255 0 0 255 0 0 255 0 0 255 0 0 255 0 0 255 0 0 255 0 0 255 1 1 255 0 0 255 0 0 255 0 0 255 0 0 255 1 1 255 0 0 255 1 1 255 0 0 255 1 1 255 0 0 255 0 0 255 0 0 255 0 0 254 0 0 255 0 0 255 0 0 255 0 0 255 0 0 255 0 0 255 0 0 255 0 0 255 1 1 255 0 0 255 0 0 255 0 0 255 0 0 254 0 0 255 0 0 255 0 0 255 0 0 255 1 1 255 0 0 255 1 1 255 0 0 255 0 0 255 0 0 255 0 0 255 1 1 255 0 0 255 1 1 255 0 0 255 0 0 255 0 0 255 0 0 255 0 0 255 0 0 255 0 0 255 0 0 255 0 0 255 0 0 255 0 0 255 0 0 255 1 1 255 0 0 255 0 0 255 0 0 255 0 0 255 0 0 255 0 0 255 0 0 255 0 0 255 0 0 255 0 0 255 0 0 255 0 0 255 0 0 255 0 0 255 0 0 255 0 0 255 0 0 254 0 0 254 0 0 255 1 1 255 0 0 255 0 0 254 0 0 255 0 0 255 0 0 255 0 0 255 0 0 255 0 0 255 0 0 254 0 0 255 0 0 255 0 0 255 0 0 255 0 0 255 0 0 255 0 0 255 1 1 255 0 0 255 0 0 255 0 0 255 1 1 255 0 0 255 0 0 255 0 0 255 0 0 255 0 0 255 0 0 255 0 0 255 0 0 255 0 0 255 0 0 255 0 0 255 0 0 255 0 0 255 0 0 255 0 0 255 0 0 255 0 0 255 0 0 255 1 1 255 0 0 255 0 0 255 0 0 254 0 0 255 0 0 255 0 0 255 0 0 255 0 0 255 0 0 255 0 0 255 0 0 254 0 0 255 1 1 255 0 0 255 0 0 255 0 0 255 0 0 255 0 0 255 0 0 255 0 0 255 0 0 255 0 0 255 0 0 255 0 0 255 0 0 254 0 0 255 0 0 255 0 0 255 0 0 255 0 0 255 0 0 255 0 0 255 0 0 255 0 0 255 0 0 254 0 0 255 0 0 255 0 0 255 0 0 255 0 0 255 0 0 254 1 1 255 0 0 255 1 1 255 0 0 254 0 0 255 0 0 255 0 0 255 0 0 255 0 0 255 0 0 255 1 1 255 1 1 255 0 0 255 0 0 255 0 0 255 1 1 255 0 0 255 0 0 254 0 0 255 0 0 255 0 0 255 1 1 255 0 0 255 0 0 255 0 0 254 0 0 255 0 0 255 0 0 255 0 0 255 0 0 254 0 0 255 0 0 255 0 0 255 0 0 255 0 0 255 0 0 255 0 0 255 0 0 255 0 0 255 0 0 255 0 0 255 0 0 255 0 0 255 0 0 255 0 0 255 0 0 255 0 0 255 0 0 255 0 0 255 0 0 255 0 0 255 0 0 255 0 0 255 1 1 255 0 0 255 0 0 255 0 0 255 0 0 254 0 0 255 0 0 255 0 0 255 0 0 255 0 0 255 0 0 255 0 0 255 0 0 255 0 0 255 0 0 255 0 0 255 0 0 255 0 0 255 0 0 255 0 0 255 0 0 255 0 0 254 0 0 255 0 0 255 0 0 255 0 0 255 1 1 255 0 0 255 0 0 255 0 0 255 0 0 255 0 0 255 0 0 255 0 0 255 0 0 255 0 0 255 0 0 255 0 0 255 0 0 255 0 0 255 0 0 255 0 0 255 0 0 255 0 0 255 0 0 255 0 0 255 0 0 255 0 0 255 0 0 255 0 0 254 0 0 255 0 0 255 0 0 255 0 0 255 1 1 255 0 0 255 0 0 254 0 0 255 0 0 255 0 0 255 0 0 255 0 0 255 0 0 255 0 0 255 0 0 255 0 0 254 0 0 255 0 0 255 0 0 255 0 0 254 0 0 255 0 0 255 0 0 255 0 0 255 0 0 255 0 0 255 0 0 255 0 0 255 0 0 255 0 0 255 0 0 254 0 0 255 0 0 255 0 0 255 1 1 255 0 0 255 0 0 255 0 0 255 0 0 255 0 0 255 0 0 255 0 0 255 0 0 255 0 0 255 0 0 255 0 0 255 0 0 255 1 1 255 0 0 255 0 0 255 0 0 255 0 0 255 0 0 254 1 1 255 0 0 255 1 1 255 0 0 255 0 0 255 0 0 255 0 0 255 0 0 255 0 0 255 0 0 255 0 0 255 0 0 255 0 0 255 0 0 255 0 0 255 0 0 255 0 0 255 0 0 255 0 0 255 0 0 254 0 0 255 0 0 255 1 1 255 1 1 255 0 0 255 0 0 255 0 0 255 0 0 255 0 0 255 0 0 255 0 0 255 0 0 255 0 0 255 0 0 255 0 0 255 0 0 255 0 0 255 0 0 255 0 0 255 0 0 255 1 1 255 0 0 255 0 0 255 0 0 255 0 0 255 0 0 255 0 0 255 0 0 255 0 0 254 1 1 255 1 1 255 0 0 255 0 0 254 0 0 255 0 0 255 0 0 255 0 0 255 0 0 254 1 1 255 0 0 255 0 0 255 0 0 255 0 0 255 0 0 255 0 0 255 0 0 255 1 1 255 1 1 255 0 0 255 0 0 255 0 0 255 0 0 255 0 0 255 0 0 255 0 0 255 0 0 255 0 0 255 0 0 255 0 0 255 0 0 254 0 0 255 0 0 255 0 0 254 0 0 254 1 1 255 0 0 255 0 0 255 0 0 255 0 0 255 0 0 255 0 0 255 0 0 255 0 0 255 0 0 255 0 0 255 0 0 255 0 0 255 0 0 255 0 0 254 0 0 254 0 0 255 1 1 255 0 0 255 0 0 255 0 0 255 0 0 255 0 0 255 0 0 255 0 0 255 0 0 255 0 0 255 0 0 255 0 0 255 0 0 255 0 0 255 0 0 255 0 0 254 1 1 255 0 0 255 0 0 255 0 0 254 0 0 255 1 1 255 0 0 255 1 1 255 0 0 255 0 0 255 0 0 255 0 0 255 0 0 255 0 0 255 0 0 255 0 0 255 0 0 255 0 0 254 0 0 255 1 1 255 0 0 254 0 0 255 0 0 254 0 0 255 0 0 255 0 0 255 0 0 255 0 0 255 0 0 254 0 0 255 0 0 255 0 0 255 0 0 255 0 0 255 0 0 254 0 0 255 0 0 255 0 0 255 0 0 255 0 0 255 0 0 255 0 0 255 0 0 255 1 1 255 0 0 255 1 1 255 0 0 255 0 0 255 0 0 255 0 0 255 0 0 255 0 0 254 1 1 255 0 0 255 0 0 255 0 0 255 0 0 255 1 1 255 0 0 255 0 0 254 0 0 255 0 0 255 0 0 255 0 0 255 0 0 255 0 0 255 0 0 254 0 0 254 0 0 255 0 0 255 0 0 255 0 0 255 0 0 255 0 0 255 0 0 254 0 0 255 0 0 255 0 0 255 0 0 255 0 0 255 0 0 255 0 0 255 0 0 255 0 0 255 0 0 255 0 0 255 0 0 255 0 0 255 0 0 255 0 0 255 0 0 255 0 0 255 0 0 255 0 0 255 0 0 255 0 0 255 0 0 255 0 0 255 0 0 255 0 0 255 1 1 255 0 0 255 0 0 255 0 0 255 0 0 255 0 0 255 0 0 255 0 0 255 0 0 255 0 0 255 0 0 255 1 1 255 1 1 255 0 0 255 0 0 255 0 0 255 0 0 255 0 0 255 0 0 255 0 0 255 0 0 255 0 0 255 0 0 255 0 0 255 0 0 255 0 0 255 0 0 255 0 0 255 0 0 255 0 0 255 1 1 255 0 0 255 0 0 255 0 0 255 0 0 255 0 0 255 0 0 255 0 0 255 0 0 255 0 0 255 0 0 255 0 0 255 0 0 255 0 0 255 0 0 255 0 0 255 0 0 255 0 0 255 0 0 255 1 1 255 0 0 255 0 0 255 0 0 255 0 0 254 0 0 255 0 0 255 0 0 255 0 0 255 0 0 255 0 0 255 0 0 255 0 0 255 0 0 255 0 0 255 0 0 255 0 0 255 0 0 255 0 0 255 1 1 255 0 0 255 0 0 255 0 0 255 0 0 255 0 0 255 0 0 255 0 0 254 0 0 255 0 0 255 0 0 255 0 0 255 0 0 255 0 0 255 0 0 255 0 0 255 1 1 255 0 0 254 0 0 255 0 0 255 0 0 255 0 0 255 0 0 255 0 0 255 0 0 255 0 0 255 0 0 255 0 0 255 0 0 255 0 0 255 0 0 255 0 0 255 0 0 254 0 0 255 0 0 255 0 0 255 0 0 254 0 0 255 0 0 255 0 0 255 1 1 255 0 0 255 0 0 255 0 0 255 0 0 255 0 0 255 0 0 255 0 0 255 1 1 255 0 0 255 0 0 255 0 0 255 0 0 254 0 0 255 0 0 255 0 0 254 0 0 255 0 0 255 0 0 255 0 0 255 1 1 255 0 0 255 0 0 255 0 0 255 0 0 255 0 0 255 0 0 255 0 0 255 0 0 255 0 0 254 0 0 255 0 0 255 0 0 255 0 0 255 0 0 255 0 0 255 0 0 255 0 0 255 0 0 255 0 0 255 0 0 255 0 0 255 0 0 255 0 0 255 0 0 255 0 0 255 0 0 255 0 0 255 0 0 255 0 0 254 0 0 255 0 0 254 0 0 254 0 0 255 0 0 255 0 0 254 0 0 255 0 0 255 0 0 254 0 0 255 0 0 255 0 0 255 0 0 255 0 0 255 0 0 255 0 0 255 0 0 255 0 0 255 0 0 255 0 0 255 0 0 255 0 0 255 0 0 255 0 0 255 0 0 255 0 0 255 1 1 255 0 0 254 0 0 255 0 0 255 0 0 255 0 0 255 0 0 255 0 0 255 1 1 255 0 0 254 0 0 255 0 0 255 0 0 255 0 0 255 0 0 255 0 0 255 0 0 255 0 0 254 0 0 255 0 0 255 0 0 255 0 0 255 0 0 255 1 1 255 0 0 255 0 0 254 0 0 255 1 1 255 0 0 255 0 0 255 1 1 255 0 0 254 0 0 255 0 0 255 0 0 255 0 0 255 1 1 255 0 0 255 0 0 255 0 0 255 0 0 255 0 0 254 0 0 255 0 0 255 0 0 255 0 0 255 0 0 255 0 0 255 0 0 255 0 0 255 0 0 255 0 0 255 0 0 255 1 1 255 0 0 254 0 0 255 0 0 255 0 0 255 0 0 255 0 0 255 0 0 255 1 1 255 0 0 255 0 0 255 0 0 254 0 0 255 0 0 255 0 0 255 0 0 254 0 0 255 0 0 255 0 0 255 0 0 254 0 0 255 0 0 255 0 0 254 0 0 254 0 0 255 0 0 254 1 1 255 1 1 255 0 0 255 0 0 255 0 0 255 0 0 255 0 0 255 1 1 255 0 0 255 0 0 255 0 0 255 0 0 255 0 0 255 1 1 255 0 0 255 0 0 255 1 1 255 0 0 255 0 0 255 0 0 255 0 0 255 0 0 255 0 0 255 0 0 255 0 0 255 0 0 255 0 0 255 0 0 255 1 1 255 1 1 255 0 0 254 0 0 254 0 0 254 0 0 255 0 0 255 0 0 255 1 1 255 0 0 254 0 0 255 0 0 255 0 0 255 0 0 255 0 0 255 0 0 255 0 0 255 0 0 255 0 0 255 0 0 255 0 0 255 0 0 255 0 0 255 0 0 255 0 0 255 0 0 255 0 0 255 0 0 255 0 0 255 0 0 255 0 0 255 0 0 255 0 0 255 0 0 255 0 0 255 0 0 255 0 0 255 0 0 255 0 0 255 0 0 255 0 0 254 0 0 255 0 0 255 0 0 255 1 1 255 0 0 255 0 0 255 0 0 255 0 0 255 0 0 255 0 0 255 0 0 255 0 0 255 0 0 255 0 0 255 0 0 255 0 0 255 0 0 255 0 0 255 0 0 255 0 0 255 0 0 255 0 0 255 0 0 254 1 1 255 0 0 255 0 0 254 0 0 255 0 0 255 0 0 255 0 0 254 0 0 255 0 0 255 0 0 255 0 0 255 0 0 255 1 1 255 0 0 255 0 0 255 0 0 255 0 0 255 0 0 255 0 0 255 0 0 255 0 0 255 0 0 255 0 0 255 0 0 255 0 0 255 0 0 255 0 0 255 0 0 255 0 0 255 0 0 255 1 1 255 0 0 255 0 0 255 1 1 255 0 0 255 0 0 254 1 1 255 0 0 254 0 0 255 0 0 254 0 0 255 0 0 255 0 0 255 0 0 255 0 0 255 0 0 255 0 0 255 0 0 255 1 1 255 0 0 255 0 0 255 0 0 255 0 0 255 0 0 255 0 0 255 0 0 255 0 0 254 0 0 255 0 0 254 1 1 255 0 0 255 0 0 255 0 0 255 0 0 255 0 0 255 0 0 255 1 1 255 0 0 255 0 0 255 0 0 255 0 0 255 0 0 255 0 0 255 0 0 255 0 0 254 0 0 255 0 0 255 0 0 254 0 0 254 0 0 255 0 0 255 0 0 255 0 0 255 1 1 255 0 0 255 0 0 255 0 0 254 0 0 255 0 0 255 0 0 255 0 0 254 0 0 254 0 0 255 0 0 254 0 0 255 0 0 255 0 0 255 0 0 255 0 0 255 0 0 255 0 0 254 0 0 255 0 0 255 0 0 255 0 0 255 0 0 255 0 0 255 0 0 255 0 0 255 0 0 255 0 0 255 1 1 255 1 1 255 0 0 254 0 0 255 0 0 255 0 0 255 0 0 255 0 0 255 0 0 255 0 0 255 0 0 254 0 0 254 1 1 255 0 0 255 0 0 255 0 0 255 0 0 255 0 0 255 0 0 255 0 0 255 0 0 255 0 0 255 1 1 255 0 0 255 0 0 255 1 1 255 0 0 255 0 0 255 0 0 255 1 1 255 0 0 255 0 0 255 1 1 255 0 0 255 0 0 255 0 0 255 0 0 255 0 0 255 0 0 255 0 0 255 0 0 255 0 0 255 1 1 255 0 0 254 0 0 255 0 0 255 1 1 255 1 1 255 0 0 255 0 0 255 0 0 255 0 0 255 0 0 255 0 0 255 1 1 255 0 0 255 0 0 255 1 1 255 1 1 255 0 0 255 0 0 255 0 0 255 0 0 255 0 0 255 0 0 255 0 0 255 0 0 255 0 0 255 0 0 255 0 0 255 0 0 255 0 0 255 0 0 255 0 0 255 0 0 255 0 0 255 0 0 254 0 0 255 1 1 255 0 0 255 0 0 254 0 0 254 1 1 255 0 0 255 0 0 254 0 0 255 0 0 255 0 0 255 0 0 255 0 0 255 0 0 255 0 0 255 0 0 255 0 0 254 0 0 255 0 0 255 0 0 255 0 0 255 0 0 254 0 0 255 0 0 255 0 0 254 0 0 255 0 0 255 0 0 255 0 0 255 0 0 255 0 0 255 0 0 254 0 0 254 0 0 255 1 1 255 0 0 255 0 0 255 0 0 255 0 0 255 1 1 255 1 1 255 0 0 254 0 0 255 0 0 255 0 0 255 1 1 255 0 0 255 0 0 255 0 0 255 0 0 255 0 0 255 0 0 255 0 0 255 0 0 255 1 1 255 0 0 255 0 0 255 0 0 254 1 1 255 1 1 255 0 0 255 0 0 255 1 1 255 0 0 255 0 0 255 0 0 255 0 0 255 0 0 255 0 0 255 0 0 255 0 0 255 0 0 254 0 0 255 0 0 255 0 0 255 0 0 255 1 1 255 0 0 255 0 0 255 0 0 255 0 0 255 0 0 255 0 0 255 0 0 255 0 0 255 0 0 255 0 0 255 0 0 255 0 0 254 0 0 255 0 0 255 0 0 255 0 0 255 0 0 255 0 0 255 0 0 254 0 0 255 0 0 255 0 0 255 0 0 255 0 0 255 0 0 255 0 0 255 0 0 255 0 0 255 0 0 255 0 0 255 0 0 255 1 1 255 0 0 255 0 0 255 0 0 255 0 0 255 0 0 255 0 0 255 1 1 255 0 0 255 0 0 255 0 0 255 0 0 255 0 0 255 0 0 255 0 0 255 0 0 255 0 0 255 0 0 255 0 0 255 0 0 255 0 0 255 0 0 255 0 0 255 0 0 255 0 0 255 1 1 255 0 0 255 0 0 255 0 0 255 0 0 255 0 0 255 0 0 255 0 0 255 0 0 255 0 0 255 0 0 255 0 0 255 0 0 255 0 0 255 0 0 255 0 0 255 0 0 255 1 1 255 0 0 255 0 0 255 0 0 255 0 0 255 0 0 255 0 0 255 0 0 255 1 1 255 0 0 255 0 0 255 0 0 255 0 0 255 0 0 255 0 0 255 0 0 255 0 0 255 0 0 255 0 0 255 0 0 255 0 0 254 0 0 255 0 0 254 0 0 255 0 0 255 0 0 255 1 1 255 1 1 255 0 0 254 0 0 255 0 0 255 0 0 255 0 0 255 0 0 254 0 0 255 0 0 255 0 0 255 0 0 255 0 0 255 0 0 255 0 0 255 0 0 255 1 1 255 1 1 255 0 0 254 0 0 254 0 0 254 0 0 255 0 0 255 1 1 255 0 0 255 0 0 255 0 0 255 0 0 255 0 0 255 1 1 255 0 0 255 0 0 255 0 0 255 0 0 255 0 0 255 0 0 255 0 0 255 0 0 255 0 0 255 0 0 255 0 0 255 0 0 255 1 1 255 1 1 255 0 0 255 1 1 255 0 0 255 0 0 254 0 0 255 0 0 255 0 0 255 0 0 255 0 0 255 0 0 255 0 0 254 0 0 255 0 0 255 0 0 255 0 0 255 0 0 255 0 0 255 1 1 255 0 0 255 0 0 255 0 0 255 0 0 255 0 0 255 0 0 255 0 0 255 0 0 255 0 0 255 0 0 255 0 0 255 0 0 255 0 0 255 0 0 255 0 0 254 0 0 254 0 0 255 0 0 255 0 0 255 0 0 255 0 0 255 0 0 255 0 0 255 0 0 255 0 0 255 0 0 255 0 0 255 0 0 255 1 1 255 0 0 255 0 0 255 0 0 255 0 0 255 0 0 255 0 0 255 0 0 255 0 0 255 0 0 255 0 0 255 0 0 255 0 0 255 0 0 255 0 0 255 0 0 255 0 0 255 1 1 255 0 0 255 0 0 255 0 0 255 0 0 254 0 0 255 0 0 255 0 0 255 0 0 255 0 0 255 1 1 255 0 0 255 0 0 255 0 0 255 0 0 255 0 0 255 0 0 255 0 0 255 0 0 255 0 0 255 0 0 255 0 0 255 0 0 255 0 0 255 0 0 255 1 1 255 0 0 255 0 0 255 0 0 255 1 1 255 0 0 254 0 0 255 0 0 255 0 0 255 0 0 255 0 0 254 0 0 254 0 0 254 0 0 255 0 0 255 0 0 255 0 0 255 0 0 255 0 0 255 0 0 255 0 0 255 0 0 255 1 1 255 0 0 255 0 0 255 0 0 255 0 0 255 0 0 255 0 0 255 0 0 255 0 0 255 0 0 255 0 0 255 0 0 255 0 0 255 0 0 255 0 0 255 0 0 254 0 0 255 0 0 255 0 0 255 0 0 255 0 0 255 0 0 255 0 0 255 0 0 255 0 0 254 0 0 255 0 0 255 0 0 255 0 0 255 0 0 255 0 0 255 0 0 255 1 1 255 0 0 255 0 0 254 0 0 255 0 0 254 0 0 255 0 0 255 0 0 254 0 0 255 0 0 255 0 0 255 0 0 255 0 0 255 0 0 255 0 0 255 0 0 255 1 1 255 0 0 255 0 0 254 1 1 255 1 1 255 0 0 255 0 0 255 0 0 255 0 0 255 0 0 255 0 0 254 0 0 255 0 0 255 0 0 255 1 1 255 0 0 255 0 0 255 0 0 255 0 0 255 0 0 255 0 0 255 0 0 255 0 0 255 0 0 255 0 0 255 0 0 255 0 0 255 0 0 254 0 0 255 0 0 255 0 0 254 0 0 255 0 0 255 0 0 255 0 0 255 0 0 255 0 0 255 1 1 255 0 0 255 0 0 255 0 0 255 0 0 255 0 0 255 0 0 255 0 0 255 0 0 255 0 0 255 0 0 255 0 0 255 0 0 255 0 0 255 0 0 255 0 0 255 0 0 255 0 0 255 0 0 255 0 0 255 0 0 255 0 0 255 1 1 255 0 0 255 0 0 255 0 0 255 0 0 255 1 1 255 0 0 254 0 0 255 0 0 255 1 1 255 1 1 255 0 0 255 0 0 255 0 0 255 0 0 255 0 0 255 0 0 254 0 0 255 0 0 255 0 0 255 0 0 254 1 1 255 0 0 255 0 0 255 0 0 254 0 0 255 0 0 255 0 0 255 1 1 255 0 0 255 0 0 255 0 0 255 0 0 255 0 0 255 0 0 254 0 0 255 0 0 255 0 0 255 0 0 255 0 0 255 0 0 255 0 0 255 0 0 255 0 0 255 0 0 255 0 0 255 0 0 255 0 0 255 0 0 255 0 0 254 1 1 255 0 0 255 0 0 255 0 0 255 0 0 255 0 0 255 0 0 255 0 0 255 0 0 254 0 0 255 0 0 255 0 0 255 0 0 254 0 0 254 0 0 255 0 0 255 0 0 255 0 0 255 0 0 254 0 0 255 0 0 254 0 0 255 0 0 255 0 0 255 0 0 255 0 0 255 0 0 255 0 0 255 0 0 255 0 0 255 0 0 255 0 0 255 1 1 255 0 0 255 1 1 255 0 0 255 0 0 255 0 0 255 0 0 255 1 1 255 0 0 255 0 0 254 1 1 255 0 0 255 0 0 255 0 0 255 0 0 255 0 0 255 1 1 255 0 0 255 0 0 255 0 0 255 0 0 255 0 0 255 0 0 255 0 0 255 0 0 255 1 1 255 0 0 255 0 0 255 0 0 255 0 0 255 0 0 255 0 0 255 0 0 254 0 0 255 0 0 254 0 0 255 0 0 255 0 0 255 0 0 255 0 0 255 0 0 255 1 1 255 0 0 255 0 0 255 1 1 255 0 0 255 0 0 255 0 0 254 0 0 255 0 0 255 0 0 255 0 0 255 0 0 255 0 0 255 0 0 255 0 0 255 0 0 254 0 0 255 0 0 255 0 0 255 0 0 254 0 0 255 0 0 255 0 0 255 0 0 254 0 0 255 0 0 255 0 0 255 0 0 255 0 0 255 0 0 255 0 0 255 1 1 255 0 0 255 0 0 255 0 0 255 0 0 254 0 0 255 1 1 255 1 1 255 0 0 255 0 0 255 0 0 255 0 0 255 0 0 255 1 1 255 0 0 255 0 0 255 0 0 255 0 0 255 0 0 255 0 0 255 0 0 255 0 0 255 0 0 255 1 1 255 1 1 255 0 0 255 0 0 255 0 0 255 1 1 255 0 0 255 0 0 255 0 0 255 0 0 254 0 0 255 0 0 255 0 0 255 0 0 255 0 0 255 0 0 255 0 0 255 0 0 255 0 0 254 1 1 255 0 0 254 0 0 255 0 0 255 0 0 255 0 0 255 0 0 255 0 0 255 0 0 254 0 0 255 1 1 255 0 0 255 0 0 255 0 0 255 0 0 255 0 0 255 0 0 255 0 0 255 0 0 255 0 0 255 0 0 255 0 0 255 0 0 255 0 0 255 0 0 255 0 0 255 0 0 255 0 0 255 0 0 255 0 0 255 0 0 255 0 0 255 0 0 255 0 0 255 0 0 255 1 1 255 0 0 255 0 0 255 0 0 255 1 1 255 1 1 255 0 0 254 1 1 255 0 0 255 0 0 254 0 0 255 0 0 255 0 0 255 0 0 255 0 0 255 0 0 255 0 0 255 0 0 255 0 0 255 0 0 255 1 1 255 0 0 255 0 0 255 0 0 255 0 0 255 0 0 255 0 0 255 0 0 255 0 0 255 0 0 255 0 0 255 0 0 255 0 0 255 0 0 255 0 0 255 0 0 255 0 0 255 0 0 255 0 0 255 0 0 255 0 0 255 1 1 255 0 0 255 0 0 255 0 0 254 0 0 255 0 0 255 0 0 255 0 0 255 0 0 255 0 0 255 0 0 255 0 0 255 0 0 255 0 0 255 0 0 255 0 0 255 0 0 255 0 0 254 0 0 255 0 0 255 1 1 255 0 0 255 0 0 255 0 0 255 0 0 255 0 0 255 0 0 255 0 0 255 0 0 255 0 0 255 0 0 255 0 0 255 0 0 255 0 0 255 0 0 255 0 0 255 0 0 255 0 0 255 0 0 255 0 0 255 0 0 255 1 1 255 0 0 255 0 0 255 0 0 255 0 0 254 0 0 255 0 0 255 0 0 254 0 0 255 0 0 255 0 0 255 0 0 254 0 0 255 0 0 255 0 0 255 0 0 255 0 0 255 0 0 255 0 0 255 0 0 255 0 0 255 0 0 255 0 0 255 0 0 255 0 0 254 0 0 255 0 0 255 0 0 255 0 0 255 0 0 255 0 0 255 1 1 255 0 0 255 0 0 254 0 0 255 0 0 255 0 0 255 0 0 254 0 0 255 0 0 255 0 0 254 0 0 255 0 0 255 0 0 255 0 0 255 0 0 255 0 0 255 0 0 255 0 0 255 0 0 255 0 0 254 0 0 255 0 0 255 1 1 255 0 0 255 0 0 255 0 0 255 0 0 255 0 0 255 0 0 254 0 0 255 0 0 254 0 0 255 1 1 255 0 0 255 0 0 255 0 0 255 0 0 254 0 0 255 0 0 255 0 0 255 0 0 255 0 0 255 0 0 254 0 0 255 1 1 255 0 0 255 0 0 255 1 1 255 0 0 255 0 0 255 1 1 255 0 0 255 0 0 255 0 0 255 0 0 255 0 0 255 0 0 255 0 0 254 0 0 255 0 0 255 0 0 255 0 0 255 0 0 255 0 0 255 0 0 255 1 1 255 0 0 255 0 0 255 0 0 255 0 0 255 0 0 255 0 0 255 0 0 255 0 0 255 0 0 255 0 0 255 0 0 255 0 0 254 0 0 255 0 0 254 0 0 255 0 0 255 0 0 255 0 0 254 0 0 255 0 0 255 0 0 255 0 0 255 0 0 255 0 0 255 0 0 255 1 1 255 0 0 255 0 0 255 0 0 255 0 0 255 0 0 255 0 0 254 0 0 255 0 0 255 0 0 255 0 0 254 0 0 255 0 0 254 0 0 255 0 0 255 0 0 255 0 0 255 0 0 255 0 0 255 1 1 255 0 0 255 0 0 255 0 0 255 0 0 255 0 0 255 0 0 255 0 0 255 0 0 255 0 0 255 0 0 255 0 0 255 0 0 254 0 0 255 0 0 255 0 0 255 0 0 255 0 0 254 0 0 255 0 0 254 0 0 255 0 0 255 0 0 255 0 0 255 0 0 255 0 0 255 0 0 255 0 0 255 0 0 255 0 0 254 0 0 255 0 0 255 0 0 255 0 0 255 0 0 255 0 0 255 0 0 255 0 0 255 0 0 255 0 0 255 0 0 255 0 0 255 0 0 255 1 1 255 0 0 255 1 1 255 0 0 255 0 0 255 0 0 255 0 0 255 0 0 255 0 0 255 0 0 255 0 0 255 0 0 255 0 0 255 0 0 255 0 0 254 0 0 255 0 0 255 0 0 254 1 1 255 0 0 255 0 0 255 0 0 255 0 0 255 0 0 255 0 0 255 0 0 255 0 0 255 0 0 255 0 0 255 0 0 255 0 0 255 0 0 255 0 0 255 0 0 255 0 0 255 0 0 255 0 0 255 0 0 255 1 1 255 0 0 255 0 0 255 0 0 255 1 1 255 0 0 255 0 0 255 0 0 255 0 0 255 0 0 255 0 0 255 0 0 255 0 0 255 0 0 255 0 0 255 0 0 255 0 0 255 0 0 255 0 0 255 0 0 255 0 0 255 1 1 255 0 0 255 0 0 255 0 0 254 1 1 255 0 0 255 0 0 254 0 0 255 0 0 255 0 0 255 0 0 255 0 0 255 0 0 255 0 0 255 0 0 255 0 0 255 0 0 255 0 0 255 0 0 255 0 0 255 0 0 255 0 0 255 0 0 255 0 0 255 0 0 255 0 0 255 0 0 255 0 0 255 0 0 255 0 0 254 0 0 254 0 0 255 0 0 255 0 0 255 0 0 255 0 0 255 0 0 254 1 1 255 0 0 255 0 0 255 0 0 255 1 1 255 0 0 254 0 0 255 0 0 255 0 0 255 0 0 255 1 1 255 0 0 255 0 0 255 0 0 255 0 0 255 0 0 255 0 0 255 0 0 255 0 0 255 1 1 255 0 0 255 0 0 255 0 0 255 0 0 255 0 0 254 0 0 255 0 0 255 0 0 255 1 1 255 1 1 255 0 0 254 0 0 255 0 0 255 0 0 255 0 0 255 0 0 255 0 0 255 0 0 255 0 0 255 0 0 255 0 0 255 0 0 255 0 0 255 1 1 255 0 0 255 1 1 255 0 0 254 0 0 255 0 0 255 0 0 255 1 1 255 0 0 255 0 0 255 0 0 255 0 0 255 0 0 255 0 0 255 0 0 255 0 0 255 0 0 255 0 0 254 0 0 255 0 0 255 0 0 255 0 0 254 0 0 255 0 0 255 1 1 255 0 0 255 0 0 255 0 0 255 0 0 255 0 0 255 0 0 255 0 0 255 0 0 255 0 0 255 0 0 255 0 0 255 0 0 255 0 0 255 0 0 255 0 0 255 0 0 255 0 0 255 0 0 255 0 0 255 0 0 255 0 0 255 0 0 255 0 0 255 0 0 255 0 0 255 0 0 255 0 0 254 0 0 255 0 0 255 0 0 255 0 0 255 0 0 255 0 0 255 0 0 255 0 0 255 0 0 255 1 1 255 0 0 255 1 1 255 1 1 255 0 0 255 0 0 255 0 0 255 0 0 254 0 0 254 0 0 255 0 0 255 0 0 255 0 0 255 0 0 255 0 0 255 0 0 255 0 0 255 0 0 255 0 0 255 0 0 254 0 0 255 0 0 255 1 1 255 0 0 255 0 0 255 0 0 255 0 0 255 0 0 255 0 0 255 0 0 255 0 0 255 0 0 255 0 0 255 0 0 255 0 0 255 1 1 255 0 0 255 0 0 255 0 0 255 0 0 255 0 0 255 0 0 255 0 0 255 0 0 255 0 0 255 0 0 255 0 0 255 0 0 255 0 0 255 0 0 255 0 0 255 0 0 255 0 0 255 0 0 255 0 0 255 0 0 255 0 0 255 1 1 255 0 0 254 0 0 255 0 0 255 0 0 255 0 0 255 0 0 255 0 0 255 0 0 255 0 0 255 0 0 254 0 0 255 0 0 255 1 1 255 1 1 255 0 0 255 0 0 254 0 0 255 0 0 254 0 0 255 0 0 255 0 0 255 0 0 255 0 0 254 0 0 255 0 0 254 0 0 255 0 0 255 0 0 254 0 0 255 0 0 255 0 0 255 0 0 255 0 0 255 1 1 255 0 0 255 0 0 255 1 1 255 0 0 255 0 0 255 0 0 255 0 0 255 0 0 255 0 0 255 0 0 255 0 0 255 0 0 255 0 0 255 0 0 255 0 0 255 0 0 255 0 0 255 0 0 255 0 0 255 0 0 255 0 0 255 0 0 255 1 1 255 0 0 255 0 0 255 0 0 255 0 0 255 0 0 255 0 0 254 0 0 255 1 1 255 0 0 255 1 1 255 0 0 255 0 0 255 0 0 255 1 1 255 0 0 255 0 0 255 0 0 255 1 1 255 0 0 255 0 0 255 0 0 255 0 0 255 0 0 255 0 0 255 1 1 255 0 0 255 0 0 255 0 0 255 0 0 255 0 0 255 0 0 255 0 0 255 0 0 255 0 0 255 0 0 255 0 0 255 1 1 255 0 0 255 0 0 255 0 0 255 0 0 255 1 1 255 0 0 255 0 0 255 0 0 255 0 0 255 0 0 255 0 0 255 0 0 255 0 0 255 0 0 255 0 0 254 0 0 255 0 0 255 0 0 255 0 0 255 0 0 255 0 0 255 0 0 255 0 0 255 0 0 255 0 0 255 0 0 254 0 0 255 1 1 255 0 0 255 0 0 255 0 0 255 0 0 255 0 0 255 1 1 255 0 0 254 0 0 255 1 1 255 1 1 255 0 0 255 0 0 255 0 0 255 1 1 255 0 0 255 0 0 255 0 0 255 0 0 254 0 0 255 0 0 255 0 0 255 0 0 255 0 0 255 0 0 255 0 0 255 0 0 255 1 1 255 0 0 255 0 0 255 0 0 254 0 0 255 0 0 254 0 0 255 0 0 254 0 0 254 0 0 255 0 0 255 1 1 255 0 0 255 0 0 255 0 0 255 0 0 255 0 0 255 0 0 255 0 0 255 0 0 255 0 0 255 0 0 254 0 0 255 0 0 255 0 0 255 0 0 255 0 0 255 0 0 255 0 0 255 0 0 255 0 0 255 0 0 255 1 1 255 0 0 255 0 0 255 0 0 254 1 1 255 0 0 254 0 0 255 0 0 255 0 0 255 0 0 255 0 0 255 0 0 255 0 0 255 0 0 255 0 0 255 0 0 255 0 0 255 0 0 255 0 0 255 0 0 254 1 1 255 0 0 254 0 0 255 1 1 255 0 0 254 0 0 255 0 0 255 0 0 255 1 1 255 0 0 255 0 0 255 0 0 255 0 0 254 0 0 255 0 0 255 0 0 255 0 0 255 0 0 255 0 0 255 0 0 255 0 0 255 0 0 255 0 0 255 0 0 255 0 0 254 0 0 255 0 0 255 1 1 255 0 0 255 1 1 255 0 0 255 0 0 255 0 0 255 0 0 255 0 0 255 0 0 255 0 0 255 0 0 255 0 0 255 0 0 255 0 0 255 0 0 255 0 0 255 0 0 255 0 0 254 0 0 255 0 0 254 0 0 254 0 0 255 0 0 255 1 1 255 0 0 255 0 0 255 0 0 255 0 0 254 0 0 255 0 0 254 0 0 254 1 1 255 0 0 255 0 0 255 0 0 255 0 0 255 0 0 255 0 0 255 0 0 255 0 0 255 0 0 255 1 1 255 0 0 255 0 0 255 0 0 255 0 0 255 0 0 254 0 0 255 0 0 255 0 0 255 0 0 255 0 0 255 0 0 254 0 0 255 0 0 254 0 0 255 0 0 255 0 0 255 1 1 255 0 0 255 0 0 255 0 0 255 0 0 254 0 0 255 0 0 255 0 0 255 0 0 255 0 0 255 0 0 255 0 0 254 0 0 255 0 0 255 0 0 255 0 0 255 0 0 255 0 0 255 0 0 255 0 0 255 0 0 255 0 0 255 0 0 255 0 0 255 0 0 255 0 0 255 0 0 255 0 0 255 1 1 255 0 0 255 0 0 255 0 0 255 0 0 254 0 0 255 0 0 255 0 0 255 0 0 255 0 0 255 0 0 255 0 0 254 1 1 255 0 0 255 0 0 255 0 0 255 0 0 255 0 0 255 1 1 255 0 0 255 0 0 255 0 0 255 0 0 255 0 0 255 0 0 255 0 0 255 0 0 255 0 0 255 0 0 255 0 0 255 0 0 254 1 1 255 0 0 255 0 0 255 0 0 255 0 0 255 0 0 255 0 0 255 0 0 255 0 0 255 1 1 255 0 0 255 0 0 255 0 0 255 0 0 255 0 0 255 0 0 255 0 0 255 0 0 255 0 0 255 0 0 255 0 0 255 0 0 255 0 0 255 1 1 255 0 0 255 0 0 255 0 0 255 0 0 255 0 0 255 0 0 255 0 0 255 0 0 255 0 0 255 0 0 255 0 0 255 0 0 255 0 0 255 0 0 255 0 0 255 0 0 255 0 0 255 0 0 255 0 0 255 0 0 255 0 0 255 0 0 255 1 1 255 0 0 255 0 0 255 0 0 255 0 0 255 0 0 255 0 0 255 0 0 255 0 0 255 0 0 255 0 0 255 0 0 255 0 0 255 0 0 255 0 0 255 0 0 255 0 0 255 0 0 255 0 0 255 0 0 254 0 0 255 1 1 255 0 0 255 0 0 255 0 0 255 0 0 255 0 0 255 1 1 255 0 0 255 0 0 255 0 0 255 0 0 255 0 0 255 0 0 255 0 0 255 0 0 255 0 0 255 0 0 255 0 0 255 0 0 254 1 1 255 0 0 255 0 0 255 0 0 255 0 0 255 0 0 255 0 0 255 0 0 255 0 0 255 0 0 255 0 0 255 0 0 254 0 0 255 0 0 255 0 0 255 0 0 255 0 0 255 0 0 255 0 0 255 0 0 255 0 0 255 0 0 255 1 1 255 0 0 255 0 0 255 0 0 255 0 0 255 0 0 255 0 0 255 0 0 255 0 0 254 0 0 255 0 0 255 1 1 255 0 0 255 0 0 255 0 0 255 0 0 255 0 0 255 0 0 255 0 0 255 0 0 255 0 0 255 0 0 255 0 0 255 0 0 255 1 1 255 0 0 255 0 0 255 0 0 255 0 0 255 1 1 255 0 0 255 0 0 254 0 0 254 0 0 255 0 0 254 0 0 255 1 1 255 0 0 255 0 0 255 0 0 255 0 0 255 0 0 254 0 0 255 0 0 255 0 0 255 0 0 255 0 0 255 0 0 255 0 0 255 0 0 254 0 0 255 0 0 254 0 0 255 0 0 255 0 0 255 0 0 255 0 0 255 0 0 255 0 0 255 0 0 254 0 0 255 0 0 255 0 0 255 0 0 255 0 0 255 0 0 255 0 0 255 0 0 255 0 0 255 0 0 255 0 0 255 0 0 255 0 0 255 0 0 254 0 0 255 0 0 255 0 0 255 0 0 255 0 0 255 1 1 255 0 0 255 0 0 255 0 0 255 0 0 255 0 0 255 0 0 255 0 0 255 1 1 255 0 0 255 0 0 254 1 1 255 0 0 255 0 0 254 0 0 254 0 0 255 0 0 255 1 1 255 0 0 255 0 0 255 0 0 255 0 0 255 0 0 255 0 0 255 0 0 255 0 0 255 0 0 255 0 0 255 0 0 255 0 0 255 0 0 255 0 0 255 0 0 255 0 0 255 0 0 255 0 0 255 0 0 255 0 0 255 0 0 255 0 0 255 0 0 255 0 0 255 0 0 255 0 0 255 0 0 255 0 0 254 0 0 254 0 0 255 0 0 255 0 0 255 0 0 255 0 0 255 0 0 255 0 0 255 0 0 255 0 0 255 0 0 255 0 0 255 0 0 255 0 0 255 0 0 255 0 0 255 0 0 254 0 0 255 0 0 255 1 1 255 0 0 254 0 0 255 0 0 255 0 0 255 0 0 255 0 0 255 1 1 255 0 0 254 0 0 255 0 0 255 0 0 255 0 0 255 0 0 255 0 0 255 0 0 255 0 0 255 0 0 255 0 0 255 0 0 255 0 0 255 0 0 255 0 0 255 0 0 255 1 1 255 0 0 255 0 0 255 0 0 255 0 0 255 0 0 255 0 0 255 0 0 255 0 0 255 0 0 255 0 0 255 0 0 255 0 0 255 0 0 255 0 0 255 0 0 255 0 0 255 0 0 255 0 0 254 1 1 255 1 1 255 0 0 255 0 0 255 0 0 255 0 0 255 0 0 255 0 0 255 0 0 255 0 0 255 0 0 255 0 0 255 0 0 255 0 0 255 0 0 255 0 0 255 0 0 255 0 0 255 0 0 255 0 0 255 0 0 255 0 0 255 0 0 255 0 0 255 0 0 255 0 0 255 0 0 255 0 0 255 0 0 255 0 0 255 0 0 255 0 0 255 0 0 255 0 0 255 0 0 255 1 1 255 0 0 255 0 0 255 0 0 255 1 1 255 0 0 255 0 0 255 0 0 255 0 0 255 0 0 255 0 0 255 0 0 255 0 0 255 0 0 255 0 0 255 0 0 255 0 0 255 0 0 255 0 0 255 0 0 255 0 0 255 0 0 255 0 0 255 0 0 254 0 0 255 0 0 255 0 0 255 0 0 255 0 0 255 1 1 255 0 0 254 0 0 255 0 0 255 0 0 255 0 0 254 0 0 255 0 0 255 0 0 255 0 0 255 0 0 255 0 0 255 0 0 255 0 0 255 0 0 255 0 0 255 0 0 255 1 1 255 1 1 255 0 0 255 0 0 255 0 0 255 0 0 255 0 0 255 0 0 255 0 0 255 0 0 255 0 0 255 0 0 255 0 0 255 0 0 255 0 0 255 0 0 255 0 0 255 0 0 255 0 0 255 0 0 255 0 0 255 0 0 255 0 0 255 0 0 255 0 0 255 0 0 255 0 0 255 0 0 255 0 0 255 0 0 254 0 0 255 0 0 255 0 0 255 0 0 255 0 0 255 0 0 255 0 0 255 0 0 255 0 0 255 0 0 255 0 0 255 0 0 255 0 0 254 0 0 255 0 0 255 0 0 255 0 0 255 0 0 255 0 0 255 0 0 255 0 0 255 0 0 255 0 0 255 1 1 255 0 0 254 0 0 255 0 0 255 0 0 255 0 0 255 1 1 255 0 0 255 0 0 255 1 1 255 0 0 255 0 0 255 0 0 255 0 0 255 0 0 255 0 0 254 0 0 255 0 0 255 0 0 255 0 0 255 0 0 255 0 0 255 0 0 255 0 0 255 0 0 255 0 0 255 0 0 255 0 0 255 0 0 255 0 0 255 0 0 255 0 0 255 0 0 255 0 0 255 0 0 255 1 1 255 0 0 255 0 0 255 0 0 255 0 0 255 0 0 255 0 0 255 0 0 255 0 0 255 0 0 255 0 0 255 0 0 255 0 0 255 0 0 254 0 0 255 0 0 255 0 0 255 0 0 255 0 0 255 0 0 255 1 1 255 0 0 255 0 0 255 0 0 255 0 0 255 0 0 255 0 0 255 0 0 255 0 0 255 0 0 255 1 1 255 0 0 255 0 0 255 0 0 255 0 0 255 0 0 254 0 0 255 0 0 255 0 0 255 0 0 255 0 0 255 1 1 255 0 0 255 0 0 255 0 0 254 0 0 255 0 0 255 0 0 255 0 0 255 0 0 255 0 0 255 0 0 255 0 0 255 0 0 255 0 0 255 0 0 255 0 0 255 0 0 255 0 0 255 0 0 255 0 0 255 0 0 255 0 0 255 0 0 255 0 0 254 0 0 255 0 0 255 0 0 255 0 0 255 0 0 255 0 0 255 0 0 255 1 1 255 0 0 255 0 0 255 0 0 255 0 0 255 0 0 255 0 0 255 0 0 255 0 0 255 0 0 255 0 0 255 0 0 255 0 0 255 0 0 255 0 0 255 0 0 254 0 0 254 0 0 255 0 0 255 0 0 255 1 1 255 0 0 255 0 0 255 0 0 255 0 0 255 0 0 255 0 0 255 0 0 255 0 0 255 0 0 255 1 1 255 0 0 255 0 0 255 0 0 255 0 0 255 0 0 255 0 0 255 0 0 255 0 0 255 0 0 255 1 1 255 0 0 255 0 0 255 0 0 255 0 0 255 0 0 255 0 0 254 1 1 255 0 0 255 1 1 255 0 0 255 0 0 255 0 0 255 0 0 255 0 0 255 1 1 255 0 0 255 0 0 255 0 0 255 0 0 255 0 0 255 0 0 255 0 0 254 0 0 255 0 0 255 0 0 255 0 0 255 0 0 255 0 0 255 0 0 254 0 0 255 0 0 255 0 0 255 0 0 254 0 0 255 0 0 255 1 1 255 0 0 255 0 0 255 0 0 255 0 0 255 0 0 255 0 0 255 0 0 255 0 0 255 0 0 255 0 0 255 0 0 255 0 0 255 0 0 255 0 0 255 0 0 255 0 0 254 0 0 255 0 0 255 1 1 255 0 0 254 0 0 255 0 0 255 0 0 254 0 0 255 0 0 255 0 0 255 0 0 255 0 0 255 0 0 255 0 0 255 0 0 254 0 0 255 0 0 255 0 0 255 0 0 255 0 0 255 0 0 255 0 0 255 0 0 254 0 0 255 0 0 255 0 0 255 0 0 255 0 0 255 0 0 255 0 0 255 0 0 255 0 0 255 1 1 255 0 0 255 0 0 254 0 0 255 0 0 255 0 0 255 0 0 255 1 1 255 0 0 255 0 0 255 0 0 255 0 0 255 0 0 255 1 1 255 0 0 255 0 0 255 0 0 255 0 0 255 0 0 255 0 0 254 0 0 255 0 0 255 0 0 255 0 0 255 0 0 255 0 0 255 0 0 254 0 0 255 0 0 255 0 0 255 0 0 255 0 0 255 0 0 255 0 0 255 0 0 255 0 0 255 0 0 255 0 0 254 0 0 255 0 0 255 0 0 255 0 0 254 0 0 255 0 0 255 0 0 255 0 0 254 0 0 255 0 0 255 0 0 255 0 0 255 0 0 255 0 0 255 0 0 254 0 0 255 0 0 255 0 0 255 0 0 254 0 0 255 0 0 254 0 0 255 0 0 255 0 0 255 0 0 255 0 0 255 0 0 255 1 1 255 0 0 255 0 0 255 0 0 254 0 0 255 1 1 255 0 0 255 0 0 255 0 0 255 0 0 255 0 0 255 0 0 255 0 0 255 0 0 255 0 0 255 0 0 255 0 0 255 0 0 255 0 0 254 0 0 255 0 0 255 0 0 255 0 0 255 0 0 255 0 0 254 0 0 255 0 0 255 0 0 255 0 0 255 0 0 255 0 0 255 0 0 255 0 0 255 0 0 255 0 0 255 0 0 255 0 0 255 0 0 255 0 0 254 0 0 255 0 0 255 0 0 255 0 0 255 0 0 255 0 0 255 0 0 255 0 0 255 0 0 255 0 0 255 0 0 255 0 0 255 1 1 255 0 0 255 0 0 255 0 0 255 0 0 255 0 0 255 0 0 255 0 0 255 0 0 255 0 0 255 1 1 255 1 1 255 0 0 255 0 0 255 0 0 255 0 0 255 0 0 254 0 0 255 0 0 255 0 0 255 0 0 255 0 0 255 0 0 254 0 0 255 0 0 254 0 0 255 0 0 255 0 0 255 1 1 255 0 0 255 1 1 255 0 0 255 0 0 255 0 0 255 0 0 255 0 0 255 0 0 255 0 0 255 0 0 255 0 0 255 0 0 255 1 1 255 0 0 255 0 0 255 0 0 255 0 0 254 0 0 255 0 0 255 0 0 255 0 0 255 0 0 255 0 0 255 0 0 255 0 0 255 0 0 255 0 0 255 0 0 255 0 0 255 0 0 255 0 0 255 0 0 255 0 0 255 0 0 255 0 0 255 0 0 255 0 0 255 0 0 255 1 1 255 0 0 255 0 0 255 0 0 255 0 0 255 1 1 255 0 0 254 1 1 255 0 0 255 0 0 255 1 1 255 0 0 255 0 0 255 0 0 255 0 0 255 0 0 255 0 0 255 0 0 255 0 0 255 0 0 255 0 0 255 0 0 255 0 0 255 0 0 255 0 0 255 0 0 255 0 0 255 0 0 255 0 0 255 0 0 255 0 0 255 1 1 255 0 0 255 0 0 255 0 0 255 0 0 255 0 0 255 0 0 255 0 0 255 0 0 255 0 0 255 0 0 255 0 0 255 0 0 255 0 0 255 1 1 255 0 0 255 0 0 255 0 0 255 0 0 255 0 0 255 0 0 254 0 0 255 1 1 255 1 1 255 0 0 255 0 0 255 0 0 255 0 0 255 0 0 255 0 0 255 0 0 255 0 0 255 0 0 255 0 0 255 0 0 255 0 0 255 0 0 255 0 0 255 0 0 255 0 0 255 0 0 255 1 1 255 0 0 255 0 0 255 0 0 255 0 0 255 0 0 255 0 0 254 0 0 255 0 0 255 0 0 255 1 1 255 0 0 254 0 0 255 1 1 255 0 0 255 0 0 255 0 0 255 0 0 255 0 0 255 1 1 255 0 0 255 0 0 255 0 0 255 1 1 255 0 0 255 0 0 255 1 1 255 0 0 255 0 0 255 0 0 255 0 0 255 0 0 255 0 0 255 0 0 255 0 0 255 0 0 255 0 0 255 0 0 255 0 0 255 0 0 255 0 0 255 0 0 255 0 0 255 0 0 255 0 0 255 0 0 255 0 0 255 0 0 255 1 1 255 0 0 255 0 0 254 0 0 255 0 0 255 0 0 255 0 0 255 0 0 255 0 0 255 0 0 255 0 0 255 0 0 255 0 0 255 0 0 255 0 0 255 0 0 255 0 0 254 0 0 255 0 0 255 0 0 255 0 0 255 0 0 255 0 0 255 0 0 255 0 0 255 0 0 255 0 0 255 0 0 255 0 0 255 0 0 255 0 0 255 0 0 255 0 0 255 0 0 255 1 1 255 0 0 255 0 0 255 0 0 255 0 0 255 0 0 255 0 0 254 0 0 254 0 0 255 0 0 255 0 0 255 0 0 255 0 0 255 0 0 255 0 0 255 0 0 255 0 0 255 0 0 254 0 0 255 0 0 254 0 0 255 0 0 255 0 0 255 0 0 255 0 0 255 0 0 254 0 0 255 0 0 255 0 0 255 0 0 254 0 0 255 1 1 255 0 0 255 0 0 255 0 0 255 0 0 255 0 0 255 0 0 255 0 0 255 1 1 255 0 0 255 0 0 255 0 0 255 0 0 255 1 1 255 0 0 255 0 0 255 0 0 255 1 1 255 0 0 255 0 0 255 0 0 254 0 0 255 0 0 255 1 1 255 0 0 255 0 0 255 0 0 255 0 0 255 0 0 255 0 0 255 0 0 255 0 0 255 0 0 255 0 0 255 0 0 255 0 0 255 0 0 254 0 0 255 0 0 255 0 0 254 0 0 255 0 0 255 0 0 255 0 0 254 0 0 255 0 0 255 0 0 255 0 0 255 0 0 255 0 0 255 0 0 255 0 0 255 0 0 255 0 0 255 0 0 255 0 0 255 0 0 255 0 0 255 0 0 255 1 1 255 0 0 255 0 0 255 0 0 254 0 0 255 0 0 254 0 0 255 0 0 255 0 0 255 0 0 255 0 0 255 0 0 254 0 0 255 0 0 255 0 0 255 0 0 255 0 0 255 0 0 255 0 0 255 0 0 255 1 1 255 0 0 255 0 0 255 0 0 255 0 0 255 0 0 255 0 0 255 0 0 254 0 0 255 0 0 255 0 0 255 0 0 255 0 0 255 1 1 255 0 0 255 0 0 255 0 0 254 0 0 255 0 0 255 0 0 255 0 0 255 0 0 255 0 0 255 0 0 255 0 0 254 0 0 255 0 0 255 0 0 255 0 0 255 0 0 255 0 0 254 0 0 255 0 0 255 0 0 255 1 1 255 0 0 255 0 0 255 0 0 255 0 0 255 0 0 255 0 0 255 0 0 255 0 0 255 0 0 255 0 0 255 0 0 255 0 0 255 0 0 255 0 0 255 0 0 255 0 0 254 0 0 255 0 0 255 0 0 255 0 0 255 0 0 255 0 0 255 0 0 255 0 0 255 0 0 255 0 0 255 0 0 255 0 0 255 1 1 255 0 0 255 0 0 255 0 0 255 0 0 255 0 0 255 1 1 255 0 0 254 0 0 255 0 0 255 0 0 255 0 0 255 0 0 255 0 0 255 0 0 255 0 0 255 0 0 255 0 0 255 0 0 255 0 0 255 0 0 255 0 0 255 0 0 255 0 0 255 0 0 255 0 0 255 0 0 255 0 0 255 0 0 255 0 0 255 0 0 255 0 0 255 0 0 255 0 0 255 0 0 255 0 0 255 0 0 255 0 0 255 0 0 255 1 1 255 0 0 255 0 0 255 0 0 255 0 0 255 1 1 255 0 0 255 0 0 255 0 0 255 0 0 255 0 0 255 0 0 255 0 0 255 0 0 255 0 0 255 0 0 255 0 0 255 0 0 254 0 0 255 0 0 255 0 0 255 0 0 255 1 1 255 0 0 255 0 0 255 0 0 255 0 0 255 0 0 255 1 1 255 0 0 255 0 0 255 0 0 255 0 0 255 0 0 255 1 1 255 0 0 255 0 0 255 0 0 255 0 0 255 0 0 255 0 0 255 0 0 255 0 0 255 1 1 255 0 0 255 0 0 255 0 0 255 0 0 255 0 0 255 0 0 255 0 0 255 0 0 255 0 0 255 0 0 255 0 0 255 0 0 255 0 0 255 1 1 255 0 0 255 0 0 255 0 0 255 0 0 255 0 0 255 0 0 255 0 0 255 0 0 255 0 0 255 0 0 255 0 0 255 0 0 255 0 0 255 1 1 255 0 0 255 0 0 255 0 0 255 0 0 255 0 0 255 0 0 255 0 0 255 0 0 255 0 0 254 0 0 255 0 0 255 0 0 254 0 0 255 0 0 255 0 0 255 0 0 255 0 0 255 0 0 255 1 1 255 0 0 255 0 0 255 1 1 255 0 0 255 0 0 255 0 0 255 0 0 254 0 0 254 0 0 254 0 0 255 0 0 255 0 0 255 0 0 255 0 0 255 0 0 255 0 0 254 0 0 255 0 0 255 0 0 255 0 0 255 0 0 255 0 0 255 0 0 255 0 0 255 0 0 255 0 0 255 0 0 255 0 0 255 0 0 255 0 0 255 0 0 255 0 0 255 0 0 255 0 0 255 0 0 255 0 0 255 1 1 255 0 0 255 1 1 255 0 0 255 0 0 255 0 0 255 0 0 255 0 0 255 0 0 255 0 0 255 0 0 255 0 0 255 0 0 255 0 0 255 0 0 255 0 0 255 0 0 254 0 0 255 0 0 255 0 0 255 0 0 255 0 0 255 0 0 255 0 0 255 0 0 255 0 0 255 0 0 255 0 0 255 0 0 255 0 0 255 1 1 255 0 0 255 0 0 254 0 0 255 0 0 255 0 0 255 0 0 255 0 0 255 0 0 255 0 0 254 0 0 255 1 1 255 0 0 255 0 0 255 0 0 255 0 0 255 0 0 255 0 0 255 0 0 255 1 1 255 0 0 255 0 0 255 0 0 255 0 0 255 0 0 255 0 0 255 0 0 255 0 0 255 0 0 255 0 0 255 0 0 255 0 0 255 0 0 255 0 0 255 0 0 255 0 0 254 0 0 255 0 0 255 0 0 254 0 0 255 0 0 254 0 0 255 0 0 255 0 0 254 0 0 255 0 0 254 0 0 255 0 0 255 0 0 255 0 0 255 0 0 255 0 0 254 0 0 254 0 0 255 0 0 255 0 0 254 1 1 255 0 0 255 0 0 255 0 0 255 0 0 255 0 0 255 0 0 255 0 0 254 0 0 255 0 0 255 0 0 255 0 0 255 0 0 255 0 0 255 0 0 255 1 1 255 0 0 255 0 0 255 0 0 255 0 0 255 0 0 255 0 0 255 0 0 255 0 0 255 0 0 255 0 0 255 0 0 255 0 0 255 0 0 255 1 1 255 0 0 255 1 1 255 0 0 255 0 0 255 0 0 255 0 0 255 0 0 255 1 1 255 0 0 255 0 0 255 0 0 255 0 0 255 0 0 255 0 0 255 0 0 255 0 0 255 1 1 255 0 0 255 0 0 255 0 0 255 0 0 255 0 0 255 0 0 255 1 1 255 0 0 255 0 0 255 0 0 255 0 0 255 0 0 255 0 0 255 0 0 255 1 1 255 0 0 255 0 0 255 0 0 255 0 0 255 0 0 255 0 0 255 0 0 255 0 0 255 0 0 255 0 0 254 0 0 255 0 0 255 1 1 255 0 0 255 0 0 255 0 0 255 0 0 254 0 0 255 0 0 255 0 0 254 0 0 255 0 0 255 0 0 255 1 1 255 0 0 255 0 0 255 0 0 255 0 0 254 0 0 255 0 0 255 1 1 255 0 0 255 0 0 255 1 1 255 1 1 255 0 0 255 0 0 255 0 0 255 0 0 255 0 0 255 1 1 255 0 0 255 0 0 255 0 0 255 0 0 255 0 0 255 1 1 255 0 0 255 0 0 255 0 0 255 1 1 255 0 0 255 0 0 255 0 0 255 0 0 255 0 0 255 0 0 255 0 0 255 0 0 255 0 0 255 0 0 254 0 0 255 0 0 255 0 0 255 1 1 255 0 0 255 1 1 255 0 0 255 0 0 255 0 0 255 0 0 255 1 1 255 0 0 255 0 0 255 0 0 255 0 0 255 0 0 255 0 0 254 0 0 255 0 0 255 0 0 255 0 0 255 0 0 255 0 0 255 0 0 255 0 0 255 0 0 254 0 0 255 0 0 255 1 1 255 0 0 255 0 0 255 0 0 255 0 0 255 0 0 254 0 0 255 0 0 255 1 1 255 1 1 255 0 0 254 1 1 255 0 0 255 0 0 255 1 1 255 0 0 255 0 0 255 0 0 254 0 0 255 0 0 255 1 1 255 0 0 255 0 0 255 0 0 255 0 0 255 0 0 255 0 0 254 0 0 255 0 0 255 0 0 255 0 0 255 1 1 255 0 0 254 0 0 255 0 0 255 0 0 255 1 1 255 0 0 254 0 0 254 0 0 255 0 0 255 0 0 255 0 0 255 0 0 255 0 0 255 0 0 255 0 0 255 0 0 255 0 0 255 0 0 255 0 0 254 0 0 254 0 0 255 0 0 255 0 0 255 0 0 255 1 1 255 0 0 255 0 0 254 0 0 255 0 0 255 0 0 255 0 0 254 0 0 255 0 0 255 1 1 255 0 0 255 0 0 255 0 0 255 0 0 255 0 0 254 0 0 255 0 0 255 0 0 255 0 0 255 0 0 255 0 0 255 0 0 255 0 0 255 0 0 255 1 1 255 0 0 255 1 1 255 0 0 255 0 0 255 0 0 255 0 0 255 0 0 255 0 0 255 0 0 255 0 0 255 0 0 255 0 0 255 0 0 255 0 0 255 0 0 255 0 0 255 0 0 255 0 0 255 0 0 255 0 0 255 0 0 255 0 0 255 0 0 255 0 0 255 0 0 255 0 0 254 0 0 254 0 0 254 0 0 254 0 0 255 1 1 255 0 0 255 0 0 255 0 0 255 0 0 255 0 0 255 0 0 255 0 0 255 1 1 255 1 1 255 0 0 255 1 1 255 1 1 255 0 0 255 0 0 255 0 0 255 0 0 255 0 0 255 0 0 255 0 0 255 0 0 255 0 0 254 0 0 255 1 1 255 0 0 255 0 0 255 0 0 255 0 0 255 0 0 255 0 0 255 0 0 255 0 0 255 0 0 254 0 0 255 0 0 255 0 0 255 0 0 255 0 0 255 0 0 255 0 0 255 0 0 255 0 0 255 0 0 255 1 1 255 0 0 255 0 0 255 0 0 255 0 0 255 0 0 255 0 0 255 0 0 255 0 0 255 0 0 255 0 0 255 0 0 255 0 0 255 0 0 255 0 0 255 0 0 255 0 0 255 0 0 255 0 0 255 0 0 255 0 0 255 0 0 255 0 0 255 0 0 255 0 0 255 0 0 255 0 0 255 0 0 255 1 1 255 0 0 255 0 0 255 0 0 255 0 0 255 0 0 255 0 0 254 0 0 255 1 1 255 0 0 255 0 0 255 0 0 254 1 1 255 0 0 255 0 0 254 0 0 255 0 0 255 0 0 255 0 0 255 0 0 255 0 0 254 1 1 255 0 0 255 0 0 255 0 0 255 0 0 255 0 0 255 0 0 255 0 0 254 0 0 255 0 0 255 1 1 255 0 0 255 0 0 255 0 0 255 0 0 255 0 0 255 0 0 255 0 0 255 0 0 255 0 0 255 0 0 254 0 0 255 0 0 255 1 1 255 1 1 255 0 0 255 0 0 255 1 1 255 0 0 255 0 0 255 0 0 255 0 0 255 0 0 255 0 0 255 0 0 254 0 0 255 0 0 255 0 0 255 0 0 255 0 0 255 0 0 255 0 0 255 0 0 255 0 0 255 0 0 255 0 0 255 0 0 255 0 0 255 0 0 255 0 0 255 0 0 255 0 0 255 0 0 255 0 0 255 0 0 255 0 0 255 0 0 254 0 0 255 0 0 255 0 0 255 0 0 255 0 0 255 0 0 254 0 0 255 0 0 255 0 0 255 0 0 255 0 0 255 0 0 254 0 0 255 1 1 255 0 0 255 0 0 255 0 0 255 0 0 254 0 0 255 0 0 254 0 0 255 0 0 255 0 0 255 0 0 254 0 0 255 0 0 255 0 0 255 0 0 255 0 0 255 0 0 255 0 0 255 0 0 255 0 0 255 0 0 255 0 0 255 1 1 255 0 0 255 0 0 255 1 1 255 0 0 255 0 0 254 0 0 254 0 0 255 1 1 255 0 0 255 0 0 255 0 0 255 0 0 254 1 1 255 0 0 255 0 0 255 0 0 255 0 0 255 0 0 255 0 0 254 0 0 255 0 0 255 0 0 255 0 0 254 0 0 255 0 0 254 0 0 255 0 0 255 0 0 255 0 0 255 0 0 255 0 0 255 0 0 255 0 0 255 0 0 255 0 0 255 0 0 255 0 0 255 0 0 255 0 0 255 0 0 254 0 0 255 0 0 255 0 0 255 0 0 255 1 1 255 0 0 255 0 0 255 0 0 255 0 0 255 0 0 255 0 0 255 0 0 255 0 0 255 1 1 255 0 0 255 0 0 255 0 0 255 0 0 255 0 0 254 0 0 255 0 0 254 0 0 255 0 0 255 0 0 255 0 0 255 0 0 255 0 0 255 0 0 255 0 0 255 0 0 255 0 0 255 0 0 255 0 0 255 0 0 255 0 0 255 0 0 255 0 0 255 0 0 255 0 0 255 0 0 255 0 0 255 0 0 255 0 0 255 0 0 255 0 0 255 0 0 255 0 0 255 0 0 255 0 0 255 0 0 254 0 0 255 1 1 255 1 1 255 0 0 255 1 1 255 0 0 255 0 0 255 0 0 255 1 1 255 0 0 255 0 0 255 0 0 255 0 0 255 0 0 255 0 0 255 0 0 255 0 0 255 0 0 255 1 1 255 0 0 255 0 0 255 0 0 255 0 0 255 0 0 255 0 0 255 0 0 255 0 0 255 0 0 255 0 0 255 0 0 255 0 0 255 0 0 255 0 0 255 0 0 255 0 0 255 0 0 255 0 0 255 0 0 255 0 0 255 1 1 255 0 0 255 0 0 255 0 0 255 0 0 255 0 0 255 1 1 255 0 0 255 0 0 255 0 0 255 0 0 255 0 0 255 0 0 254 0 0 255 0 0 255 0 0 255 0 0 255 0 0 254 0 0 255 0 0 255 0 0 255 0 0 255 0 0 255 0 0 255 0 0 255 0 0 255 1 1 255 0 0 255 0 0 255 0 0 255 0 0 255 0 0 255 0 0 255 0 0 254 0 0 255 0 0 255 0 0 255 0 0 255 0 0 255 0 0 254 0 0 255 0 0 255 0 0 255 0 0 255 0 0 255 0 0 255 0 0 255 0 0 255 0 0 255 0 0 255 0 0 255 0 0 255 0 0 255 0 0 255 0 0 255 0 0 255 0 0 255 0 0 255 0 0 255 0 0 255 1 1 255 0 0 255 0 0 255 0 0 255 0 0 255 0 0 255 0 0 255 0 0 255 1 1 255 0 0 255 1 1 255 0 0 255 0 0 255 0 0 255 0 0 255 0 0 255 0 0 255 0 0 255 0 0 255 0 0 255 0 0 255 0 0 255 0 0 255 0 0 255 0 0 255 0 0 255 1 1 255 0 0 255 0 0 254 0 0 255 0 0 255 0 0 255 0 0 255 0 0 255 0 0 255 0 0 255 0 0 255 0 0 254 1 1 255 0 0 255 0 0 255 0 0 255 0 0 255 0 0 255 0 0 255 0 0 255 1 1 255 0 0 255 1 1 255 0 0 255 0 0 255 0 0 255 0 0 255 0 0 255 0 0 254 0 0 255 0 0 255 0 0 255 0 0 255 0 0 255 0 0 255 0 0 255 0 0 255 0 0 255 0 0 255 0 0 255 0 0 254 0 0 254 1 1 255 1 1 255 0 0 255 0 0 255 0 0 255 0 0 255 0 0 254 0 0 255 0 0 255 1 1 255 0 0 255 0 0 255 0 0 255 0 0 255 0 0 255 0 0 255 0 0 255 1 1 255 0 0 255 0 0 255 1 1 255 0 0 255 0 0 255 0 0 255 0 0 255 0 0 255 0 0 254 0 0 255 0 0 255 0 0 255 0 0 255 0 0 254 0 0 255 0 0 255 0 0 254 0 0 255 0 0 254 0 0 255 0 0 255 0 0 255 0 0 254 0 0 255 0 0 255 0 0 255 0 0 255 0 0 255 0 0 255 0 0 255 0 0 255 0 0 255 0 0 255 0 0 255 0 0 254 0 0 255 0 0 255 0 0 255 1 1 255 0 0 255 0 0 254 0 0 255 0 0 255 0 0 255 0 0 255 0 0 255 0 0 255 0 0 255 0 0 255 1 1 255 1 1 255 0 0 255 0 0 255 0 0 255 0 0 255 0 0 255 0 0 254 0 0 255 0 0 255 0 0 255 0 0 255 0 0 255 0 0 255 0 0 255 0 0 255 0 0 254 0 0 255 0 0 255 0 0 255 0 0 255 1 1 255 0 0 255 0 0 255 0 0 255 0 0 255 1 1 255 0 0 255 0 0 255 0 0 255 0 0 255 0 0 255 0 0 255 0 0 255 0 0 255 0 0 255 0 0 255 0 0 255 0 0 254 0 0 255 0 0 255 0 0 255 0 0 255 0 0 255 0 0 255 0 0 255 0 0 255 0 0 255 0 0 255 0 0 255 0 0 255 0 0 255 0 0 255 0 0 255 0 0 255 0 0 255 0 0 255 0 0 255 0 0 255 0 0 255 0 0 255 0 0 255 0 0 255 0 0 255 0 0 255 0 0 255 0 0 254 0 0 255 0 0 255 0 0 255 0 0 255 0 0 255 0 0 255 0 0 255 0 0 255 0 0 255 0 0 255 0 0 255 0 0 255 0 0 255 0 0 255 0 0 255 0 0 254 0 0 255 0 0 255 0 0 255 1 1 255 0 0 255 0 0 255 0 0 255 0 0 255 1 1 255 0 0 255 0 0 255 0 0 255 0 0 255 0 0 255 0 0 255 0 0 255 0 0 255 0 0 255 0 0 255 0 0 254 0 0 255 0 0 255 0 0 255 0 0 255 0 0 255 0 0 255 0 0 255 0 0 255 0 0 255 0 0 255 0 0 255 1 1 255 0 0 255 0 0 255 0 0 255 0 0 255 1 1 255 1 1 255 0 0 255 0 0 255 0 0 255 0 0 255 1 1 255 0 0 255 0 0 255 0 0 255 0 0 254 0 0 255 0 0 255 0 0 255 1 1 255 0 0 255 0 0 255 0 0 255 0 0 255 0 0 255 0 0 254 0 0 255 0 0 255 1 1 255 0 0 255 0 0 255 0 0 255 0 0 255 0 0 255 0 0 255 0 0 255 0 0 255 0 0 254 0 0 255 0 0 255 0 0 255 0 0 255 0 0 255 0 0 255 0 0 255 0 0 255 0 0 255 0 0 255 0 0 254 0 0 255 0 0 255 0 0 254 0 0 255 0 0 255 0 0 255 0 0 255 0 0 254 0 0 255 0 0 255 1 1 255 0 0 255 0 0 255 0 0 255 0 0 255 0 0 255 0 0 255 0 0 255 0 0 255 0 0 255 0 0 255 0 0 255 0 0 255 0 0 255 0 0 255 0 0 254 0 0 255 0 0 255 0 0 255 0 0 255 0 0 255 0 0 255 0 0 255 0 0 255 0 0 255 0 0 255 0 0 255 1 1 255 0 0 255 0 0 255 0 0 255 0 0 255 1 1 255 0 0 254 0 0 255 0 0 255 0 0 255 0 0 255 0 0 255 0 0 255 0 0 255 0 0 255 0 0 255 0 0 255 0 0 255 0 0 255 0 0 255 0 0 255 0 0 255 0 0 255 0 0 255 0 0 255 0 0 255 0 0 254 0 0 255 0 0 255 0 0 255 0 0 255 0 0 255 0 0 255 0 0 255 1 1 255 0 0 255 0 0 255 0 0 255 0 0 255 0 0 255 0 0 255 0 0 254 0 0 254 0 0 255 1 1 255 0 0 255 1 1 255 0 0 255 0 0 255 0 0 255 0 0 255 0 0 255 0 0 255 0 0 254 0 0 255 0 0 255 0 0 255 0 0 255 0 0 254 0 0 255 1 1 255 0 0 255 0 0 255 0 0 255 0 0 255 0 0 255 0 0 255 0 0 255 0 0 255 0 0 255 0 0 254 0 0 255 0 0 255 0 0 255 0 0 255 0 0 255 0 0 255 0 0 255 0 0 255 0 0 255 0 0 255 0 0 255 0 0 255 0 0 255 0 0 255 0 0 255 0 0 255 0 0 254 0 0 255 0 0 255 0 0 255 0 0 255 0 0 255 0 0 255 0 0 255 0 0 254 0 0 255 0 0 255 0 0 255 0 0 255 0 0 255 0 0 255 0 0 255 0 0 255 0 0 255 0 0 254 0 0 255 0 0 254 0 0 255 0 0 255 0 0 255 0 0 255 0 0 255 1 1 255 1 1 255 0 0 255 0 0 255 0 0 254 0 0 255 0 0 254 0 0 255 0 0 255 0 0 255 0 0 255 1 1 255 0 0 255 0 0 255 0 0 255 1 1 255 0 0 255 0 0 255 1 1 255 0 0 255 0 0 255 0 0 255 0 0 255 0 0 255 0 0 255 0 0 254 0 0 255 0 0 254 0 0 255 0 0 255 0 0 255 0 0 255 0 0 255 0 0 255 0 0 255 0 0 255 0 0 255 0 0 255 0 0 255 0 0 255 0 0 255 0 0 255 0 0 255 0 0 255 0 0 255 0 0 255 1 1 255 0 0 255 0 0 255 0 0 254 0 0 255 0 0 255 0 0 255 0 0 254 0 0 254 0 0 255 0 0 255 0 0 255 0 0 255 0 0 255 0 0 255 0 0 255 0 0 255 0 0 255 0 0 255 1 1 255 0 0 255 1 1 255 0 0 254 0 0 255 0 0 255 0 0 255 0 0 255 1 1 255 0 0 254 0 0 255 0 0 255 0 0 255 1 1 255 0 0 255 0 0 255 0 0 255 0 0 255 0 0 255 1 1 255 0 0 255 0 0 255 0 0 255 0 0 255 1 1 255 0 0 255 0 0 255 0 0 255 0 0 255 0 0 255 1 1 255 0 0 255 0 0 255 0 0 255 0 0 255 0 0 255 0 0 255 1 1 255 0 0 255 0 0 255 0 0 255 0 0 255 0 0 255 0 0 255 0 0 255 0 0 255 0 0 255 0 0 255 0 0 255 0 0 255 0 0 255 0 0 255 0 0 254 0 0 255 0 0 255 0 0 255 0 0 255 0 0 255 0 0 255 0 0 255 0 0 255 0 0 255 0 0 255 0 0 255 0 0 254 0 0 255 0 0 255 0 0 254 0 0 255 0 0 255 0 0 255 0 0 255 0 0 255 0 0 255 0 0 255 0 0 255 0 0 255 0 0 255 0 0 255 0 0 255 0 0 255 0 0 255 1 1 255 0 0 255 1 1 255 0 0 255 0 0 255 0 0 255 0 0 255 1 1 255 0 0 255 0 0 255 0 0 255 0 0 255 0 0 255 0 0 255 0 0 255 0 0 255 0 0 255 0 0 255 0 0 255 0 0 255 0 0 255 0 0 255 0 0 255 0 0 255 0 0 255 0 0 255 0 0 255 0 0 255 0 0 255 0 0 255 0 0 255 0 0 254 0 0 255 0 0 255 0 0 255 0 0 254 0 0 255 0 0 255 0 0 255 0 0 255 0 0 255 0 0 255 0 0 255 0 0 255 0 0 255 0 0 255 0 0 255 0 0 255 1 1 255 0 0 255 0 0 255 0 0 254 0 0 255 0 0 255 0 0 255 0 0 255 0 0 255 0 0 255 0 0 254 0 0 255 0 0 255 0 0 255 0 0 255 0 0 255 0 0 255 0 0 255 0 0 255 0 0 255 0 0 255 0 0 255 1 1 255 0 0 255 0 0 255 0 0 254 0 0 255 0 0 255 0 0 255 0 0 255 0 0 255 0 0 255 1 1 255 0 0 255 0 0 255 0 0 255 0 0 254 0 0 255 0 0 255 0 0 255 0 0 255 0 0 255 0 0 255 1 1 255 0 0 255 0 0 254 0 0 255 0 0 255 0 0 255 0 0 255 0 0 255 0 0 255 0 0 254 0 0 255 0 0 255 0 0 255 0 0 255 0 0 255 0 0 255 0 0 255 0 0 255 0 0 255 0 0 255 0 0 255 0 0 255 0 0 255 0 0 255 0 0 255 0 0 255 0 0 255 0 0 255 0 0 255 1 1 255 0 0 255 1 1 255 0 0 255 0 0 255 0 0 255 0 0 255 0 0 255 1 1 255 0 0 255 0 0 255 0 0 255 0 0 255 0 0 255 0 0 255 0 0 254 0 0 255 0 0 255 0 0 255 0 0 255 0 0 255 0 0 255 0 0 255 0 0 255 0 0 255 0 0 255 0 0 255 1 1 255 0 0 255 0 0 255 0 0 255 0 0 255 0 0 255 0 0 255 0 0 255 0 0 255 0 0 254 0 0 255 0 0 255 0 0 255 0 0 255 0 0 255 0 0 255 0 0 255 0 0 255 0 0 255 0 0 255 0 0 255 0 0 255 0 0 255 0 0 255 0 0 255 0 0 255 0 0 255 0 0 255 0 0 255 0 0 255 1 1 255 0 0 255 0 0 255 0 0 255 0 0 255 0 0 255 0 0 255 0 0 255 0 0 255 0 0 255 0 0 255 0 0 255 0 0 255 0 0 255 0 0 255 0 0 255 0 0 255 0 0 255 0 0 255 1 1 255 0 0 255 0 0 255 0 0 254 0 0 255 0 0 255 0 0 255 0 0 255 0 0 255 0 0 255 0 0 255 0 0 255 0 0 255 0 0 255 0 0 255 0 0 255 0 0 255 0 0 255 0 0 255 0 0 255 0 0 255 0 0 255 0 0 255 1 1 255 0 0 255 0 0 255 0 0 255 0 0 255 0 0 255 0 0 255 0 0 255 0 0 255 0 0 255 0 0 255 0 0 255 0 0 255 0 0 255 0 0 255 0 0 255 0 0 255 0 0 254 0 0 255 0 0 255 1 1 255 0 0 255 0 0 255 0 0 255 0 0 255 0 0 255 0 0 255 0 0 255 0 0 255 0 0 255 1 1 255 0 0 254 0 0 255 0 0 254 0 0 255 0 0 255 0 0 255 0 0 255 0 0 255 0 0 255 0 0 255 0 0 255 0 0 255 0 0 255 0 0 255 0 0 255 0 0 255 0 0 255 0 0 255 0 0 255 0 0 255 0 0 255 0 0 255 0 0 255 0 0 255 0 0 255 0 0 255 0 0 255 0 0 255 0 0 255 0 0 255 0 0 255 0 0 255 0 0 255 0 0 254 0 0 255 0 0 255 0 0 255 0 0 255 0 0 255 0 0 255 0 0 255 0 0 255 0 0 255 0 0 255 0 0 255 0 0 255 0 0 255 0 0 255 1 1 255 0 0 255 0 0 255 0 0 255 0 0 255 1 1 255 0 0 255 0 0 255 0 0 255 0 0 255 0 0 255 0 0 255 0 0 255 0 0 255 0 0 255 0 0 255 0 0 255 0 0 255 0 0 255 0 0 255 0 0 255 0 0 255 0 0 255 0 0 255 0 0 254 0 0 255 0 0 255 0 0 255 0 0 255 0 0 255 0 0 255 0 0 255 0 0 255 0 0 255 0 0 255 0 0 255 0 0 255 1 1 255 0 0 255 0 0 255 0 0 255 0 0 255 0 0 255 0 0 255 0 0 255 0 0 255 0 0 255 0 0 255 0 0 254 0 0 255 0 0 255 0 0 255 0 0 255 0 0 255 0 0 254 0 0 255 0 0 254 0 0 255 0 0 255 0 0 255 0 0 255 0 0 255 0 0 255 0 0 254 0 0 254 0 0 254 0 0 255 0 0 255 0 0 254 0 0 255 0 0 255 1 1 255 0 0 255 0 0 255 0 0 255 0 0 255 0 0 255 0 0 254 0 0 255 0 0 255 0 0 255 0 0 254 0 0 254 0 0 255 0 0 255 0 0 255 0 0 255 0 0 255 0 0 255 0 0 255 0 0 255 0 0 255 0 0 254 1 1 255 0 0 255 0 0 255 0 0 255 0 0 255 0 0 255 0 0 255 0 0 255 1 1 255 1 1 255 0 0 255 0 0 254 0 0 255 0 0 255 0 0 255 0 0 254 0 0 255 0 0 255 0 0 255 0 0 255 0 0 254 0 0 255 0 0 254 0 0 255 1 1 255 0 0 255 0 0 255 0 0 254 0 0 255 0 0 255 0 0 255 0 0 255 0 0 255 0 0 255 0 0 255 0 0 255 1 1 255 0 0 254 0 0 255 0 0 255 0 0 255 0 0 255 0 0 255 0 0 255 0 0 255 0 0 255 0 0 255 0 0 255 0 0 255 0 0 255 0 0 255 0 0 254 0 0 255 0 0 255 0 0 255 0 0 255 0 0 255 0 0 254 0 0 255 0 0 255 0 0 255 0 0 255 0 0 255 0 0 255 0 0 255 0 0 255 0 0 255 0 0 255 0 0 255 0 0 255 0 0 255 0 0 255 0 0 255 0 0 255 0 0 255 0 0 255 0 0 255 0 0 255 0 0 255 0 0 255 0 0 255 0 0 255 0 0 255 0 0 255 0 0 255 0 0 255 0 0 255 0 0 254 0 0 255 0 0 255 0 0 254 0 0 255 0 0 255 0 0 255 0 0 255 0 0 255 0 0 255 0 0 255 0 0 255 0 0 255 1 1 255 0 0 255 1 1 255 0 0 255 0 0 254 0 0 255 0 0 254 0 0 255 0 0 254 0 0 255 1 1 255 0 0 255 0 0 255 0 0 255 0 0 255 0 0 255 0 0 255 0 0 255 0 0 255 0 0 255 0 0 255 0 0 255 0 0 255 0 0 255 0 0 255 0 0 255 1 1 255 1 1 255 0 0 255 0 0 255 0 0 255 0 0 255 0 0 255 0 0 255 1 1 255 0 0 255 1 1 255 0 0 255 1 1 255 0 0 255 0 0 255 0 0 254 0 0 255 0 0 255 0 0 255 0 0 255 0 0 255 0 0 255 0 0 254 0 0 255 0 0 255 0 0 254 0 0 255 0 0 255 0 0 255 0 0 255 0 0 255 0 0 255 0 0 255 0 0 255 0 0 255 0 0 255 0 0 255 0 0 255 0 0 254 0 0 255 0 0 254 0 0 255 0 0 255 0 0 255 0 0 255 0 0 255 0 0 255 0 0 255 0 0 255 0 0 255 0 0 255 0 0 255 0 0 255 0 0 255 0 0 255 0 0 254 0 0 255 0 0 255 0 0 255 0 0 255 0 0 255 0 0 255 0 0 255 0 0 255 0 0 255 0 0 255 0 0 255 0 0 255 1 1 255 1 1 255 0 0 255 0 0 255 0 0 255 0 0 255 0 0 255 0 0 255 0 0 255 0 0 255 0 0 255 0 0 255 1 1 255 0 0 255 0 0 255 0 0 254 0 0 255 0 0 255 0 0 255 0 0 255 0 0 255 0 0 255 0 0 255 0 0 255 0 0 255 0 0 254 0 0 255 0 0 255 0 0 254 1 1 255 0 0 255 0 0 255 0 0 255 0 0 255 0 0 255 0 0 255 0 0 255 0 0 255 0 0 255 0 0 255 0 0 255 0 0 255 0 0 255 0 0 255 0 0 255 0 0 255 0 0 255 0 0 255 0 0 255 0 0 255 0 0 255 1 1 255 0 0 255 0 0 255 0 0 255 0 0 255 0 0 255 0 0 255 0 0 255 0 0 255 0 0 254 0 0 255 1 1 255 1 1 255 0 0 255 0 0 255 0 0 255 0 0 255 0 0 255 0 0 255 0 0 255 0 0 255 0 0 255 0 0 255 0 0 255 0 0 255 0 0 255 0 0 255 0 0 255 0 0 255 1 1 255 0 0 255 0 0 255 0 0 255 0 0 255 0 0 255 0 0 255 0 0 255 0 0 255 0 0 255 0 0 255 0 0 255 0 0 255 0 0 255 0 0 255 0 0 255 0 0 255 0 0 255 0 0 255 0 0 255 0 0 255 0 0 255 1 1 255 0 0 254 0 0 255 0 0 255 0 0 255 0 0 255 0 0 255 0 0 255 0 0 254 0 0 255 0 0 255 0 0 255 0 0 254 0 0 254 0 0 255 0 0 255 0 0 255 0 0 255 0 0 255 0 0 254 0 0 255 0 0 255 0 0 255 0 0 255 1 1 255 0 0 255 0 0 255 0 0 255 0 0 255 0 0 254 0 0 255 0 0 255 0 0 255 0 0 255 0 0 255 0 0 255 1 1 255 0 0 255 0 0 255 0 0 255 0 0 255 0 0 255 0 0 254 1 1 255 0 0 255 0 0 255 1 1 255 0 0 255 0 0 255 0 0 255 0 0 255 0 0 255 0 0 254 0 0 255 0 0 255 0 0 255 0 0 255 0 0 255 1 1 255 0 0 255 0 0 255 0 0 255 1 1 255 0 0 255 0 0 255 0 0 255 0 0 255 0 0 255 0 0 255 0 0 254 0 0 255 0 0 255 0 0 255 0 0 255 0 0 255 0 0 255 0 0 255 0 0 255 1 1 255 0 0 255 0 0 255 0 0 255 0 0 255 0 0 255 0 0 254 0 0 254 0 0 255 0 0 255 0 0 255 0 0 255 0 0 255 0 0 254 0 0 255 0 0 255 0 0 255 0 0 255 1 1 255 0 0 255 0 0 254 0 0 255 0 0 255 0 0 255 0 0 255 0 0 255 0 0 255 0 0 255 0 0 255 0 0 255 1 1 255 0 0 255 0 0 254 1 1 255 0 0 255 1 1 255 0 0 255 0 0 255 0 0 255 0 0 255 0 0 255 0 0 255 0 0 255 0 0 255 0 0 255 0 0 255 0 0 255 0 0 255 0 0 255 0 0 255 0 0 255 0 0 255 0 0 255 0 0 255 0 0 255 0 0 255 1 1 255 0 0 255 1 1 255 0 0 255 0 0 255 1 1 255 0 0 255 0 0 255 0 0 255 0 0 255 0 0 255 0 0 255 0 0 254 0 0 255 0 0 255 0 0 255 0 0 255 0 0 255 0 0 255 0 0 255 0 0 255 1 1 255 0 0 255 0 0 255 0 0 255 0 0 255 0 0 255 0 0 255 0 0 255 0 0 255 0 0 255 0 0 255 0 0 255 0 0 255 0 0 255 0 0 255 0 0 255 1 1 255 0 0 255 0 0 255 0 0 255 0 0 255 0 0 255 0 0 255 0 0 255 0 0 255 0 0 255 0 0 255 0 0 255 0 0 255 0 0 255 0 0 255 0 0 254 0 0 255 0 0 255 0 0 254 0 0 255 0 0 255 0 0 255 0 0 255 0 0 255 0 0 255 0 0 255 0 0 255 0 0 255 0 0 255 0 0 255 0 0 255 0 0 255 0 0 255 0 0 255 0 0 255 0 0 255 0 0 255 0 0 255 0 0 255 0 0 255 0 0 255 0 0 255 0 0 255 1 1 255 0 0 255 0 0 254 0 0 255 0 0 255 0 0 255 0 0 255 0 0 255 0 0 255 0 0 255 0 0 255 0 0 255 0 0 255 0 0 255 0 0 255 0 0 254 0 0 255 0 0 255 0 0 255 0 0 255 0 0 255 0 0 254 0 0 255 0 0 255 0 0 255 0 0 254 0 0 255 0 0 255 0 0 255 0 0 255 0 0 255 0 0 255 0 0 255 0 0 255 0 0 255 0 0 255 0 0 255 0 0 255 0 0 255 0 0 254 1 1 255 0 0 255 0 0 254 0 0 255 0 0 255 1 1 255 0 0 255 0 0 255 0 0 255 0 0 255 0 0 255 0 0 254 0 0 255 0 0 254 0 0 255 0 0 255 0 0 255 0 0 255 0 0 255 0 0 255 0 0 255 0 0 255 0 0 255 0 0 255 0 0 255 0 0 255 0 0 254 0 0 255 0 0 255 1 1 255 0 0 255 0 0 255 0 0 255 0 0 255 0 0 255 0 0 255 0 0 255 0 0 255 0 0 255 0 0 255 0 0 255 0 0 254 0 0 254 0 0 255 0 0 255 0 0 255 0 0 255 0 0 255 0 0 255 0 0 255 0 0 255 0 0 254 1 1 255 0 0 255 0 0 255 0 0 255 0 0 255 0 0 254 0 0 255 0 0 255 0 0 255 0 0 255 0 0 255 0 0 255 1 1 255 0 0 255 0 0 255 0 0 255 0 0 255 0 0 255 0 0 255 0 0 255 0 0 255 0 0 255 0 0 255 0 0 255 0 0 254 1 1 255 0 0 255 0 0 255 0 0 255 0 0 255 0 0 255 0 0 255 0 0 255 0 0 255 0 0 255 0 0 255 0 0 255 0 0 255 0 0 255 0 0 255 0 0 255 0 0 255 0 0 255 0 0 255 0 0 255 0 0 255 0 0 255 0 0 255 0 0 255 0 0 255 0 0 255 0 0 255 0 0 255 0 0 255 0 0 255 0 0 255 0 0 255 0 0 255 0 0 255 0 0 255 0 0 255 0 0 255 0 0 255 0 0 255 0 0 255 0 0 255 0 0 255 0 0 255 0 0 255 0 0 255 0 0 255 0 0 255 0 0 255 1 1 255 0 0 255 0 0 255 0 0 255 0 0 255 1 1 255 0 0 255 0 0 255 0 0 255 0 0 255 1 1 255 0 0 255 0 0 255 0 0 255 0 0 255 0 0 255 0 0 255 0 0 255 0 0 255 0 0 255 0 0 255 0 0 255 0 0 255 0 0 254 1 1 255 0 0 255 0 0 255 0 0 255 0 0 254 0 0 255 0 0 255 0 0 255 0 0 255 0 0 254 0 0 255 0 0 255 1 1 255 0 0 255 0 0 255 0 0 255 0 0 255 0 0 255 0 0 255 0 0 255 0 0 255 0 0 255 0 0 255 0 0 255 0 0 255 0 0 255 0 0 255 0 0 255 0 0 255 0 0 254 0 0 255 0 0 254 0 0 255 0 0 255 1 1 255 0 0 255 0 0 255 0 0 255 0 0 255 0 0 255 0 0 255 0 0 255 1 1 255 0 0 255 0 0 255 0 0 255 0 0 255 0 0 255 0 0 255 0 0 255 0 0 254 0 0 255 0 0 255 0 0 255 0 0 255 0 0 255 0 0 255 0 0 255 0 0 254 0 0 255 0 0 255 0 0 254 0 0 255 0 0 255 0 0 255 0 0 255 0 0 255 0 0 255 0 0 255 0 0 255 0 0 255 0 0 255 1 1 255 0 0 255 0 0 255 0 0 255 0 0 254 0 0 255 0 0 255 0 0 255 0 0 255 0 0 254 0 0 255 0 0 255 0 0 254 0 0 255 0 0 255 0 0 255 0 0 255 0 0 255 1 1 255 0 0 255 0 0 255 0 0 255 0 0 255 0 0 255 0 0 255 0 0 254 0 0 255 0 0 255 0 0 254 0 0 255 1 1 255 0 0 255 0 0 255 0 0 255 0 0 255 0 0 255 0 0 255 0 0 255 0 0 255 0 0 254 0 0 255 0 0 254 0 0 255 0 0 255 0 0 255 0 0 255 0 0 255 0 0 255 0 0 255 0 0 255 0 0 255 0 0 255 0 0 255 0 0 254 1 1 255 0 0 255 0 0 255 0 0 255 0 0 255 0 0 255 0 0 255 0 0 255 0 0 255 0 0 255 0 0 255 0 0 255 1 1 255 1 1 255 0 0 255 0 0 255 0 0 255 0 0 254 0 0 255 0 0 255 0 0 255 0 0 255 0 0 255 0 0 255 0 0 255 0 0 255 0 0 255 0 0 255 0 0 255 0 0 255 0 0 255 0 0 255 0 0 255 0 0 255 0 0 255 0 0 255 0 0 254 0 0 255 0 0 255 0 0 255 0 0 255 0 0 255 0 0 254 0 0 255 0 0 255 0 0 254 0 0 255 0 0 255 0 0 255 0 0 255 0 0 255 0 0 255 0 0 255 0 0 255 1 1 255 0 0 255 0 0 255 0 0 255 0 0 255 1 1 255 0 0 255 0 0 255 0 0 255 0 0 255 0 0 255 0 0 255 0 0 255 0 0 255 0 0 255 0 0 255 0 0 255 0 0 255 0 0 255 1 1 255 0 0 255 0 0 255 0 0 254 0 0 255 0 0 255 0 0 255 1 1 255 0 0 255 0 0 255 0 0 254 0 0 254 0 0 255 0 0 255 0 0 255 0 0 255 0 0 255 0 0 255 0 0 255 0 0 255 0 0 255 0 0 255 0 0 255 0 0 255 0 0 255 0 0 255 0 0 255 1 1 255 0 0 255 0 0 255 0 0 255 0 0 255 0 0 255 1 1 255 0 0 254 0 0 255 0 0 255 1 1 255 0 0 255 0 0 255 0 0 255 0 0 255 0 0 255 0 0 255 0 0 255 0 0 255 0 0 255 0 0 254 0 0 255 0 0 255 0 0 255 0 0 254 0 0 255 0 0 255 0 0 255 0 0 255 0 0 255 0 0 255 0 0 255 0 0 254 0 0 255 0 0 255 0 0 255 1 1 255 0 0 255 0 0 255 0 0 255 0 0 255 0 0 255 0 0 255 0 0 255 0 0 255 0 0 255 0 0 255 0 0 254 0 0 255 0 0 255 0 0 255 0 0 255 0 0 255 0 0 255 0 0 255 0 0 255 0 0 255 0 0 255 0 0 255 0 0 255 0 0 255 0 0 254 0 0 255 0 0 255 0 0 255 0 0 255 0 0 255 0 0 255 0 0 255 0 0 255 1 1 255 0 0 255 0 0 255 0 0 254 0 0 255 0 0 255 0 0 255 0 0 255 0 0 255 0 0 255 0 0 255 1 1 255 0 0 255 0 0 255 0 0 255 1 1 255 0 0 255 0 0 255 0 0 255 0 0 255 0 0 255 0 0 255 0 0 255 0 0 255 1 1 255 0 0 255 0 0 255 0 0 255 0 0 255 0 0 255 0 0 255 0 0 255 0 0 255 0 0 254 0 0 255 0 0 255 0 0 255 0 0 255 0 0 255 0 0 255 0 0 255 0 0 255 1 1 255 1 1 255 0 0 254 0 0 255 0 0 255 0 0 255 0 0 255 0 0 255 0 0 255 1 1 255 0 0 255 1 1 255 0 0 255 0 0 255 0 0 255 0 0 255 0 0 255 0 0 255 1 1 255 0 0 255 0 0 255 0 0 255 0 0 255 0 0 255 0 0 255 1 1 255 1 1 255 0 0 255 0 0 255 0 0 254 1 1 255 0 0 255 0 0 254 0 0 255 0 0 255 0 0 255 0 0 255 0 0 255 0 0 255 0 0 255 1 1 255 0 0 255 0 0 255 0 0 254 0 0 255 0 0 255 0 0 255 0 0 255 0 0 255 0 0 255 0 0 255 0 0 255 1 1 255 0 0 254 0 0 255 0 0 255 0 0 255 0 0 255 0 0 255 0 0 255 0 0 255 0 0 255 0 0 255 0 0 255 0 0 254 1 1 255 0 0 255 0 0 255 0 0 255 0 0 255 0 0 255 0 0 255 0 0 255 0 0 255 0 0 255 0 0 255 0 0 255 1 1 255 0 0 255 0 0 255 1 1 255 0 0 255 0 0 255 0 0 255 0 0 255 0 0 255 0 0 255 0 0 255 0 0 255 0 0 255 0 0 255 0 0 255 1 1 255 0 0 255 0 0 255 0 0 255 0 0 255 0 0 255 0 0 255 0 0 255 0 0 255 0 0 255 0 0 254 0 0 254 0 0 255 0 0 255 1 1 255 0 0 255 0 0 255 0 0 255 0 0 255 0 0 255 0 0 255 0 0 255 0 0 255 0 0 255 0 0 255 0 0 255 0 0 255 0 0 255 0 0 255 0 0 255 0 0 255 0 0 255 0 0 255 1 1 255 0 0 255 0 0 255 0 0 255 0 0 255 0 0 255 1 1 255 0 0 255 0 0 255 0 0 255 0 0 255 0 0 255 0 0 255 0 0 255 0 0 255 0 0 255 0 0 255 0 0 255 0 0 255 0 0 255 0 0 255 0 0 255 0 0 255 0 0 255 0 0 255 1 1 255 0 0 255 0 0 255 0 0 255 0 0 254 0 0 255 0 0 255 0 0 255 1 1 255 0 0 255 0 0 255 0 0 255 0 0 255 0 0 255 0 0 255 0 0 255 0 0 255 0 0 255 0 0 255 0 0 255 0 0 255 0 0 255 0 0 255 0 0 255 0 0 255 0 0 255 0 0 255 0 0 255 0 0 255 0 0 254 0 0 255 0 0 255 0 0 255 0 0 255 0 0 255 0 0 255 0 0 255 0 0 255 0 0 255 0 0 255 0 0 255 0 0 255 0 0 255 0 0 255 0 0 255 0 0 255 0 0 255 0 0 255 0 0 255 0 0 255 0 0 255 0 0 255 0 0 255 0 0 254 0 0 255 0 0 255 0 0 255 0 0 255 0 0 255 0 0 255 1 1 255 0 0 254 0 0 255 0 0 254 0 0 255 0 0 255 0 0 255 0 0 255 0 0 255 0 0 255 0 0 255 0 0 255 0 0 255 0 0 255 0 0 255 1 1 255 0 0 255 0 0 255 0 0 255 0 0 254 0 0 254 0 0 255 0 0 255 0 0 255 0 0 255 1 1 255 0 0 255 0 0 255 0 0 255 0 0 255 0 0 255 0 0 255 0 0 255 0 0 254 1 1 255 0 0 255 1 1 255 0 0 255 0 0 255 0 0 255 0 0 255 0 0 255 0 0 255 0 0 255 0 0 255 0 0 255 0 0 255 0 0 255 0 0 255 0 0 254 0 0 255 0 0 255 0 0 255 0 0 255 0 0 255 1 1 255 0 0 255 0 0 254 1 1 255 0 0 255 0 0 255 0 0 255 0 0 254 0 0 255 0 0 255 1 1 255 0 0 254 0 0 255 0 0 255 0 0 255 0 0 254 0 0 255 0 0 254 0 0 255 0 0 255 0 0 255 0 0 255 0 0 255 0 0 255 0 0 255 0 0 255 0 0 254 0 0 255 0 0 255 0 0 255 0 0 255 0 0 255 0 0 255 0 0 255 0 0 255 0 0 255 1 1 255 1 1 255 0 0 255 0 0 255 0 0 255 0 0 255 0 0 255 0 0 255 0 0 255 0 0 255 1 1 255 0 0 255 0 0 255 0 0 255 0 0 255 0 0 255 0 0 255 0 0 255 0 0 255 0 0 255 0 0 255 0 0 255 1 1 255 0 0 255 0 0 255 0 0 255 0 0 254 0 0 255 0 0 255 0 0 255 0 0 255 0 0 255 0 0 255 0 0 255 0 0 255 0 0 255 0 0 255 0 0 255 0 0 254 0 0 255 0 0 255 0 0 255 0 0 255 1 1 255 0 0 255 0 0 255 0 0 254 0 0 255 0 0 255 0 0 255 0 0 255 0 0 255 0 0 255 0 0 255 0 0 255 0 0 255 0 0 255 0 0 255 0 0 255 0 0 255 0 0 255 0 0 254 0 0 255 0 0 254 0 0 254 0 0 255 0 0 255 0 0 255 0 0 255 0 0 255 0 0 255 1 1 255 0 0 255 0 0 255 0 0 255 0 0 255 0 0 255 0 0 255 0 0 255 0 0 255 0 0 255 0 0 255 0 0 254 0 0 254 0 0 255 0 0 255 0 0 255 0 0 255 0 0 254 0 0 255 0 0 255 0 0 255 0 0 255 0 0 255 0 0 254 1 1 255 0 0 255 1 1 255 0 0 255 0 0 255 0 0 255 0 0 255 0 0 255 0 0 255 0 0 254 0 0 255 0 0 254 0 0 255 0 0 255 0 0 255 0 0 255 0 0 255 0 0 255 0 0 255 0 0 255 0 0 255 0 0 255 0 0 255 0 0 255 1 1 255 0 0 255 0 0 255 0 0 255 0 0 255 0 0 255 0 0 255 0 0 255 0 0 255 0 0 255 0 0 255 0 0 255 0 0 255 0 0 255 0 0 254 0 0 254 0 0 255 0 0 255 0 0 255 1 1 255 1 1 255 0 0 255 1 1 255 0 0 255 0 0 255 1 1 255 0 0 255 0 0 255 0 0 255 0 0 255 0 0 255 0 0 255 0 0 255 0 0 254 0 0 255 0 0 255 0 0 255 0 0 255 0 0 255 0 0 255 0 0 255 0 0 255 0 0 255 0 0 255 0 0 255 0 0 255 0 0 255 0 0 255 0 0 255 0 0 255 0 0 255 0 0 255 0 0 255 0 0 255 0 0 255 0 0 255 0 0 255 0 0 254 0 0 255 0 0 255 0 0 255 0 0 255 0 0 254 0 0 254 0 0 255 0 0 255 0 0 255 0 0 254 0 0 255 0 0 255 0 0 255 0 0 255 0 0 255 0 0 255 0 0 255 0 0 255 0 0 255 0 0 255 0 0 255 0 0 254 0 0 254 0 0 255 0 0 255 0 0 255 0 0 255 0 0 255 0 0 255 0 0 255 1 1 255 0 0 255 1 1 255 0 0 255 0 0 255 0 0 255 0 0 255 0 0 255 0 0 255 0 0 255 0 0 255 0 0 254 0 0 255 0 0 255 0 0 255 0 0 255 1 1 255 0 0 255 0 0 254 0 0 255 1 1 255 0 0 255 0 0 255 0 0 255 0 0 254 0 0 255 1 1 255 0 0 255 1 1 255 0 0 255 0 0 255 0 0 255 0 0 255 1 1 255 0 0 254 0 0 254 0 0 255 0 0 255 0 0 254 0 0 255 0 0 255 0 0 255 0 0 255 0 0 255 0 0 254 0 0 254 0 0 255 0 0 255 0 0 254 0 0 255 0 0 255 0 0 255 0 0 254 0 0 255 0 0 255 0 0 255 0 0 255 0 0 255 0 0 255 0 0 255 0 0 255 0 0 255 0 0 254 0 0 255 0 0 255 1 1 255 0 0 255 0 0 255 0 0 254 1 1 255 0 0 255 0 0 255 0 0 255 0 0 255 0 0 255 0 0 255 0 0 255 0 0 255 0 0 255 0 0 255 0 0 255 0 0 255 0 0 255 0 0 255 0 0 255 0 0 255 0 0 255 1 1 255 0 0 255 0 0 255 0 0 255 0 0 254 0 0 255 0 0 255 0 0 255 0 0 255 0 0 255 0 0 255 0 0 255 0 0 255 0 0 255 0 0 255 0 0 255 0 0 255 0 0 254 0 0 255 1 1 255 0 0 255 0 0 255 0 0 254 0 0 255 0 0 255 0 0 255 1 1 255 0 0 255 1 1 255 0 0 255 0 0 255 0 0 255 0 0 255 0 0 255 1 1 255 0 0 255 0 0 255 0 0 255 0 0 255 0 0 255 0 0 255 0 0 255 0 0 255 0 0 255 0 0 255 0 0 255 0 0 255 0 0 255 0 0 255 0 0 255 0 0 255 0 0 255 0 0 255 0 0 255 0 0 254 1 1 255 0 0 255 0 0 255 0 0 255 0 0 255 0 0 255 0 0 255 0 0 255 0 0 255 0 0 255 0 0 255 0 0 255 0 0 255 0 0 255 0 0 255 0 0 255 0 0 254 0 0 255 0 0 255 0 0 255 0 0 255 0 0 255 0 0 255 0 0 255 0 0 255 0 0 255 0 0 255 0 0 255 0 0 255 0 0 255 0 0 255 0 0 255 0 0 255 0 0 255 0 0 255 0 0 255 0 0 255 0 0 255 0 0 255 0 0 255 0 0 255 0 0 255 1 1 255 0 0 255 0 0 255 0 0 255 0 0 255 0 0 254 0 0 255 1 1 255 0 0 255 0 0 255 1 1 255 0 0 255 1 1 255 0 0 254 0 0 255 0 0 255 0 0 255 0 0 255 0 0 255 0 0 255 0 0 255 0 0 255 0 0 255 0 0 255 0 0 254 0 0 255 0 0 255 0 0 255 0 0 255 0 0 255 1 1 255 0 0 255 1 1 255 1 1 255 0 0 255 0 0 255 0 0 255 0 0 255 0 0 255 1 1 255 1 1 255 0 0 255 0 0 255 0 0 255 0 0 255 0 0 254 0 0 255 0 0 255 0 0 255 0 0 255 0 0 255 0 0 255 0 0 255 0 0 255 0 0 255 0 0 255 0 0 255 0 0 254 0 0 255 0 0 255 0 0 254 0 0 255 0 0 255 1 1 255 1 1 255 0 0 255 0 0 255 1 1 255 0 0 255 1 1 255 1 1 255 0 0 255 0 0 255 0 0 255 0 0 255 0 0 255 0 0 255 0 0 255 1 1 255 0 0 255 0 0 255 0 0 255 0 0 255 0 0 255 0 0 254 0 0 255 0 0 255 0 0 255 0 0 255 0 0 255 0 0 255 0 0 254 0 0 255 0 0 255 0 0 255 0 0 254 0 0 255 0 0 255 0 0 255 0 0 255 0 0 255 0 0 255 1 1 255 0 0 255 0 0 255 0 0 255 0 0 255 0 0 254 0 0 255 0 0 255 0 0 255 1 1 255 0 0 255 0 0 255 0 0 255 0 0 255 0 0 255 0 0 255 0 0 255 0 0 255 0 0 255 0 0 255 0 0 255 0 0 255 0 0 255 0 0 255 0 0 255 0 0 255 0 0 254 0 0 255 0 0 255 0 0 255 0 0 255 0 0 255 0 0 255 0 0 255 0 0 254 0 0 255 0 0 255 1 1 255 0 0 255 0 0 255 0 0 255 0 0 254 1 1 255 0 0 255 0 0 255 0 0 255 0 0 255 0 0 255 0 0 255 0 0 255 1 1 255 0 0 255 0 0 255 0 0 255 0 0 255 0 0 255 0 0 255 0 0 255 0 0 255 0 0 255 0 0 255 1 1 255 0 0 255 0 0 255 0 0 255 0 0 255 0 0 255 0 0 254 1 1 255 0 0 255 0 0 255 0 0 255 0 0 255 0 0 255 0 0 255 0 0 255 0 0 255 0 0 255 0 0 255 0 0 255 0 0 255 0 0 255 0 0 255 1 1 255 0 0 255 0 0 255 0 0 255 0 0 255 1 1 255 0 0 255 0 0 255 0 0 254 0 0 255 0 0 255 0 0 255 1 1 255 0 0 255 0 0 255 1 1 255 0 0 255 1 1 255 0 0 255 0 0 255 0 0 255 0 0 255 0 0 255 0 0 255 0 0 255 0 0 254 0 0 255 0 0 255 0 0 255 0 0 255 0 0 254 0 0 255 0 0 255 0 0 255 0 0 255 0 0 255 0 0 254 0 0 255 0 0 255 0 0 254 0 0 255 1 1 255 0 0 255 0 0 255 0 0 255 0 0 255 0 0 255 0 0 255 1 1 255 0 0 255 1 1 255 0 0 255 0 0 255 0 0 254 0 0 255 0 0 255 0 0 255 0 0 255 0 0 255 0 0 255 0 0 255 1 1 255 0 0 255 0 0 255 0 0 255 0 0 255 1 1 255 0 0 254 0 0 255 0 0 255 0 0 255 0 0 255 0 0 255 0 0 255 0 0 255 0 0 255 0 0 255 0 0 255 0 0 255 0 0 255 0 0 255 0 0 255 0 0 255 0 0 255 0 0 255 1 1 255 0 0 255 0 0 255 0 0 255 0 0 255 0 0 255 0 0 255 0 0 255 0 0 254 0 0 255 0 0 255 0 0 254 0 0 255 0 0 255 0 0 255 0 0 255 0 0 255 0 0 255 0 0 255 0 0 255 0 0 255 0 0 255 0 0 255 0 0 255 0 0 255 0 0 254 0 0 255 0 0 255 0 0 255 0 0 255 0 0 255 0 0 255 0 0 255 0 0 255 0 0 255 0 0 255 0 0 255 1 1 255 0 0 255 0 0 255 1 1 255 0 0 255 0 0 255 0 0 255 0 0 255 0 0 255 0 0 255 0 0 255 0 0 255 0 0 255 1 1 255 0 0 255 0 0 255 0 0 255 0 0 255 0 0 255 0 0 255 0 0 255 0 0 255 0 0 255 0 0 255 0 0 255 1 1 255 1 1 255 0 0 255 0 0 255 0 0 255 1 1 255 0 0 255 1 1 255 0 0 255 0 0 255 0 0 255 0 0 255 0 0 255 0 0 255 0 0 255 1 1 255 1 1 255 0 0 255 0 0 255 0 0 255 0 0 255 0 0 255 0 0 255 0 0 255 1 1 255 0 0 255 0 0 255 1 1 255 1 1 255 0 0 255 0 0 255 0 0 255 0 0 255 0 0 255 0 0 255 0 0 255 0 0 255 0 0 255 0 0 255 0 0 255 0 0 255 1 1 255 0 0 255 0 0 255 0 0 255 0 0 255 0 0 255 0 0 254 0 0 255 0 0 255 0 0 255 0 0 255 0 0 255 0 0 254 1 1 255 0 0 255 0 0 255 0 0 255 0 0 255 0 0 255 0 0 255 0 0 255 0 0 255 1 1 255 0 0 255 0 0 255 0 0 255 0 0 254 1 1 255 0 0 255 0 0 255 0 0 254 0 0 255 0 0 255 0 0 254 0 0 255 0 0 255 0 0 255 0 0 255 0 0 255 0 0 254 0 0 255 0 0 255 0 0 255 0 0 255 0 0 255 0 0 255 0 0 255 0 0 254 0 0 255 0 0 254 0 0 255 0 0 255 0 0 255 0 0 255 0 0 255 0 0 255 0 0 255 0 0 255 0 0 255 0 0 255 0 0 255 0 0 255 0 0 255 0 0 255 0 0 255 0 0 255 0 0 255 0 0 254 0 0 255 0 0 255 0 0 255 0 0 255 0 0 255 0 0 255 0 0 254 0 0 255 0 0 255 1 1 255 0 0 255 0 0 255 0 0 255 1 1 255 0 0 255 1 1 255 0 0 255 0 0 255 1 1 255 0 0 255 1 1 255 1 1 255 0 0 255 0 0 255 0 0 255 0 0 255 0 0 255 0 0 255 0 0 255 0 0 255 0 0 255 0 0 255 0 0 255 0 0 255 0 0 255 0 0 255 0 0 255 0 0 255 0 0 255 0 0 255 0 0 255 0 0 255 0 0 255 0 0 255 0 0 255 0 0 255 0 0 255 0 0 255 0 0 255 0 0 255 0 0 255 0 0 255 1 1 255 0 0 255 0 0 255 0 0 255 0 0 255 0 0 255 0 0 255 1 1 255 0 0 255 0 0 254 0 0 255 0 0 255 0 0 255 0 0 255 0 0 254 0 0 255 1 1 255 0 0 255 0 0 255 1 1 255 1 1 255 0 0 255 0 0 255 0 0 255 0 0 255 1 1 255 0 0 255 0 0 255 0 0 255 0 0 254 0 0 255 0 0 255 0 0 255 0 0 255 0 0 255 0 0 255 0 0 255 0 0 255 0 0 255 0 0 255 0 0 255 0 0 255 0 0 255 0 0 255 0 0 255 0 0 255 0 0 255 0 0 255 0 0 255 0 0 255 0 0 255 0 0 255 1 1 255 0 0 255 0 0 255 0 0 255 0 0 255 0 0 255 0 0 255 0 0 255 0 0 255 0 0 255 0 0 254 0 0 254 0 0 255 0 0 255 0 0 255 0 0 255 0 0 254 0 0 255 0 0 255 0 0 255 0 0 255 0 0 255 0 0 255 0 0 255 0 0 255 0 0 255 1 1 255 0 0 255 0 0 254 1 1 255 0 0 255 0 0 255 0 0 255 0 0 255 0 0 255 0 0 255 0 0 255 0 0 255 0 0 255 0 0 255 0 0 255 0 0 255 0 0 254 0 0 255 0 0 255 0 0 255 0 0 255 0 0 255 0 0 255 0 0 255 0 0 255 0 0 255 0 0 255 0 0 255 0 0 255 0 0 255 0 0 255 0 0 255 0 0 255 1 1 255 0 0 255 0 0 255 0 0 255 0 0 255 1 1 255 0 0 254 0 0 255 0 0 255 0 0 255 0 0 255 0 0 255 1 1 255 0 0 255 0 0 255 0 0 255 1 1 255 0 0 255 0 0 255 0 0 255 0 0 255 1 1 255 1 1 255 0 0 255 0 0 255 0 0 255 0 0 255 0 0 255 0 0 255 0 0 255 1 1 255 0 0 255 0 0 255 0 0 255 0 0 255 0 0 255 0 0 255 0 0 255 0 0 255 0 0 255 0 0 255 0 0 255 1 1 255 0 0 255 0 0 255 0 0 255 0 0 255 0 0 255 0 0 255 0 0 255 1 1 255 0 0 255 0 0 255 0 0 255 0 0 255 0 0 255 0 0 255 0 0 254 0 0 255 0 0 255 0 0 255 0 0 254 0 0 255 0 0 255 0 0 255 0 0 255 1 1 255 0 0 255 0 0 255 0 0 255 1 1 255 1 1 255 0 0 255 0 0 255 0 0 255 0 0 255 0 0 255 0 0 255 0 0 255 0 0 254 0 0 255 0 0 255 0 0 255 0 0 255 0 0 255 0 0 255 0 0 255 0 0 255 0 0 255 0 0 255 0 0 255 0 0 254 0 0 254 0 0 255 0 0 255 0 0 255 0 0 255 0 0 255 1 1 255 0 0 255 0 0 255 0 0 255 0 0 255 0 0 255 0 0 255 0 0 255 0 0 255 0 0 255 0 0 255 0 0 255 0 0 255 0 0 255 1 1 255 0 0 255 0 0 255 0 0 255 0 0 255 0 0 255 0 0 255 0 0 255 0 0 255 0 0 255 0 0 255 0 0 255 0 0 255 0 0 255 0 0 255 0 0 255 0 0 255 0 0 255 0 0 255 0 0 255 0 0 255 1 1 255 0 0 255 0 0 255 0 0 255 0 0 255 0 0 255 0 0 255 0 0 254 0 0 255 0 0 255 0 0 254 0 0 255 1 1 255 0 0 254 0 0 255 0 0 255 0 0 255 0 0 255 1 1 255 0 0 255 0 0 255 0 0 255 0 0 255 0 0 255 0 0 255 0 0 255 0 0 255 0 0 255 0 0 255 0 0 255 0 0 255 0 0 255 0 0 255 0 0 255 0 0 255 0 0 255 0 0 255 0 0 255 0 0 255 0 0 255 0 0 255 1 1 255 0 0 255 0 0 255 0 0 255 0 0 255 0 0 255 0 0 255 1 1 255 1 1 255 0 0 255 0 0 255 0 0 255 0 0 254 0 0 255 0 0 255 0 0 255 0 0 255 0 0 255 0 0 255 0 0 255 0 0 255 0 0 255 0 0 254 0 0 255 0 0 255 0 0 255 0 0 255 0 0 255 0 0 255 0 0 255 0 0 255 0 0 255 0 0 254 0 0 255 0 0 255 0 0 255 0 0 255 0 0 255 0 0 255 0 0 255 0 0 255 0 0 255 0 0 255 0 0 255 0 0 255 0 0 255 0 0 255 0 0 255 1 1 255 0 0 255 0 0 254 0 0 255 0 0 255 0 0 255 1 1 255 0 0 255 0 0 255 0 0 255 0 0 255 0 0 255 0 0 255 0 0 255 0 0 254 0 0 255 0 0 255 0 0 255 0 0 255 0 0 255 0 0 254 0 0 255 0 0 255 0 0 255 0 0 255 0 0 255 0 0 255 0 0 254 0 0 255 0 0 255 0 0 255 1 1 255 0 0 254 0 0 254 0 0 255 0 0 255 0 0 255 0 0 255 0 0 255 0 0 255 0 0 255 0 0 255 0 0 255 0 0 255 0 0 255 0 0 255 0 0 254 0 0 255 0 0 255 1 1 255 0 0 255 0 0 255 0 0 255 0 0 255 1 1 255 0 0 255 0 0 255 0 0 255 0 0 255 0 0 255 0 0 255 0 0 255 0 0 255 0 0 255 0 0 254 0 0 255 0 0 255 0 0 255 0 0 255 0 0 255 0 0 255 0 0 254 0 0 255 0 0 255 0 0 255 0 0 255 0 0 255 0 0 255 0 0 255 0 0 255 1 1 255 0 0 254 0 0 255 0 0 255 0 0 255 0 0 255 0 0 255 0 0 255 0 0 255 0 0 255 0 0 255 0 0 255 0 0 255 0 0 255 0 0 255 0 0 255 0 0 255 0 0 255 1 1 255 0 0 255 0 0 255 0 0 255 1 1 255 0 0 255 0 0 254 0 0 255 0 0 255 0 0 255 0 0 255 0 0 255 0 0 255 0 0 255 0 0 255 0 0 255 0 0 255 0 0 255 0 0 255 0 0 254 0 0 255 0 0 255 0 0 255 0 0 255 0 0 255 0 0 255 1 1 255 0 0 255 0 0 254 0 0 255 0 0 254 0 0 255 0 0 255 0 0 255 0 0 255 0 0 255 1 1 255 1 1 255 0 0 255 0 0 255 0 0 255 0 0 255 0 0 255 1 1 255 0 0 255 1 1 255 0 0 255 0 0 255 0 0 255 0 0 255 0 0 255 0 0 255 0 0 255 0 0 255 0 0 254 0 0 255 0 0 255 1 1 255 1 1 255 0 0 255 0 0 255 0 0 255 0 0 255 0 0 255 0 0 255 0 0 255 0 0 255 0 0 255 0 0 255 0 0 255 0 0 255 0 0 255 0 0 255 1 1 255 0 0 255 1 1 255 0 0 255 1 1 255 0 0 255 0 0 255 0 0 255 0 0 255 0 0 255 0 0 255 0 0 255 0 0 255 0 0 255 0 0 255 0 0 255 0 0 255 0 0 255 0 0 255 0 0 255 0 0 255 0 0 255 0 0 255 0 0 255 0 0 254 0 0 255 0 0 255 0 0 255 0 0 255 0 0 255 0 0 255 0 0 254 0 0 254 0 0 255 0 0 255 0 0 255 0 0 255 0 0 255 1 1 255 0 0 255 0 0 255 0 0 255 0 0 255 0 0 255 0 0 255 0 0 255 0 0 255 0 0 255 0 0 255 0 0 255 0 0 255 0 0 255 0 0 255 0 0 255 0 0 255 0 0 255 0 0 255 1 1 255 1 1 255 0 0 254 0 0 255 1 1 255 0 0 255 0 0 255 0 0 255 0 0 255 0 0 254 0 0 255 0 0 255 0 0 255 0 0 255 0 0 255 0 0 255 0 0 255 0 0 255 0 0 255 0 0 255 1 1 255 0 0 255 1 1 255 0 0 255 0 0 255 0 0 254 0 0 255 1 1 255 0 0 255 0 0 255 0 0 255 0 0 255 0 0 255 0 0 254 0 0 255 0 0 255 0 0 255 0 0 255 0 0 255 0 0 255 0 0 255 0 0 255 0 0 255 0 0 255 0 0 255 0 0 255 0 0 255 0 0 255 1 1 255 0 0 255 0 0 255 0 0 255 0 0 255 0 0 255 0 0 255 0 0 255 1 1 255 0 0 255 0 0 255 0 0 255 0 0 255 0 0 255 0 0 255 0 0 255 0 0 255 0 0 255 0 0 255 0 0 255 0 0 255 0 0 255 0 0 255 0 0 255 0 0 255 1 1 255 1 1 255 0 0 255 0 0 255 0 0 255 0 0 254 0 0 255 0 0 255 0 0 255 0 0 255 1 1 255 0 0 255 0 0 254 0 0 255 0 0 255 0 0 255 0 0 255 0 0 255 0 0 255 0 0 255 1 1 255 0 0 255 0 0 255 0 0 255 0 0 255 0 0 255 0 0 255 0 0 255 0 0 255 0 0 255 0 0 255 0 0 255 0 0 255 0 0 255 0 0 255 0 0 255 0 0 255 0 0 255 0 0 254 1 1 255 0 0 255 0 0 255 0 0 255 0 0 255 0 0 255 0 0 255 0 0 255 0 0 255 0 0 255 0 0 255 0 0 255 0 0 255 0 0 255 0 0 255 0 0 255 0 0 255 0 0 255 0 0 255 0 0 254 0 0 255 0 0 255 0 0 255 0 0 255 0 0 254 0 0 255 0 0 255 0 0 255 0 0 255 0 0 255 0 0 255 0 0 255 0 0 255 0 0 254 0 0 255 0 0 255 0 0 255 0 0 255 0 0 255 0 0 255 1 1 255 0 0 255 0 0 255 0 0 255 0 0 255 1 1 255 0 0 255 0 0 255 0 0 255 0 0 255 0 0 255 0 0 255 0 0 255 0 0 254 0 0 255 0 0 255 0 0 255 0 0 255 0 0 255 0 0 255 0 0 255 0 0 255 1 1 255 0 0 254 0 0 255 0 0 255 0 0 255 0 0 255 0 0 255 0 0 255 0 0 255 0 0 255 0 0 255 0 0 255 0 0 255 0 0 255 0 0 255 0 0 255 0 0 255 0 0 255 0 0 255 0 0 255 0 0 255 0 0 255 0 0 254 0 0 255 0 0 255 0 0 255 0 0 255 0 0 255 0 0 255 0 0 255 0 0 255 0 0 255 0 0 255 0 0 255 0 0 254 0 0 255 0 0 255 0 0 255 0 0 255 0 0 255 0 0 255 0 0 255 0 0 255 0 0 255 0 0 255 0 0 255 0 0 255 0 0 255 0 0 255 0 0 255 0 0 255 0 0 255 0 0 255 0 0 255 0 0 255 0 0 255 0 0 255 0 0 255 0 0 255 0 0 255 0 0 255 0 0 254 0 0 255 0 0 255 0 0 255 0 0 255 0 0 255 0 0 255 0 0 255 0 0 255 0 0 255 0 0 255 0 0 255 0 0 255 1 1 255 0 0 255 0 0 255 0 0 255 0 0 255 0 0 255 0 0 255 0 0 255 0 0 255 0 0 255 0 0 255 0 0 255 0 0 255 0 0 255 0 0 255 0 0 255 1 1 255 0 0 255 0 0 255 0 0 254 0 0 255 0 0 255 0 0 255 0 0 255 0 0 255 0 0 255 0 0 255 0 0 255 0 0 255 0 0 255 0 0 255 0 0 255 0 0 254 0 0 255 0 0 255 0 0 255 0 0 255 0 0 255 0 0 255 0 0 255 1 1 255 0 0 255 0 0 255 0 0 255 0 0 255 0 0 255 0 0 254 0 0 254 0 0 255 0 0 255 0 0 254 0 0 255 0 0 255 0 0 255 0 0 255 0 0 255 0 0 255 0 0 255 0 0 255 1 1 255 0 0 255 0 0 255 0 0 254 0 0 255 0 0 255 0 0 254 0 0 255 0 0 255 0 0 255 0 0 255 0 0 255 1 1 255 0 0 254 0 0 255 0 0 255 0 0 255 0 0 255 0 0 255 0 0 255 0 0 255 0 0 255 0 0 255 0 0 254 0 0 255 0 0 255 0 0 255 0 0 255 0 0 255 0 0 255 0 0 255 0 0 255 0 0 255 0 0 255 0 0 255 0 0 255 0 0 255 1 1 255 0 0 255 0 0 255 0 0 255 0 0 255 0 0 255 1 1 255 0 0 255 0 0 255 0 0 255 0 0 255 0 0 255 0 0 255 0 0 255 0 0 255 0 0 255 0 0 255 0 0 255 0 0 255 0 0 255 0 0 255 0 0 255 0 0 255 0 0 255 0 0 255 0 0 255 0 0 255 0 0 255 0 0 255 0 0 255 0 0 255 0 0 255 0 0 255 0 0 255 0 0 255 0 0 254 0 0 255 0 0 255 0 0 255 0 0 255 0 0 255 0 0 255 1 1 255 1 1 255 0 0 255 0 0 255 1 1 255 0 0 255 0 0 255 1 1 255 0 0 255 0 0 255 1 1 255 0 0 255 0 0 255 0 0 255 0 0 255 1 1 255 0 0 255 0 0 255 0 0 255 0 0 255 0 0 255 0 0 255 0 0 255 0 0 255 0 0 254 1 1 255 0 0 255 0 0 255 0 0 255 1 1 255 0 0 255 0 0 255 0 0 255 1 1 255 0 0 255 0 0 255 0 0 255 0 0 255 0 0 255 0 0 255 0 0 255 0 0 255 0 0 255 0 0 255 0 0 255 0 0 255 0 0 255 0 0 255 4 93 187 16 81 187 28 69 188 39 57 188 51 44 187 63 32 188 73 20 187 85 6 187 0 0 255 0 0 255 0 0 255 1 1 255 0 0 255 0 0 255 0 0 254 0 0 255 0 0 255 0 0 255 0 0 255 0 0 254 0 0 255 0 0 255 0 0 255 0 0 255 0 0 255 0 0 254 0 0 255 0 0 255 0 0 255 0 0 255 0 0 255 0 0 255 0 0 255 0 0 255 0 0 255 0 0 255 0 0 255 0 0 254 0 0 255 0 0 255 0 0 255 0 0 255 0 0 255 1 1 255 0 0 255 0 0 255 0 0 255 1 1 255 1 1 255 0 0 255 0 0 255 0 0 255 0 0 255 1 1 255 0 0 255 0 0 255 0 0 255 0 0 255 0 0 255 0 0 255 0 0 255 0 0 255 1 1 255 0 0 255 0 0 255 0 0 255 0 0 255 0 0 254 0 0 255 0 0 255 0 0 255 0 0 255 0 0 255 0 0 255 0 0 255 0 0 255 0 0 255 0 0 255 0 0 255 0 0 255 0 0 255 0 0 255 0 0 255 0 0 255 0 0 255 0 0 255 0 0 255 1 1 255 0 0 255 0 0 254 0 0 255 0 0 255 0 0 255 0 0 255 0 0 255 0 0 255 0 0 255 0 0 255 0 0 255 1 1 255 0 0 255 0 0 255 0 0 255 0 0 255 0 0 255 0 0 254 0 0 255 0 0 254 0 0 255 0 0 255 0 0 255 1 1 255 0 0 255 0 0 255 0 0 255 0 0 255 0 0 255 0 0 255 0 0 255 0 0 255 0 0 255 0 0 255 0 0 255 0 0 255 0 0 255 0 0 255 0 0 255 0 0 255 0 0 255 0 0 255 0 0 255 0 0 255 0 0 255 0 0 255 0 0 255 0 0 255 0 0 254 0 0 254 0 0 255 0 0 254 0 0 255 0 0 254 0 0 255 0 0 255 0 0 255 0 0 255 0 0 254 0 0 255 0 0 255 0 0 255 0 0 255 0 0 254 0 0 255 0 0 255 0 0 255 0 0 255 0 0 255 0 0 255 0 0 255 0 0 255 0 0 255 1 1 255 0 0 254 0 0 255 0 0 255 0 0 255 0 0 255 0 0 255 0 0 254 0 0 255 1 1 255 0 0 255 0 0 255 0 0 255 0 0 255 0 0 255 0 0 255 0 0 255 0 0 255 0 0 255 0 0 255 0 0 255 0 0 255 0 0 255 0 0 255 0 0 255 0 0 255 0 0 255 1 1 255 0 0 255 0 0 255 0 0 255 0 0 255 0 0 255 0 0 255 0 0 255 0 0 255 0 0 255 0 0 254 0 0 255 0 0 255 0 0 255 0 0 255 0 0 255 0 0 255 0 0 254 1 1 255 0 0 255 0 0 255 0 0 255 1 1 255 0 0 254 0 0 255 0 0 255 0 0 255 0 0 254 0 0 255 0 0 255 0 0 255 0 0 254 0 0 255 0 0 255 0 0 255 0 0 255 0 0 255 0 0 255 1 1 255 0 0 255 0 0 254 0 0 255 0 0 255 0 0 255 0 0 255 0 0 255 0 0 255 0 0 254 0 0 255 0 0 255 0 0 255 0 0 255 1 1 255 0 0 255 0 0 255 0 0 255 0 0 255 0 0 255 0 0 255 0 0 255 0 0 255 0 0 254 2 204 187 14 192 187 25 180 187 38 169 188 48 155 188 60 143 188 72 131 188 83 119 188 94 107 187 106 94 188 118 82 187 129 70 188 141 58 188 152 46 188 164 33 188 175 21 187 187 9 187 0 0 255 0 0 255 0 0 255 0 0 255 0 0 255 0 0 255 0 0 255 0 0 255 0 0 255 0 0 254 0 0 255 0 0 255 0 0 255 0 0 255 0 0 255 0 0 255 0 0 255 0 0 255 0 0 255 0 0 255 0 0 255 0 0 255 0 0 255 0 0 255 0 0 254 0 0 255 0 0 255 0 0 255 0 0 255 0 0 254 0 0 255 0 0 255 0 0 255 0 0 255 0 0 255 0 0 255 0 0 255 0 0 254 0 0 255 0 0 255 0 0 255 0 0 254 0 0 255 0 0 255 0 0 255 0 0 255 0 0 255 0 0 255 1 1 255 0 0 255 0 0 255 0 0 255 0 0 255 0 0 255 1 1 255 0 0 255 0 0 255 1 1 255 0 0 255 0 0 255 0 0 255 1 1 255 0 0 255 0 0 254 1 1 255 0 0 254 0 0 255 0 0 255 0 0 255 0 0 255 0 0 255 0 0 255 0 0 255 0 0 255 0 0 255 0 0 255 0 0 255 1 1 255 0 0 255 0 0 255 0 0 255 0 0 255 0 0 255 0 0 254 0 0 255 1 1 255 0 0 255 0 0 255 1 1 255 0 0 255 0 0 255 0 0 255 0 0 255 0 0 255 0 0 255 0 0 255 0 0 255 0 0 255 0 0 255 0 0 255 0 0 255 1 1 255 0 0 255 0 0 255 0 0 255 0 0 255 0 0 255 0 0 255 0 0 255 0 0 255 0 0 254 0 0 255 0 0 255 0 0 255 0 0 255 0 0 255 0 0 255 0 0 254 0 0 255 0 0 255 0 0 255 0 0 255 0 0 255 0 0 255 0 0 254 0 0 255 0 0 255 0 0 255 0 0 255 0 0 255 0 0 254 0 0 255 0 0 255 0 0 255 0 0 255 0 0 255 0 0 255 0 0 255 0 0 255 0 0 255 0 0 255 0 0 255 0 0 255 0 0 255 0 0 255 0 0 255 0 0 255 0 0 255 0 0 255 0 0 254 0 0 254 0 0 255 0 0 255 0 0 255 0 0 255 1 1 255 0 0 255 0 0 255 0 0 255 0 0 254 0 0 255 0 0 255 0 0 255 0 0 255 0 0 255 0 0 254 0 0 255 0 0 254 0 0 255 0 0 255 0 0 254 0 0 255 0 0 255 0 0 255 0 0 255 0 0 255 0 0 255 0 0 255 1 1 255 0 0 255 0 0 255 0 0 255 0 0 255 0 0 255 0 0 255 0 0 255 0 0 255 0 0 255 0 0 255 0 0 255 0 0 255 0 0 255 0 0 255 0 0 255 0 0 255 0 0 255 0 0 255 0 0 255 1 1 255 0 0 255 0 0 255 0 0 255 0 0 255 0 0 255 0 0 255 0 0 255 0 0 255 0 0 255 0 0 255 0 0 255 0 0 255 0 0 255 0 0 255 0 0 254 0 0 255 0 0 255 0 0 255 0 0 255 0 0 255 0 0 255 0 0 254 0 0 255 0 0 254 1 1 255 0 0 255 0 0 255 0 0 255 0 0 254 0 0 255 0 0 254 0 0 255 0 0 255 0 0 254 0 0 255 10 43 187 21 30 187 33 18 187 44 6 187 57 252 187 69 240 187 79 228 187 91 216 188 103 204 188 114 192 187 126 180 188 136 167 187 148 156 187 160 144 187 171 132 188 182 119 187 194 107 188 205 95 187 217 83 187 228 71 188 239 59 188 251 47 188 5 34 188 16 22 188 28 10 188 0 0 255 0 0 254 1 1 255 0 0 255 0 0 255 0 0 255 0 0 255 0 0 255 0 0 255 0 0 255 0 0 255 0 0 255 0 0 255 0 0 255 0 0 255 0 0 255 0 0 255 0 0 255 0 0 255 0 0 255 0 0 254 0 0 255 0 0 255 0 0 255 0 0 255 0 0 255 0 0 255 0 0 255 0 0 255 0 0 255 0 0 255 0 0 255 0 0 255 0 0 255 0 0 255 1 1 255 0 0 255 0 0 255 0 0 255 0 0 254 0 0 255 0 0 255 0 0 255 0 0 255 0 0 255 0 0 255 0 0 255 0 0 255 0 0 255 0 0 255 0 0 255 0 0 255 1 1 255 0 0 255 0 0 255 0 0 255 0 0 255 0 0 255 0 0 254 0 0 254 0 0 255 0 0 255 0 0 255 0 0 255 0 0 255 1 1 255 0 0 255 0 0 255 0 0 255 0 0 255 0 0 255 0 0 255 0 0 255 0 0 255 0 0 255 1 1 255 0 0 254 0 0 255 0 0 255 0 0 255 0 0 255 0 0 255 0 0 255 0 0 255 0 0 255 0 0 255 1 1 255 0 0 255 0 0 255 0 0 255 1 1 255 1 1 255 0 0 255 0 0 254 0 0 255 1 1 255 0 0 255 1 1 255 0 0 255 0 0 255 0 0 255 0 0 255 1 1 255 0 0 255 0 0 255 0 0 255 0 0 255 0 0 254 0 0 255 0 0 255 0 0 255 1 1 255 0 0 255 0 0 255 0 0 255 0 0 255 0 0 255 0 0 255 0 0 255 0 0 255 0 0 255 0 0 255 0 0 255 0 0 255 0 0 255 0 0 255 0 0 254 1 1 255 0 0 255 0 0 255 0 0 255 0 0 255 1 1 255 0 0 255 0 0 255 0 0 255 0 0 255 0 0 254 0 0 255 0 0 255 0 0 255 0 0 255 1 1 255 0 0 254 0 0 255 0 0 255 0 0 255 0 0 255 0 0 255 0 0 255 0 0 255 0 0 255 0 0 255 0 0 255 0 0 255 0 0 254 0 0 255 0 0 255 0 0 255 0 0 255 0 0 255 0 0 254 0 0 255 0 0 255 0 0 255 0 0 255 0 0 255 0 0 255 0 0 255 0 0 255 0 0 254 0 0 254 0 0 255 0 0 255 0 0 254 0 0 255 0 0 255 0 0 255 1 1 255 0 0 255 0 0 255 0 0 255 0 0 255 0 0 255 0 0 255 0 0 255 0 0 255 0 0 255 0 0 255 0 0 255 0 0 255 0 0 255 0 0 255 0 0 255 0 0 255 0 0 255 0 0 255 0 0 255 0 0 255 0 0 255 0 0 255 1 1 255 0 0 255 0 0 255 0 0 255 0 0 255 0 0 255 0 0 255 0 0 255 0 0 255 0 0 255 0 0 255 0 0 255 0 0 255 0 0 255 0 0 255 1 1 255 0 0 255 0 0 255 0 0 255 0 0 255 0 0 255 0 0 255 0 0 255 0 0 255 8 149 187 19 137 187 30 125 188 42 113 188 53 101 188 64 89 188 75 77 188 87 65 188 98 53 188 110 41 188 120 29 187 132 17 187 144 6 188 156 251 187 167 239 188 179 228 188 190 215 188 201 204 187 212 191 187 222 179 187 235 168 187 246 156 188 113 0 187 12 131 188 22 119 188 33 107 188 44 95 188 56 83 188 67 71 187 78 59 188 89 47 187 101 35 187 112 23 187 123 11 188 0 0 255 0 0 255 0 0 255 0 0 255 0 0 255 1 1 255 0 0 254 0 0 255 0 0 255 0 0 255 0 0 255 0 0 255 0 0 255 0 0 255 0 0 255 0 0 255 0 0 255 0 0 255 0 0 254 0 0 255 0 0 255 0 0 255 0 0 255 0 0 255 0 0 254 0 0 255 0 0 255 0 0 255 0 0 255 0 0 255 0 0 255 0 0 255 0 0 255 0 0 255 0 0 255 0 0 255 0 0 255 0 0 254 0 0 255 0 0 255 0 0 255 0 0 255 1 1 255 0 0 255 0 0 255 0 0 255 0 0 255 1 1 255 0 0 255 0 0 255 0 0 255 0 0 255 0 0 255 0 0 255 0 0 255 0 0 254 0 0 255 0 0 255 0 0 255 0 0 255 0 0 255 0 0 255 1 1 255 0 0 255 0 0 255 0 0 255 0 0 255 0 0 255 0 0 255 0 0 255 0 0 255 0 0 254 0 0 254 0 0 255 0 0 255 0 0 255 0 0 254 1 1 255 0 0 255 0 0 255 0 0 255 0 0 254 0 0 255 0 0 255 0 0 255 0 0 255 0 0 255 0 0 255 0 0 255 1 1 255 1 1 255 0 0 255 0 0 255 0 0 255 0 0 255 0 0 255 0 0 255 0 0 254 0 0 255 0 0 255 0 0 254 0 0 255 0 0 255 0 0 255 0 0 255 0 0 255 0 0 255 0 0 255 0 0 255 0 0 255 0 0 255 0 0 255 0 0 255 1 1 255 0 0 255 0 0 254 0 0 255 1 1 255 0 0 255 0 0 255 0 0 255 0 0 255 1 1 255 0 0 255 0 0 255 0 0 255 0 0 255 0 0 255 0 0 255 0 0 255 0 0 255 0 0 255 0 0 255 0 0 255 0 0 255 0 0 255 0 0 255 0 0 255 0 0 255 0 0 255 0 0 255 0 0 255 0 0 255 0 0 255 0 0 255 0 0 255 0 0 255 0 0 255 0 0 254 0 0 255 0 0 255 0 0 255 0 0 255 0 0 255 0 0 255 0 0 255 0 0 255 0 0 255 1 1 255 0 0 255 0 0 255 0 0 255 0 0 255 0 0 255 0 0 255 0 0 255 0 0 255 0 0 255 0 0 255 0 0 255 0 0 255 0 0 255 0 0 255 0 0 255 0 0 255 1 1 255 0 0 254 0 0 255 0 0 255 0 0 254 0 0 255 0 0 255 0 0 255 0 0 254 0 0 255 0 0 255 0 0 255 0 0 255 0 0 255 0 0 255 0 0 255 0 0 255 0 0 255 0 0 255 0 0 255 0 0 255 0 0 255 0 0 254 0 0 255 0 0 255 0 0 255 0 0 255 1 1 255 0 0 255 0 0 255 0 0 255 0 0 255 0 0 255 0 0 255 0 0 254 0 0 254 0 0 254 0 0 255 0 0 255 0 0 254 0 0 255 6 253 188 17 241 187 27 229 187 38 217 187 50 205 188 62 193 188 73 183 188 85 170 188 95 158 188 106 146 187 118 135 188 128 123 187 139 111 188 151 99 188 162 87 188 173 75 188 184 63 188 195 52 187 206 40 187 218 28 188 228 16 187 240 5 188 253 250 188 6 237 187 17 225 188 28 214 187 40 203 188 50 190 187 61 178 188 73 166 187 85 156 188 95 143 188 106 131 188 117 119 188 128 107 188 139 96 187 151 84 188 162 72 188 172 59 187 184 48 188 195 37 187 205 24 187 217 13 187 229 1 188 0 0 255 0 0 255 0 0 255 1 1 255 0 0 255 0 0 255 0 0 255 0 0 255 0 0 255 0 0 255 0 0 255 0 0 255 0 0 255 0 0 255 0 0 255 0 0 255 0 0 255 1 1 255 0 0 255 0 0 255 0 0 255 0 0 255 0 0 255 0 0 255 0 0 255 0 0 255 0 0 255 0 0 255 0 0 255 0 0 255 0 0 255 0 0 255 0 0 255 0 0 255 0 0 255 1 1 255 0 0 254 0 0 255 0 0 255 0 0 255 0 0 255 0 0 255 0 0 255 0 0 255 0 0 255 0 0 255 0 0 255 0 0 255 0 0 255 0 0 255 1 1 255 0 0 255 0 0 255 0 0 255 0 0 255 0 0 255 0 0 255 1 1 255 0 0 255 0 0 255 0 0 254 0 0 255 0 0 255 0 0 255 0 0 254 0 0 255 0 0 255 0 0 255 0 0 255 0 0 255 1 1 255 0 0 255 0 0 255 1 1 255 0 0 255 0 0 255 0 0 255 1 1 255 0 0 254 0 0 255 0 0 255 1 1 255 0 0 255 0 0 255 0 0 255 0 0 255 1 1 255 0 0 255 1 1 255 0 0 255 0 0 255 0 0 255 0 0 255 0 0 255 0 0 255 0 0 254 0 0 255 0 0 255 0 0 255 0 0 255 0 0 255 0 0 255 0 0 255 0 0 255 0 0 255 0 0 255 0 0 255 0 0 254 0 0 255 0 0 255 1 1 255 0 0 255 0 0 255 0 0 255 0 0 255 0 0 255 0 0 254 0 0 254 0 0 255 0 0 255 0 0 255 0 0 255 1 1 255 0 0 255 0 0 255 0 0 255 0 0 254 0 0 255 0 0 255 0 0 255 0 0 255 0 0 255 0 0 254 0 0 255 0 0 255 0 0 255 1 1 255 0 0 255 0 0 255 0 0 255 0 0 255 0 0 255 0 0 255 0 0 255 0 0 255 0 0 255 0 0 255 1 1 255 0 0 255 1 1 255 0 0 255 0 0 255 0 0 255 0 0 255 1 1 255 0 0 255 0 0 255 0 0 255 0 0 255 0 0 255 0 0 254 0 0 255 0 0 254 0 0 255 0 0 255 0 0 255 1 1 255 1 1 255 0 0 255 0 0 255 0 0 255 0 0 255 0 0 255 0 0 255 0 0 255 0 0 254 0 0 255 0 0 255 0 0 254 0 0 255 0 0 255 0 0 255 0 0 255 0 0 255 0 0 255 0 0 255 0 0 255 0 0 255 0 0 255 0 0 255 0 0 255 0 0 255 0 0 255 0 0 255 0 0 255 0 0 255 0 0 255 0 0 255 0 0 255 0 0 255 0 0 255 0 0 255 0 0 255 0 0 255 0 0 255 0 0 255 3 98 187 15 87 187 26 75 187 38 65 188 47 51 187 58 40 187 70 29 188 81 17 187 92 5 188 104 250 188 114 237 188 125 225 187 136 214 188 147 202 188 158 190 188 169 179 188 180 167 188 191 156 188 202 144 187 213 132 188 224 120 188 235 109 187 247 97 188 2 85 187 13 74 188 24 62 187 35 50 188 46 38 187 58 27 187 69 15 188 80 3 187 89 248 188 100 237 188 111 225 187 122 213 188 133 202 188 144 190 188 155 178 188 165 165 187 177 155 187 188 143 187 199 131 187 210 120 187 221 108 187 233 96 188 243 85 187 254 73 187 9 60 187 21 49 187 31 38 187 43 26 187 54 14 187 65 3 187 0 0 255 0 0 255 0 0 255 0 0 254 0 0 255 0 0 255 0 0 255 0 0 254 0 0 255 1 1 255 0 0 255 0 0 255 0 0 255 0 0 255 0 0 255 0 0 255 0 0 255 0 0 255 0 0 255 0 0 255 0 0 255 0 0 255 0 0 255 0 0 255 0 0 255 0 0 255 0 0 255 0 0 255 0 0 255 0 0 255 0 0 255 0 0 255 0 0 255 0 0 255 0 0 255 0 0 254 0 0 254 0 0 255 0 0 255 0 0 255 0 0 255 0 0 255 0 0 255 0 0 255 0 0 255 0 0 255 0 0 255 0 0 255 0 0 255 0 0 255 0 0 255 0 0 255 0 0 255 0 0 255 0 0 255 0 0 255 0 0 255 0 0 255 0 0 255 0 0 254 0 0 255 0 0 255 0 0 255 0 0 255 0 0 255 0 0 255 1 1 255 0 0 255 0 0 255 0 0 255 0 0 255 0 0 255 0 0 255 0 0 255 0 0 255 0 0 255 0 0 255 0 0 255 0 0 255 0 0 255 0 0 254 1 1 255 0 0 255 0 0 255 0 0 255 0 0 255 0 0 255 0 0 255 0 0 255 0 0 255 0 0 255 0 0 255 0 0 255 0 0 255 0 0 255 0 0 255 0 0 255 1 1 255 0 0 255 0 0 255 0 0 255 0 0 255 0 0 255 0 0 255 0 0 255 0 0 255 0 0 255 0 0 255 0 0 255 0 0 254 0 0 255 0 0 255 1 1 255 0 0 255 0 0 254 0 0 254 0 0 255 0 0 255 0 0 255 0 0 255 0 0 255 1 1 255 0 0 255 0 0 255 1 1 255 1 1 255 0 0 255 0 0 254 0 0 255 0 0 255 0 0 255 0 0 255 0 0 255 0 0 255 0 0 255 0 0 255 0 0 255 0 0 255 0 0 255 0 0 255 0 0 255 0 0 255 0 0 255 0 0 255 0 0 255 0 0 255 0 0 255 1 1 255 0 0 255 0 0 255 0 0 255 0 0 255 0 0 255 0 0 255 0 0 254 0 0 255 0 0 255 0 0 255 1 1 255 0 0 255 0 0 255 0 0 255 0 0 255 0 0 254 0 0 255 0 0 255 0 0 254 0 0 255 0 0 255 0 0 255 0 0 254 0 0 255 0 0 255 0 0 255 0 0 255 0 0 255 0 0 255 0 0 255 0 0 255 1 1 255 0 0 254 0 0 255 1 1 255 0 0 255 0 0 255 0 0 254 0 0 255 0 0 255 0 0 255 0 0 255 0 0 255 0 0 255 0 0 255 0 0 255 0 0 255 0 0 255 0 0 255 2 198 187 13 186 187 24 175 188 35 164 188 46 152 187 57 140 188 68 129 188 78 116 187 89 106 187 100 94 188 111 82 188 122 71 188 133 59 187 144 48 188 156 37 188 166 25 187 177 13 187 188 2 187 199 245 188 209 234 187 220 222 188 231 211 188 242 199 188 253 187 187 8 175 187 20 164 187 30 152 187 41 141 187 52 130 187 64 119 188 73 107 187 85 95 188 96 83 188 107 72 187 118 60 188 130 50 188 140 38 188 149 25 187 161 14 187 171 3 187 183 247 188 193 236 187 204 224 187 214 213 188 225 201 188 237 191 188 247 178 188 3 166 187 14 155 188 25 143 188 35 131 188 46 120 188 57 109 188 68 97 188 79 85 187 90 74 187 101 62 188 112 51 188 123 39 188 135 28 188 144 16 187 156 5 188 0 0 255 0 0 255 0 0 255 0 0 255 0 0 255 0 0 255 0 0 255 1 1 255 0 0 254 0 0 255 0 0 254 0 0 255 0 0 255 0 0 255 0 0 255 0 0 255 1 1 255 0 0 254 0 0 255 0 0 255 0 0 255 1 1 255 0 0 255 0 0 255 0 0 255 0 0 255 0 0 255 0 0 255 0 0 255 0 0 255 0 0 255 0 0 255 0 0 254 0 0 255 0 0 255 0 0 255 0 0 255 0 0 255 0 0 255 0 0 254 0 0 255 0 0 254 0 0 255 0 0 255 0 0 255 0 0 255 0 0 255 0 0 255 0 0 255 0 0 255 0 0 254 0 0 255 0 0 255 0 0 255 0 0 255 0 0 255 0 0 255 0 0 255 0 0 255 0 0 255 0 0 255 0 0 255 0 0 254 0 0 255 0 0 255 0 0 255 0 0 255 0 0 255 0 0 255 1 1 255 0 0 255 0 0 255 1 1 255 0 0 255 0 0 255 0 0 255 0 0 255 1 1 255 0 0 255 0 0 255 0 0 255 0 0 255 0 0 255 0 0 255 0 0 255 0 0 255 0 0 254 0 0 255 0 0 255 0 0 255 0 0 255 0 0 255 0 0 255 0 0 255 0 0 254 0 0 254 0 0 254 0 0 255 0 0 255 0 0 255 0 0 255 0 0 255 0 0 255 0 0 255 0 0 255 0 0 255 0 0 255 0 0 255 0 0 255 0 0 255 0 0 255 0 0 255 0 0 255 0 0 255 0 0 255 0 0 255 0 0 255 0 0 255 0 0 255 0 0 255 0 0 255 0 0 255 1 1 255 0 0 255 0 0 255 0 0 255 0 0 255 0 0 255 0 0 255 0 0 255 0 0 255 0 0 255 0 0 255 0 0 255 0 0 254 0 0 255 0 0 255 0 0 255 0 0 255 0 0 255 0 0 254 0 0 255 0 0 255 0 0 255 0 0 255 0 0 255 0 0 255 0 0 255 0 0 255 0 0 255 0 0 255 0 0 255 0 0 255 0 0 255 0 0 254 0 0 255 0 0 255 1 1 255 0 0 255 1 1 255 0 0 255 0 0 255 0 0 255 0 0 255 0 0 255 0 0 255 0 0 255 0 0 255 0 0 255 0 0 255 0 0 255 0 0 255 0 0 255 1 1 255 0 0 255 0 0 255 0 0 255 0 0 255 0 0 255 0 0 255 0 0 255 1 1 255 0 0 255 0 0 254 0 0 255 0 0 255 0 0 254 0 0 255 1 27 188 12 15 188 22 4 187 24 2 188 44 250 188 54 239 188 64 227 187 77 216 188 87 204 187 98 192 188 108 181 187 119 170 188 130 158 188 141 147 188 151 135 188 161 123 187 174 113 188 184 101 187 195 90 188 205 78 188 216 67 188 228 55 188 238 43 187 248 32 187 3 19 187 13 8 188 26 253 187 36 241 187 47 230 187 58 219 188 70 208 188 80 196 187 90 185 188 101 173 187 113 163 188 123 150 187 134 139 187 143 126 187 155 116 187 166 105 188 177 93 187 187 82 188 198 70 187 209 59 188 220 47 188 232 36 188 240 24 187 252 13 187 5 2 187 17 246 188 28 236 188 40 224 188 49 212 187 60 200 188 71 189 188 82 178 187 93 166 187 104 156 188 114 143 188 125 132 188 136 120 187 146 110 188 157 98 188 168 86 188 179 75 188 191 64 188 200 52 188 211 40 187 222 29 188 233 16 187 243 6 188 0 0 255 0 0 255 0 0 255 0 0 255 0 0 255 0 0 255 0 0 255 0 0 255 0 0 255 0 0 255 0 0 255 0 0 255 0 0 254 0 0 255 0 0 255 0 0 255 0 0 255 0 0 255 0 0 255 0 0 255 0 0 255 0 0 255 0 0 255 0 0 255 0 0 255 0 0 255 0 0 255 0 0 255 0 0 255 0 0 254 0 0 255 0 0 255 0 0 255 0 0 255 0 0 255 0 0 255 0 0 255 0 0 255 0 0 255 0 0 255 1 1 255 0 0 255 0 0 255 0 0 255 0 0 255 0 0 255 0 0 255 0 0 255 0 0 254 0 0 255 0 0 255 1 1 255 0 0 255 0 0 254 0 0 255 0 0 255 0 0 255 0 0 255 0 0 255 0 0 255 0 0 255 1 1 255 0 0 255 0 0 255 0 0 255 0 0 255 0 0 255 0 0 255 0 0 255 0 0 255 1 1 255 0 0 255 0 0 255 0 0 255 0 0 255 0 0 255 0 0 255 1 1 255 0 0 255 0 0 255 0 0 255 0 0 255 0 0 255 0 0 255 0 0 254 0 0 255 0 0 255 0 0 255 0 0 255 0 0 255 0 0 255 0 0 255 0 0 255 1 1 255 0 0 255 0 0 255 0 0 255 0 0 255 0 0 255 0 0 255 0 0 255 0 0 255 0 0 255 0 0 255 1 1 255 0 0 255 0 0 254 0 0 255 0 0 255 0 0 255 0 0 255 0 0 255 0 0 255 0 0 255 0 0 255 0 0 255 0 0 255 0 0 255 0 0 255 0 0 255 0 0 255 0 0 255 0 0 255 0 0 254 0 0 255 0 0 255 1 1 255 0 0 255 0 0 255 0 0 254 0 0 255 1 1 255 0 0 255 0 0 255 0 0 255 0 0 255 0 0 255 0 0 255 0 0 254 0 0 255 0 0 255 0 0 255 0 0 255 0 0 255 0 0 255 0 0 255 0 0 255 0 0 255 0 0 255 0 0 255 0 0 255 0 0 255 0 0 255 0 0 255 0 0 255 0 0 255 0 0 255 0 0 255 0 0 255 0 0 254 0 0 255 0 0 255 0 0 255 0 0 255 0 0 255 0 0 255 0 0 255 0 0 255 0 0 255 0 0 255 0 0 255 0 0 255 0 0 255 0 0 255 0 0 255 0 0 255 0 0 255 0 0 255 0 0 255 0 0 255 11 112 188 20 100 187 30 88 187 42 77 188 52 66 188 63 54 187 74 43 188 83 31 187 95 20 187 106 9 187 99 4 187 126 0 187 137 245 188 149 233 188 159 221 187 169 210 188 180 198 187 191 187 188 201 176 188 211 163 187 223 153 188 233 142 187 244 130 188 135 0 188 9 106 187 20 95 187 30 84 188 42 73 188 52 61 187 61 50 187 73 38 188 84 27 187 95 17 188 105 3 187 117 249 187 128 238 188 138 227 187 149 216 188 160 205 187 170 193 187 181 182 188 192 171 187 202 160 188 213 149 188 223 136 187 234 125 187 246 114 188 152 0 187 9 91 188 19 80 188 30 69 187 41 57 187 51 46 187 62 35 188 73 23 188 83 12 188 94 1 188 106 245 187 116 234 188 127 223 188 138 211 187 148 200 187 160 189 188 170 178 188 179 165 187 191 155 187 202 144 187 212 132 187 223 121 188 235 111 188 246 99 188 168 0 188 191 4 188 5 66 188 15 55 187 26 43 188 37 32 187 48 22 188 58 9 187 0 0 255 0 0 255 0 0 255 0 0 254 1 1 255 0 0 255 1 1 255 1 1 255 0 0 255 0 0 255 0 0 254 0 0 255 0 0 255 0 0 254 0 0 255 0 0 255 0 0 255 0 0 254 0 0 255 0 0 255 0 0 255 0 0 255 0 0 255 0 0 255 0 0 255 0 0 255 0 0 255 0 0 255 0 0 255 1 1 255 0 0 255 0 0 255 0 0 255 0 0 254 0 0 254 0 0 254 1 1 255 0 0 255 0 0 255 1 1 255 0 0 255 1 1 255 0 0 254 0 0 255 0 0 255 0 0 255 0 0 255 0 0 255 0 0 254 0 0 255 0 0 255 0 0 255 1 1 255 0 0 255 0 0 255 0 0 255 0 0 255 0 0 255 0 0 255 0 0 255 0 0 255 0 0 254 0 0 255 0 0 255 0 0 255 0 0 255 0 0 255 0 0 255 0 0 255 0 0 254 0 0 255 0 0 255 1 1 255 1 1 255 0 0 254 0 0 255 1 1 255 0 0 255 0 0 255 0 0 255 0 0 255 0 0 254 0 0 255 0 0 255 1 1 255 0 0 255 0 0 255 0 0 254 0 0 254 0 0 255 0 0 254 0 0 255 0 0 255 0 0 255 0 0 255 0 0 255 0 0 255 0 0 255 0 0 254 0 0 255 0 0 255 0 0 255 0 0 255 0 0 255 0 0 254 0 0 255 0 0 255 0 0 255 0 0 255 1 1 255 1 1 255 0 0 255 0 0 255 0 0 255 0 0 255 0 0 255 0 0 255 0 0 255 0 0 255 0 0 255 0 0 255 0 0 255 0 0 255 0 0 255 0 0 255 0 0 255 0 0 255 0 0 255 0 0 255 0 0 255 0 0 255 0 0 255 0 0 255 0 0 255 1 1 255 0 0 255 0 0 254 0 0 255 0 0 255 1 1 255 0 0 255 0 0 255 0 0 255 1 1 255 1 1 255 0 0 255 0 0 255 0 0 255 0 0 254 0 0 255 0 0 255 0 0 255 0 0 255 0 0 254 0 0 255 0 0 255 1 1 255 0 0 255 0 0 255 0 0 254 0 0 255 0 0 255 0 0 255 0 0 255 0 0 255 0 0 255 0 0 255 0 0 255 0 0 255 0 0 255 0 0 255 8 204 187 18 194 188 29 182 187 39 171 187 50 160 187 60 148 187 71 137 188 82 126 187 92 115 187 103 104 187 114 93 188 123 81 187 134 70 187 145 59 188 156 47 188 166 36 188 178 26 188 186 14 187 198 3 188 202 2 188 219 249 188 229 238 187 240 226 187 250 215 187 4 203 188 15 191 187 25 180 188 36 169 187 47 158 187 57 147 188 68 135 187 78 124 188 89 113 187 99 102 187 110 90 187 120 79 188 131 68 188 142 57 187 152 46 187 163 34 187 173 23 187 184 12 187 194 1 188 206 246 187 217 235 188 228 224 188 238 213 188 249 203 188 1 190 187 12 179 188 23 168 188 33 157 187 44 146 188 53 133 187 66 124 188 76 113 188 86 101 188 97 90 188 107 78 187 118 67 187 128 56 188 139 45 188 149 33 187 160 22 188 170 11 188 181 0 187 193 245 188 203 233 187 214 222 188 224 211 187 236 200 188 246 189 188 78 0 187 101 4 188 6 158 188 16 146 187 26 134 187 37 123 188 47 112 187 58 101 188 69 90 187 78 77 187 90 68 188 100 56 188 111 45 187 121 34 188 132 22 187 144 11 188 153 0 188 0 0 255 0 0 255 0 0 255 0 0 255 0 0 254 0 0 255 0 0 255 0 0 255 0 0 255 0 0 255 0 0 255 0 0 255 0 0 255 0 0 255 0 0 255 0 0 255 1 1 255 0 0 255 0 0 255 0 0 255 0 0 255 0 0 255 0 0 255 0 0 254 0 0 255 0 0 254 0 0 255 0 0 255 0 0 255 0 0 255 0 0 255 0 0 254 0 0 254 1 1 255 0 0 255 0 0 255 0 0 255 0 0 255 0 0 255 0 0 255 1 1 255 0 0 255 1 1 255 0 0 255 0 0 255 0 0 255 0 0 255 0 0 255 0 0 255 0 0 255 0 0 255 0 0 255 0 0 255 1 1 255 0 0 255 0 0 255 0 0 255 0 0 255 0 0 255 0 0 254 0 0 255 0 0 255 0 0 255 0 0 255 0 0 255 0 0 255 0 0 255 0 0 255 0 0 255 0 0 255 0 0 255 0 0 255 0 0 255 0 0 254 0 0 255 1 1 255 0 0 255 0 0 255 0 0 255 0 0 255 0 0 255 0 0 255 0 0 255 0 0 255 0 0 255 0 0 255 1 1 255 0 0 255 0 0 255 0 0 255 0 0 255 0 0 255 0 0 255 0 0 255 0 0 254 0 0 255 0 0 255 0 0 255 0 0 255 0 0 255 0 0 255 0 0 254 0 0 255 0 0 255 0 0 255 0 0 254 1 1 255 0 0 255 0 0 255 0 0 255 1 1 255 0 0 255 0 0 255 0 0 255 0 0 255 0 0 255 0 0 255 0 0 254 0 0 255 0 0 255 0 0 255 0 0 255 0 0 255 0 0 255 0 0 255 0 0 255 0 0 254 0 0 254 0 0 254 0 0 255 0 0 255 0 0 255 0 0 255 0 0 255 0 0 255 0 0 255 0 0 255 0 0 255 0 0 255 0 0 255 0 0 254 0 0 255 0 0 255 0 0 255 0 0 255 0 0 255 0 0 255 0 0 255 1 1 255 0 0 255 0 0 255 0 0 255 0 0 255 0 0 255 0 0 255 0 0 255 0 0 255 0 0 255 0 0 255 1 1 255 0 0 255 4 38 188 14 27 187 25 16 188 36 6 188 48 252 187 58 241 188 68 229 188 79 217 187 88 207 187 100 196 188 110 185 187 121 174 188 132 164 188 143 153 188 152 141 188 163 130 187 173 119 187 184 107 187 194 96 188 205 85 188 215 74 187 225 63 188 236 52 187 246 41 187 226 0 188 9 17 188 19 5 187 20 3 187 41 253 187 52 241 188 63 230 188 73 219 187 83 208 187 94 197 188 104 186 187 115 175 187 124 163 187 136 153 188 146 142 187 157 130 187 167 119 187 178 108 188 189 97 188 199 86 188 209 75 187 219 64 188 230 53 187 239 41 187 250 30 187 3 20 188 14 9 187 26 254 187 36 242 187 47 232 188 57 221 188 67 209 187 78 199 187 88 188 187 99 175 187 109 165 188 119 153 187 130 143 187 141 132 188 151 121 188 163 111 188 173 100 188 183 88 187 193 77 187 203 65 187 214 54 187 224 43 188 235 32 187 245 21 188 245 0 188 11 3 187 6 246 187 16 235 188 27 223 188 36 212 187 48 202 188 58 190 187 70 180 188 79 168 188 90 157 187 100 146 187 110 135 187 121 124 188 131 113 188 141 100 187 153 90 188 163 78 187 173 68 187 184 57 188 195 47 188 205 35 187 214 23 187 225 13 188 236 2 187 0 0 255 0 0 255 0 0 255 0 0 255 0 0 254 0 0 255 0 0 255 0 0 255 0 0 255 0 0 255 0 0 255 0 0 255 0 0 255 0 0 255 0 0 255 0 0 254 0 0 254 0 0 255 0 0 255 0 0 255 0 0 255 0 0 255 0 0 255 1 1 255 0 0 255 0 0 255 0 0 254 0 0 255 0 0 255 0 0 255 0 0 255 0 0 255 0 0 255 0 0 255 0 0 255 0 0 255 0 0 255 0 0 255 0 0 255 0 0 255 0 0 255 0 0 255 0 0 255 0 0 255 0 0 255 0 0 255 1 1 255 0 0 255 0 0 255 1 1 255 0 0 255 0 0 255 1 1 255 0 0 255 0 0 255 0 0 255 0 0 255 0 0 255 0 0 255 0 0 255 1 1 255 0 0 255 0 0 255 1 1 255 1 1 255 0 0 255 0 0 254 0 0 255 0 0 255 0 0 255 1 1 255 0 0 255 0 0 255 0 0 255 0 0 254 0 0 255 0 0 255 0 0 255 0 0 255 0 0 255 0 0 255 0 0 255 0 0 255 1 1 255 0 0 255 0 0 254 0 0 255 0 0 255 0 0 254 0 0 255 0 0 255 0 0 255 0 0 255 0 0 255 1 1 255 0 0 255 0 0 254 0 0 255 0 0 254 0 0 255 0 0 255 0 0 255 1 1 255 0 0 255 0 0 255 0 0 255 0 0 255 0 0 255 0 0 254 0 0 255 0 0 255 0 0 255 0 0 255 0 0 255 0 0 255 0 0 254 0 0 255 0 0 255 0 0 255 0 0 255 0 0 255 0 0 255 0 0 255 0 0 255 0 0 255 0 0 255 0 0 255 0 0 255 0 0 255 0 0 255 0 0 255 0 0 255 0 0 255 0 0 255 0 0 255 0 0 254 0 0 255 0 0 255 0 0 255 0 0 255 0 0 255 0 0 255 0 0 255 0 0 254 0 0 255 0 0 255 0 0 255 0 0 255 0 0 255 0 0 255 0 0 255 0 0 254 2 128 188 12 117 188 23 106 187 33 95 188 44 85 188 54 73 188 64 62 187 74 51 188 85 40 187 94 28 187 106 18 187 115 6 187 128 255 188 138 242 187 149 232 188 160 221 188 170 210 188 180 199 188 190 188 187 201 177 187 211 166 188 220 154 187 232 144 187 242 133 187 252 122 187 5 111 188 15 99 187 26 88 187 36 77 188 47 67 188 57 55 187 66 43 187 77 33 188 88 22 187 98 11 188 108 0 187 116 1 188 130 247 187 139 236 187 151 226 188 161 214 188 171 203 187 182 192 188 192 181 188 202 170 187 213 160 188 223 148 187 234 137 188 244 126 187 254 115 188 7 104 188 17 93 188 27 82 188 38 71 188 48 60 188 59 50 188 68 37 187 79 27 187 89 15 187 99 4 187 112 250 187 122 240 188 133 230 188 143 218 188 153 207 187 163 195 187 174 185 188 184 173 187 194 163 188 205 152 188 215 141 187 226 130 188 236 119 188 246 108 188 159 0 188 181 4 187 5 75 187 15 64 187 25 53 188 37 43 188 46 31 188 55 19 187 67 9 188 78 0 187 89 245 188 99 234 187 110 223 187 120 212 187 131 201 187 141 190 188 151 179 188 162 168 188 172 157 187 183 146 188 193 135 187 203 124 187 214 113 188 224 102 188 234 91 187 245 80 187 186 1 188 8 57 188 18 46 187 28 35 187 39 24 187 49 13 187 59 2 188 0 0 255 0 0 255 0 0 255 0 0 255 0 0 255 0 0 255 1 1 255 0 0 255 1 1 255 1 1 255 0 0 254 0 0 255 0 0 255 0 0 255 0 0 255 0 0 255 0 0 255 0 0 255 0 0 255 0 0 254 0 0 254 0 0 255 0 0 255 0 0 254 0 0 255 0 0 255 1 1 255 0 0 255 0 0 255 0 0 255 0 0 255 0 0 255 0 0 255 0 0 255 0 0 255 0 0 255 0 0 255 0 0 255 0 0 255 1 1 255 1 1 255 0 0 255 0 0 255 0 0 255 0 0 255 0 0 255 0 0 254 0 0 255 0 0 255 1 1 255 0 0 255 0 0 255 1 1 255 0 0 255 0 0 255 0 0 255 0 0 255 0 0 255 0 0 255 0 0 255 0 0 255 0 0 255 0 0 255 0 0 255 0 0 255 0 0 255 1 1 255 0 0 255 0 0 255 0 0 255 0 0 254 0 0 255 0 0 255 0 0 255 0 0 255 0 0 255 0 0 254 0 0 255 0 0 255 1 1 255 0 0 255 1 1 255 0 0 255 0 0 255 0 0 255 0 0 255 0 0 255 0 0 254 0 0 255 0 0 255 1 1 255 0 0 254 0 0 255 0 0 255 0 0 255 0 0 255 0 0 255 0 0 255 0 0 255 0 0 255 1 1 255 0 0 255 0 0 255 0 0 255 0 0 255 0 0 254 0 0 255 0 0 255 0 0 255 0 0 255 0 0 255 0 0 255 0 0 255 0 0 255 0 0 255 0 0 255 0 0 255 0 0 255 0 0 254 0 0 255 0 0 255 0 0 255 1 1 255 0 0 255 0 0 255 0 0 255 1 1 255 0 0 255 0 0 255 0 0 255 0 0 255 0 0 255 0 0 255 0 0 255 0 0 255 0 0 255 0 0 255 1 1 255 0 0 255 0 0 255 0 0 255 1 1 255 1 1 255 0 216 188 10 205 187 21 193 187 31 183 188 41 172 187 51 162 187 62 151 188 72 139 187 82 129 187 91 118 187 103 108 188 113 97 188 123 85 187 133 75 188 145 64 188 154 53 188 164 42 188 174 31 187 185 20 188 195 8 187 204 0 187 217 246 187 228 235 188 238 224 188 248 213 188 0 201 187 11 190 187 22 180 188 31 168 188 42 158 188 52 146 187 63 136 188 72 124 187 82 113 187 94 104 188 103 92 188 113 81 188 123 70 187 134 59 188 145 49 188 153 37 187 164 27 188 175 16 188 184 5 187 186 3 187 206 253 188 217 240 187 227 230 187 237 219 188 246 207 187 0 197 188 11 187 188 20 176 187 30 165 187 41 154 188 51 143 188 60 131 187 72 121 188 82 110 188 93 100 188 102 89 188 113 78 188 123 67 188 133 56 187 143 45 187 154 34 187 164 22 187 174 13 187 184 2 187 196 247 188 206 236 188 216 226 188 228 216 188 237 204 188 247 194 188 75 1 188 96 4 187 5 160 188 17 150 188 26 139 187 37 129 188 46 117 187 57 106 188 67 95 188 77 84 187 87 73 187 98 62 188 109 52 188 118 41 187 128 30 187 139 19 187 149 8 187 160 0 187 171 244 187 181 233 187 192 222 188 201 212 187 213 202 188 222 190 188 233 179 187 243 168 187 253 157 187 6 145 188 16 134 188 25 123 187 37 112 188 47 102 188 57 91 187 67 80 188 77 69 187 89 59 188 98 47 187 108 36 188 118 25 187 128 14 187 138 3 187 0 0 255 0 0 255 0 0 255 0 0 255 0 0 255 0 0 255 0 0 255 1 1 255 0 0 255 1 1 255 0 0 255 0 0 255 0 0 254 0 0 255 0 0 255 0 0 255 0 0 255 0 0 255 0 0 255 0 0 255 1 1 255 0 0 254 0 0 255 0 0 255 0 0 255 0 0 255 0 0 255 0 0 255 0 0 254 1 1 255 0 0 255 0 0 255 0 0 254 0 0 255 0 0 255 0 0 255 0 0 254 0 0 255 0 0 255 0 0 255 0 0 254 0 0 255 0 0 255 0 0 255 0 0 255 0 0 255 0 0 255 0 0 254 0 0 255 0 0 255 0 0 255 0 0 255 0 0 255 0 0 255 0 0 255 0 0 255 0 0 255 0 0 255 0 0 255 0 0 255 0 0 255 0 0 255 0 0 255 0 0 254 0 0 255 1 1 255 0 0 255 0 0 255 0 0 255 0 0 255 0 0 255 0 0 255 0 0 255 0 0 255 1 1 255 0 0 255 0 0 255 0 0 255 0 0 255 0 0 255 0 0 254 0 0 255 0 0 255 0 0 255 0 0 255 0 0 255 0 0 255 0 0 254 0 0 255 0 0 255 0 0 255 0 0 255 0 0 255 0 0 255 0 0 255 0 0 255 0 0 255 0 0 255 0 0 254 1 1 255 0 0 254 0 0 255 0 0 255 1 1 255 0 0 255 0 0 255 0 0 255 1 1 255 0 0 255 0 0 255 0 0 255 0 0 255 0 0 255 0 0 254 0 0 255 0 0 255 0 0 255 0 0 255 0 0 255 0 0 255 0 0 255 0 0 255 0 0 254 0 0 255 0 0 255 0 0 255 0 0 255 0 0 255 0 0 255 0 0 255 1 1 255 0 0 255 0 0 255 1 1 255 0 0 255 9 36 187 19 26 187 29 15 187 40 4 187 49 248 187 59 238 188 69 227 188 80 216 188 90 205 188 100 195 187 110 184 188 120 173 188 130 162 187 140 152 188 150 140 187 161 130 188 171 119 187 181 108 188 191 99 188 201 87 188 213 76 188 222 64 187 232 55 187 242 44 187 252 33 187 8 22 188 18 12 187 28 1 188 36 245 187 47 236 187 57 225 187 67 214 188 77 203 188 87 193 188 98 182 187 109 172 188 118 160 188 128 150 188 138 139 188 147 127 187 159 117 187 169 107 187 178 95 187 189 85 188 198 74 187 209 63 188 219 53 188 230 42 188 240 31 187 250 20 188 5 9 188 1 5 188 20 0 187 34 246 188 44 235 188 55 225 188 64 214 187 74 203 187 84 192 188 94 181 188 105 171 187 116 161 188 125 149 187 135 138 187 144 127 187 154 116 187 166 106 188 176 95 188 186 84 187 196 74 187 206 63 188 215 51 187 226 41 187 237 31 187 247 20 188 246 0 187 13 5 188 6 244 187 16 233 187 26 223 187 36 212 188 46 201 187 57 190 187 67 179 187 77 169 187 87 158 188 97 147 188 107 136 187 118 126 188 128 116 188 138 104 188 148 93 187 158 83 188 168 72 188 178 61 188 188 49 187 198 39 187 209 29 188 219 18 188 229 7 187 241 254 188 251 243 188 4 231 187 14 221 188 24 210 187 34 199 188 43 188 187 55 179 188 65 168 188 75 156 187 85 145 187 95 135 188 105 124 187 115 113 188 127 103 188 136 91 187 146 81 188 156 70 188 165 58 187 176 48 188 186 38 187 197 27 188 207 16 187 217 5 187 0 0 255 0 0 255 1 1 255 0 0 255 0 0 255 0 0 255 1 1 255 0 0 255 0 0 254 0 0 255 0 0 255 0 0 255 0 0 255 1 1 255 0 0 255 0 0 255 0 0 255 0 0 255 0 0 255 0 0 254 0 0 255 1 1 255 0 0 255 0 0 255 1 1 255 0 0 255 0 0 255 0 0 255 0 0 255 0 0 255 0 0 255 0 0 255 0 0 255 0 0 255 0 0 255 0 0 255 0 0 255 0 0 255 0 0 255 0 0 255 0 0 255 0 0 254 0 0 255 0 0 255 0 0 255 0 0 255 0 0 255 0 0 255 0 0 255 0 0 255 0 0 255 0 0 255 0 0 255 0 0 255 0 0 255 0 0 255 1 1 255 0 0 255 0 0 255 0 0 255 0 0 255 0 0 255 0 0 255 0 0 255 0 0 255 0 0 255 0 0 255 0 0 255 1 1 255 1 1 255 0 0 255 0 0 255 0 0 255 0 0 255 0 0 255 0 0 255 0 0 255 0 0 255 0 0 255 0 0 255 0 0 255 0 0 255 1 1 255 0 0 255 0 0 255 0 0 255 0 0 255 0 0 255 1 1 255 0 0 254 0 0 254 0 0 255 0 0 255 0 0 254 0 0 255 0 0 255 0 0 255 0 0 255 0 0 255 0 0 255 0 0 255 0 0 255 0 0 255 0 0 255 0 0 255 0 0 254 0 0 255 0 0 255 0 0 255 0 0 254 1 1 255 0 0 255 0 0 254 0 0 255 0 0 255 0 0 255 0 0 255 0 0 255 0 0 255 0 0 255 1 1 255 0 0 255 0 0 255 0 0 255 0 0 255 0 0 255 7 121 187 17 110 187 26 99 187 37 89 188 48 79 188 58 68 188 67 56 187 78 46 187 88 36 187 97 24 187 108 14 188 118 4 188 127 248 188 137 238 187 147 227 187 157 216 187 167 206 187 178 195 187 188 184 188 198 174 187 208 163 187 218 152 188 228 141 187 238 131 187 247 119 187 3 110 188 13 99 187 22 87 187 33 78 188 44 67 187 54 56 188 64 46 188 74 35 188 83 23 187 94 14 187 104 3 187 113 249 188 124 239 188 133 228 187 143 217 188 153 206 188 164 196 188 173 184 187 183 174 187 194 164 188 203 153 187 214 143 188 223 132 188 233 121 187 243 111 188 253 99 187 8 89 188 18 78 188 28 67 187 38 58 188 48 46 188 58 35 188 69 26 188 78 14 187 87 2 187 89 2 187 107 251 187 116 239 187 127 231 188 137 219 188 147 208 188 157 198 188 168 187 188 176 175 187 187 166 187 197 155 187 207 144 187 217 134 188 228 123 187 238 112 187 248 102 188 166 1 187 186 4 188 7 71 187 17 60 188 28 51 188 37 39 188 47 28 187 57 18 188 67 7 187 77 252 187 87 241 188 97 230 187 107 219 187 116 208 187 127 198 187 136 188 187 147 177 187 157 166 188 167 156 187 177 145 187 187 134 188 197 124 188 208 113 187 218 102 187 228 92 188 238 81 188 248 70 187 3 60 188 13 49 188 23 38 188 32 27 187 43 17 188 52 5 187 62 252 187 72 242 188 82 231 187 92 220 187 102 210 188 112 199 187 121 188 187 133 178 187 143 167 188 153 156 188 163 146 188 173 135 188 183 124 188 193 114 187 203 103 187 212 91 187 223 82 188 233 71 187 243 60 187 254 51 188 8 39 188 18 28 187 28 17 188 38 7 187 1 1 255 0 0 255 1 1 255 0 0 255 0 0 255 0 0 254 0 0 255 0 0 255 0 0 255 0 0 255 0 0 255 0 0 255 0 0 255 0 0 255 0 0 255 0 0 255 0 0 255 0 0 255 0 0 254 0 0 255 1 1 255 0 0 255 0 0 255 0 0 255 0 0 255 0 0 255 0 0 255 0 0 255 0 0 255 0 0 255 0 0 255 0 0 255 0 0 255 0 0 255 0 0 255 0 0 255 0 0 255 0 0 255 0 0 255 0 0 255 0 0 255 0 0 255 0 0 254 0 0 254 0 0 255 1 1 255 0 0 255 0 0 255 0 0 255 1 1 255 1 1 255 0 0 255 0 0 254 0 0 255 0 0 254 0 0 255 0 0 255 0 0 254 0 0 255 0 0 255 0 0 255 0 0 255 0 0 255 0 0 255 0 0 255 0 0 255 0 0 255 0 0 255 0 0 255 0 0 254 0 0 255 0 0 255 0 0 255 0 0 255 0 0 255 0 0 255 0 0 255 0 0 255 0 0 255 0 0 255 0 0 255 0 0 255 0 0 255 0 0 255 0 0 255 0 0 255 0 0 254 0 0 255 0 0 255 0 0 255 0 0 255 0 0 255 0 0 255 0 0 255 0 0 255 0 0 255 0 0 255 0 0 255 0 0 255 0 0 255 0 0 255 0 0 255 0 0 255 0 0 255 0 0 255 0 0 255 0 0 255 0 0 255 0 0 255 0 0 255 0 0 255 0 0 254 0 0 255 0 0 255 1 1 255 0 0 255 0 0 255 5 204 188 15 194 187 25 183 188 35 172 188 45 162 188 55 151 188 65 141 187 75 130 188 85 120 188 95 110 188 105 99 188 115 88 188 125 77 187 135 67 187 145 56 187 155 46 188 165 35 188 175 25 187 185 14 188 196 4 188 204 248 188 214 238 188 224 228 188 234 215 187 245 207 188 254 195 187 9 185 188 20 175 188 29 164 187 39 153 188 49 143 187 59 132 188 68 120 187 79 111 187 90 100 188 99 90 188 109 78 187 119 69 188 128 58 187 138 47 188 149 38 188 158 26 187 168 16 187 178 5 188 187 251 188 196 240 187 207 230 187 217 220 187 227 209 188 237 198 187 247 188 188 1 177 188 10 165 187 21 156 188 30 144 187 41 135 188 51 123 187 62 114 188 72 104 188 81 92 188 90 82 187 101 71 187 111 61 188 121 50 187 131 40 188 141 29 188 151 18 187 161 8 187 155 4 187 177 0 187 189 246 188 199 235 188 209 225 188 218 213 187 229 203 187 240 193 188 248 182 187 85 0 187 106 5 187 8 151 188 18 141 188 28 130 187 38 120 188 47 109 188 57 99 188 67 88 187 77 78 188 87 67 187 96 55 187 107 46 187 117 35 187 127 25 188 137 14 188 146 3 187 156 248 188 166 238 187 176 227 188 186 217 187 195 206 187 206 195 188 216 185 187 226 174 187 236 164 188 247 153 188 1 143 188 11 132 187 21 122 188 31 111 188 41 100 187 51 90 188 61 79 187 71 69 188 82 59 188 91 48 187 101 37 187 112 27 188 121 16 188 131 5 187 139 250 187 149 241 188 160 231 188 169 220 188 179 209 188 189 199 187 199 188 187 209 177 187 219 167 188 230 156 188 239 146 187 249 135 188 5 124 188 14 114 187 23 103 187 33 93 187 43 82 188 53 71 187 63 61 187 72 49 187 83 40 188 93 29 187 103 19 188 113 8 188 0 0 254 0 0 255 0 0 255 0 0 255 0 0 255 0 0 255 0 0 254 0 0 255 0 0 255 0 0 255 0 0 255 0 0 255 0 0 255 0 0 255 0 0 255 0 0 255 0 0 255 1 1 255 0 0 255 0 0 255 0 0 255 0 0 255 0 0 255 0 0 255 0 0 255 0 0 255 0 0 254 0 0 255 0 0 254 0 0 255 0 0 254 0 0 255 0 0 255 0 0 255 0 0 255 0 0 255 0 0 254 0 0 255 0 0 254 0 0 255 0 0 255 1 1 255 0 0 255 1 1 255 0 0 255 0 0 255 0 0 254 0 0 255 0 0 255 1 1 255 0 0 255 0 0 255 0 0 255 0 0 255 0 0 255 0 0 255 0 0 255 0 0 255 0 0 255 0 0 255 1 1 255 0 0 255 0 0 255 0 0 255 0 0 255 0 0 255 0 0 255 0 0 254 0 0 255 0 0 255 0 0 255 1 1 255 0 0 255 0 0 255 0 0 254 0 0 255 0 0 255 0 0 255 0 0 255 0 0 255 0 0 255 1 1 255 0 0 255 0 0 255 0 0 255 0 0 255 1 1 255 0 0 255 0 0 255 0 0 255 0 0 255 0 0 255 0 0 255 0 0 255 0 0 254 0 0 255 0 0 255 0 0 255 0 0 255 0 0 255 0 0 255 0 0 254 0 0 255 0 0 255 0 0 255 0 0 255 1 1 255 0 0 255 0 0 255 0 0 255 5 5 187 34 255 188 43 244 187 53 233 188 63 223 188 72 212 187 84 203 188 91 191 187 102 182 188 112 171 188 122 160 187 132 150 187 142 139 188 152 129 187 161 118 187 171 108 188 181 97 188 191 87 187 202 76 188 211 66 188 221 56 188 230 45 187 240 35 188 249 24 187 3 12 187 13 2 188 25 247 187 34 238 187 44 228 188 53 217 187 64 206 187 74 196 188 84 185 187 93 175 188 103 164 187 113 154 188 122 142 187 133 133 188 143 122 187 152 111 187 162 102 187 172 91 188 183 81 188 192 70 188 202 60 187 212 49 187 222 39 188 232 28 188 241 18 187 251 8 188 4 253 187 14 243 187 25 233 188 34 222 188 44 211 188 55 202 188 63 190 187 73 180 188 83 169 188 94 160 188 103 148 188 113 138 187 124 127 188 133 117 188 143 107 187 153 97 188 161 85 187 172 75 188 182 64 187 192 54 188 202 44 188 212 33 188 221 23 188 231 12 187 241 3 188 243 2 188 8 1 187 28 6 188 9 231 188 18 220 187 28 210 188 38 198 187 48 188 187 58 178 187 67 168 188 76 157 187 87 147 187 97 136 187 107 126 187 117 115 187 126 105 187 136 94 188 146 84 188 156 74 188 166 63 188 176 53 187 186 42 188 196 33 188 205 21 188 215 11 188 225 0 187 235 246 188 244 235 187 254 224 187 9 213 187 19 203 188 29 193 188 39 182 188 49 172 188 59 161 188 68 151 188 78 139 187 88 130 188 98 120 188 108 109 188 118 99 188 128 88 187 138 78 188 147 67 188 157 57 188 167 46 188 177 36 187 187 25 188 197 15 187 207 3 187 215 251 188 225 240 188 235 230 188 245 219 187 45 0 188 9 198 187 19 187 188 29 177 188 39 167 187 49 156 187 58 146 188 68 135 187 78 125 188 88 114 187 98 104 187 108 92 187 118 83 188 127 72 187 137 62 188 147 51 188 157 41 187 167 30 188 177 20 188 187 10 188 0 0 255 0 0 255 0 0 255 0 0 255 0 0 255 0 0 255 0 0 255 0 0 255 0 0 255 1 1 255 0 0 255 0 0 255 0 0 255 0 0 255 0 0 255 0 0 255 0 0 255 0 0 255 0 0 255 0 0 255 0 0 255 0 0 255 0 0 255 0 0 255 0 0 255 0 0 254 0 0 255 0 0 255 0 0 255 0 0 255 0 0 255 0 0 255 0 0 255 0 0 255 0 0 255 0 0 255 0 0 255 0 0 255 0 0 255 0 0 255 0 0 255 0 0 255 0 0 255 0 0 255 0 0 255 0 0 255 0 0 255 0 0 255 0 0 255 0 0 255 0 0 255 0 0 255 0 0 254 0 0 254 0 0 255 0 0 255 0 0 255 0 0 255 1 1 255 0 0 255 0 0 255 0 0 255 0 0 255 0 0 255 0 0 255 0 0 255 0 0 255 0 0 255 0 0 254 0 0 255 0 0 255 0 0 255 0 0 255 0 0 255 0 0 255 0 0 255 0 0 255 0 0 255 0 0 254 0 0 254 0 0 255 0 0 255 1 1 255 0 0 254 0 0 254 0 0 255 0 0 255 0 0 255 0 0 255 1 1 255 0 0 255 0 0 254 0 0 255 0 0 255 0 0 255 0 0 254 0 0 255 0 0 255 0 0 255 0 0 255 0 0 255 0 0 255 0 0 255 0 0 255 0 0 255 0 0 254 2 20 188 31 15 187 59 9 188 87 4 188 109 252 187 119 241 187 129 231 188 139 221 188 148 209 187 158 200 187 168 190 187 178 179 188 187 169 187 197 158 187 208 149 188 218 138 188 228 127 188 236 117 187 246 107 187 159 0 187 10 85 188 19 74 187 28 64 187 38 53 187 48 43 188 58 33 188 69 23 188 77 12 188 86 0 187 98 248 188 109 238 188 118 227 187 127 217 187 137 206 187 147 196 188 157 186 187 167 175 188 175 165 187 186 155 187 196 145 188 206 134 188 214 123 187 225 113 187 235 103 188 245 92 187 254 82 188 7 72 187 16 61 188 26 51 187 37 42 188 45 29 187 55 20 188 66 10 188 75 0 187 86 245 187 97 235 188 105 224 188 115 214 187 125 203 188 134 193 187 144 183 187 153 171 187 164 162 188 174 152 188 183 141 188 194 131 188 203 121 187 213 110 188 223 100 187 232 89 187 241 79 187 252 69 188 202 2 188 0 50 187 10 39 187 20 29 188 30 19 187 39 8 187 35 4 187 56 0 187 67 246 187 76 235 187 87 225 187 97 216 188 106 204 188 116 194 187 127 185 188 136 173 188 146 163 188 155 153 187 165 142 187 175 132 187 185 121 187 194 111 187 204 101 187 214 90 188 225 81 188 233 70 187 243 60 188 253 48 187 6 37 188 16 27 188 26 16 187 36 6 187 47 253 188 56 242 188 66 233 188 76 221 188 86 211 188 95 202 188 105 190 188 116 181 188 125 169 188 134 159 187 144 149 187 154 138 188 164 128 188 174 118 187 182 107 187 193 97 187 204 87 188 213 76 188 221 66 187 232 55 187 242 45 187 252 35 188 4 24 187 14 14 187 23 4 188 34 249 188 44 239 188 55 230 188 65 218 188 73 208 187 83 199 188 93 187 187 103 177 187 112 167 187 122 156 188 132 146 188 142 136 188 150 125 187 161 115 188 172 104 188 181 94 188 191 85 188 200 73 188 211 64 188 220 52 187 229 42 188 239 32 188 248 21 187 248 1 187 5 2 187 0 0 255 0 0 255 0 0 255 0 0 254 0 0 255 0 0 255 0 0 254 0 0 255 0 0 255 0 0 255 0 0 255 0 0 254 0 0 255 1 1 255 0 0 254 0 0 254 0 0 255 0 0 255 0 0 255 0 0 255 0 0 255 1 1 255 0 0 255 0 0 255 0 0 255 0 0 254 0 0 255 0 0 255 0 0 255 1 1 255 0 0 255 0 0 255 0 0 255 0 0 255 1 1 255 0 0 255 0 0 255 0 0 255 0 0 255 0 0 255 1 1 255 0 0 255 0 0 255 0 0 254 0 0 254 0 0 255 1 1 255 0 0 255 0 0 255 0 0 255 0 0 255 0 0 255 0 0 255 0 0 255 0 0 255 0 0 255 0 0 255 0 0 255 0 0 255 0 0 255 0 0 255 1 1 255 0 0 255 0 0 255 0 0 255 0 0 254 0 0 255 0 0 255 0 0 255 0 0 255 0 0 255 0 0 255 0 0 255 1 1 255 0 0 254 0 0 255 0 0 255 0 0 255 0 0 255 0 0 255 1 1 255 1 1 255 0 0 255 0 0 255 0 0 255 0 0 255 0 0 255 0 0 255 0 0 255 0 0 255 0 0 255 0 0 255 0 0 255 1 1 255 0 0 255 0 0 254 0 0 255 0 0 255 0 0 255 0 0 255 1 1 255 0 0 255 28 30 188 56 24 187 83 18 187 111 13 188 138 7 187 166 2 188 185 249 188 194 239 187 203 229 188 213 217 187 223 208 188 233 199 188 242 188 188 253 177 188 5 165 188 14 155 187 24 145 188 34 135 188 43 124 187 54 115 188 63 104 188 72 94 188 82 83 187 92 72 187 102 63 188 111 53 187 122 43 188 131 32 187 139 22 187 149 10 187 161 2 188 171 248 187 180 237 187 189 226 187 200 217 188 209 207 188 219 196 188 228 185 187 238 176 188 248 166 187 0 155 187 10 145 187 20 136 188 29 124 188 39 114 187 48 104 188 57 93 187 68 83 188 77 73 188 86 62 187 96 53 187 106 42 187 116 32 188 126 22 188 135 12 187 145 1 187 156 247 188 166 237 188 175 227 188 185 217 188 195 206 188 204 196 188 214 186 188 224 175 188 233 165 188 243 155 188 254 144 188 126 2 188 2 127 188 11 115 187 20 105 188 30 95 188 40 85 187 49 74 187 59 64 188 69 54 188 78 43 187 88 34 188 99 24 188 107 13 187 117 2 187 119 2 187 135 251 188 145 240 188 155 230 187 164 220 187 175 211 188 184 199 187 194 189 188 204 180 188 213 168 187 222 158 188 232 148 188 242 138 188 250 127 187 4 116 187 14 105 187 24 95 188 33 85 187 43 75 187 53 64 188 62 54 187 72 44 187 83 35 188 91 23 187 101 13 188 112 4 188 122 249 187 131 239 188 141 230 188 150 217 187 161 208 188 170 198 187 181 189 188 190 177 188 199 167 188 209 158 188 219 147 188 228 136 188 238 126 188 248 116 187 0 107 188 9 94 187 19 85 187 29 75 188 38 64 188 48 54 188 58 44 188 67 34 188 77 22 187 87 13 188 97 4 188 107 248 187 117 238 188 127 228 187 136 218 188 146 208 188 156 197 187 165 186 187 175 177 187 184 167 187 194 156 188 204 146 187 214 136 187 223 125 187 233 115 188 242 104 187 252 95 187 180 3 188 8 76 188 18 66 187 26 54 187 37 45 188 47 35 188 56 25 187 66 14 187 76 4 187 0 0 255 0 0 254 0 0 255 0 0 255 0 0 255 0 0 255 0 0 255 0 0 255 0 0 255 0 0 255 0 0 255 0 0 254 0 0 255 0 0 255 0 0 255 0 0 255 0 0 255 0 0 255 0 0 255 1 1 255 0 0 255 0 0 255 0 0 254 0 0 255 0 0 255 0 0 255 0 0 255 0 0 255 0 0 254 0 0 255 0 0 255 0 0 255 0 0 255 0 0 255 0 0 255 0 0 255 0 0 255 0 0 255 0 0 255 0 0 255 0 0 255 0 0 255 0 0 255 0 0 255 0 0 255 0 0 255 0 0 255 0 0 255 0 0 255 0 0 255 0 0 255 0 0 255 1 1 255 0 0 255 0 0 254 0 0 255 0 0 255 0 0 255 0 0 255 0 0 255 0 0 255 0 0 255 0 0 255 0 0 255 0 0 255 1 1 255 1 1 255 0 0 255 0 0 255 0 0 255 0 0 255 0 0 255 0 0 254 0 0 255 0 0 254 0 0 255 0 0 255 0 0 255 0 0 255 0 0 255 0 0 255 0 0 255 0 0 255 0 0 255 0 0 255 0 0 255 0 0 255 0 0 255 0 0 255 0 0 255 0 0 255 0 0 255 0 0 255 0 0 255 0 0 254 0 0 255 0 0 255 0 0 255 24 45 188 53 39 187 81 34 188 108 27 187 136 23 187 164 17 188 190 12 188 217 6 187 244 1 188 1 245 187 11 236 188 21 226 188 29 215 188 39 205 188 48 193 187 58 184 187 68 175 188 77 164 188 87 154 188 96 143 187 107 133 188 116 123 187 125 113 188 135 103 188 144 92 188 153 82 187 164 72 187 173 62 187 183 52 188 192 42 188 201 31 187 212 21 188 221 11 187 231 1 187 241 247 187 251 237 188 3 227 187 13 217 187 22 207 187 32 197 187 41 187 188 51 176 188 62 166 188 70 156 188 80 146 187 89 135 187 100 125 188 109 115 187 118 105 187 128 95 187 138 86 188 146 75 187 156 64 187 166 54 187 176 44 188 185 34 188 195 24 188 204 14 187 214 3 188 225 248 187 234 239 188 244 229 187 253 218 187 52 3 188 2 200 188 12 191 188 20 180 187 30 170 187 40 159 188 50 149 187 59 138 187 68 128 187 78 119 188 88 110 188 98 98 188 107 88 188 117 78 188 126 68 187 137 59 188 145 48 188 155 37 188 165 27 188 174 17 188 184 7 188 180 4 188 202 0 188 211 245 188 221 235 187 231 225 188 241 216 188 250 204 188 3 194 188 12 183 187 22 172 187 31 162 187 41 152 188 51 142 187 61 133 188 70 122 188 79 111 188 89 101 187 99 91 188 108 81 188 118 71 187 127 61 188 137 50 188 145 39 187 156 30 188 166 20 187 174 10 187 185 0 188 196 246 188 205 236 187 215 226 187 224 216 188 235 205 188 244 195 187 253 185 187 5 175 187 15 165 187 25 156 188 34 144 188 43 134 187 53 123 187 63 114 188 72 104 187 82 94 188 91 83 187 101 73 188 110 63 187 120 53 187 130 43 187 138 33 187 149 22 188 158 12 188 168 2 187 179 248 187 188 238 187 199 229 188 207 217 187 217 207 187 228 198 188 236 187 188 246 177 188 89 0 188 3 159 188 11 149 188 21 138 188 31 128 188 40 117 187 49 107 188 59 97 188 69 87 188 78 77 187 88 67 188 97 56 188 108 47 188 117 36 188 126 26 188 136 16 188 144 6 187 0 0 255 0 0 255 0 0 255 0 0 255 0 0 255 0 0 255 0 0 255 0 0 255 0 0 255 0 0 255 0 0 254 0 0 255 0 0 255 0 0 255 0 0 255 1 1 255 0 0 255 0 0 255 0 0 255 0 0 255 1 1 255 0 0 255 1 1 255 0 0 255 0 0 255 0 0 255 0 0 255 0 0 255 0 0 255 0 0 255 1 1 255 0 0 254 0 0 255 1 1 255 0 0 255 0 0 255 0 0 255 0 0 255 0 0 255 0 0 255 0 0 255 0 0 255 0 0 255 0 0 255 0 0 255 0 0 255 1 1 255 0 0 255 0 0 255 0 0 255 0 0 255 0 0 255 0 0 255 0 0 255 0 0 255 1 1 255 0 0 255 0 0 255 0 0 255 0 0 255 0 0 255 0 0 255 0 0 255 1 1 255 0 0 255 0 0 255 0 0 255 0 0 255 0 0 255 0 0 255 0 0 255 0 0 255 0 0 254 0 0 255 0 0 255 0 0 255 0 0 255 0 0 255 0 0 255 0 0 255 0 0 255 0 0 255 1 1 255 0 0 255 0 0 255 0 0 255 0 0 255 0 0 255 0 0 255 0 0 255 0 0 255 0 0 255 0 0 255 0 0 255 21 61 188 50 55 188 77 48 187 106 43 187 133 38 187 161 32 188 188 27 187 215 21 188 241 17 188 14 9 187 40 4 188 62 253 187 73 243 187 82 234 188 92 222 187 100 212 187 111 202 188 120 193 188 130 182 187 139 172 187 149 162 187 158 152 187 167 141 187 177 132 187 187 122 187 196 112 188 206 101 188 215 91 187 225 81 187 234 70 187 244 60 187 253 51 187 5 41 188 14 31 187 24 21 188 32 10 187 43 1 187 54 247 187 63 237 187 73 227 188 82 217 188 92 207 187 101 197 188 111 187 187 120 177 188 130 167 187 139 158 188 150 147 188 158 137 188 168 126 187 176 115 187 187 107 188 196 96 187 205 85 187 216 77 188 225 66 188 234 56 187 245 46 188 253 36 187 236 3 188 0 14 187 10 5 188 21 253 187 31 243 188 40 233 187 50 223 188 59 213 187 69 203 187 77 193 187 88 183 187 97 173 188 108 162 188 116 152 188 126 142 187 135 132 188 145 122 187 154 112 188 164 102 187 173 92 188 182 81 187 192 72 187 202 62 187 212 52 188 221 42 188 230 31 187 241 22 188 249 12 188 1 0 188 6 1 187 20 248 188 29 238 188 39 228 188 48 218 188 58 207 187 67 198 187 77 188 187 86 178 187 96 168 187 106 158 188 116 149 188 124 138 188 134 127 187 144 117 188 153 107 188 162 97 188 172 87 188 181 77 187 190 67 187 200 57 188 210 47 187 219 37 187 229 27 187 238 17 187 248 7 188 1 253 188 10 243 188 20 233 188 29 223 187 39 213 187 48 203 187 58 193 188 67 182 187 76 172 187 87 163 188 96 152 187 105 142 188 115 132 187 124 122 188 134 112 188 143 102 188 153 92 188 163 83 188 172 72 188 182 62 188 191 52 187 200 42 188 210 31 187 219 21 187 229 11 187 239 2 188 249 247 187 22 1 187 5 229 188 13 218 187 24 209 188 33 199 187 42 188 187 52 178 188 62 167 187 71 158 187 82 149 188 90 138 187 99 127 187 108 117 187 119 108 188 128 98 188 138 88 188 147 79 188 157 68 188 166 58 188 175 47 188 184 36 187 194 27 187 204 17 187 213 7 187 0 0 254 0 0 255 0 0 255 0 0 255 0 0 255 0 0 255 0 0 255 0 0 255 0 0 255 0 0 255 1 1 255 0 0 255 0 0 255 0 0 255 0 0 255 0 0 255 0 0 255 1 1 255 0 0 255 0 0 255 0 0 255 0 0 255 0 0 255 0 0 255 0 0 255 0 0 255 0 0 255 0 0 255 0 0 255 0 0 255 0 0 255 0 0 255 0 0 255 0 0 255 0 0 254 0 0 255 0 0 255 0 0 255 0 0 255 0 0 255 0 0 254 0 0 255 0 0 255 0 0 255 0 0 255 0 0 255 1 1 255 0 0 255 0 0 255 0 0 255 0 0 255 0 0 254 0 0 255 0 0 255 0 0 255 0 0 255 1 1 255 0 0 255 0 0 255 0 0 255 0 0 255 0 0 255 0 0 255 0 0 255 0 0 255 0 0 254 0 0 255 0 0 255 0 0 255 1 1 255 0 0 255 0 0 255 0 0 255 0 0 255 1 1 255 0 0 255 0 0 255 0 0 255 0 0 255 0 0 255 0 0 255 0 0 255 0 0 255 0 0 255 0 0 255 0 0 255 0 0 255 0 0 255 0 0 255 1 1 255 18 76 188 47 70 188 74 64 187 103 59 188 130 53 188 158 47 188 185 42 187 212 36 187 239 30 187 11 24 188 38 19 188 64 13 187 90 9 188 115 3 187 134 250 187 143 240 188 153 230 188 162 220 188 173 211 188 181 200 187 190 190 187 201 181 188 210 171 188 219 160 187 229 151 188 237 140 187 247 130 187 135 0 188 9 112 188 17 101 188 27 91 188 37 82 188 45 71 187 55 61 187 64 51 188 74 41 188 83 31 187 92 21 188 102 11 188 111 1 187 123 248 188 132 237 187 141 227 187 150 217 187 160 207 188 169 197 187 179 187 188 187 176 187 197 167 187 207 157 188 216 147 187 226 137 187 235 127 187 244 117 187 255 108 188 164 3 188 1 87 187 11 77 188 20 67 187 29 57 188 39 47 188 47 36 187 58 28 188 67 17 187 76 7 188 87 0 188 97 245 188 106 235 188 117 226 188 125 215 188 135 205 187 144 195 188 154 185 188 163 175 188 172 165 187 182 155 188 191 145 187 201 136 187 210 126 188 219 116 188 230 107 188 237 95 187 249 87 188 181 0 187 9 64 188 18 54 187 27 44 188 37 34 187 46 24 187 56 14 188 65 4 188 66 3 188 84 253 188 93 242 187 103 234 188 112 223 188 122 213 188 131 203 187 140 193 188 150 183 187 159 173 188 169 163 187 178 153 188 187 143 187 197 133 188 206 123 188 217 113 188 226 103 188 234 93 188 244 83 187 254 73 188 5 63 187 14 53 187 24 43 187 34 34 188 43 24 188 52 14 188 61 4 187 72 250 188 82 239 187 91 230 187 100 220 188 110 210 187 118 199 187 129 190 187 137 179 187 148 171 188 158 160 188 166 150 187 176 140 188 185 130 188 195 120 187 204 110 187 213 100 188 223 90 187 233 80 188 242 70 188 251 60 188 211 2 187 7 41 188 14 29 187 24 20 187 34 10 187 43 0 187 55 248 188 64 238 187 73 228 187 83 218 187 92 207 187 102 198 187 112 189 188 119 178 187 130 168 188 139 158 188 149 148 188 157 137 187 167 128 187 177 119 188 186 109 188 197 100 188 204 89 187 215 78 187 224 69 187 233 59 188 243 49 188 252 39 187 4 27 188 13 17 187 24 8 188 0 0 255 0 0 255 0 0 255 0 0 255 0 0 255 0 0 255 0 0 255 0 0 255 0 0 255 0 0 255 0 0 255 0 0 255 0 0 255 0 0 255 0 0 255 0 0 255 0 0 255 1 1 255 0 0 255 0 0 255 0 0 255 0 0 255 1 1 255 0 0 255 0 0 255 0 0 255 0 0 255 0 0 255 0 0 255 0 0 255 0 0 255 0 0 255 0 0 255 0 0 255 0 0 255 0 0 255 0 0 255 0 0 255 0 0 255 0 0 255 0 0 255 0 0 255 0 0 255 0 0 255 1 1 255 0 0 255 0 0 255 0 0 255 0 0 255 0 0 255 0 0 255 0 0 255 0 0 255 0 0 255 0 0 255 0 0 255 0 0 255 0 0 255 0 0 255 0 0 255 0 0 255 0 0 255 0 0 255 0 0 255 0 0 255 0 0 255 0 0 254 0 0 255 0 0 255 0 0 255 0 0 255 0 0 255 0 0 255 0 0 255 0 0 255 0 0 255 0 0 255 0 0 255 0 0 255 0 0 255 0 0 255 0 0 255 0 0 255 0 0 255 0 0 255 0 0 255 15 90 187 44 86 188 72 80 188 100 74 188 127 68 188 156 62 188 182 57 187 209 51 188 236 44 187 8 38 187 35 33 187 61 28 188 87 22 188 113 17 188 139 12 187 165 7 188 189 1 187 203 248 187 213 238 187 222 228 187 231 218 188 241 208 188 250 198 188 2 189 188 11 179 188 20 169 188 29 160 188 39 149 188 48 139 188 56 128 187 68 120 188 76 109 188 85 99 188 95 90 188 104 80 187 113 70 188 123 60 188 131 50 187 140 40 187 151 30 188 161 21 188 169 10 187 179 0 188 189 247 188 199 237 187 208 228 188 217 217 188 227 208 188 236 198 187 245 188 187 76 0 187 93 4 188 2 158 187 11 148 187 20 138 188 30 128 187 38 118 187 48 108 187 59 100 188 67 89 187 76 79 188 87 69 188 95 59 187 104 49 188 114 39 187 123 29 188 132 19 188 142 9 188 151 0 187 161 247 187 171 238 188 182 229 188 190 218 188 199 208 188 209 198 188 218 189 188 227 178 188 238 168 188 246 158 187 106 0 187 7 137 188 16 127 187 25 118 187 35 108 188 43 97 187 53 88 188 63 77 187 72 67 187 81 58 188 91 48 188 100 38 188 109 27 187 120 20 188 128 9 188 124 5 188 143 0 187 156 248 187 164 237 187 175 228 188 185 218 188 193 207 187 202 198 187 213 189 188 220 177 187 231 168 187 240 159 188 249 149 188 1 139 188 10 129 187 20 119 187 28 108 187 38 99 187 47 89 188 56 79 187 66 70 188 75 60 188 85 50 188 94 40 187 103 30 187 114 21 188 122 10 188 130 0 187 141 246 187 152 237 188 161 228 188 170 217 187 179 207 187 188 198 187 198 188 187 208 178 188 217 168 187 225 157 187 235 148 187 245 138 188 254 128 187 147 4 188 9 109 188 17 99 187 27 89 187 37 79 188 46 69 187 55 59 188 64 49 188 74 39 188 82 29 187 92 19 188 102 10 187 111 0 187 122 247 187 131 237 187 141 229 188 150 218 188 160 208 188 170 199 188 178 188 188 189 178 188 197 167 187 206 160 188 216 149 187 224 138 187 234 129 187 244 119 187 253 109 187 5 99 188 14 88 187 23 78 187 33 68 188 43 59 188 51 48 187 61 40 188 70 29 188 79 19 187 88 9 188 0 0 255 0 0 255 0 0 255 0 0 255 0 0 255 0 0 255 0 0 255 0 0 254 0 0 255 0 0 255 0 0 255 0 0 255 0 0 255 0 0 255 0 0 255 0 0 255 0 0 255 0 0 255 0 0 255 0 0 255 0 0 255 0 0 255 1 1 255 0 0 255 0 0 255 0 0 255 0 0 255 0 0 255 0 0 255 0 0 255 1 1 255 0 0 255 0 0 255 0 0 255 0 0 255 0 0 255 0 0 255 0 0 255 0 0 254 0 0 255 1 1 255 0 0 255 0 0 255 0 0 255 0 0 255 0 0 255 0 0 255 0 0 255 0 0 255 0 0 255 0 0 255 0 0 255 0 0 255 1 1 255 1 1 255 0 0 255 0 0 255 0 0 255 0 0 255 0 0 255 0 0 255 0 0 255 0 0 255 0 0 255 0 0 255 0 0 255 0 0 255 0 0 255 0 0 255 0 0 255 0 0 255 0 0 255 0 0 254 0 0 255 1 1 255 0 0 255 0 0 255 0 0 255 0 0 255 0 0 255 0 0 255 0 0 255 12 107 187 41 101 188 68 94 187 97 89 187 125 83 188 152 76 187 180 72 187 207 66 188 233 60 187 6 53 187 33 48 188 59 43 188 85 37 188 111 32 187 136 26 188 163 22 188 187 16 188 212 10 187 237 5 187 3 0 187 14 245 187 22 236 187 32 226 188 41 216 187 51 206 187 60 196 188 69 187 187 77 176 187 88 167 188 97 157 187 107 147 188 116 138 188 125 128 187 135 119 188 143 108 187 152 98 188 162 89 188 171 79 188 180 69 188 188 59 187 199 49 187 207 39 187 217 30 188 226 20 187 236 10 188 245 0 188 8 0 187 25 3 188 2 227 188 12 217 187 21 207 187 30 199 188 39 188 188 48 178 188 58 168 188 68 160 188 76 149 187 85 139 188 95 129 188 104 119 188 113 110 188 122 100 188 132 90 188 141 80 187 150 70 187 159 61 188 169 51 187 179 42 188 187 31 188 196 22 188 206 11 188 215 2 187 226 250 188 235 240 188 244 230 188 254 220 187 5 209 187 14 198 187 25 191 188 33 180 187 42 170 187 51 160 188 61 150 187 70 140 188 78 130 187 88 121 188 97 110 187 107 101 187 117 92 188 125 82 188 133 72 187 144 62 187 153 52 188 162 42 188 171 33 188 181 23 187 189 12 187 199 3 187 201 3 187 217 252 187 228 242 188 236 233 188 245 223 187 42 1 188 6 203 188 15 194 187 25 184 187 35 175 188 43 163 187 52 154 188 63 145 188 71 135 187 79 124 187 89 115 187 99 105 188 108 95 187 117 86 187 126 76 187 136 66 188 145 56 187 154 46 187 163 37 188 173 27 188 182 17 188 191 7 188 202 254 187 211 244 188 219 234 187 229 224 187 239 215 188 247 204 187 62 1 188 2 185 188 11 175 188 21 166 188 30 156 188 39 146 187 49 137 188 58 126 187 67 117 188 77 108 188 85 97 188 95 87 187 104 77 188 113 68 188 122 58 188 132 48 188 141 38 187 150 28 188 159 19 187 169 9 187 178 0 187 189 247 187 198 237 187 206 226 187 217 218 188 226 208 188 235 198 188 245 189 188 254 178 188 5 167 188 14 157 187 24 148 187 33 138 187 41 127 187 51 118 187 59 108 187 70 99 187 79 89 188 88 79 187 97 69 188 107 59 188 116 49 188 125 40 187 134 30 187 144 20 188 153 10 187 162 0 187 0 0 255 0 0 255 0 0 255 0 0 255 0 0 255 0 0 255 0 0 254 0 0 255 0 0 255 0 0 255 0 0 255 0 0 255 0 0 255 0 0 255 0 0 255 0 0 255 0 0 255 0 0 255 0 0 255 0 0 255 0 0 255 0 0 255 0 0 255 0 0 255 0 0 255 0 0 255 0 0 255 0 0 255 0 0 255 1 1 255 0 0 255 0 0 255 0 0 255 0 0 255 0 0 255 0 0 255 0 0 255 0 0 255 0 0 254 1 1 255 0 0 255 0 0 255 0 0 255 0 0 255 0 0 255 0 0 255 1 1 255 0 0 255 0 0 255 0 0 255 0 0 255 0 0 255 0 0 255 0 0 255 1 1 255 0 0 255 0 0 255 0 0 255 0 0 255 0 0 255 0 0 255 0 0 255 0 0 255 0 0 254 0 0 255 0 0 255 0 0 255 0 0 255 0 0 255 1 1 255 0 0 255 0 0 255 0 0 255 0 0 255 0 0 255 1 1 255 1 1 255 9 123 188 38 117 188 66 110 188 94 104 188 122 99 187 149 93 187 178 88 188 204 81 187 231 75 188 4 69 187 30 63 188 55 56 187 82 52 188 107 45 187 134 42 188 159 35 187 185 30 188 210 25 188 235 19 188 1 14 187 26 9 188 50 4 188 72 254 188 81 242 187 90 233 188 99 224 188 108 214 187 117 205 188 127 194 188 136 184 187 145 175 188 154 165 188 163 156 188 172 146 187 183 137 188 191 126 188 200 117 187 209 107 188 217 97 187 228 88 188 237 78 188 246 67 187 196 0 188 212 3 188 3 40 187 13 30 188 22 22 188 32 12 188 40 1 188 50 248 188 58 237 187 67 228 188 76 217 187 85 208 188 94 198 187 105 189 188 113 179 188 121 168 187 131 159 188 140 150 188 149 140 187 160 130 188 168 120 188 177 111 188 186 101 187 195 91 188 204 81 187 214 73 188 223 62 187 233 53 188 241 43 188 249 33 187 5 23 188 14 13 188 23 4 188 31 251 188 40 241 188 49 231 188 58 221 187 68 212 188 77 202 187 87 193 188 95 182 188 104 173 187 113 164 188 123 153 187 132 144 188 141 134 187 150 124 187 159 114 188 168 105 187 177 95 187 187 85 187 196 75 188 205 66 188 214 56 188 223 46 187 232 37 187 242 27 188 250 17 187 5 7 187 0 4 187 18 0 187 30 247 188 40 238 188 48 229 188 57 217 187 66 207 187 75 199 188 85 189 187 94 179 188 103 169 188 112 160 187 121 150 188 131 140 188 140 131 188 149 121 187 159 112 188 167 101 187 176 92 187 185 82 187 196 72 188 204 62 187 213 53 187 222 43 188 231 33 187 240 24 187 250 15 188 0 2 188 5 250 187 14 240 187 23 232 188 33 223 188 42 212 187 52 202 188 60 194 188 69 182 187 78 173 187 87 164 188 96 153 187 106 144 188 115 134 188 124 125 188 133 115 187 141 105 187 152 94 187 161 86 188 170 76 187 179 66 187 189 57 188 197 47 187 207 37 188 216 27 188 225 18 188 235 9 188 244 0 188 254 246 187 6 235 187 15 226 188 24 216 187 33 206 187 41 195 187 51 187 187 61 177 187 71 168 188 79 157 187 88 148 187 97 138 188 107 128 188 116 119 188 125 109 188 134 99 187 143 89 188 153 80 188 161 70 188 171 60 187 180 51 188 189 41 188 198 31 188 207 21 188 217 13 188 226 2 188 0 0 255 0 0 255 0 0 255 0 0 254 0 0 255 0 0 255 0 0 254 0 0 255 0 0 255 0 0 255 0 0 255 1 1 255 0 0 255 0 0 255 0 0 255 1 1 255 0 0 255 0 0 255 0 0 255 0 0 255 1 1 255 0 0 255 0 0 255 1 1 255 0 0 255 0 0 255 0 0 254 1 1 255 0 0 255 0 0 254 0 0 255 0 0 255 0 0 255 0 0 255 0 0 255 0 0 255 0 0 255 0 0 255 0 0 255 0 0 254 0 0 255 0 0 255 0 0 254 0 0 255 0 0 255 0 0 255 0 0 255 0 0 255 1 1 255 0 0 255 0 0 255 0 0 255 0 0 255 0 0 255 1 1 255 0 0 255 0 0 254 0 0 255 0 0 255 0 0 255 0 0 255 0 0 255 0 0 255 1 1 255 0 0 254 0 0 255 0 0 255 0 0 255 0 0 255 0 0 255 0 0 255 0 0 255 0 0 254 6 137 187 35 132 187 63 126 188 92 121 188 119 114 187 147 108 188 175 102 188 202 96 188 228 90 188 1 84 188 29 79 188 54 72 187 80 67 188 106 61 188 132 55 188 157 50 187 182 45 187 208 39 188 233 34 188 1 29 187 24 23 187 48 18 187 72 13 188 96 8 187 120 2 188 137 249 187 147 241 188 155 231 187 165 221 187 174 212 188 183 202 188 192 193 187 202 183 188 210 173 188 219 164 188 228 154 188 237 144 188 247 135 188 129 0 187 146 3 188 4 107 188 14 97 188 22 88 188 31 78 187 40 68 188 49 59 188 58 49 188 68 40 188 77 30 187 86 20 188 95 11 188 103 0 187 112 247 187 121 237 187 131 227 188 139 217 187 149 208 188 158 198 187 167 189 188 177 180 188 185 170 187 193 160 187 204 151 188 213 141 188 221 131 187 230 120 187 240 112 188 249 102 187 2 91 187 12 83 188 21 73 187 30 63 188 39 54 188 48 44 188 57 35 187 67 25 188 76 15 188 85 6 187 92 253 187 101 242 187 111 233 187 120 224 188 129 214 188 138 205 188 146 195 187 156 185 187 165 175 188 174 165 187 183 156 187 192 147 187 202 137 188 211 127 187 220 118 188 229 108 187 238 98 187 247 90 188 1 79 187 10 69 188 19 59 187 29 51 188 38 41 188 46 31 188 54 21 187 64 11 187 73 2 188 74 2 188 89 252 187 98 241 187 107 232 187 116 223 187 125 212 187 134 203 188 144 194 188 153 184 187 162 175 188 171 165 187 181 156 188 189 146 187 198 136 188 207 126 187 216 117 187 225 107 188 233 96 187 242 88 187 253 78 188 193 2 187 8 60 188 17 51 187 27 41 188 37 31 188 45 22 187 54 12 188 63 2 188 70 247 187 79 238 187 90 229 187 98 218 187 108 209 188 117 200 187 126 191 188 135 180 188 144 171 187 153 161 188 162 152 188 171 142 187 180 132 187 189 123 187 199 113 188 207 103 187 217 94 187 226 84 187 235 75 188 244 65 188 254 55 188 7 46 187 18 37 188 26 26 187 35 17 188 44 7 187 52 254 187 60 244 187 70 235 188 79 225 187 88 215 188 97 206 187 106 195 187 115 187 188 124 177 187 133 167 188 142 158 187 150 148 187 161 138 188 170 129 187 179 119 187 188 109 187 197 99 187 206 90 188 215 80 187 224 71 188 233 61 188 241 51 187 251 43 188 232 3 188 0 0 255 0 0 255 0 0 255 0 0 255 0 0 255 0 0 255 0 0 255 0 0 255 0 0 254 0 0 255 0 0 255 0 0 255 0 0 255 0 0 255 0 0 255 0 0 255 1 1 255 0 0 255 0 0 255 0 0 255 0 0 255 0 0 255 0 0 254 0 0 255 0 0 255 0 0 255 0 0 255 1 1 255 0 0 255 0 0 255 0 0 255 0 0 255 0 0 254 0 0 255 0 0 255 1 1 255 0 0 254 0 0 255 0 0 255 0 0 255 0 0 255 0 0 255 0 0 255 0 0 255 0 0 254 0 0 255 0 0 255 0 0 255 0 0 255 0 0 255 0 0 255 1 1 255 0 0 255 0 0 255 0 0 255 1 1 255 0 0 255 0 0 255 0 0 255 0 0 255 0 0 255 0 0 255 0 0 255 0 0 255 0 0 255 0 0 255 0 0 255 0 0 255 0 0 255 0 0 255 0 0 254 0 0 255 3 154 187 32 148 187 60 142 187 88 135 187 116 129 188 144 123 188 171 117 188 199 111 187 227 106 188 252 100 187 26 94 188 50 86 187 78 81 188 104 76 188 129 69 187 156 65 188 180 59 188 205 54 188 231 48 188 0 42 187 22 37 187 46 32 188 70 27 187 94 22 187 118 16 187 142 11 188 165 6 188 189 1 187 202 248 188 211 238 188 220 229 188 229 219 187 237 209 187 247 200 188 65 0 187 81 3 187 5 174 188 13 164 188 22 153 187 31 143 187 41 134 187 50 125 188 59 115 187 67 106 187 77 96 188 85 86 187 95 78 188 104 68 188 113 58 188 123 49 188 131 39 187 140 29 188 149 20 187 157 10 187 167 1 187 175 246 188 184 237 188 193 227 187 203 218 188 211 208 188 220 199 188 230 189 188 238 181 188 247 170 187 1 160 188 10 151 188 19 141 187 27 131 187 37 122 188 46 113 187 55 103 187 64 94 187 73 84 188 83 75 188 91 65 187 100 56 188 109 46 188 118 36 187 127 27 188 136 17 188 146 9 188 153 0 187 162 245 188 172 237 188 180 226 188 189 216 188 198 207 188 207 196 187 216 188 188 225 178 188 234 169 187 243 159 187 252 150 187 6 140 188 15 130 188 24 120 187 33 111 188 42 101 187 51 92 188 61 83 188 69 73 188 77 63 187 87 54 187 96 44 188 106 35 188 114 25 187 124 15 188 132 6 187 128 4 187 146 0 188 157 247 188 166 238 188 174 227 188 183 218 188 192 208 188 202 200 188 210 189 188 219 180 187 228 170 188 237 160 187 246 151 187 113 0 187 1 132 187 11 124 187 20 114 188 29 104 188 38 95 188 47 85 187 56 76 187 65 66 188 74 57 187 83 47 188 93 39 188 101 28 187 110 18 188 119 9 188 128 0 188 137 245 188 146 235 187 155 226 188 164 217 188 173 207 188 183 198 188 191 188 188 200 178 188 209 169 187 218 159 188 227 150 188 236 140 187 246 131 188 254 121 187 8 111 188 17 102 188 26 92 188 35 83 187 44 73 188 53 64 187 62 54 188 71 44 188 81 36 188 89 25 188 98 16 187 107 6 187 115 253 187 124 244 187 134 235 188 142 225 188 150 214 187 161 205 188 169 196 187 178 186 187 187 177 187 196 167 188 205 158 188 214 148 187 223 139 188 232 129 188 241 119 188 250 111 188 161 2 188 185 7 187 210 12 187 235 17 187 1 1 255 0 0 255 0 0 255 0 0 254 0 0 254 0 0 255 0 0 255 0 0 255 0 0 255 0 0 254 0 0 255 1 1 255 0 0 255 0 0 255 0 0 255 0 0 255 0 0 255 1 1 255 0 0 255 0 0 255 0 0 255 0 0 255 0 0 255 0 0 255 0 0 255 0 0 255 1 1 255 0 0 255 0 0 255 0 0 255 0 0 255 0 0 254 0 0 255 0 0 255 0 0 255 0 0 254 0 0 255 0 0 255 0 0 255 0 0 255 0 0 255 0 0 255 0 0 255 1 1 255 0 0 255 0 0 255 0 0 255 0 0 255 1 1 255 0 0 255 0 0 255 0 0 255 1 1 255 0 0 255 0 0 254 1 1 255 0 0 255 0 0 255 0 0 255 1 1 255 0 0 255 0 0 255 0 0 255 0 0 255 0 0 255 0 0 255 0 0 255 1 1 255 0 0 255 0 0 255 0 0 255 0 0 255 0 170 188 28 163 187 57 157 188 84 150 187 113 145 188 141 139 188 169 133 188 196 127 188 223 121 188 250 116 188 22 108 187 49 101 187 75 96 188 101 91 187 126 85 187 153 79 187 178 74 187 203 67 187 228 63 187 254 58 188 20 52 188 44 46 188 68 41 187 92 36 187 117 31 188 140 25 187 164 20 188 187 15 188 210 10 187 233 5 187 0 0 187 16 4 188 5 237 187 14 228 187 23 218 188 32 209 187 41 199 188 50 190 187 59 180 188 68 171 188 75 161 187 85 152 187 94 143 188 103 133 188 112 124 187 121 113 187 130 105 187 138 94 187 148 86 187 157 76 188 166 67 187 175 57 188 185 49 188 191 37 187 202 30 188 210 19 187 219 10 187 228 1 187 237 246 187 246 237 187 255 228 188 9 218 187 18 208 188 27 199 188 35 188 187 45 181 188 53 171 188 62 161 188 71 152 187 80 142 188 90 133 188 98 124 188 107 114 188 116 104 187 125 95 188 134 85 187 144 76 188 151 66 188 160 57 188 169 47 188 178 38 187 187 28 187 196 19 188 205 10 188 214 0 188 222 247 188 232 239 188 239 228 188 248 219 188 2 209 188 11 199 188 20 191 188 29 180 187 38 171 187 47 162 187 57 153 188 64 143 187 72 132 187 82 124 187 91 114 187 100 105 188 109 95 188 118 86 187 126 75 187 136 68 188 144 56 187 154 49 188 164 39 188 172 29 188 182 19 188 189 10 188 198 0 188 201 2 188 214 250 187 223 241 187 233 233 188 239 222 187 249 213 187 55 1 188 5 195 188 14 186 187 23 175 187 32 167 187 41 158 188 50 148 187 60 139 188 67 129 187 76 120 187 85 110 188 94 101 187 103 91 188 112 82 188 121 72 188 130 63 188 139 53 188 149 44 188 157 34 188 166 25 187 175 15 188 183 6 188 192 253 188 201 242 187 210 233 188 219 223 188 229 214 188 236 204 187 245 195 187 254 185 188 10 176 188 17 166 188 26 157 188 35 147 187 44 138 187 53 129 188 62 119 188 71 110 188 80 100 188 89 91 188 99 82 188 107 72 187 117 62 188 125 53 187 135 44 188 142 34 188 151 24 188 160 15 188 169 5 187 177 253 187 186 242 187 195 234 188 205 225 188 213 215 188 222 205 187 230 196 187 238 186 187 248 177 188 91 1 187 115 6 188 139 11 187 164 16 187 188 21 188 212 26 187 238 31 187 0 0 254 1 1 255 0 0 255 0 0 255 0 0 255 0 0 255 0 0 255 0 0 255 0 0 255 0 0 255 0 0 255 0 0 255 0 0 255 0 0 255 0 0 255 0 0 255 0 0 255 0 0 255 0 0 255 0 0 255 0 0 255 0 0 255 0 0 255 0 0 255 0 0 255 1 1 255 0 0 255 0 0 255 0 0 255 0 0 255 0 0 255 0 0 255 0 0 255 0 0 255 0 0 255 0 0 255 0 0 255 0 0 255 0 0 255 0 0 255 0 0 255 0 0 254 0 0 255 0 0 255 0 0 255 0 0 255 0 0 254 0 0 255 0 0 255 0 0 255 0 0 255 0 0 255 0 0 255 0 0 255 0 0 255 0 0 255 0 0 255 0 0 255 0 0 255 0 0 255 0 0 255 0 0 254 0 0 255 0 0 255 0 0 255 0 0 255 0 0 255 0 0 255 0 0 255 0 0 255 0 0 255 1 1 255 0 0 255 25 179 187 54 173 187 82 166 188 110 160 188 138 154 188 165 147 187 193 142 187 220 136 187 247 130 188 20 123 188 46 117 188 73 111 188 99 105 187 125 100 188 149 93 187 176 88 187 201 83 188 227 77 188 251 72 188 18 67 188 42 61 187 66 55 188 90 49 187 115 45 187 137 38 187 162 34 188 185 29 187 209 24 188 233 19 188 0 14 187 7 10 188 28 4 187 50 254 187 58 244 187 68 236 188 77 227 188 85 216 187 94 207 188 103 197 187 112 188 188 121 179 187 129 169 188 138 160 188 147 151 188 156 141 187 166 132 188 174 121 187 183 113 187 190 104 187 200 94 188 209 85 188 218 75 187 228 67 188 236 57 187 245 47 187 253 38 188 6 27 187 14 17 187 23 8 187 32 0 187 42 246 188 51 237 188 60 227 187 69 218 188 78 209 187 87 199 188 95 190 188 104 180 188 112 171 187 122 162 187 130 152 187 141 144 188 149 133 187 157 124 188 166 115 187 175 105 188 184 96 187 193 87 187 202 77 187 211 68 188 219 58 188 228 49 188 237 40 187 246 30 187 233 0 188 5 10 187 15 2 187 26 249 188 34 239 187 42 230 188 51 220 187 61 212 188 69 202 188 78 192 187 87 183 187 96 174 188 104 164 187 112 155 187 122 146 188 130 136 187 140 127 187 149 117 188 157 108 187 166 99 187 175 89 187 184 80 187 193 70 187 201 60 187 211 52 187 219 42 188 228 33 188 236 22 187 246 14 188 249 0 187 252 4 188 6 0 188 17 247 187 24 238 187 34 228 187 43 218 187 52 209 188 61 200 188 70 191 187 79 182 188 87 172 187 96 163 187 105 153 187 114 144 187 123 134 187 132 125 187 140 116 187 149 106 188 158 97 187 167 87 188 176 78 187 185 69 187 194 59 188 202 51 188 211 40 188 220 31 188 229 22 188 239 12 188 247 3 188 0 249 187 9 239 187 18 230 187 27 221 187 36 211 187 44 202 188 53 192 188 62 183 188 71 174 187 80 164 187 89 155 187 98 145 187 106 136 187 115 127 188 124 117 188 134 109 188 142 98 187 151 89 188 159 79 187 168 70 187 178 62 188 186 52 188 195 42 187 205 34 188 213 23 187 222 14 187 231 5 188 238 253 188 247 242 188 23 0 187 46 5 187 70 10 188 94 15 188 118 20 187 142 25 187 166 29 187 191 35 188 216 41 188 241 46 187 0 0 255 0 0 255 0 0 255 0 0 255 0 0 255 0 0 254 0 0 255 0 0 255 0 0 255 0 0 255 0 0 255 0 0 255 1 1 255 0 0 255 0 0 255 0 0 255 0 0 255 0 0 255 0 0 255 0 0 255 0 0 255 0 0 255 0 0 255 0 0 255 0 0 255 0 0 255 0 0 255 0 0 255 0 0 255 0 0 254 0 0 255 0 0 255 0 0 255 0 0 255 0 0 255 0 0 255 0 0 255 0 0 255 0 0 255 0 0 254 0 0 255 0 0 255 0 0 255 0 0 255 0 0 255 0 0 255 0 0 255 0 0 255 0 0 255 0 0 255 0 0 255 0 0 255 0 0 255 0 0 255 0 0 255 0 0 255 0 0 255 0 0 255 0 0 255 0 0 255 0 0 255 0 0 255 0 0 255 1 1 255 0 0 255 0 0 255 0 0 255 0 0 255 0 0 255 1 1 255 0 0 255 0 0 254 1 1 255 21 195 187 51 188 188 79 182 187 107 176 187 135 170 187 164 164 188 190 157 188 218 151 188 245 145 188 16 137 187 45 133 188 70 126 187 96 120 187 122 116 188 148 109 187 174 103 188 199 97 188 224 92 188 249 86 187 16 81 187 39 74 187 65 70 188 89 64 187 113 59 188 136 54 187 160 48 188 184 43 187 207 38 187 231 33 188 253 27 187 4 23 187 27 17 187 50 14 188 72 8 188 94 3 188 112 251 188 120 242 187 129 233 187 138 224 188 147 214 188 156 206 188 165 196 188 172 186 187 182 177 188 190 168 187 198 158 187 208 150 188 217 140 188 225 130 188 235 122 188 243 112 187 252 103 187 3 91 187 13 82 188 21 72 187 30 64 187 39 55 188 47 44 187 57 36 188 66 27 188 73 17 187 82 7 187 92 0 188 102 246 187 112 238 188 119 227 187 128 218 188 137 209 187 146 199 188 155 190 188 164 182 188 172 172 188 181 162 188 190 152 187 198 144 187 207 134 188 216 125 187 225 116 187 234 106 188 241 96 187 251 89 188 2 78 188 11 69 187 20 60 188 28 51 188 37 41 187 45 31 187 55 23 187 63 13 188 72 4 187 82 251 188 91 242 188 100 232 188 109 223 187 117 214 187 126 204 188 135 195 188 144 186 188 152 176 187 161 167 187 169 157 187 179 148 188 189 139 188 195 130 187 205 120 188 213 111 187 223 102 188 231 92 187 240 83 188 249 74 188 194 1 188 4 58 188 12 48 188 22 39 188 29 29 188 38 20 187 47 11 187 56 1 188 58 2 187 72 251 188 81 242 188 89 233 188 98 224 188 107 214 187 117 206 188 125 196 188 133 186 188 142 177 188 150 167 187 160 158 188 167 148 187 177 140 187 186 130 188 195 120 187 203 112 187 212 102 188 221 93 188 230 84 187 239 74 187 247 65 188 0 54 188 8 45 188 17 36 187 27 27 188 35 17 188 43 8 188 52 0 187 61 245 187 71 237 188 80 227 187 89 218 187 97 209 188 106 199 188 115 190 188 124 181 187 132 171 187 141 162 188 150 153 187 160 143 188 167 134 187 176 125 187 185 116 187 194 106 188 203 97 187 212 89 188 220 78 187 229 69 187 239 60 188 247 50 188 214 0 188 237 5 188 2 9 188 25 14 187 49 19 188 73 24 187 97 29 188 121 34 187 145 39 187 170 45 188 195 50 187 219 55 188 244 60 187 0 0 255 0 0 255 0 0 255 0 0 255 0 0 255 0 0 255 0 0 255 0 0 254 0 0 255 0 0 255 0 0 255 0 0 255 0 0 254 0 0 255 0 0 255 0 0 255 0 0 255 0 0 255 0 0 255 0 0 255 0 0 255 0 0 255 0 0 255 0 0 255 0 0 254 0 0 255 0 0 255 0 0 255 0 0 255 0 0 255 0 0 255 0 0 255 0 0 255 1 1 255 0 0 255 0 0 255 0 0 255 0 0 255 1 1 255 0 0 255 0 0 255 0 0 255 0 0 255 0 0 255 0 0 255 0 0 255 0 0 255 0 0 255 0 0 254 0 0 255 0 0 254 0 0 255 1 1 255 0 0 255 0 0 255 0 0 255 0 0 255 1 1 255 0 0 255 0 0 255 1 1 255 0 0 255 0 0 255 0 0 255 0 0 255 0 0 255 0 0 255 0 0 255 0 0 255 0 0 255 0 0 255 0 0 255 0 0 255 19 211 187 47 203 187 76 198 187 104 191 188 132 185 188 159 179 187 188 173 187 215 165 187 241 159 187 15 153 188 41 147 187 68 141 188 94 135 188 120 129 187 146 124 187 171 118 188 197 112 188 222 106 188 246 100 187 14 95 188 38 90 188 63 84 187 86 78 187 111 73 188 135 68 188 158 62 187 183 58 188 204 52 187 229 46 188 251 41 188 3 37 188 25 32 188 48 26 188 70 21 188 92 16 187 115 12 188 135 5 187 158 2 188 172 249 188 181 240 188 189 231 188 198 221 187 207 212 187 215 203 187 224 194 188 233 185 187 242 175 187 250 166 188 1 154 187 12 146 188 20 137 188 30 129 188 37 118 187 46 109 188 55 100 187 63 91 187 73 83 188 81 72 188 89 63 187 98 54 188 108 45 188 116 35 187 124 26 187 132 16 187 141 7 187 150 0 187 161 247 188 169 238 188 178 227 188 186 217 187 195 209 187 204 200 187 212 190 187 220 180 187 230 171 187 239 163 187 247 154 188 112 1 188 7 135 188 17 127 188 24 117 187 32 106 187 42 98 188 52 90 188 58 79 187 68 71 188 77 61 188 85 52 187 94 43 187 104 35 188 111 24 187 119 14 187 129 6 187 139 253 187 147 244 188 156 234 187 165 225 187 174 216 187 182 207 187 191 198 188 200 188 188 208 179 188 217 170 188 226 160 188 235 151 188 243 142 187 252 133 187 137 2 188 6 116 187 14 107 188 22 97 187 32 88 188 41 79 188 49 70 187 58 61 188 67 51 187 75 42 187 85 34 188 93 24 187 101 15 188 110 5 187 109 4 188 125 0 188 135 246 187 145 238 188 152 228 187 161 219 187 170 209 187 178 200 188 186 190 187 196 182 187 205 173 187 213 163 188 221 153 187 231 144 187 239 136 188 248 126 188 0 116 187 9 106 188 18 97 188 26 88 187 36 79 188 44 70 187 51 59 187 61 51 188 70 42 188 79 33 187 87 23 187 96 14 188 105 5 187 115 252 187 123 243 188 132 234 187 141 226 188 148 214 187 158 206 188 167 197 187 176 189 188 185 179 188 193 168 187 202 160 187 210 151 188 219 141 187 228 132 188 237 124 188 245 114 187 254 105 187 171 4 188 194 9 188 218 14 188 240 19 188 4 22 187 28 28 187 52 33 187 76 38 188 100 43 188 124 49 188 149 55 188 173 59 187 199 65 188 223 70 188 248 76 188 0 0 254 0 0 255 1 1 255 0 0 255 0 0 255 0 0 255 0 0 255 0 0 255 0 0 255 0 0 255 0 0 255 0 0 255 0 0 255 0 0 255 0 0 255 0 0 255 0 0 255 0 0 255 0 0 255 0 0 255 0 0 255 0 0 255 0 0 255 0 0 255 0 0 255 1 1 255 0 0 255 0 0 255 0 0 255 0 0 255 0 0 255 0 0 255 0 0 255 0 0 255 0 0 255 0 0 255 0 0 255 0 0 255 0 0 255 0 0 254 0 0 255 1 1 255 0 0 255 0 0 255 0 0 255 0 0 255 0 0 255 0 0 255 1 1 255 0 0 255 0 0 255 0 0 255 0 0 255 0 0 255 0 0 255 0 0 255 0 0 255 0 0 255 0 0 255 0 0 255 0 0 255 0 0 255 0 0 255 0 0 255 0 0 255 0 0 255 0 0 255 1 1 255 0 0 255 0 0 255 0 0 255 0 0 255 0 0 255 17 228 188 45 220 188 73 214 188 102 207 187 130 202 188 158 194 188 184 188 187 212 182 188 239 176 188 13 169 188 39 162 188 65 156 187 92 150 187 119 145 188 143 138 188 169 133 188 194 127 188 220 121 187 245 115 188 11 110 188 37 105 188 61 98 188 85 93 188 109 87 187 133 82 187 157 77 188 180 71 188 203 66 188 227 60 188 249 54 187 1 51 187 25 46 188 47 41 188 69 35 187 91 30 188 114 26 188 135 20 188 157 15 187 178 10 187 199 5 188 221 0 188 232 247 188 240 238 187 248 229 187 2 218 188 9 209 188 18 200 187 27 190 187 35 181 188 44 172 188 53 163 188 61 154 187 70 145 187 78 136 188 87 126 187 96 117 187 104 108 188 113 99 188 122 90 187 130 81 188 139 71 187 149 62 188 155 53 187 165 43 187 173 35 188 183 26 188 191 18 188 198 7 187 209 0 188 218 246 188 228 237 188 235 227 187 244 217 187 253 209 188 2 199 187 12 191 188 21 182 188 28 172 187 38 163 187 46 154 188 55 145 187 65 137 188 73 127 188 81 118 188 90 109 187 98 99 187 108 90 188 114 80 187 124 72 187 133 64 188 141 54 187 150 44 187 160 35 188 167 26 187 176 17 188 185 8 187 194 0 188 203 246 187 212 236 187 220 227 187 229 218 187 236 208 187 246 200 187 64 0 188 0 183 187 9 175 188 17 165 187 26 156 188 35 147 188 43 137 188 52 128 188 60 119 187 69 110 188 77 101 188 86 92 187 94 82 187 102 72 187 112 64 188 121 55 187 129 46 187 138 37 188 146 28 188 155 18 188 165 10 188 172 0 187 175 2 187 188 251 188 197 242 187 206 232 188 214 223 187 223 214 187 231 205 187 240 196 188 248 186 187 1 176 188 9 167 188 18 158 188 27 148 187 35 139 188 44 130 188 54 122 188 61 112 187 69 102 187 79 94 188 87 84 187 96 75 188 104 66 187 113 57 187 122 48 187 130 39 188 138 28 187 148 20 188 156 11 188 165 2 188 175 250 188 183 240 187 192 231 188 201 222 187 209 213 187 218 204 188 226 195 188 235 185 187 244 176 188 252 166 187 106 3 188 128 8 188 151 13 188 174 17 187 196 23 188 219 28 187 242 33 187 7 37 188 31 42 188 55 47 188 79 52 187 104 58 188 127 63 188 150 68 187 176 73 188 201 79 188 226 84 187 251 89 188 0 0 255 0 0 255 0 0 255 0 0 255 0 0 254 0 0 255 0 0 255 0 0 254 0 0 255 0 0 255 0 0 255 0 0 255 0 0 255 0 0 255 0 0 255 0 0 255 0 0 255 0 0 255 0 0 255 0 0 255 1 1 255 0 0 255 0 0 255 0 0 255 0 0 255 0 0 255 0 0 255 0 0 255 0 0 255 0 0 255 0 0 254 0 0 255 0 0 255 0 0 255 0 0 254 0 0 255 0 0 255 0 0 255 0 0 255 0 0 255 1 1 255 0 0 255 0 0 255 0 0 255 0 0 255 0 0 255 0 0 255 0 0 255 0 0 255 0 0 255 1 1 255 0 0 255 0 0 255 0 0 255 1 1 255 0 0 255 0 0 255 0 0 255 0 0 255 0 0 254 0 0 255 0 0 255 1 1 255 0 0 254 0 0 255 0 0 255 0 0 254 1 1 255 0 0 255 0 0 255 0 0 255 0 0 255 0 0 255 13 242 187 43 237 188 70 230 188 99 223 187 127 217 188 155 210 187 182 204 187 210 197 188 237 190 187 10 184 187 36 178 187 63 171 187 90 166 188 115 159 187 141 153 187 167 147 188 192 142 187 217 136 187 243 130 188 9 124 187 34 119 188 59 113 187 83 107 187 107 102 188 131 96 188 155 91 187 179 86 188 202 80 188 225 73 187 247 69 187 0 64 188 22 59 188 45 54 187 67 49 187 90 45 188 112 38 187 133 34 187 155 29 187 177 24 187 198 18 187 220 14 188 241 9 188 7 3 188 25 252 187 33 243 187 42 234 187 51 225 188 59 216 188 68 207 188 76 198 187 85 189 188 93 180 187 102 171 187 111 161 187 119 152 188 128 143 188 136 134 187 145 125 188 153 116 187 162 108 188 170 98 187 179 89 187 188 80 187 196 71 187 205 62 187 213 54 188 222 43 187 230 34 187 239 25 188 247 15 187 248 0 187 8 0 187 17 246 188 25 237 188 34 228 187 42 219 187 51 209 188 60 200 187 68 191 188 77 183 188 85 173 188 94 164 187 102 155 187 111 146 188 119 137 187 128 128 187 137 119 188 146 111 188 153 99 187 162 91 188 172 82 188 180 73 188 188 64 188 195 54 187 205 46 187 214 37 188 222 28 187 231 19 188 239 10 188 248 1 188 10 1 188 2 240 187 12 232 188 19 221 187 28 213 188 37 204 187 45 195 187 54 186 187 62 177 188 71 168 187 79 159 187 88 149 188 97 140 188 105 130 187 114 122 187 122 113 188 130 104 187 139 95 187 149 87 188 157 77 187 165 68 188 174 59 188 183 51 188 191 41 188 199 31 187 208 22 188 216 13 187 226 5 188 225 3 188 241 1 188 249 246 188 1 235 188 10 226 188 18 217 187 27 208 188 37 200 188 44 191 188 54 182 188 61 172 188 70 163 188 78 153 188 87 145 188 96 135 188 104 126 187 113 117 187 121 108 188 131 100 188 138 90 188 147 81 188 156 73 188 164 63 188 173 54 188 181 45 188 190 35 187 199 26 188 207 17 188 215 8 188 224 0 188 235 247 188 242 238 188 251 229 188 42 2 187 64 7 187 86 12 188 108 17 188 131 22 187 152 25 187 175 30 187 199 36 188 222 41 188 246 48 188 10 51 188 34 56 187 57 61 188 81 66 187 106 72 188 130 77 188 154 82 187 179 88 188 204 93 187 229 99 187 254 104 188 1 1 255 0 0 255 1 1 255 0 0 255 0 0 255 0 0 255 0 0 255 0 0 255 0 0 254 0 0 255 0 0 255 0 0 255 0 0 255 0 0 255 0 0 255 0 0 255 0 0 255 0 0 255 0 0 254 0 0 255 0 0 255 0 0 255 0 0 255 0 0 255 0 0 254 0 0 254 0 0 255 0 0 254 0 0 255 0 0 255 0 0 255 0 0 255 0 0 255 0 0 255 0 0 255 0 0 255 0 0 255 0 0 255 0 0 254 0 0 255 0 0 255 0 0 255 0 0 255 0 0 255 0 0 255 0 0 255 0 0 255 0 0 254 0 0 255 0 0 255 0 0 254 0 0 255 0 0 255 0 0 255 0 0 255 0 0 255 0 0 255 0 0 255 0 0 255 0 0 255 1 1 255 0 0 255 0 0 255 0 0 255 1 1 255 0 0 255 0 0 255 0 0 255 0 0 255 0 0 255 0 0 255 0 0 255 0 0 255 0 0 255 39 253 188 67 245 188 96 239 188 124 233 188 153 227 188 179 219 188 208 213 188 235 206 188 7 199 187 34 194 188 60 187 188 87 180 188 113 174 187 139 168 188 165 162 187 190 156 187 215 150 188 240 145 187 8 139 188 32 133 188 57 127 188 81 122 188 106 117 188 129 110 187 153 105 187 177 100 188 201 95 188 223 89 188 246 82 187 10 84 188 22 74 188 43 68 188 66 63 188 88 57 187 110 52 187 131 47 187 153 41 187 176 37 188 197 32 187 218 27 187 240 22 187 6 16 187 27 11 188 48 7 187 68 2 188 83 250 188 91 241 187 99 232 187 109 224 188 116 213 187 125 205 187 134 196 187 142 187 188 151 178 188 159 169 187 167 160 188 175 150 187 184 142 187 194 133 188 201 123 187 210 115 187 217 106 187 227 97 187 235 88 188 244 79 187 253 70 188 3 61 188 11 51 187 20 43 187 29 34 188 37 25 188 45 16 188 53 6 187 64 0 187 72 246 188 81 237 188 90 229 188 98 219 188 106 210 187 114 201 187 123 192 188 132 183 188 140 174 187 149 165 188 158 156 188 166 147 187 174 138 188 183 129 187 191 120 187 200 111 188 208 102 188 217 93 187 225 84 187 234 75 187 242 66 187 250 57 187 211 2 187 3 38 187 12 29 188 20 20 187 29 11 187 36 1 187 47 250 187 56 242 188 64 232 187 73 224 187 82 215 188 90 206 188 99 197 187 107 188 187 116 179 187 124 171 188 132 160 187 141 152 188 149 143 188 158 134 188 165 125 187 175 116 188 183 107 187 192 98 187 200 89 187 208 79 187 217 70 187 226 62 188 234 53 188 243 44 188 251 35 188 2 25 188 10 16 188 19 7 188 18 4 188 34 1 188 45 248 188 53 239 188 61 230 187 70 221 188 78 213 188 87 203 187 95 194 188 103 184 187 113 177 188 121 167 187 129 158 187 138 149 187 145 139 187 155 131 188 163 122 187 172 113 188 180 104 187 189 95 187 197 86 188 206 77 187 214 68 188 223 59 188 231 50 188 240 41 187 247 31 187 234 1 187 0 6 188 22 11 187 43 15 187 66 21 188 89 26 188 112 31 188 133 35 187 156 40 188 180 45 188 201 49 187 225 55 188 248 61 188 13 65 188 37 71 188 60 75 187 84 81 188 108 86 188 133 91 187 157 97 188 183 103 188 207 108 187 232 113 187 0 0 255 1 1 255 0 0 255 0 0 255 0 0 255 0 0 255 0 0 255 0 0 255 0 0 255 0 0 255 0 0 254 0 0 255 0 0 255 0 0 255 0 0 255 0 0 255 0 0 255 0 0 255 1 1 255 0 0 255 0 0 254 0 0 255 1 1 255 0 0 255 0 0 255 0 0 255 0 0 255 0 0 255 0 0 255 0 0 255 0 0 255 0 0 254 0 0 255 0 0 255 1 1 255 0 0 255 0 0 255 0 0 255 0 0 255 0 0 255 0 0 255 0 0 254 0 0 255 0 0 254 0 0 255 0 0 255 0 0 255 0 0 255 0 0 255 0 0 255 0 0 255 0 0 255 1 1 255 0 0 255 0 0 255 1 1 255 0 0 255 0 0 255 0 0 255 0 0 255 0 0 255 0 0 255 0 0 255 0 0 255 0 0 255 1 1 255 0 0 255 0 0 255 0 0 255 0 0 255 0 0 255 0 0 255 0 0 255 0 0 255 7 9 188 36 3 187 54 248 187 93 254 188 121 248 188 149 241 188 177 235 188 204 228 188 231 222 187 4 214 188 31 208 188 58 202 188 84 196 187 110 189 188 136 183 188 162 177 188 188 171 188 214 166 188 238 159 187 5 154 187 30 148 188 55 142 187 79 136 188 103 131 187 126 125 187 151 119 187 175 114 187 198 108 187 222 103 188 245 97 187 10 97 188 19 87 188 42 82 187 64 76 187 87 71 187 109 66 187 131 61 188 153 56 188 175 51 188 196 45 188 217 40 187 238 35 187 6 31 188 26 25 188 47 20 187 67 15 187 88 10 187 108 5 187 128 1 187 139 248 188 149 239 188 156 230 187 165 221 187 174 213 188 181 203 188 190 194 187 198 185 187 207 176 187 215 167 187 224 158 188 233 150 188 239 140 187 249 132 188 134 1 187 9 115 188 16 106 188 25 96 188 34 87 188 41 78 188 51 70 188 57 60 187 67 51 187 75 43 188 84 34 187 92 25 187 100 16 188 110 8 188 119 254 187 127 246 187 135 236 187 144 228 188 152 219 187 161 210 187 169 201 187 178 193 188 187 183 188 194 174 187 203 165 188 212 156 188 220 147 187 228 138 188 237 129 187 245 120 188 253 112 187 159 3 187 6 94 188 14 85 188 22 75 187 31 67 187 40 58 187 48 49 188 56 40 188 65 31 188 73 22 187 82 13 188 90 4 187 101 254 188 109 244 187 118 236 188 125 225 187 134 218 188 141 208 187 151 200 188 160 191 188 167 182 187 176 173 187 185 164 188 193 155 187 201 146 188 210 137 188 217 127 187 227 119 188 235 110 188 244 101 187 252 92 188 2 81 187 11 73 187 19 64 188 27 54 187 36 47 188 45 38 187 53 29 187 61 20 188 70 11 188 79 3 188 81 1 187 95 253 187 104 244 188 112 235 187 120 227 188 129 217 187 137 208 187 146 199 188 154 190 187 163 181 188 171 171 187 179 163 187 188 154 188 196 145 188 205 136 188 212 128 187 220 118 187 231 111 188 238 101 188 247 92 188 172 0 188 193 5 188 214 9 188 236 14 187 3 20 187 24 24 187 46 29 188 68 35 188 91 39 187 113 44 187 135 49 187 158 54 187 181 59 188 204 64 187 227 69 187 251 75 188 16 79 188 39 85 188 64 90 188 87 95 187 111 100 188 136 106 188 160 111 187 185 117 188 210 121 187 235 128 187 0 0 255 0 0 255 0 0 255 0 0 255 0 0 255 0 0 255 0 0 255 0 0 255 0 0 255 0 0 255 0 0 255 0 0 255 0 0 255 0 0 255 0 0 255 0 0 255 0 0 255 0 0 255 0 0 255 0 0 255 0 0 255 0 0 255 0 0 255 0 0 255 0 0 255 1 1 255 0 0 255 1 1 255 0 0 255 0 0 255 0 0 255 0 0 255 0 0 255 1 1 255 0 0 255 0 0 255 0 0 255 0 0 255 0 0 255 0 0 255 0 0 255 0 0 255 0 0 255 0 0 255 1 1 255 0 0 255 0 0 255 0 0 255 0 0 255 0 0 255 0 0 255 0 0 255 0 0 255 0 0 255 0 0 255 0 0 255 0 0 255 0 0 255 0 0 255 0 0 255 0 0 255 0 0 255 0 0 255 0 0 255 0 0 255 0 0 255 0 0 255 0 0 254 0 0 255 1 1 255 0 0 255 0 0 255 0 0 255 0 0 255 3 25 187 33 20 188 61 12 188 90 5 187 115 253 187 125 242 188 174 249 187 201 244 187 229 237 187 2 230 187 29 223 188 54 217 187 83 212 188 108 205 188 134 198 187 160 192 187 186 186 188 211 180 187 236 174 188 3 168 188 28 162 187 53 157 188 76 150 187 101 145 187 126 140 188 150 134 188 174 129 188 197 122 188 220 118 188 243 112 188 8 110 187 18 101 188 40 96 188 63 90 188 85 85 188 107 80 187 128 73 187 151 69 188 173 64 187 195 59 188 216 54 188 237 49 188 4 43 187 25 38 187 45 33 187 67 28 188 87 23 187 107 18 187 127 14 187 146 9 187 168 5 188 187 254 188 195 246 187 203 237 188 212 228 187 220 219 188 229 210 188 237 201 188 245 192 188 255 185 188 4 175 188 13 167 188 21 157 188 29 149 188 38 139 188 47 131 188 54 122 187 63 113 187 71 104 188 79 95 187 88 86 187 97 77 188 103 68 187 113 60 187 121 51 188 129 42 187 137 32 187 146 24 187 153 14 187 163 7 187 173 254 188 181 245 187 189 237 188 198 228 187 207 219 188 214 210 188 223 202 188 231 192 188 239 183 188 248 175 188 90 0 187 0 157 188 9 148 187 17 139 187 25 130 188 34 121 188 42 112 187 50 104 188 60 96 188 67 86 187 75 77 187 85 68 188 92 59 188 100 50 188 109 41 187 117 33 187 125 24 188 134 15 187 142 6 187 152 0 188 160 246 187 169 237 188 177 230 188 186 220 187 194 211 187 202 202 187 211 194 188 218 184 187 228 175 187 236 167 187 244 157 187 254 150 188 3 139 188 11 130 188 20 121 187 28 112 188 36 103 188 45 94 188 53 86 188 62 77 187 70 68 188 78 59 187 87 50 188 95 41 187 103 31 187 112 23 187 121 16 188 128 6 188 128 4 188 143 0 188 153 248 187 162 239 188 170 230 188 178 221 187 187 212 187 196 205 188 204 195 187 213 187 188 219 177 187 229 168 188 237 159 187 245 150 187 254 141 187 132 4 188 153 8 188 174 13 188 195 18 187 216 23 187 238 27 188 4 32 187 27 38 187 48 42 187 70 47 187 93 53 188 115 57 187 138 63 188 160 68 187 185 73 188 208 79 188 230 83 187 253 89 187 18 93 187 42 98 187 66 104 188 90 109 188 113 115 187 139 120 188 164 126 188 188 131 187 213 137 188 238 143 187 0 0 255 0 0 255 0 0 255 0 0 255 1 1 255 0 0 255 0 0 255 0 0 254 0 0 255 0 0 255 0 0 255 0 0 255 0 0 255 0 0 255 0 0 255 0 0 255 0 0 255 0 0 255 0 0 255 0 0 255 1 1 255 0 0 255 0 0 255 1 1 255 0 0 255 0 0 254 0 0 255 0 0 255 0 0 255 0 0 255 0 0 255 0 0 255 0 0 255 1 1 255 0 0 255 0 0 255 0 0 255 0 0 255 0 0 255 1 1 255 1 1 255 0 0 255 0 0 255 0 0 255 0 0 255 0 0 254 0 0 255 0 0 255 0 0 255 0 0 254 0 0 255 0 0 255 1 1 255 0 0 255 0 0 254 0 0 254 0 0 255 0 0 255 0 0 255 0 0 255 0 0 255 0 0 255 0 0 255 0 0 255 0 0 255 0 0 255 0 0 255 0 0 255 0 0 255 0 0 255 0 0 255 0 0 255 0 0 254 0 0 255 0 42 188 29 35 188 58 28 187 87 21 187 115 14 188 143 6 187 171 1 187 185 246 188 226 253 188 253 246 188 26 239 188 52 231 187 79 226 187 106 220 188 132 214 188 158 207 188 183 201 188 209 195 188 234 189 188 1 183 188 25 176 187 51 171 187 75 165 188 100 159 188 124 154 187 148 148 187 171 142 187 195 137 187 217 131 187 242 125 187 6 124 188 15 115 187 39 110 187 61 104 188 84 99 187 107 93 188 127 88 187 150 83 188 172 78 187 194 73 188 215 67 187 236 62 188 3 56 187 24 51 188 45 47 188 65 41 187 86 36 188 106 32 188 126 27 187 146 22 187 166 17 187 186 12 188 206 8 187 225 3 187 241 252 187 249 242 187 1 235 187 9 226 187 17 217 188 24 207 187 34 200 188 42 191 187 50 182 188 59 173 187 68 165 188 76 157 188 83 147 188 92 138 187 100 130 188 108 121 187 117 112 188 125 103 188 133 94 188 141 85 188 149 76 187 158 68 188 166 59 187 175 50 187 183 41 187 190 33 187 199 24 188 208 15 188 217 7 188 226 254 188 234 245 188 242 237 187 251 228 188 40 2 188 3 210 188 11 201 187 19 193 187 28 184 188 37 175 188 43 165 187 53 157 188 60 149 187 70 140 188 77 131 187 86 122 187 94 113 188 102 105 188 111 96 188 119 87 187 127 78 188 135 69 188 145 62 188 153 53 188 160 43 187 169 34 187 177 26 188 184 17 187 193 8 188 201 0 187 212 248 187 220 239 188 228 231 187 237 222 187 245 213 187 252 204 187 4 194 188 11 184 187 19 176 187 29 168 187 37 159 187 45 150 187 53 141 187 62 133 187 70 124 188 79 116 188 86 107 188 96 99 188 103 89 187 111 80 187 120 71 188 128 61 187 136 54 188 144 45 188 153 36 188 161 27 188 169 18 187 178 10 187 185 0 187 191 3 188 202 252 187 211 243 188 219 235 188 227 226 187 236 217 187 245 208 188 252 199 187 72 3 187 93 7 188 113 12 188 134 17 188 155 22 187 176 26 188 198 32 188 219 36 188 240 41 187 7 46 188 29 51 187 51 56 188 73 61 188 95 66 188 118 72 188 140 77 187 164 82 188 186 86 187 208 92 187 233 97 188 253 103 188 21 107 188 45 113 187 69 118 187 93 124 188 117 129 188 142 135 188 166 140 187 191 146 188 216 152 187 242 158 188 0 0 255 0 0 255 0 0 255 0 0 255 0 0 255 0 0 255 0 0 255 0 0 255 0 0 255 0 0 255 0 0 255 0 0 255 0 0 255 0 0 255 0 0 255 0 0 255 0 0 255 1 1 255 0 0 255 0 0 255 0 0 255 0 0 255 0 0 255 0 0 255 0 0 255 0 0 255 0 0 255 0 0 255 0 0 255 0 0 255 0 0 255 0 0 255 0 0 255 0 0 255 0 0 255 1 1 255 0 0 255 0 0 255 0 0 255 0 0 255 0 0 255 0 0 255 1 1 255 0 0 255 0 0 254 0 0 255 0 0 255 0 0 255 0 0 255 0 0 255 0 0 255 0 0 255 0 0 255 0 0 255 0 0 255 1 1 255 0 0 255 0 0 255 0 0 255 0 0 255 1 1 255 0 0 255 0 0 255 0 0 255 0 0 255 0 0 255 0 0 255 0 0 255 0 0 255 0 0 255 0 0 255 0 0 255 0 0 255 0 0 255 0 0 255 26 51 188 55 44 187 84 37 188 112 30 188 140 23 187 168 17 187 196 11 188 223 3 187 243 250 188 24 254 188 50 248 188 77 241 188 103 235 187 129 229 187 155 222 188 181 216 187 207 210 187 232 204 187 2 199 188 24 192 187 49 186 187 72 180 187 98 174 187 122 168 187 147 163 188 170 157 188 193 151 187 217 145 188 240 140 188 5 137 188 14 129 187 37 124 188 60 119 188 82 112 187 105 107 187 127 102 187 149 97 188 170 91 188 192 86 188 214 81 188 236 77 188 3 70 188 23 65 187 43 60 187 64 55 188 86 51 188 105 45 187 125 40 188 145 35 188 164 29 187 185 25 188 204 20 187 225 16 187 245 11 188 5 6 188 24 2 187 38 249 187 46 241 187 55 233 188 63 224 188 70 214 187 79 208 188 87 199 188 96 189 188 105 181 188 112 172 188 119 163 187 128 154 188 137 146 188 145 137 188 153 128 188 161 119 188 170 111 187 178 102 188 186 93 188 194 84 188 202 76 187 211 67 188 219 58 187 227 50 188 235 41 187 244 32 187 252 23 187 244 2 188 6 7 188 14 255 188 23 246 188 30 236 187 38 228 188 47 219 187 55 210 187 63 201 187 71 194 188 79 184 188 87 174 187 96 167 187 104 158 187 112 149 187 120 141 188 129 132 187 138 124 188 145 114 188 153 106 187 162 96 187 170 88 187 179 81 188 186 71 188 194 62 187 204 54 188 211 45 187 219 36 187 227 27 187 236 18 187 244 10 187 253 1 188 4 249 188 12 240 187 21 231 188 29 223 187 37 214 187 45 205 188 54 197 188 61 188 187 70 179 187 78 170 187 87 162 188 95 153 188 103 144 187 111 135 188 119 127 188 127 118 187 136 109 187 144 101 187 151 91 187 160 83 187 169 74 187 177 66 188 185 57 188 193 48 187 201 40 187 210 31 187 218 22 188 226 13 188 234 5 187 235 4 188 250 0 188 13 2 188 33 7 187 53 11 187 74 16 188 94 21 187 115 25 188 136 30 188 158 35 188 179 41 188 199 45 188 221 49 188 242 54 188 9 60 188 31 65 188 53 70 188 75 75 188 98 80 187 120 85 187 144 92 188 166 96 187 189 101 187 213 106 188 235 112 187 0 116 188 24 122 187 48 127 187 72 133 188 96 138 188 120 144 188 145 149 188 170 155 188 194 161 188 220 166 187 245 172 187 0 0 255 0 0 255 0 0 255 0 0 255 0 0 255 0 0 255 0 0 255 0 0 255 0 0 255 0 0 255 0 0 255 0 0 255 0 0 255 0 0 254 0 0 255 0 0 255 0 0 255 0 0 255 0 0 255 0 0 255 0 0 255 0 0 255 0 0 255 0 0 255 0 0 255 0 0 255 1 1 255 0 0 255 0 0 255 1 1 255 0 0 255 0 0 255 0 0 255 0 0 255 0 0 255 0 0 255 0 0 255 0 0 255 0 0 255 0 0 255 0 0 255 0 0 255 1 1 255 0 0 255 0 0 255 0 0 255 0 0 255 1 1 255 0 0 255 0 0 255 0 0 255 0 0 255 0 0 255 0 0 255 0 0 255 0 0 255 0 0 255 0 0 255 0 0 255 0 0 255 0 0 254 0 0 255 0 0 255 0 0 255 0 0 254 0 0 255 0 0 255 0 0 255 0 0 255 0 0 255 0 0 254 0 0 255 0 0 255 0 0 255 1 1 255 23 67 187 53 60 188 80 52 187 110 47 188 137 39 188 165 32 187 193 26 187 222 20 188 248 12 187 21 5 188 44 252 187 54 242 188 102 250 188 127 244 187 153 238 188 179 231 188 204 225 188 230 219 187 0 213 187 22 208 188 47 202 188 71 195 187 96 189 188 120 183 187 144 177 187 168 171 188 193 166 188 216 160 188 238 154 188 4 151 188 14 144 188 36 138 188 58 132 188 81 127 187 103 122 188 125 116 188 147 110 187 169 105 187 191 100 187 212 94 188 234 88 187 0 83 188 22 79 188 42 73 188 63 68 188 84 63 188 104 57 187 124 53 187 145 48 188 165 43 188 184 38 187 204 33 187 224 29 187 243 24 188 4 19 187 24 15 187 43 10 188 62 5 188 81 0 187 91 248 188 100 239 188 108 232 188 117 223 188 124 213 187 132 205 188 140 196 188 149 187 188 157 179 187 166 171 188 173 162 188 181 153 187 188 143 187 196 135 187 206 126 187 214 118 188 222 110 188 231 101 188 238 92 188 246 84 188 254 75 187 0 67 187 9 59 188 17 50 188 26 43 188 33 33 187 41 24 188 49 16 187 57 7 188 65 255 188 73 245 187 81 236 187 89 228 187 98 219 187 106 210 188 114 202 188 121 193 187 130 185 187 137 175 187 147 167 188 155 159 188 163 150 187 172 141 188 179 133 187 187 124 187 196 115 188 204 107 187 212 98 187 220 89 188 228 81 187 236 72 188 244 63 188 253 55 188 6 46 187 14 37 187 22 29 187 30 20 188 40 12 188 47 3 188 54 251 188 62 242 188 70 233 188 78 225 187 86 216 188 94 207 187 103 199 187 111 190 187 119 182 187 128 174 188 135 164 187 144 157 188 152 147 187 160 138 187 167 130 187 176 121 187 184 112 188 192 104 188 201 95 188 209 86 188 217 78 187 225 69 187 234 60 188 241 52 188 249 43 187 225 1 188 243 6 188 250 12 187 16 16 188 36 21 188 55 24 187 76 29 188 96 34 187 117 38 188 138 43 187 160 49 188 180 53 188 201 58 187 223 63 187 245 68 188 11 74 188 32 78 187 56 85 188 77 88 187 100 94 188 122 99 187 146 105 188 167 109 187 191 115 187 213 119 187 238 126 187 3 130 187 26 136 187 50 141 188 74 147 187 99 152 187 123 158 188 148 164 188 174 171 188 198 175 188 223 181 187 248 187 188 1 1 255 0 0 255 0 0 255 0 0 255 0 0 255 0 0 255 0 0 255 1 1 255 0 0 255 0 0 255 0 0 255 0 0 254 0 0 255 0 0 255 0 0 254 0 0 255 0 0 255 0 0 255 0 0 255 0 0 255 0 0 255 0 0 255 1 1 255 0 0 255 0 0 255 0 0 255 0 0 255 0 0 255 0 0 255 0 0 255 0 0 255 0 0 255 0 0 255 0 0 255 0 0 255 0 0 255 0 0 255 0 0 255 1 1 255 0 0 255 0 0 255 1 1 255 0 0 255 0 0 255 0 0 255 0 0 255 0 0 255 0 0 255 0 0 255 1 1 255 1 1 255 0 0 255 0 0 255 0 0 254 1 1 255 0 0 255 0 0 255 0 0 255 0 0 255 0 0 255 0 0 255 0 0 255 1 1 255 0 0 255 0 0 255 0 0 255 0 0 255 0 0 255 0 0 255 0 0 255 0 0 255 0 0 255 0 0 254 0 0 255 0 0 255 20 83 187 49 76 187 78 69 187 106 62 187 136 56 188 163 48 187 190 41 187 218 35 187 244 27 187 18 20 188 45 13 187 72 7 187 98 0 188 110 246 187 150 253 187 177 246 187 201 239 187 228 234 187 253 228 187 20 222 187 44 214 187 69 209 188 93 203 187 119 198 188 142 191 188 166 185 188 190 180 187 212 174 187 237 167 187 3 165 187 11 157 187 34 152 187 57 145 187 78 140 187 102 135 187 123 129 187 146 124 188 168 120 188 190 113 187 211 108 187 233 103 188 254 98 187 20 91 187 41 86 187 62 81 187 83 76 188 103 71 187 123 66 187 144 61 188 164 56 187 183 50 187 203 46 187 223 41 187 242 37 187 4 32 188 23 27 188 42 23 188 61 18 188 80 13 187 99 9 188 117 4 188 136 254 187 144 246 188 152 237 187 160 229 187 169 221 188 176 212 187 184 203 188 192 194 187 200 186 187 208 176 187 217 169 187 226 160 188 233 151 188 241 143 187 249 134 187 131 1 188 3 118 188 12 111 188 19 101 188 27 93 187 35 84 187 42 75 187 51 67 187 60 58 188 68 50 187 76 41 187 84 33 188 92 24 187 100 15 188 108 7 188 116 254 188 124 245 188 132 236 188 140 229 188 148 218 187 156 211 187 164 202 188 172 194 188 180 185 188 188 176 188 197 168 188 205 159 188 212 150 187 221 142 188 230 134 188 237 125 187 245 116 187 254 108 188 7 99 187 15 90 188 23 82 188 31 73 188 39 65 188 47 56 188 55 48 188 63 39 188 70 29 187 79 22 187 87 13 188 96 5 187 102 253 188 110 244 188 119 235 188 127 227 188 134 217 187 143 210 188 150 201 187 159 193 187 167 184 187 175 175 188 183 167 188 191 158 187 199 150 187 208 141 188 216 132 187 225 124 188 232 115 188 240 107 188 248 98 187 168 1 188 187 6 188 206 9 187 225 14 188 245 19 187 252 25 187 16 28 187 37 33 188 57 37 188 77 42 188 98 47 188 119 52 187 140 57 187 161 61 188 182 66 188 202 70 187 225 76 188 246 81 188 13 87 188 35 92 188 58 97 187 80 103 188 102 109 188 125 113 187 148 118 188 171 124 187 194 130 188 217 135 188 240 140 188 5 145 188 29 150 188 53 156 187 77 161 188 103 168 188 126 173 188 150 177 187 176 184 187 202 191 188 226 196 188 250 202 187 0 0 255 0 0 255 0 0 255 0 0 254 0 0 255 0 0 255 0 0 255 0 0 255 0 0 254 0 0 255 0 0 255 0 0 255 0 0 255 0 0 255 0 0 255 1 1 255 0 0 255 0 0 255 0 0 255 0 0 255 0 0 254 0 0 255 0 0 255 0 0 255 0 0 255 0 0 255 0 0 255 0 0 255 0 0 255 0 0 255 0 0 255 0 0 254 0 0 255 0 0 255 0 0 255 0 0 255 0 0 255 0 0 255 0 0 255 0 0 255 0 0 254 0 0 255 1 1 255 0 0 255 0 0 255 0 0 255 0 0 255 0 0 255 0 0 255 0 0 255 1 1 255 0 0 255 0 0 255 0 0 255 0 0 255 0 0 254 0 0 255 0 0 255 0 0 255 0 0 255 0 0 255 0 0 255 0 0 255 0 0 255 0 0 255 1 1 255 0 0 255 0 0 255 0 0 255 0 0 255 0 0 255 0 0 255 0 0 255 0 0 255 0 0 255 17 100 188 46 92 187 75 85 188 103 78 188 132 71 188 160 64 187 188 57 187 214 49 187 243 44 187 16 36 187 44 29 188 70 22 188 96 16 188 122 9 187 148 3 187 166 249 188 175 239 187 225 249 187 250 242 187 18 236 187 43 230 188 67 224 187 91 217 187 116 212 187 140 206 187 164 200 188 188 194 188 213 189 188 235 182 187 1 177 187 10 172 188 33 166 187 55 160 187 78 155 187 100 150 188 123 143 187 145 138 188 167 132 188 188 127 188 210 122 187 231 116 187 253 111 187 19 105 187 41 100 188 61 95 188 82 89 188 102 84 188 123 79 187 143 74 188 163 69 188 183 64 187 202 58 187 222 54 187 242 50 187 4 46 188 22 40 188 41 35 188 60 31 188 79 26 187 98 21 188 117 17 188 135 12 187 154 7 188 171 3 187 187 252 187 195 244 187 203 235 187 213 228 188 220 217 187 228 209 187 236 202 188 244 194 188 252 184 187 84 3 188 4 167 187 13 160 188 22 151 187 31 144 188 38 134 188 46 126 188 54 117 188 63 110 188 70 100 187 78 92 187 87 84 188 94 75 187 102 66 187 110 58 187 118 49 187 126 41 188 133 31 187 142 24 188 150 15 188 158 7 188 165 253 187 173 245 188 181 236 188 191 229 188 198 219 188 206 211 187 214 202 188 222 194 187 230 185 187 238 177 187 247 168 188 254 160 188 7 151 187 15 143 188 23 134 187 31 126 188 38 116 187 47 109 187 55 100 187 63 92 188 71 83 187 79 75 187 87 66 188 95 57 187 103 49 188 111 40 188 119 32 188 127 23 188 136 15 187 144 6 187 150 254 188 157 246 187 166 237 188 174 229 187 182 220 187 191 213 188 199 203 188 206 195 187 214 186 187 223 178 188 232 170 188 239 161 187 247 152 187 110 0 188 131 4 188 149 9 187 168 13 188 187 18 188 207 22 187 227 27 188 247 32 187 253 37 187 18 41 187 38 46 187 59 51 188 79 55 187 99 59 187 121 65 188 142 70 188 164 76 188 184 79 187 205 85 188 227 90 188 249 95 188 16 100 187 38 106 187 59 111 187 82 116 187 105 122 187 127 127 187 150 132 187 173 138 187 196 144 188 219 148 187 242 153 187 8 159 188 32 165 187 56 170 188 79 175 187 105 182 187 129 186 187 154 194 188 179 199 188 204 205 187 229 211 187 0 0 255 0 0 255 0 0 255 0 0 255 0 0 255 0 0 255 0 0 254 0 0 255 0 0 255 1 1 255 0 0 255 0 0 255 0 0 255 0 0 255 0 0 255 0 0 255 0 0 255 0 0 255 0 0 255 0 0 255 0 0 255 0 0 254 0 0 255 0 0 255 0 0 255 0 0 255 0 0 255 0 0 255 0 0 255 0 0 255 0 0 254 1 1 255 0 0 255 0 0 255 0 0 255 0 0 255 1 1 255 0 0 255 0 0 255 0 0 255 0 0 255 0 0 255 0 0 255 0 0 255 0 0 255 0 0 255 1 1 255 0 0 255 0 0 254 0 0 255 0 0 255 0 0 255 0 0 255 0 0 255 0 0 255 0 0 255 0 0 255 0 0 255 1 1 255 0 0 255 0 0 255 0 0 255 0 0 255 0 0 255 0 0 255 0 0 255 0 0 255 0 0 254 0 0 255 0 0 255 0 0 255 0 0 255 0 0 255 0 0 255 0 0 255 0 0 254 14 116 187 43 109 187 73 103 188 100 94 187 130 88 188 157 80 188 185 73 188 212 66 187 240 59 187 13 51 187 40 45 187 67 38 188 94 31 188 120 25 187 146 18 187 172 12 187 198 4 187 222 254 188 231 243 188 16 251 188 41 245 188 65 239 187 90 234 188 114 227 187 138 221 188 162 215 187 186 209 187 210 203 188 233 197 187 1 192 187 9 187 188 32 181 188 54 174 188 77 169 187 99 163 187 122 158 188 142 151 187 165 146 187 187 141 188 208 134 187 231 131 188 251 125 188 19 119 188 39 113 187 60 108 187 81 103 187 101 98 187 121 91 187 142 87 187 162 82 187 182 77 187 203 73 188 221 67 188 240 61 187 1 57 187 22 53 187 41 48 187 60 43 188 79 39 187 98 34 188 116 29 187 135 24 187 152 19 187 171 15 188 190 11 187 208 6 188 226 1 187 238 250 187 246 241 187 254 233 187 0 226 188 8 218 187 16 209 188 23 200 187 32 192 187 39 184 187 48 175 188 56 167 187 64 159 187 72 150 187 80 142 188 88 133 188 96 125 188 104 116 188 111 108 188 119 99 187 127 91 188 135 83 188 143 74 188 151 66 188 159 57 187 168 50 188 175 40 188 183 32 187 191 23 188 198 14 187 207 6 188 214 253 188 222 245 188 230 236 188 237 227 187 247 219 188 1 212 188 8 203 188 16 193 187 25 187 188 33 178 188 39 169 187 47 160 187 55 152 188 63 143 188 71 135 188 79 126 188 87 118 187 95 110 187 104 102 188 111 93 188 119 84 187 126 75 187 135 67 188 143 59 187 151 50 187 159 42 188 167 33 187 175 25 188 183 17 188 191 8 188 198 0 187 204 247 187 213 239 187 221 231 188 229 222 187 237 214 188 245 206 188 253 197 188 74 3 188 93 8 188 112 12 187 132 18 188 151 22 188 170 26 187 188 30 187 209 35 188 228 40 188 248 44 187 0 49 187 20 54 188 40 59 188 61 64 187 81 67 187 102 73 188 123 78 188 144 83 187 166 89 188 186 93 187 207 98 188 229 104 187 251 110 188 18 115 187 40 120 188 62 125 188 84 130 187 107 136 188 130 141 188 154 147 188 176 152 188 199 157 187 222 163 188 246 169 187 11 173 187 35 179 188 58 184 187 83 190 188 107 196 187 132 202 187 158 208 188 182 214 187 207 220 188 233 227 188 0 0 255 0 0 255 0 0 255 0 0 255 0 0 255 0 0 254 0 0 255 0 0 255 0 0 255 0 0 255 0 0 255 0 0 255 0 0 255 0 0 254 0 0 255 0 0 255 0 0 255 0 0 255 0 0 255 0 0 255 0 0 255 0 0 255 0 0 254 1 1 255 0 0 255 0 0 255 0 0 255 0 0 255 0 0 254 0 0 255 0 0 255 0 0 255 0 0 255 1 1 255 0 0 255 0 0 255 0 0 255 0 0 255 0 0 255 0 0 255 0 0 255 0 0 255 0 0 255 1 1 255 0 0 255 0 0 255 0 0 255 0 0 255 0 0 255 0 0 255 0 0 255 0 0 255 0 0 255 0 0 255 0 0 254 0 0 254 0 0 255 0 0 255 1 1 255 1 1 255 0 0 255 1 1 255 0 0 254 0 0 255 0 0 255 0 0 254 0 0 255 0 0 255 0 0 255 0 0 255 0 0 255 0 0 255 0 0 255 0 0 255 0 0 255 1 1 255 11 133 187 39 124 187 69 118 188 97 111 187 126 103 188 153 96 187 183 90 188 210 82 188 237 75 188 11 67 187 38 60 187 64 52 187 91 47 188 118 40 188 144 33 187 170 27 187 196 20 187 222 15 188 246 7 187 14 1 187 27 247 188 63 254 188 88 248 188 112 241 188 137 235 187 161 229 187 184 223 187 208 217 187 232 211 187 0 205 188 7 200 187 30 194 187 52 189 188 75 183 187 98 177 188 120 171 187 141 166 187 164 160 187 186 155 187 207 149 188 229 144 188 250 138 188 17 132 187 38 127 187 59 121 188 80 116 188 99 111 187 121 107 188 141 101 187 161 96 187 181 90 187 202 85 188 221 80 188 240 75 187 2 71 188 21 66 188 40 61 187 59 56 188 78 51 188 97 46 187 115 41 187 134 37 187 153 32 188 171 28 187 190 24 188 208 19 188 225 14 188 243 10 187 5 8 187 14 1 187 26 249 188 34 241 187 42 234 188 50 224 188 58 216 188 66 207 187 74 199 188 82 191 188 89 183 188 97 174 187 105 166 187 113 157 188 121 149 188 129 140 188 137 132 187 145 123 187 152 115 187 161 107 188 167 97 187 176 90 188 184 82 187 192 73 187 200 65 187 207 57 187 216 48 187 224 40 187 232 31 187 239 22 187 248 15 187 249 1 188 8 253 188 16 245 187 25 237 188 32 228 187 40 220 188 48 211 188 56 203 187 63 194 188 70 186 187 79 178 188 88 170 188 95 161 188 103 152 187 111 144 187 119 136 188 127 127 188 135 119 188 142 111 188 150 102 188 159 95 188 166 85 187 174 77 188 182 69 187 190 60 188 198 52 187 206 43 188 214 35 188 222 27 188 230 18 188 237 10 187 245 1 187 252 250 188 19 2 187 38 7 188 57 11 188 75 17 188 94 20 188 113 25 188 132 29 188 152 34 188 171 39 187 191 43 187 210 48 188 231 53 188 250 57 188 1 62 187 22 67 187 42 72 187 62 77 188 83 82 187 104 87 188 126 93 188 146 97 188 167 102 188 188 107 188 209 112 187 231 117 187 254 122 188 21 129 188 42 134 187 64 139 188 86 143 187 109 150 187 132 155 187 155 160 187 178 166 188 201 172 187 225 177 188 247 182 187 13 188 187 37 193 187 62 199 188 87 205 188 110 211 187 135 217 188 160 223 188 185 230 188 210 235 188 236 240 187 0 0 255 0 0 255 0 0 255 0 0 255 0 0 255 1 1 255 0 0 255 0 0 255 0 0 255 0 0 255 0 0 255 0 0 255 1 1 255 0 0 255 0 0 255 0 0 254 0 0 255 0 0 255 0 0 255 0 0 255 0 0 255 0 0 255 0 0 255 0 0 255 0 0 255 0 0 255 0 0 255 0 0 255 0 0 255 0 0 254 0 0 255 0 0 255 0 0 255 0 0 255 0 0 255 1 1 255 0 0 255 0 0 255 0 0 255 0 0 255 0 0 255 0 0 255 0 0 255 0 0 255 0 0 255 0 0 255 0 0 255 0 0 255 0 0 255 0 0 255 0 0 255 0 0 255 0 0 255 0 0 254 0 0 255 0 0 255 0 0 255 0 0 255 0 0 255 0 0 255 0 0 255 0 0 255 0 0 254 0 0 255 0 0 255 0 0 255 0 0 255 1 1 255 0 0 255 0 0 255 0 0 255 0 0 255 0 0 254 0 0 255 0 0 255 1 1 255 6 148 187 38 142 188 67 134 188 94 127 188 123 119 188 150 112 187 179 105 187 208 98 188 235 91 187 8 83 188 36 77 188 63 70 188 89 62 187 115 56 188 141 49 188 167 42 187 193 36 187 219 30 188 244 22 188 12 17 188 37 10 187 61 3 188 80 250 187 90 241 187 135 250 188 160 245 188 183 238 187 206 232 188 230 226 187 253 220 188 4 213 187 29 208 188 51 203 188 74 197 188 96 191 188 119 185 188 141 181 188 163 174 187 185 168 188 206 164 188 228 157 187 249 152 188 16 146 188 38 140 188 58 135 188 79 130 187 99 124 188 120 119 187 140 114 187 160 109 187 180 104 188 200 99 187 220 93 188 240 88 188 1 84 187 21 79 188 40 74 187 59 69 187 77 63 187 96 59 187 115 54 188 133 49 187 152 45 188 170 40 188 189 36 188 208 32 188 224 25 187 243 22 187 5 20 187 14 13 187 32 9 187 49 5 187 66 0 188 75 246 187 83 239 188 91 231 188 99 222 187 107 214 187 115 206 187 124 198 188 130 189 188 138 181 188 145 171 187 154 164 187 162 156 188 170 147 187 177 138 187 185 131 187 194 123 188 202 114 188 209 106 188 217 98 188 225 89 188 233 81 188 241 74 188 248 64 188 200 0 187 7 46 187 15 38 187 23 29 188 30 20 187 39 13 187 47 4 188 56 253 187 64 245 187 71 236 187 78 228 187 87 220 188 94 211 187 103 203 187 111 195 188 117 186 187 126 178 187 134 170 188 141 160 187 149 152 187 158 145 187 166 136 188 173 128 187 181 120 188 189 111 188 197 103 187 204 95 187 213 86 188 219 77 187 228 70 188 236 61 187 244 53 188 253 46 188 225 2 188 242 8 188 2 10 188 21 15 187 38 19 187 58 24 187 77 28 188 97 34 188 115 38 187 134 42 188 153 47 187 174 52 188 192 56 188 213 61 188 232 66 188 252 70 187 3 75 188 22 79 187 44 85 188 64 90 187 86 95 188 107 100 188 126 105 187 148 110 187 168 115 187 190 120 188 212 126 187 233 130 187 1 138 188 23 142 188 44 148 187 67 153 187 90 159 188 112 164 188 135 169 188 157 174 187 181 180 188 204 185 187 227 192 188 250 197 187 16 202 187 41 208 188 65 214 187 89 220 188 112 225 187 138 232 188 163 238 187 188 244 187 213 249 187 0 0 255 0 0 255 0 0 255 0 0 255 1 1 255 0 0 255 0 0 255 0 0 255 0 0 255 0 0 255 0 0 254 0 0 255 0 0 255 0 0 255 0 0 255 0 0 255 0 0 255 0 0 254 0 0 255 0 0 254 0 0 255 0 0 255 0 0 255 0 0 255 0 0 255 0 0 255 0 0 255 0 0 255 0 0 255 0 0 255 0 0 255 0 0 254 0 0 255 0 0 255 0 0 255 0 0 255 0 0 255 0 0 255 0 0 254 0 0 255 0 0 255 0 0 255 0 0 254 0 0 255 0 0 255 0 0 254 0 0 255 0 0 255 0 0 255 0 0 255 0 0 255 0 0 255 0 0 255 0 0 255 0 0 255 0 0 255 0 0 255 1 1 255 0 0 255 0 0 255 0 0 255 0 0 255 1 1 255 0 0 255 1 1 255 0 0 254 1 1 255 0 0 254 0 0 255 0 0 254 1 1 255 0 0 255 0 0 255 1 1 255 1 1 255 0 0 255 0 0 255 4 166 188 33 158 187 63 150 187 91 143 188 120 136 188 149 129 188 176 121 187 204 113 187 233 108 188 5 99 188 33 92 187 59 85 187 86 78 187 113 71 188 139 64 187 165 58 187 191 52 188 217 44 187 242 38 188 9 31 187 34 25 187 59 18 187 84 12 188 110 6 188 133 254 187 141 244 187 181 253 188 204 246 187 228 240 188 253 234 188 4 230 188 27 223 187 50 218 188 72 211 188 95 205 188 117 199 187 139 194 188 161 188 187 183 182 188 205 177 188 227 171 187 248 166 188 14 159 187 36 154 188 57 148 187 78 143 187 99 139 188 119 132 187 138 126 187 159 122 187 179 116 187 199 112 188 219 107 188 239 101 188 0 97 188 20 92 187 39 87 187 58 82 187 77 77 187 96 72 187 115 67 188 133 62 188 152 57 187 170 53 187 188 48 188 206 43 187 224 39 187 242 34 187 4 32 187 14 26 188 30 20 187 49 17 187 66 12 188 82 7 187 100 3 188 116 254 187 124 245 188 132 237 187 139 229 187 147 221 187 155 212 188 163 204 188 171 195 187 179 187 188 187 179 188 194 171 188 201 163 187 210 154 188 217 146 187 225 138 187 233 130 187 241 121 188 249 113 188 0 103 188 8 95 188 16 87 188 23 79 187 30 69 187 39 62 187 47 54 187 54 46 188 62 38 188 69 28 187 78 21 187 86 12 188 94 5 188 103 253 187 109 244 187 118 236 187 127 229 188 134 219 187 141 211 188 149 203 188 157 195 187 166 187 188 173 178 188 180 170 188 188 162 188 196 154 188 204 145 187 212 137 187 219 129 188 227 121 188 235 112 187 243 104 188 250 96 188 170 1 187 189 7 188 207 10 188 225 15 188 243 20 188 4 24 188 21 26 187 40 32 187 59 36 187 78 41 188 97 46 187 116 50 187 135 55 187 154 59 187 174 64 187 194 69 187 212 73 187 234 80 188 253 84 187 5 88 187 25 93 187 45 98 188 66 103 188 87 108 187 107 112 187 128 119 188 149 124 188 171 129 187 191 133 187 214 139 188 235 144 187 2 151 187 25 156 188 47 161 187 69 167 187 92 172 188 114 178 188 137 183 187 161 189 188 184 196 188 207 200 187 230 205 187 254 212 187 19 217 187 44 224 188 67 229 188 92 234 187 115 239 187 140 245 187 165 253 187 245 47 187 217 0 187 242 6 187 0 0 255 0 0 255 0 0 255 0 0 255 0 0 255 0 0 255 0 0 255 0 0 255 0 0 255 1 1 255 0 0 255 0 0 255 0 0 254 0 0 255 0 0 255 0 0 255 0 0 255 0 0 255 0 0 255 0 0 255 0 0 255 0 0 255 0 0 255 0 0 255 0 0 255 1 1 255 0 0 254 0 0 255 0 0 255 0 0 255 0 0 255 0 0 255 0 0 255 0 0 255 0 0 255 0 0 255 0 0 255 0 0 255 0 0 255 0 0 255 0 0 255 0 0 255 0 0 255 0 0 255 0 0 255 0 0 255 0 0 255 0 0 255 0 0 255 0 0 255 0 0 254 0 0 254 0 0 255 0 0 255 0 0 254 0 0 254 0 0 255 0 0 255 0 0 255 0 0 255 0 0 255 0 0 255 0 0 255 0 0 255 0 0 255 0 0 255 0 0 255 1 1 255 0 0 255 0 0 255 0 0 255 1 1 255 0 0 254 0 0 255 0 0 255 5 179 0 1 182 187 31 176 188 59 168 188 88 159 188 117 152 188 145 145 187 174 137 188 202 130 188 230 123 188 3 115 187 30 109 188 57 101 187 84 94 188 110 87 188 137 80 188 164 73 188 189 66 187 215 60 187 240 53 187 8 47 188 32 40 187 57 33 188 82 27 188 107 21 188 131 14 188 155 8 188 179 2 188 194 248 188 203 238 187 250 248 188 2 243 187 25 237 187 48 231 188 71 225 188 93 219 188 116 214 187 137 207 187 160 202 188 182 196 187 204 191 188 225 185 188 247 179 188 14 173 187 36 168 188 56 162 187 77 157 187 96 150 187 118 145 187 138 141 187 158 135 187 179 130 187 199 125 188 218 120 188 238 115 187 0 110 188 19 105 188 38 99 187 58 96 188 76 90 187 95 85 187 113 79 187 133 75 187 151 70 187 170 65 187 188 61 187 205 55 187 224 51 188 243 48 188 4 44 188 14 38 188 31 33 187 49 29 188 66 24 188 83 20 188 100 15 187 118 12 188 133 6 187 151 2 188 164 251 188 172 243 188 180 235 188 187 228 188 196 219 188 203 210 187 211 202 187 218 194 188 226 186 188 234 178 188 242 169 187 249 161 188 1 152 188 9 144 188 16 135 187 24 127 188 32 120 188 38 110 187 47 102 188 54 93 187 62 86 187 70 78 188 78 70 187 86 61 188 93 53 188 100 44 187 109 37 188 116 29 188 124 20 187 131 12 187 140 4 187 150 254 188 156 244 187 164 236 187 172 228 188 180 219 187 187 212 187 195 203 187 203 195 187 212 188 188 218 179 187 226 171 187 235 162 188 241 154 188 249 146 187 119 1 187 136 4 187 154 9 188 172 14 188 190 18 187 208 23 187 226 27 187 244 32 188 5 35 187 23 41 188 42 44 188 60 49 187 79 54 187 98 58 188 116 63 187 137 68 188 156 72 187 175 77 188 196 83 188 215 87 187 235 92 188 245 103 188 6 102 188 27 107 187 47 112 188 69 118 188 89 123 188 109 127 188 131 132 188 150 136 187 173 142 188 194 149 188 216 153 188 239 159 188 5 165 187 27 170 188 49 175 187 71 181 188 94 186 187 117 193 188 140 198 187 163 203 187 186 209 188 209 215 188 233 220 187 254 226 188 21 231 187 46 237 188 69 242 187 95 249 188 240 112 188 249 101 188 169 2 187 194 8 187 219 14 187 245 21 187 0 0 255 0 0 254 0 0 255 0 0 255 0 0 255 0 0 254 0 0 255 1 1 255 0 0 255 0 0 255 0 0 255 0 0 255 0 0 255 0 0 255 1 1 255 1 1 255 0 0 255 0 0 255 0 0 255 0 0 255 0 0 254 1 1 255 0 0 255 0 0 255 0 0 255 0 0 255 0 0 255 0 0 254 0 0 255 0 0 255 0 0 255 0 0 255 0 0 255 0 0 255 0 0 255 1 1 255 1 1 255 0 0 255 0 0 255 0 0 255 0 0 255 0 0 255 0 0 255 0 0 255 0 0 255 0 0 255 0 0 255 0 0 255 0 0 255 0 0 255 0 0 255 0 0 255 0 0 255 0 0 255 0 0 255 0 0 255 1 1 255 0 0 255 0 0 255 0 0 255 0 0 255 0 0 255 0 0 255 0 0 255 0 0 255 0 0 255 0 0 255 0 0 255 0 0 255 0 0 255 0 0 255 0 0 255 16 254 0 29 239 0 42 224 0 57 210 0 70 196 0 27 190 187 56 184 187 85 176 188 114 168 188 143 161 187 171 152 187 199 146 187 227 139 188 0 130 187 27 123 187 54 116 188 81 109 188 108 102 188 134 95 188 161 88 188 187 82 188 212 75 188 238 68 187 4 61 187 30 55 187 55 48 187 80 42 188 105 35 187 129 29 188 153 23 187 177 16 188 201 10 187 225 4 187 244 252 187 254 242 187 23 252 187 45 244 187 69 239 187 92 234 188 114 228 188 136 221 187 159 216 188 181 210 188 203 205 188 224 199 187 246 193 187 13 187 188 34 181 188 55 176 188 76 170 187 96 165 187 117 159 188 137 154 188 158 149 188 178 143 187 198 138 187 218 133 188 237 128 187 1 124 187 18 118 188 38 112 187 57 107 187 76 102 188 95 97 188 112 92 187 132 88 187 151 83 187 169 79 188 186 72 187 206 68 188 224 64 187 242 59 188 4 57 188 13 50 188 31 46 188 48 41 188 66 37 188 84 33 188 100 28 188 117 23 187 134 19 188 151 14 188 167 10 188 184 4 187 201 1 187 212 249 188 219 241 188 227 233 187 236 226 188 242 217 187 250 209 187 0 198 187 9 191 187 16 183 187 24 175 188 31 167 187 39 158 187 47 149 187 55 142 187 63 135 188 70 126 187 78 118 187 85 110 188 93 101 188 102 94 188 108 85 188 116 77 187 123 69 187 131 61 187 140 54 188 147 44 188 153 36 187 162 28 188 170 20 187 176 11 187 185 4 187 194 252 187 202 244 188 210 236 188 217 228 188 225 220 187 233 212 188 239 204 187 247 195 187 68 0 187 85 4 188 103 9 188 119 13 187 138 17 188 155 22 188 173 26 187 191 31 188 209 35 187 227 40 187 246 44 188 6 48 188 24 52 187 43 57 187 62 62 187 81 66 188 100 71 187 119 76 188 138 81 187 157 85 188 178 91 188 197 95 188 216 100 187 236 105 187 246 115 188 9 116 188 28 120 187 49 125 188 69 130 188 90 135 187 111 140 188 133 147 188 153 151 187 175 156 188 196 161 188 218 168 188 240 172 188 7 178 188 29 184 188 51 189 188 74 195 188 96 201 187 119 206 188 142 213 188 165 217 187 188 222 187 212 229 187 235 235 188 1 240 187 25 246 187 49 252 187 245 164 188 253 155 188 122 5 188 147 11 187 172 17 187 198 24 187 223 30 187 248 35 187 0 0 255 0 0 255 0 0 255 0 0 255 0 0 255 0 0 255 0 0 255 0 0 255 0 0 255 0 0 255 0 0 254 0 0 255 0 0 255 0 0 255 0 0 255 0 0 255 0 0 255 0 0 254 1 1 255 0 0 255 0 0 255 0 0 255 0 0 254 0 0 255 0 0 254 0 0 255 0 0 255 0 0 255 0 0 255 1 1 255 0 0 255 0 0 255 0 0 255 0 0 255 0 0 255 0 0 255 0 0 255 0 0 255 0 0 255 0 0 254 0 0 255 0 0 255 0 0 255 0 0 255 0 0 255 0 0 255 0 0 255 0 0 255 0 0 255 0 0 255 0 0 255 0 0 255 0 0 255 0 0 255 0 0 255 0 0 255 0 0 254 0 0 255 0 0 254 0 0 255 0 0 254 1 1 255 0 0 255 0 0 255 0 0 255 1 1 255 0 0 255 0 0 255 5 73 0 19 59 0 34 45 0 46 30 0 60 16 0 73 1 0 92 1 1 108 241 0 121 227 0 24 208 188 53 200 188 82 192 187 111 185 188 140 177 188 167 170 187 196 162 188 224 155 187 251 149 188 25 139 188 52 132 188 79 125 188 105 118 187 132 111 188 158 104 188 184 97 188 211 91 188 236 83 187 3 77 187 28 70 188 53 64 187 78 57 188 103 50 187 127 44 188 152 38 187 176 31 187 200 25 188 223 19 188 247 12 188 11 13 188 22 1 188 34 247 187 68 254 188 90 248 188 113 242 188 135 236 188 157 230 188 180 225 188 201 218 188 223 213 188 245 207 188 11 200 188 34 196 188 54 189 188 75 184 187 95 178 188 116 173 188 135 166 187 157 162 188 177 157 188 197 151 188 218 146 188 237 141 187 0 135 187 18 131 188 37 125 188 56 120 188 75 115 187 94 110 187 113 105 187 131 99 187 150 95 188 169 91 188 187 86 187 204 80 187 223 76 187 241 71 188 2 68 187 13 63 187 32 59 188 48 53 188 64 49 187 83 44 188 100 40 187 117 35 188 134 31 187 151 26 188 167 22 187 184 17 187 202 14 188 218 9 188 234 4 188 249 0 187 2 246 188 10 239 188 17 230 188 24 222 188 32 214 188 40 206 188 48 198 188 55 189 187 62 181 188 71 174 188 78 165 187 85 157 187 93 149 187 100 140 187 108 133 187 116 125 187 123 117 187 131 109 187 139 101 188 146 92 188 154 84 187 161 76 188 169 68 187 177 60 188 184 52 187 192 44 188 200 36 188 208 28 188 216 21 188 222 12 187 230 4 188 239 253 188 247 245 188 254 236 187 33 4 187 52 8 187 69 12 187 86 16 188 103 21 187 122 26 188 139 30 188 156 34 188 174 38 187 192 43 188 211 48 188 228 52 188 247 57 187 6 59 187 26 65 187 43 69 187 63 74 188 82 79 187 101 84 187 120 89 188 139 93 187 159 98 188 179 103 187 198 108 187 218 114 188 239 119 188 247 128 187 11 129 188 31 134 188 51 138 187 71 143 188 92 149 187 112 153 187 134 159 187 155 164 187 177 170 188 198 175 188 220 182 188 242 186 187 9 192 187 31 199 188 54 203 187 76 209 188 99 215 187 122 220 188 144 226 188 168 232 188 190 237 187 214 244 187 238 249 187 239 226 188 248 217 187 52 1 187 76 8 187 101 14 188 125 20 188 150 26 187 175 32 188 202 39 188 226 45 188 252 51 188 0 0 255 0 0 254 0 0 255 0 0 255 0 0 255 0 0 255 0 0 255 0 0 255 0 0 255 0 0 255 0 0 255 0 0 255 0 0 255 1 1 255 0 0 255 0 0 255 0 0 255 0 0 255 0 0 255 0 0 255 0 0 255 0 0 255 0 0 255 0 0 255 0 0 255 0 0 255 1 1 255 0 0 255 0 0 255 0 0 255 0 0 255 0 0 255 1 1 255 0 0 254 0 0 255 0 0 254 1 1 255 0 0 254 0 0 255 0 0 255 0 0 255 0 0 254 0 0 255 0 0 255 1 1 255 0 0 255 0 0 255 0 0 255 0 0 255 0 0 255 0 0 254 0 0 255 0 0 255 0 0 255 0 0 255 0 0 254 0 0 255 0 0 255 0 0 255 0 0 255 0 0 255 0 0 255 0 0 254 0 0 255 1 159 0 16 146 0 29 132 0 43 116 0 55 102 0 70 89 0 83 75 0 96 60 0 110 46 0 123 32 0 137 17 0 150 3 0 165 2 0 21 225 188 50 217 188 78 208 187 109 202 188 137 194 187 165 186 187 193 179 187 221 171 188 249 164 188 22 155 187 49 148 188 75 140 187 102 133 187 130 127 187 156 120 187 182 113 187 208 106 187 234 99 187 1 92 188 26 85 187 52 80 188 76 72 187 101 65 187 125 59 188 149 52 187 174 46 187 198 40 187 222 33 188 246 28 188 9 27 187 20 15 188 43 9 187 66 3 188 83 250 188 91 240 187 134 250 188 156 245 188 178 238 188 200 232 187 222 227 188 243 221 188 11 214 188 31 209 187 53 203 187 74 197 187 95 193 188 115 186 188 135 181 187 156 174 187 175 169 187 195 165 187 216 159 187 236 154 187 1 150 188 17 144 188 36 138 187 54 132 187 75 128 188 94 123 187 112 119 188 131 113 188 150 108 188 168 103 188 187 98 188 204 93 187 223 89 187 241 84 188 3 81 188 13 75 187 31 71 188 48 66 187 66 62 188 83 56 188 100 52 188 117 47 188 134 43 188 151 38 187 167 34 188 184 29 188 200 25 188 217 20 188 233 16 187 248 12 187 11 7 188 27 2 187 41 253 188 48 245 188 55 236 187 63 228 187 70 220 188 78 212 188 85 204 188 93 196 188 99 188 187 109 181 188 115 172 187 123 163 187 130 155 187 138 148 188 147 141 188 154 133 188 161 124 188 168 116 187 176 108 187 182 99 187 191 92 188 199 85 188 206 76 187 213 67 187 221 59 187 229 51 187 237 44 188 244 35 188 250 27 187 240 2 188 0 6 187 18 11 187 36 17 188 52 20 188 70 24 188 87 29 188 104 33 188 122 37 187 139 42 187 157 46 188 175 51 188 193 55 188 211 60 188 230 64 188 248 69 188 9 74 188 27 78 188 46 82 187 64 87 187 83 92 187 102 97 188 122 102 188 141 106 187 160 111 187 180 116 188 200 121 187 220 126 187 240 131 187 248 140 188 11 141 188 31 146 187 52 152 188 73 158 188 94 162 187 115 167 187 136 173 188 157 178 187 179 184 187 200 189 187 222 194 187 244 200 188 11 206 187 33 212 188 56 218 188 78 223 187 101 229 187 123 235 187 147 241 187 170 246 188 193 252 187 245 21 187 254 11 187 6 4 187 30 10 188 54 16 187 79 22 188 104 29 188 128 35 188 153 41 188 178 47 188 204 54 187 230 60 188 1 1 255 0 0 255 0 0 255 0 0 255 0 0 255 0 0 255 0 0 255 0 0 254 1 1 255 0 0 255 0 0 255 1 1 255 0 0 255 0 0 255 0 0 254 1 1 255 0 0 255 0 0 255 0 0 255 0 0 255 0 0 255 0 0 255 1 1 255 0 0 255 0 0 255 0 0 255 0 0 255 0 0 255 0 0 255 0 0 255 0 0 255 0 0 255 0 0 255 0 0 255 0 0 255 0 0 255 0 0 254 0 0 255 0 0 255 0 0 255 0 0 254 1 1 255 0 0 255 1 1 255 0 0 255 0 0 255 0 0 255 0 0 254 0 0 254 0 0 255 1 1 255 0 0 254 0 0 255 0 0 255 0 0 255 0 0 255 0 0 255 0 0 254 0 0 255 0 0 255 0 0 255 0 0 255 12 232 0 25 218 0 39 204 0 53 189 0 66 174 0 78 160 0 91 146 0 106 132 0 119 118 0 134 105 1 146 90 0 158 75 0 173 61 0 186 47 0 200 33 0 213 19 0 18 241 187 47 233 188 75 226 187 105 218 188 134 210 187 162 202 188 190 195 188 217 187 187 246 180 188 19 171 187 47 164 188 75 158 188 101 149 188 128 143 188 154 135 187 180 127 187 206 121 187 231 114 187 1 108 187 24 101 187 49 94 188 74 87 187 99 81 187 124 74 188 148 67 188 172 61 188 196 55 188 220 48 187 242 42 187 8 41 188 19 30 187 42 24 188 65 17 187 89 12 188 110 5 187 132 254 187 141 244 187 177 252 187 199 246 187 220 240 187 242 235 188 9 228 187 30 222 187 52 217 188 71 210 187 93 205 188 114 200 188 136 195 188 155 189 188 175 183 188 195 178 187 215 173 188 235 167 188 1 163 188 16 157 188 37 153 188 54 146 187 74 141 187 93 136 188 112 131 187 131 126 187 149 121 188 168 116 188 187 111 188 204 106 188 222 101 187 240 96 187 4 94 188 12 87 188 30 83 188 48 78 188 65 73 188 82 69 188 100 64 188 116 58 187 134 55 187 150 50 188 167 46 187 184 41 187 200 37 187 216 31 187 233 28 188 249 24 187 11 18 187 28 15 188 42 9 187 58 6 187 73 0 187 85 249 187 93 241 187 100 235 188 108 226 188 116 218 188 123 210 187 130 202 188 138 194 188 145 186 188 153 178 188 159 170 187 168 162 188 175 154 188 183 146 188 190 139 188 199 131 188 205 123 188 213 115 188 220 107 188 229 100 188 235 90 187 242 83 187 250 75 188 191 1 188 207 4 187 224 10 188 241 14 188 2 19 187 19 23 188 36 28 188 53 32 188 70 36 187 88 41 188 105 44 187 124 51 188 141 54 187 158 59 187 176 63 187 194 67 187 213 72 188 231 77 187 249 82 187 9 86 188 28 90 187 47 95 188 66 100 187 85 105 187 104 110 187 123 113 187 142 119 188 162 124 188 182 129 188 201 134 188 221 139 187 241 144 188 250 153 188 13 155 187 34 160 188 54 166 188 75 171 188 96 176 188 117 181 187 137 186 187 159 191 187 181 197 187 202 203 188 225 208 188 246 214 188 13 220 188 36 227 188 58 232 188 82 238 188 103 243 188 127 249 188 240 82 188 249 72 188 195 2 187 220 8 188 244 14 188 9 19 187 33 25 188 57 31 188 81 37 187 106 44 187 131 50 188 156 56 188 182 63 188 208 70 188 233 76 188 0 0 255 0 0 255 0 0 255 0 0 255 0 0 255 0 0 255 1 1 255 0 0 255 0 0 254 0 0 255 0 0 255 0 0 255 0 0 255 0 0 255 0 0 255 0 0 255 0 0 255 0 0 255 0 0 255 0 0 255 0 0 255 0 0 255 0 0 255 0 0 255 0 0 255 0 0 255 0 0 255 0 0 255 0 0 255 0 0 255 0 0 255 0 0 255 0 0 255 0 0 255 0 0 255 0 0 255 0 0 255 0 0 255 0 0 255 1 1 255 0 0 255 0 0 255 0 0 255 1 1 255 0 0 255 0 0 255 0 0 254 0 0 255 0 0 255 0 0 255 1 1 255 0 0 255 0 0 255 0 0 255 0 0 255 0 0 255 0 0 255 0 0 255 7 59 0 21 44 0 33 30 0 46 16 0 60 2 0 75 246 0 88 232 0 102 218 0 114 204 0 128 190 0 142 175 0 156 161 1 167 146 0 181 132 0 196 120 1 208 105 0 221 91 0 235 77 0 248 63 0 3 47 0 17 33 0 44 250 188 73 242 188 103 235 188 130 227 187 159 219 187 188 211 187 216 204 187 242 195 187 17 186 187 44 180 188 70 173 187 98 165 188 125 158 188 151 151 188 177 144 187 203 137 187 229 130 188 0 123 188 21 116 187 47 109 187 72 102 187 96 96 187 122 89 187 146 82 188 170 76 188 194 69 187 218 63 188 242 56 187 7 55 188 17 44 187 40 38 187 63 32 188 86 26 188 109 19 187 131 13 187 153 7 187 176 1 187 188 248 187 197 238 188 241 249 187 8 242 188 28 235 187 50 231 188 71 225 187 92 219 187 113 213 187 133 207 187 154 202 188 174 197 188 194 191 188 214 187 188 235 180 188 254 175 187 16 171 188 35 165 188 54 159 188 73 154 187 92 149 187 112 145 188 131 140 188 149 134 188 167 129 188 187 124 188 204 118 187 222 114 188 240 109 187 3 106 188 12 100 187 31 95 188 47 90 187 65 86 188 82 81 188 99 76 188 116 72 187 133 67 187 150 62 188 168 59 188 184 53 188 200 49 188 218 44 188 234 40 188 248 34 187 11 30 187 27 26 188 44 22 188 58 17 187 74 14 188 89 8 187 105 4 188 122 1 188 130 248 187 137 240 188 146 233 188 152 224 188 160 216 187 167 209 188 174 202 188 182 193 188 189 185 188 197 176 187 203 168 187 212 161 188 220 154 188 228 145 188 234 136 187 241 129 188 249 122 188 142 1 188 159 5 188 174 9 187 191 13 187 208 17 188 225 22 187 241 26 188 2 30 187 21 36 188 37 40 187 54 44 188 71 48 188 89 53 187 106 57 188 124 62 188 141 66 187 159 71 187 177 76 188 196 80 188 213 84 187 232 90 187 249 94 187 11 98 187 29 103 188 49 109 188 67 113 188 87 119 188 105 122 188 124 127 187 144 132 188 163 137 187 183 142 188 203 148 187 223 153 187 243 158 187 250 165 187 15 168 188 35 173 188 56 179 187 77 184 187 98 189 187 119 195 187 140 200 187 161 206 188 183 211 188 205 217 187 226 222 188 248 228 187 16 234 187 38 240 188 60 246 188 83 252 187 244 132 187 253 122 188 152 4 187 175 10 187 198 15 187 222 22 188 246 28 187 12 34 188 36 40 187 60 46 187 85 52 188 109 59 187 134 65 188 159 71 187 184 77 187 210 84 187 236 91 187 0 0 254 0 0 255 0 0 255 0 0 255 0 0 255 0 0 255 0 0 255 0 0 254 0 0 255 0 0 255 0 0 255 1 1 255 0 0 254 0 0 255 0 0 255 0 0 254 0 0 255 0 0 255 0 0 255 0 0 255 0 0 255 0 0 255 0 0 255 0 0 255 0 0 255 0 0 255 0 0 255 0 0 255 0 0 255 0 0 255 0 0 255 0 0 254 0 0 255 0 0 255 1 1 255 0 0 255 0 0 255 0 0 255 0 0 255 0 0 255 0 0 255 0 0 255 0 0 255 0 0 255 1 1 255 0 0 255 0 0 255 0 0 255 0 0 255 0 0 255 0 0 255 1 1 255 1 1 255 0 0 255 3 142 0 16 128 0 30 114 0 43 100 0 56 86 0 69 72 0 82 58 0 96 44 0 109 30 0 122 16 0 135 2 0 150 246 0 164 232 0 177 218 0 190 204 0 203 190 0 216 176 0 230 162 0 243 148 0 121 0 0 11 118 0 24 104 0 38 90 0 51 76 0 11 5 188 35 250 187 45 240 188 99 250 187 128 243 187 156 236 188 186 229 188 213 220 187 241 213 188 14 204 187 42 196 187 69 189 187 96 181 188 122 174 188 150 168 188 174 159 187 201 152 187 227 144 187 253 138 188 19 130 187 45 124 188 70 118 187 95 111 187 119 103 187 144 97 188 167 90 187 193 84 187 216 78 187 240 71 187 6 69 188 16 59 187 39 53 187 62 46 188 85 40 187 107 34 188 130 28 188 153 22 188 174 15 188 196 9 188 217 3 187 236 250 187 244 242 188 29 250 188 49 244 188 70 238 187 91 233 187 112 227 187 133 221 188 154 217 188 173 210 187 195 205 188 214 199 187 233 194 187 253 188 187 15 183 187 34 178 188 54 172 188 73 167 188 91 161 187 111 157 187 131 153 188 148 147 188 168 141 188 185 136 187 203 131 188 222 126 187 240 121 188 2 118 187 12 112 188 29 108 187 47 103 188 65 98 188 83 93 188 99 88 188 116 84 187 133 79 187 150 74 188 167 70 187 184 64 187 201 61 188 218 57 188 233 52 187 249 47 188 11 42 187 27 38 187 43 33 188 60 30 188 74 25 188 90 20 187 106 16 188 121 12 187 136 8 188 153 3 188 166 254 188 174 246 188 181 238 188 189 231 188 196 223 188 204 215 188 211 207 187 218 199 188 225 191 188 233 183 188 240 174 187 248 168 188 95 0 187 111 4 187 127 8 188 143 12 187 159 16 187 176 21 188 192 25 187 209 29 188 225 33 187 241 38 187 4 43 187 21 47 187 38 52 188 55 56 188 73 62 188 90 65 187 107 70 188 126 75 188 143 78 187 160 83 187 178 88 188 197 93 187 215 97 187 233 101 187 253 108 188 12 111 187 31 116 187 49 121 188 68 126 188 87 130 188 108 136 188 126 140 188 144 144 187 165 150 187 185 156 187 204 161 187 223 165 187 245 171 187 252 177 187 17 183 188 37 187 187 58 192 187 79 199 188 100 203 188 121 207 187 142 214 187 163 219 187 185 225 187 207 231 188 229 236 187 250 241 187 18 249 188 40 254 187 248 181 187 86 1 188 108 7 188 131 13 188 155 19 188 177 24 187 201 31 187 226 38 188 249 43 188 13 47 187 38 54 187 63 61 188 88 67 187 112 73 187 137 80 187 164 88 188 189 93 188 213 100 187 239 106 188 0 0 254 0 0 255 0 0 254 0 0 255 0 0 254 0 0 255 0 0 255 0 0 255 0 0 255 0 0 255 0 0 255 0 0 255 0 0 255 0 0 255 0 0 255 1 1 255 0 0 255 0 0 255 1 1 255 0 0 255 1 1 255 0 0 255 0 0 255 0 0 255 0 0 255 0 0 255 0 0 255 0 0 255 0 0 255 0 0 255 0 0 255 0 0 255 0 0 255 0 0 255 0 0 255 0 0 255 0 0 255 0 0 255 0 0 255 0 0 255 0 0 255 0 0 255 0 0 255 0 0 255 1 1 255 0 0 255 1 1 255 1 1 255 0 0 255 0 0 255 0 224 0 13 210 0 26 196 0 39 182 0 52 169 0 65 155 0 78 140 0 92 127 0 106 113 1 118 98 0 131 85 0 144 71 0 157 57 0 170 42 0 183 30 0 195 16 0 209 2 0 225 247 1 238 232 0 251 218 0 6 203 0 19 189 0 32 175 0 45 161 0 59 147 1 71 132 0 85 120 0 99 106 1 8 22 187 38 14 188 67 6 187 92 252 188 102 241 187 154 252 187 182 244 187 210 236 187 238 228 187 12 220 188 39 212 187 66 205 187 93 197 188 120 190 187 146 182 188 173 174 187 199 168 188 225 161 188 250 154 188 18 147 187 43 140 188 68 134 188 93 126 188 119 119 188 142 112 188 167 106 188 191 99 188 216 92 188 238 86 188 5 83 188 13 73 187 37 67 187 60 61 188 83 55 187 106 48 187 128 43 188 150 36 187 173 30 187 195 24 188 217 18 188 239 12 188 6 5 188 25 254 188 34 245 188 69 253 188 89 246 187 111 241 187 132 236 188 152 229 187 173 224 188 193 218 188 212 212 187 233 207 187 253 202 188 14 196 188 34 191 188 53 186 187 72 180 188 90 174 187 110 170 188 129 165 188 148 159 187 166 154 188 185 150 188 203 144 187 221 139 188 239 134 187 2 131 187 11 125 187 29 120 187 46 114 187 64 110 187 82 106 188 99 101 188 116 96 187 133 91 187 149 86 187 167 82 187 184 76 187 200 73 187 217 67 187 233 64 187 250 59 188 10 53 187 27 49 187 43 45 187 59 41 187 74 36 188 89 31 187 107 29 188 121 23 188 136 18 187 152 15 187 167 11 187 182 6 187 197 2 187 210 252 187 217 244 187 224 236 187 232 229 187 239 221 187 246 213 188 254 205 188 64 3 188 80 7 188 96 12 188 111 16 188 128 21 188 144 24 187 160 28 188 176 32 187 193 36 187 209 41 187 226 45 188 243 50 188 5 55 188 21 59 187 39 64 188 56 68 187 73 73 187 91 77 187 108 82 187 126 87 187 144 91 187 161 97 188 179 100 187 199 105 188 216 110 187 235 116 188 254 121 188 13 124 188 32 129 188 51 134 188 69 137 187 89 143 187 109 149 188 127 153 188 146 159 187 166 164 188 187 169 188 206 174 187 226 179 187 246 184 187 254 190 188 18 195 187 39 200 188 61 207 188 80 211 187 101 217 187 123 222 188 144 228 188 166 234 188 187 239 187 209 245 188 231 250 187 243 239 188 252 229 187 43 3 188 64 9 187 88 15 188 111 21 187 134 27 188 157 33 187 180 39 187 204 45 187 228 52 188 252 57 187 17 63 188 41 70 188 66 76 187 91 82 188 115 89 187 140 95 188 166 102 187 191 109 188 217 115 188 242 122 188 0 0 255 0 0 255 0 0 255 0 0 255 0 0 255 1 1 255 0 0 255 0 0 255 0 0 255 0 0 255 0 0 255 0 0 255 1 1 255 0 0 255 0 0 255 0 0 255 0 0 255 0 0 255 0 0 255 1 1 255 0 0 255 1 1 255 0 0 255 0 0 255 0 0 255 0 0 255 1 1 255 0 0 255 0 0 255 0 0 254 0 0 255 1 1 255 0 0 255 0 0 255 0 0 255 0 0 255 0 0 255 0 0 255 0 0 255 0 0 255 0 0 255 0 0 255 0 0 255 0 0 255 0 0 254 0 0 255 0 0 255 11 37 1 23 22 0 36 9 0 50 250 1 62 236 0 75 222 0 88 209 0 101 196 1 114 181 0 127 167 0 140 153 0 153 140 0 165 125 0 179 112 0 191 97 0 205 84 0 217 70 0 231 57 0 244 43 0 3 30 1 15 15 0 28 2 0 41 245 1 53 230 0 66 217 0 79 203 0 92 189 0 105 175 0 118 160 0 131 148 0 144 134 0 5 39 187 35 31 187 64 23 188 93 14 188 122 6 187 148 253 187 158 242 188 207 253 187 235 245 187 10 237 188 37 229 188 64 221 187 90 212 187 117 206 188 144 199 188 170 190 187 197 184 187 223 176 188 247 168 187 16 162 187 41 155 187 66 148 188 91 141 187 116 134 188 140 128 188 165 121 188 188 113 187 213 107 187 237 101 188 4 97 187 12 88 188 37 83 188 60 76 188 82 69 187 104 63 187 126 55 187 149 50 188 172 44 188 193 37 187 217 32 188 237 26 188 5 19 187 27 14 188 46 6 187 68 1 188 80 247 187 110 254 188 130 248 187 151 243 188 172 237 187 192 232 187 212 226 188 233 221 188 253 216 188 13 210 188 33 204 187 52 199 187 72 194 188 91 188 188 110 183 187 128 178 188 147 172 188 166 167 188 184 162 187 203 158 188 221 152 187 239 146 187 2 143 187 11 137 188 29 133 188 47 128 187 63 122 187 82 119 188 99 113 188 116 108 187 134 105 188 150 100 188 168 95 188 184 89 188 199 84 187 217 80 188 233 76 188 250 71 188 11 66 188 27 61 188 43 57 188 59 52 187 75 48 188 89 44 187 106 38 187 121 35 187 137 31 187 152 26 187 168 22 188 182 17 187 198 14 188 212 9 188 227 5 187 242 1 187 254 250 188 17 2 188 33 7 188 48 11 188 64 15 188 80 19 187 96 23 188 112 27 187 128 32 188 144 36 188 161 40 188 177 44 188 194 49 188 210 53 187 227 57 187 245 62 188 5 67 188 22 73 188 38 75 187 57 81 187 74 85 188 91 90 187 109 94 187 126 99 187 145 104 188 163 108 188 181 113 188 199 118 187 217 123 188 235 128 187 255 132 188 14 137 187 33 141 187 52 146 188 71 151 187 90 156 187 110 161 188 129 167 187 148 172 187 168 177 188 189 183 188 207 187 187 229 194 188 248 198 188 0 203 187 20 209 188 40 213 187 61 219 188 82 225 187 104 231 188 125 236 188 146 242 188 167 247 187 189 253 188 245 30 188 254 21 187 0 5 187 22 12 188 45 18 187 67 24 187 90 30 188 113 36 188 136 42 187 160 48 188 183 54 187 208 61 188 231 66 188 253 72 187 21 79 188 44 85 188 69 91 187 94 97 188 118 104 187 144 111 188 169 117 187 194 124 187 220 131 187 246 137 188 131 3 0 0 0 255 1 1 255 0 0 255 0 0 255 0 0 255 0 0 255 0 0 255 0 0 255 0 0 255 0 0 255 0 0 255 0 0 255 0 0 255 0 0 255 0 0 255 0 0 255 0 0 255 0 0 255 0 0 255 0 0 255 0 0 255 0 0 255 0 0 255 0 0 255 0 0 255 0 0 255 0 0 255 0 0 255 0 0 255 0 0 255 0 0 255 0 0 255 0 0 255 0 0 254 0 0 255 0 0 255 0 0 255 0 0 255 1 1 255 0 0 255 0 0 255 1 1 255 7 116 0 20 102 0 34 90 0 46 75 0 57 60 0 71 48 0 84 34 0 97 20 0 110 7 0 123 248 0 135 234 0 148 220 0 160 207 0 174 193 0 187 180 1 200 166 0 213 152 0 226 138 0 239 125 0 252 111 0 10 97 0 23 84 0 36 69 0 48 55 0 62 42 0 75 29 0 88 15 0 101 1 0 112 244 0 125 230 0 138 217 0 151 203 0 164 189 0 177 176 0 190 162 0 3 57 188 31 48 188 61 40 188 90 31 188 119 23 188 148 15 187 176 7 188 204 254 187 214 242 187 7 253 188 34 245 187 60 237 187 89 230 188 115 222 188 142 214 187 168 207 188 194 199 187 220 192 188 246 185 188 13 177 187 39 171 188 64 164 188 90 158 188 114 150 187 139 143 188 163 136 187 187 130 188 211 122 187 235 116 188 3 112 188 10 102 187 34 97 188 57 89 187 80 84 187 103 77 187 126 71 188 148 65 187 170 58 187 194 52 188 214 46 187 236 40 188 2 32 187 24 27 187 46 21 188 67 15 188 87 8 187 109 3 187 125 251 188 133 241 187 171 251 188 190 245 187 211 240 187 231 234 187 250 228 187 13 223 187 32 218 188 52 212 187 71 207 187 90 201 187 109 196 188 128 191 187 147 185 188 165 180 187 184 174 187 202 170 188 221 165 188 239 159 187 1 155 188 12 150 188 29 145 187 46 140 187 64 135 188 81 130 188 99 125 188 116 121 187 132 115 187 150 111 187 167 106 188 185 102 188 200 97 188 218 93 188 233 88 188 250 83 188 11 78 188 27 73 188 43 69 187 59 64 187 75 60 187 90 55 188 106 51 188 122 46 188 137 42 187 153 39 188 168 34 187 183 29 188 199 25 188 213 21 188 229 18 188 243 13 188 2 10 187 18 14 188 34 19 188 48 21 187 65 26 188 81 31 188 96 35 187 112 39 188 129 43 188 145 48 188 161 52 188 178 56 188 194 61 187 211 65 188 227 69 188 244 74 187 6 79 187 23 84 188 40 88 188 58 93 188 76 98 188 92 102 188 110 107 187 129 112 188 146 116 187 164 121 187 183 127 188 201 132 188 218 135 188 236 139 187 252 146 188 16 149 187 34 154 187 53 159 187 73 165 188 92 170 188 110 174 187 130 180 187 150 185 188 168 190 187 189 195 187 209 202 188 230 206 188 249 211 188 1 217 187 21 221 187 42 228 188 63 233 188 84 239 187 105 244 188 126 249 187 241 86 187 248 77 187 192 3 188 213 8 187 235 13 187 2 20 188 25 26 188 47 32 187 70 38 187 93 44 187 117 51 188 139 56 187 162 62 188 186 68 187 209 75 187 234 82 188 254 87 188 24 94 188 47 100 187 73 107 188 96 112 187 121 119 188 147 127 188 172 133 187 197 139 188 223 146 187 248 153 187 160 48 0 173 35 0 186 21 0 198 7 0 1 1 255 0 0 255 0 0 255 0 0 255 0 0 255 0 0 255 0 0 255 0 0 254 1 1 255 0 0 255 1 1 255 0 0 255 0 0 255 0 0 255 0 0 255 0 0 254 0 0 255 0 0 255 0 0 254 0 0 255 0 0 255 0 0 255 0 0 255 0 0 255 0 0 255 0 0 255 0 0 255 0 0 255 0 0 255 0 0 255 0 0 255 0 0 255 0 0 255 0 0 255 0 0 255 4 196 1 16 181 0 29 168 0 42 154 0 55 141 0 68 127 0 80 113 0 94 101 1 106 86 0 120 74 1 132 59 0 145 45 0 158 31 0 170 18 0 183 5 0 196 246 0 208 232 0 221 219 0 234 205 0 247 192 0 4 177 0 18 164 0 31 150 0 44 137 0 56 124 0 69 110 0 82 96 0 95 83 0 108 69 0 121 55 0 133 43 1 146 28 0 159 14 0 172 1 0 183 245 1 195 230 0 208 217 0 223 204 1 235 189 0 247 176 0 28 65 187 58 56 187 87 48 188 116 40 188 145 32 187 172 23 187 202 16 187 230 7 187 2 253 224 12 243 225 59 253 187 86 245 187 113 238 187 139 230 188 166 223 187 192 215 188 218 208 188 244 201 187 11 193 188 37 186 187 62 179 187 87 172 187 112 165 188 137 158 188 161 151 188 185 144 188 210 137 187 233 131 187 1 125 187 9 118 187 34 112 188 56 105 187 79 98 188 102 92 187 124 86 188 147 79 188 169 73 187 190 66 187 213 60 187 235 54 188 1 46 187 24 41 187 45 35 188 66 29 187 87 23 187 108 17 187 129 11 187 150 5 188 169 254 188 178 246 188 210 254 188 230 247 187 250 242 188 12 236 188 32 231 188 51 225 187 70 220 187 90 215 188 109 209 188 127 204 187 146 198 187 165 193 188 182 188 187 202 182 188 220 177 188 238 172 187 1 168 187 11 163 188 28 158 187 46 153 188 64 148 188 81 143 187 98 138 188 116 133 187 133 128 187 150 123 188 166 118 187 183 114 188 200 109 187 218 105 188 233 100 187 249 94 187 12 90 188 27 85 188 43 80 188 59 76 188 75 71 187 91 67 188 106 62 187 121 57 187 137 54 187 153 49 187 168 46 188 183 41 187 198 36 187 213 32 188 228 27 187 243 24 187 3 21 187 18 25 188 34 30 187 49 34 187 65 38 187 81 42 187 97 47 188 113 51 187 129 55 188 146 60 188 162 64 187 178 67 187 195 73 187 211 77 188 228 81 187 245 86 188 7 91 188 24 96 187 41 101 187 58 105 187 76 110 188 93 114 188 111 119 188 129 123 187 146 128 187 166 135 188 183 138 188 202 144 188 218 148 187 238 153 187 253 158 188 17 162 188 36 167 187 55 172 187 73 176 187 93 183 187 113 189 188 133 194 188 151 198 187 172 203 188 191 209 187 211 214 187 231 219 188 251 225 188 3 230 187 24 236 187 44 241 188 66 248 188 86 252 188 244 133 187 253 123 187 150 4 187 172 11 188 193 16 187 215 22 187 237 27 187 5 34 187 27 40 188 49 46 187 72 52 187 95 59 187 119 65 188 141 71 187 165 77 188 188 83 188 212 90 187 236 96 188 1 102 188 26 108 187 50 115 187 75 121 187 99 128 187 124 135 187 150 141 188 174 148 187 201 155 187 227 163 188 253 169 188 189 93 0 202 79 0 215 66 0 228 52 0 240 39 0 253 25 0 11 11 0 0 0 255 0 0 254 0 0 255 0 0 255 0 0 255 0 0 255 0 0 255 0 0 255 0 0 254 0 0 255 0 0 255 0 0 255 0 0 255 0 0 255 0 0 255 0 0 255 0 0 255 0 0 255 0 0 255 0 0 255 1 1 255 0 0 255 0 0 255 0 0 255 0 0 255 0 0 255 0 0 255 0 0 255 2 17 0 14 3 0 26 246 0 38 232 0 51 219 0 64 205 0 77 192 0 89 178 0 102 165 0 114 150 0 127 137 0 140 124 0 153 111 0 166 97 0 179 85 0 191 70 0 205 58 1 217 43 0 230 30 0 241 16 0 252 0 0 13 244 0 24 231 0 38 217 0 51 204 0 64 190 0 76 177 0 89 164 0 102 150 0 115 136 0 128 124 1 139 109 0 153 95 0 166 82 0 178 68 0 191 55 0 203 40 0 217 28 0 229 14 0 241 1 0 253 244 0 12 231 1 24 216 0 36 203 0 25 82 188 55 74 188 84 65 187 113 57 188 142 49 188 170 39 187 199 32 188 227 24 187 1 15 225 29 7 225 56 254 224 66 244 224 110 254 188 138 247 188 163 239 188 190 231 188 216 224 188 242 216 187 9 209 188 35 202 187 60 195 188 85 187 187 111 181 188 135 173 188 159 165 187 184 159 188 208 152 188 232 145 187 0 139 187 8 132 187 31 126 188 55 120 188 77 113 188 100 106 188 123 100 187 145 93 188 168 87 188 190 81 188 213 75 188 234 68 187 1 61 188 23 55 187 44 49 187 66 44 188 87 38 188 107 31 188 128 25 188 149 19 187 169 13 187 189 7 188 210 1 187 223 248 188 230 239 187 11 250 187 32 245 188 50 238 188 70 233 187 89 227 188 108 222 188 127 217 187 145 211 187 164 206 188 183 202 188 201 195 187 220 190 187 238 185 188 0 179 187 9 174 187 27 169 187 46 165 188 63 160 188 81 155 187 98 150 188 115 145 188 133 140 188 150 136 188 167 131 188 182 126 187 201 122 188 217 116 187 233 112 188 249 107 187 12 102 188 27 97 188 42 91 187 59 88 187 75 83 187 91 79 188 106 74 188 122 70 187 137 65 187 153 61 188 168 58 188 182 52 187 198 48 188 213 44 188 229 39 188 242 34 187 3 33 188 19 37 188 34 41 188 50 45 187 67 51 188 81 54 187 97 58 188 114 63 187 130 67 188 146 71 187 162 76 187 179 80 188 196 86 188 213 90 188 229 94 188 246 98 188 7 104 187 25 108 188 43 113 188 59 117 187 77 122 187 94 127 188 112 132 188 130 136 188 148 141 188 166 146 187 184 151 188 202 156 188 220 160 187 240 166 188 254 170 187 18 175 188 37 180 188 56 185 187 75 190 188 94 196 188 114 201 188 133 206 187 152 210 187 172 217 187 192 222 187 213 228 188 233 233 188 253 238 187 5 244 187 25 249 188 240 186 187 248 178 188 87 0 187 109 7 188 130 12 188 152 18 187 174 24 188 195 30 188 218 36 188 239 42 188 6 48 187 29 55 187 52 61 188 75 67 187 97 73 187 121 79 188 144 86 187 167 92 188 191 99 188 215 105 188 239 111 188 4 117 188 28 123 188 53 130 187 78 136 187 102 143 187 128 150 188 152 157 187 178 164 188 205 172 188 230 177 187 204 150 0 217 137 0 230 122 0 243 110 0 1 96 0 13 83 0 27 70 1 39 55 0 51 41 0 64 28 0 77 15 0 90 1 0 0 0 255 0 0 255 0 0 255 0 0 255 0 0 255 0 0 255 0 0 255 0 0 255 0 0 255 0 0 255 0 0 255 0 0 255 0 0 254 0 0 254 0 0 255 0 0 255 0 0 255 0 0 255 0 0 255 0 0 255 0 0 255 11 80 0 24 66 0 37 54 1 49 40 0 61 26 0 74 13 0 87 0 0 99 242 1 111 230 0 124 215 0 136 202 0 149 188 0 162 175 0 173 161 0 187 149 0 200 135 0 212 121 0 226 109 0 239 96 1 250 82 0 5 66 0 20 54 1 32 39 0 44 26 0 57 12 0 68 1 0 84 242 0 96 229 0 110 216 1 122 202 0 134 189 0 147 175 0 161 163 1 171 148 0 185 135 0 198 121 0 210 108 0 223 95 0 236 81 0 248 68 0 3 54 0 16 41 0 28 27 0 41 14 0 54 1 0 67 243 0 80 230 0 23 100 188 51 91 188 82 82 188 110 74 188 138 64 187 168 58 188 195 49 187 224 41 188 252 33 187 26 24 224 53 16 225 81 8 225 108 0 225 119 245 225 129 235 225 187 247 188 214 240 188 240 233 188 6 225 187 33 217 188 58 210 187 83 203 187 108 196 187 133 189 188 157 181 188 182 174 187 206 167 188 230 161 188 255 154 188 6 148 187 29 141 188 53 134 187 76 128 187 99 121 187 121 113 187 144 108 187 166 101 188 189 95 188 211 89 187 233 82 188 0 75 188 21 69 188 43 63 188 64 57 188 85 51 187 106 44 188 127 39 187 148 33 187 167 27 187 188 20 187 209 15 187 229 9 187 249 4 188 7 252 188 16 243 187 50 252 187 68 245 187 88 241 187 107 235 188 126 230 187 145 224 188 164 219 187 183 214 188 202 209 188 219 203 187 239 199 188 1 194 188 10 188 187 28 183 188 46 178 188 63 173 187 81 168 188 98 163 188 115 158 187 133 153 187 150 148 187 168 144 188 183 138 187 200 133 188 218 128 188 233 124 187 250 119 188 11 113 188 27 109 188 43 104 188 59 100 187 75 95 188 91 90 187 107 86 188 122 81 187 137 76 187 153 73 188 168 68 188 184 64 188 199 59 188 215 56 188 229 51 187 243 46 188 3 44 187 19 49 188 35 53 187 49 56 187 66 61 187 82 66 188 98 70 187 114 74 188 130 78 187 146 82 187 163 88 188 180 92 188 196 97 188 213 101 188 230 106 188 246 110 187 8 116 188 25 120 187 43 125 188 60 130 187 78 135 188 95 139 188 113 145 188 131 149 187 149 153 187 167 159 188 185 164 187 203 169 187 222 174 187 240 179 187 1 183 188 19 188 187 38 193 187 57 198 187 76 204 187 96 209 187 116 214 188 135 218 187 154 225 187 174 230 187 194 235 188 214 241 188 234 246 188 254 252 187 244 233 188 252 224 187 48 3 187 69 9 187 90 15 188 111 21 187 132 26 188 154 32 188 177 39 188 197 44 187 219 50 187 242 56 187 9 63 188 31 69 188 54 75 187 77 81 187 100 88 187 123 94 188 146 100 188 170 107 187 193 113 188 217 120 187 241 126 187 7 132 187 31 138 188 56 145 187 81 152 187 105 159 187 131 165 188 156 172 187 181 178 187 207 186 187 233 193 187 233 194 0 246 180 0 3 167 0 16 153 0 29 140 0 41 126 0 54 113 0 67 99 0 79 86 0 92 73 1 106 60 1 117 46 0 130 32 0 144 19 0 155 5 0 0 0 255 0 0 255 0 0 255 0 0 255 0 0 255 0 0 254 0 0 255 1 1 255 0 0 255 0 0 255 0 0 255 0 0 255 0 0 254 0 0 255 1 1 255 0 0 255 0 0 255 0 0 255 57 102 0 71 89 0 83 76 0 96 63 0 108 49 0 121 36 0 132 22 0 146 9 0 157 252 0 170 239 0 182 225 0 196 213 1 208 199 0 220 185 0 234 172 0 245 159 0 1 144 0 14 130 0 26 117 0 39 104 0 52 89 0 64 77 0 77 64 0 89 50 0 103 38 1 114 24 0 127 10 0 141 254 0 153 239 0 166 227 0 179 214 0 190 200 0 204 186 0 216 174 0 230 160 0 242 147 0 254 134 0 10 120 1 21 107 0 34 94 0 47 80 0 59 67 0 72 54 0 85 41 1 97 27 0 110 14 0 122 0 0 19 116 188 48 108 188 78 99 188 108 91 188 135 82 187 165 74 187 193 66 187 222 57 187 250 50 188 23 40 224 51 32 224 78 24 225 105 16 225 132 8 225 159 1 225 171 246 225 181 235 225 237 248 187 5 240 188 30 233 187 56 226 188 81 218 188 106 211 188 130 204 187 156 198 188 180 190 187 205 184 188 227 175 187 252 169 188 4 163 188 28 156 187 51 149 187 73 141 187 97 136 188 120 130 188 143 123 187 165 116 187 187 111 188 210 103 188 231 97 187 254 90 188 20 83 188 42 77 187 63 71 188 84 65 187 106 58 188 126 52 188 147 46 187 167 40 187 189 35 188 208 29 188 229 24 188 248 17 188 10 11 188 30 7 188 49 0 188 58 246 187 87 253 187 107 248 188 126 242 187 145 237 188 163 232 188 183 228 188 202 221 188 219 216 188 237 211 188 0 206 187 11 202 188 27 196 187 45 190 187 63 185 187 80 180 188 99 175 188 115 170 187 132 165 188 149 160 187 166 155 188 183 150 187 200 145 187 217 141 188 233 136 187 249 130 187 11 125 187 27 121 188 43 116 187 59 111 188 75 107 187 92 103 188 107 98 187 122 93 188 138 89 187 153 84 187 169 80 188 184 75 187 199 71 188 215 68 188 230 62 188 244 58 187 4 56 188 19 60 187 35 64 188 52 70 188 67 72 187 82 77 187 98 81 187 116 87 188 130 90 187 147 95 188 164 100 187 181 105 188 198 110 188 214 113 187 230 118 187 247 123 188 9 128 187 27 134 188 43 136 187 61 141 187 78 147 188 96 152 188 114 157 187 132 162 187 150 167 187 168 171 187 186 176 188 204 181 188 222 186 187 241 192 188 1 195 187 22 202 188 39 207 188 58 211 187 78 217 187 97 222 187 117 228 188 136 233 187 156 238 187 175 243 187 195 249 188 216 254 188 247 8 187 246 6 188 8 6 187 29 12 188 50 17 188 71 23 188 92 29 188 113 35 187 134 40 188 156 46 188 178 52 188 199 58 188 223 65 188 244 70 188 11 77 188 34 84 187 56 90 187 79 96 187 102 102 187 125 109 188 150 116 188 172 122 188 196 128 188 219 135 187 244 141 187 10 147 187 34 154 188 58 159 187 84 168 188 108 174 188 135 182 188 159 188 187 185 196 188 211 203 188 236 209 188 6 236 0 19 223 0 30 208 0 45 196 1 56 183 0 69 169 0 81 156 0 94 143 0 107 129 0 119 116 0 132 103 0 144 89 0 157 76 0 168 63 0 182 49 0 194 36 0 208 23 0 220 9 0 0 0 255 0 0 255 0 0 254 0 0 254 0 0 255 1 1 255 1 1 255 0 0 255 0 0 255 1 1 255 0 0 255 0 0 255 0 0 255 0 0 255 0 0 255 103 124 0 117 112 0 129 98 0 142 85 0 154 72 0 167 59 0 180 46 1 192 32 0 204 19 0 218 7 1 228 248 0 241 235 0 253 222 0 9 207 0 21 194 0 34 181 0 46 167 0 59 153 0 71 140 0 84 128 0 96 113 0 109 101 0 121 88 0 134 75 0 147 62 1 159 48 0 171 35 0 185 22 0 195 7 0 210 252 0 223 239 0 235 225 0 247 212 0 2 199 0 15 186 0 28 173 1 40 160 0 52 146 0 65 133 0 77 119 0 89 106 0 102 93 0 115 80 0 126 66 0 140 53 0 152 40 0 165 27 0 15 134 187 45 125 188 75 116 188 104 108 187 133 99 187 162 91 188 190 82 188 219 74 188 247 66 187 22 58 225 48 49 225 76 41 225 103 33 224 130 25 225 156 17 225 182 9 224 209 1 225 223 247 225 233 236 225 29 249 188 54 241 188 79 234 187 104 227 187 129 218 187 154 212 187 178 205 187 203 198 188 227 191 188 249 184 187 3 178 187 26 171 188 50 164 188 73 157 188 96 150 188 119 144 187 141 137 188 164 131 187 186 123 187 208 117 187 230 111 187 253 106 188 19 97 187 41 91 188 62 85 187 82 78 187 104 72 187 125 66 187 146 60 187 166 54 187 187 48 187 208 43 188 227 36 187 248 32 188 9 25 187 29 19 188 48 13 188 68 8 188 86 1 187 99 249 187 109 241 187 144 250 187 163 245 188 182 240 188 200 234 187 219 229 188 237 223 188 0 218 188 9 214 188 27 208 188 45 203 187 63 198 187 80 193 188 98 189 188 115 183 187 132 178 187 149 173 187 166 168 188 183 163 187 200 158 188 217 153 188 233 148 187 250 143 187 11 138 187 27 133 187 43 128 188 59 123 187 75 119 187 91 114 187 107 109 187 123 105 188 138 100 188 153 96 187 169 91 187 184 87 188 199 82 187 214 78 187 229 74 187 244 69 188 4 68 187 20 72 188 35 76 187 51 80 187 67 85 187 83 89 188 99 94 188 115 98 187 131 103 187 148 107 188 163 111 187 182 116 188 198 122 188 214 125 188 231 130 187 248 135 187 10 140 187 27 145 188 44 150 187 62 155 188 79 160 187 97 164 188 115 169 188 133 174 188 150 178 187 169 185 188 187 189 188 205 194 187 224 199 187 242 205 188 3 209 188 22 214 188 41 219 188 60 225 188 79 230 188 98 235 187 118 240 187 137 246 187 157 250 187 243 61 187 250 52 187 217 3 188 238 8 188 247 19 187 10 20 187 31 25 187 51 31 187 72 37 187 94 43 188 115 49 188 136 55 188 158 61 188 180 67 187 202 73 188 224 79 187 246 85 187 13 92 188 36 98 187 59 104 188 82 111 187 105 117 187 128 123 187 151 130 187 175 136 188 199 143 188 223 150 188 247 156 187 12 162 188 37 168 187 61 175 187 86 182 188 112 189 188 137 196 188 162 203 187 189 210 188 214 218 188 240 225 188 32 22 0 45 9 0 58 252 0 71 239 0 83 225 0 96 212 0 108 199 0 121 186 0 133 172 0 146 159 0 159 147 1 171 132 0 183 119 0 196 106 0 208 93 0 221 80 0 234 66 0 246 53 0 221 3 0 6 27 0 20 14 0 32 3 1 0 0 255 1 1 255 0 0 255 0 0 255 0 0 255 0 0 255 0 0 255 0 0 255 1 1 255 0 0 255 0 0 255 150 147 0 163 134 0 174 119 0 187 108 0 200 94 0 212 81 0 225 67 0 237 55 0 249 41 0 4 27 0 16 14 0 29 1 0 41 243 0 54 230 0 66 217 0 78 204 0 91 191 0 103 177 0 116 164 0 128 151 0 140 138 0 153 125 0 165 112 0 178 99 0 190 85 0 202 72 0 215 59 0 228 46 0 240 33 0 253 20 0 8 8 0 20 249 0 33 237 0 45 224 0 58 210 0 70 198 1 82 184 0 95 171 0 107 158 0 120 145 0 132 132 0 144 118 0 158 106 1 168 91 0 182 79 0 194 66 0 206 53 0 12 151 187 42 141 187 72 133 187 101 125 188 130 116 187 159 108 188 188 99 188 216 91 187 245 84 188 18 73 225 46 65 224 73 57 225 100 49 224 126 40 224 154 33 225 181 25 224 208 18 225 233 10 224 1 2 187 16 248 188 27 239 188 77 250 188 102 241 187 127 235 188 152 228 188 176 220 188 202 213 188 225 206 188 249 199 188 1 193 188 26 187 188 48 179 187 71 172 187 94 165 188 117 158 188 140 152 188 162 145 188 185 139 188 208 132 188 229 125 188 251 119 188 18 112 187 40 105 188 62 100 188 82 93 187 103 86 187 125 81 188 145 74 187 166 68 188 186 62 188 206 56 187 227 50 187 248 45 188 8 38 188 28 33 188 48 27 187 67 21 188 86 15 187 106 10 188 124 4 187 142 253 188 150 244 188 181 253 188 200 247 187 217 241 187 236 236 187 0 231 187 9 226 187 27 221 188 45 216 187 63 212 188 79 204 187 97 200 187 115 195 188 132 190 187 149 185 187 166 180 188 182 174 187 200 170 187 217 165 187 234 161 188 249 155 187 11 150 188 27 145 187 43 140 188 59 134 187 76 131 188 91 126 187 107 121 188 123 117 187 138 112 188 153 107 187 169 103 188 184 97 187 200 94 188 215 90 188 230 85 187 244 81 188 5 79 187 20 83 187 37 89 188 52 92 187 67 96 187 83 101 188 100 106 188 117 111 188 132 115 188 149 120 188 165 124 187 180 127 187 198 133 188 216 139 188 232 142 187 249 147 188 10 152 187 27 156 187 44 161 187 63 167 188 81 173 188 97 176 187 116 182 187 134 187 187 152 192 188 170 197 187 188 202 187 206 207 187 225 212 187 244 218 187 3 221 187 23 227 188 42 233 188 62 239 188 79 242 187 99 247 187 119 254 187 246 104 188 159 0 188 179 5 188 199 11 187 219 16 187 239 22 187 248 32 187 11 32 187 32 39 187 53 45 187 74 51 187 95 58 188 117 63 188 138 70 188 160 75 188 182 81 188 204 87 188 226 93 188 248 99 188 16 106 188 38 113 188 61 119 187 84 125 187 107 132 187 130 138 187 154 145 187 177 150 187 201 158 187 225 165 187 250 171 187 15 177 188 40 184 187 65 191 188 89 198 187 116 205 188 140 212 188 165 219 188 191 226 188 217 233 187 242 240 187 59 64 0 72 51 0 84 37 0 97 24 0 109 11 0 124 255 1 135 241 0 147 228 0 160 215 0 172 201 0 185 188 0 197 175 0 209 162 0 223 150 1 234 136 0 247 122 0 152 2 0 8 97 0 20 85 0 33 72 0 45 58 0 58 45 0 70 32 0 82 19 0 95 6 0 0 0 255 0 0 255 0 0 255 0 0 255 0 0 255 0 0 254 0 0 255 0 0 255 195 168 0 208 156 0 219 141 0 232 128 0 246 117 1 152 0 0 11 89 0 25 75 0 36 62 0 49 50 1 61 36 0 73 23 0 85 10 0 98 253 0 111 241 1 122 228 1 136 214 1 147 200 0 159 187 0 172 175 0 184 160 0 196 149 0 209 135 0 220 121 0 233 109 0 245 95 0 0 83 0 12 70 0 25 57 0 37 44 0 50 32 1 62 18 0 73 4 0 87 247 0 99 235 0 112 222 0 125 209 0 137 196 0 149 183 0 162 170 0 174 157 0 187 145 0 199 130 0 211 117 0 223 104 0 236 91 0 248 78 0 9 167 187 39 160 187 68 151 188 98 141 187 127 133 187 155 124 187 185 116 188 213 108 188 241 99 187 14 89 224 44 83 225 69 72 224 98 65 225 124 57 224 153 50 225 179 42 225 205 33 224 232 26 225 1 19 224 24 10 188 50 3 188 66 249 188 75 238 187 126 250 188 150 243 188 174 236 187 200 229 188 223 221 187 247 214 188 11 215 187 23 201 188 47 194 188 70 187 188 93 180 187 116 173 187 139 166 187 161 160 187 184 153 187 206 146 188 229 140 188 250 133 187 17 126 187 38 119 187 60 113 188 82 108 188 102 100 187 123 94 187 143 87 187 165 82 187 185 76 188 206 70 188 227 64 188 246 58 188 8 52 188 27 46 188 47 40 187 67 34 188 86 29 188 105 23 187 124 17 187 143 12 187 162 6 188 181 0 187 191 247 187 199 238 188 236 249 188 254 244 187 9 239 188 26 234 187 44 229 188 62 223 188 80 217 187 98 214 188 116 208 188 132 203 187 149 197 187 165 191 187 182 186 187 200 182 187 216 176 187 232 171 187 250 167 188 11 162 187 27 157 188 44 152 188 60 146 187 76 143 188 91 138 188 107 133 187 123 128 188 137 123 187 154 119 187 168 114 187 184 110 187 200 106 188 215 101 187 231 97 188 245 92 188 6 92 188 21 95 187 36 100 188 52 104 187 68 108 187 84 113 188 99 117 187 116 122 187 134 127 188 149 131 187 165 136 187 182 140 187 199 145 187 217 150 188 233 155 187 249 159 187 11 165 187 29 171 188 46 175 187 64 180 187 81 185 188 99 190 187 117 196 188 135 200 188 153 205 187 171 210 188 189 215 188 208 220 188 226 225 187 245 231 187 5 235 187 24 240 188 44 247 188 62 251 188 242 156 187 250 147 187 122 3 188 140 9 188 160 13 187 180 19 187 200 24 188 220 30 188 241 37 188 250 45 188 13 47 188 34 53 188 55 59 188 75 64 187 97 71 187 118 76 187 140 83 188 162 89 187 185 96 188 207 102 188 228 107 188 249 113 187 18 121 187 41 127 188 63 134 188 86 140 187 110 147 187 133 153 188 156 160 188 180 166 188 204 172 187 228 180 188 252 186 187 18 193 187 44 199 188 67 206 187 92 213 188 118 220 187 144 229 188 168 235 188 193 241 187 219 248 187 74 118 0 86 105 0 99 92 0 111 79 0 123 66 0 136 52 0 148 39 0 161 27 1 173 13 0 184 0 0 198 242 0 211 230 0 222 217 0 235 204 0 248 191 0 86 4 0 9 167 0 21 153 0 33 140 0 46 127 0 57 113 0 70 101 0 83 88 0 95 75 0 107 62 0 120 49 0 132 36 0 144 23 0 158 11 1 0 0 255 0 0 255 0 0 255 0 0 255 0 0 255 239 189 0 253 177 0 7 162 0 19 149 0 31 136 0 43 123 0 56 111 0 67 96 0 79 84 0 93 72 1 104 58 0 117 45 0 129 32 0 141 19 0 152 5 0 166 249 0 178 236 0 190 223 0 201 209 0 215 197 0 227 184 0 239 171 0 251 158 0 5 144 0 18 132 0 30 119 0 42 107 0 55 94 0 67 81 0 79 68 0 91 55 0 104 42 0 116 29 0 128 16 0 140 3 0 153 246 0 166 233 0 178 220 0 191 207 0 203 194 0 214 181 0 227 168 0 240 155 0 253 142 0 0 129 0 12 116 0 24 103 0 6 187 188 37 178 188 65 168 188 95 159 188 124 150 188 153 142 187 182 133 188 210 125 187 239 116 187 13 106 224 40 98 225 68 90 225 95 82 225 122 74 225 149 66 224 176 58 225 202 50 225 230 42 225 0 34 225 22 26 187 48 19 188 73 11 187 98 4 188 116 249 187 126 240 188 173 251 188 197 244 187 221 237 187 245 229 188 10 229 187 21 216 187 45 209 187 68 202 187 90 195 187 114 189 188 137 181 187 160 174 187 182 168 188 204 161 187 227 154 188 249 149 188 16 140 188 38 135 188 58 126 187 79 121 187 101 115 188 122 108 188 143 102 188 164 96 187 184 90 187 205 84 188 225 77 187 245 71 187 7 66 187 28 61 188 47 55 188 65 47 187 85 42 188 105 36 188 124 31 187 143 25 188 162 19 188 180 14 188 199 8 188 218 2 188 231 250 188 239 242 188 8 252 188 26 247 188 44 241 187 62 237 188 80 231 187 97 225 188 115 220 188 132 215 187 149 210 187 166 205 188 183 200 187 200 195 187 218 191 188 233 184 187 250 180 188 10 173 187 28 170 188 44 164 188 59 159 187 76 154 188 92 150 188 107 145 188 123 140 188 139 136 187 154 131 187 170 126 187 185 122 187 200 117 188 215 113 187 230 108 187 245 104 187 5 103 188 21 107 188 37 111 187 53 116 187 68 120 188 84 125 188 102 130 188 117 134 188 133 139 188 150 143 188 166 148 188 183 153 188 199 157 188 216 162 187 233 167 187 249 171 187 12 177 188 30 182 188 47 187 188 64 192 187 83 198 188 99 201 187 118 207 187 136 212 188 154 217 188 172 223 187 190 228 187 209 233 188 227 238 187 246 244 188 7 248 187 26 253 187 245 198 188 254 189 187 83 4 188 103 10 188 122 15 187 142 21 187 162 27 187 182 32 188 202 39 188 222 44 188 242 49 188 250 58 187 15 61 187 36 67 188 57 72 187 78 79 188 98 84 187 121 91 187 142 97 187 164 103 187 186 109 187 208 117 188 230 122 188 253 128 188 20 136 187 43 142 188 67 149 188 89 155 188 112 162 187 135 168 188 159 175 188 183 182 188 207 188 188 231 195 188 253 202 188 22 209 188 45 214 187 70 222 188 95 229 188 121 236 187 146 242 187 172 251 187 239 31 188 249 21 188 250 3 188 113 145 0 125 132 0 137 119 0 150 106 0 162 93 0 174 80 0 186 66 0 199 54 0 211 41 0 223 28 0 235 15 0 247 2 0 20 5 0 10 235 0 22 221 0 35 208 1 46 196 0 58 182 0 70 168 0 84 156 1 95 144 0 107 130 0 121 118 1 132 104 0 144 91 0 156 78 0 168 64 0 182 53 1 193 38 0 205 26 0 217 13 0 230 0 0 0 0 255 26 209 0 38 195 0 51 184 1 63 171 0 75 158 0 86 144 0 99 132 0 110 118 0 123 106 0 135 93 0 148 80 0 160 67 0 171 53 0 184 42 0 196 29 0 208 16 0 221 3 0 233 246 0 245 233 0 35 1 0 11 208 0 24 194 0 36 182 0 48 168 0 59 155 0 72 143 0 84 130 0 97 118 1 109 104 0 122 92 1 133 78 0 145 65 0 157 52 0 168 38 0 182 27 0 194 14 0 206 1 0 219 244 0 232 231 0 244 219 0 49 0 0 4 193 0 15 179 0 28 167 0 40 153 0 53 141 0 65 128 0 2 204 187 32 194 187 62 185 188 92 176 188 120 167 187 150 159 187 179 150 188 208 141 188 236 133 188 11 124 225 38 115 224 65 106 225 94 99 225 120 90 225 147 82 224 174 74 225 200 66 225 226 58 224 252 50 224 20 42 187 46 34 187 71 27 187 96 19 188 121 12 187 146 4 187 165 250 187 174 239 187 220 252 187 244 245 187 9 245 188 20 231 187 43 224 187 67 217 187 90 210 187 113 203 187 136 196 187 158 189 187 181 182 187 203 176 187 226 169 188 247 162 187 15 155 188 36 148 187 57 141 187 79 135 188 100 129 188 121 122 188 141 116 187 163 110 188 183 104 188 205 97 188 224 91 188 244 85 188 6 79 188 25 72 187 46 67 188 65 61 188 85 57 188 105 51 188 123 44 188 142 39 188 161 32 188 180 27 188 198 21 187 217 16 187 235 10 187 254 3 187 8 0 188 17 246 188 44 255 188 61 248 187 79 243 188 96 238 187 114 233 188 132 229 188 149 222 187 166 217 187 183 213 188 200 207 187 217 202 188 234 197 188 249 191 187 11 186 187 28 182 188 45 177 188 60 171 188 76 167 188 92 162 187 108 157 188 123 152 187 140 148 188 154 144 188 171 138 188 184 132 187 200 129 187 216 124 188 231 120 187 247 116 188 6 113 187 21 119 187 36 122 187 52 127 187 68 131 187 85 137 187 100 140 187 117 146 188 134 150 187 150 156 188 167 160 188 183 165 187 200 170 188 218 175 188 233 178 187 250 184 187 13 190 187 30 195 188 48 200 188 65 205 188 84 211 188 101 215 188 119 220 187 137 225 188 155 231 188 174 237 188 191 241 188 210 246 187 228 250 187 241 248 188 249 239 188 27 1 188 46 7 187 65 12 188 84 18 187 104 23 188 124 29 188 142 34 187 163 40 188 183 46 188 203 52 188 224 57 187 244 63 187 252 71 188 17 75 188 38 81 187 59 87 188 80 93 188 101 99 188 123 105 187 144 111 187 165 118 187 188 124 188 210 130 188 232 136 187 1 145 188 23 150 188 45 157 187 69 164 188 91 170 188 115 176 188 138 183 188 162 190 187 185 197 188 209 204 188 234 210 188 254 216 188 24 223 187 48 230 188 73 237 188 98 245 188 124 252 188 241 83 187 250 73 187 201 4 187 227 11 188 254 19 188 139 185 0 151 172 0 164 160 0 175 147 0 188 134 0 201 122 1 212 108 0 224 95 0 236 82 0 248 69 0 209 5 1 8 43 0 21 30 0 33 17 0 45 5 0 59 250 0 71 237 0 83 224 0 95 211 0 108 198 0 120 185 0 132 172 0 144 159 0 156 146 0 168 133 1 181 120 1 193 108 0 204 94 0 218 83 1 229 69 0 241 56 0 253 43 0 9 29 0 69 230 0 83 218 1 95 205 1 106 191 0 118 179 0 131 167 1 142 153 0 154 140 0 165 126 0 178 115 0 190 102 0 202 89 0 215 77 1 226 63 0 239 50 0 251 38 0 7 24 0 19 12 0 28 0 0 41 242 0 53 230 0 65 218 0 77 204 0 89 191 0 101 178 0 114 165 0 126 153 0 138 140 0 150 127 0 162 114 0 174 101 0 187 89 0 198 76 0 210 63 0 222 50 0 234 37 0 246 24 0 244 1 0 8 0 0 20 242 0 32 231 0 44 217 0 56 204 0 68 190 0 80 179 0 92 166 0 104 153 0 116 139 0 29 212 188 59 203 187 89 194 187 118 185 188 147 176 188 176 167 188 205 158 188 233 150 188 6 139 224 35 132 224 63 123 224 90 115 225 117 107 225 144 98 225 171 90 225 198 82 224 224 74 225 250 66 225 18 58 188 44 50 187 69 43 187 94 35 188 120 27 188 145 21 188 170 13 188 194 5 187 213 251 188 223 240 187 233 232 188 18 246 187 43 239 188 65 233 188 88 225 187 111 218 188 134 211 187 157 204 187 180 197 188 202 190 188 224 183 187 246 177 187 13 168 187 35 162 188 58 157 188 78 149 188 99 143 187 120 136 188 140 130 187 161 123 187 183 118 187 203 111 187 223 105 187 243 99 188 5 93 188 25 87 187 45 81 187 65 75 188 84 69 187 103 63 188 123 57 187 142 51 188 161 46 188 179 40 187 198 34 187 217 29 188 235 23 188 253 17 187 9 14 188 26 7 187 44 2 188 56 250 188 63 240 187 97 251 188 114 247 188 132 240 188 149 235 188 166 230 187 183 226 188 200 219 188 217 214 187 233 209 188 250 205 188 11 198 187 28 194 188 44 189 188 60 183 188 76 179 187 92 174 188 108 169 187 123 164 188 138 159 187 155 155 188 171 151 188 184 145 187 202 141 188 216 136 188 232 131 188 246 127 187 6 126 188 21 130 187 39 135 188 53 140 188 69 144 187 85 149 187 102 153 188 118 158 188 134 163 188 151 168 187 167 172 188 184 177 187 202 183 188 218 187 188 235 192 187 252 197 187 14 202 187 31 207 188 49 212 187 66 217 188 84 223 187 102 228 188 120 233 187 138 238 187 156 243 188 174 248 187 192 254 188 246 32 188 254 24 188 247 4 187 9 9 188 29 15 188 47 21 188 66 26 188 86 31 188 105 37 188 125 42 188 145 48 187 164 53 187 185 60 187 205 65 187 224 70 187 246 77 188 253 84 188 19 89 187 39 95 187 61 101 188 82 107 188 103 113 187 125 119 188 146 127 188 168 132 188 190 138 188 213 146 188 235 150 187 2 158 188 26 166 188 48 171 188 71 178 188 94 185 187 117 191 188 141 199 188 164 205 187 188 213 188 212 219 187 236 226 187 2 233 188 27 239 188 51 246 188 76 253 187 243 133 187 252 123 187 152 5 188 178 12 188 204 20 187 230 27 188 153 238 1 165 225 0 177 212 0 189 199 0 201 186 0 212 172 0 225 161 0 237 148 0 249 135 0 145 6 1 9 110 0 21 96 0 33 84 0 45 71 0 58 59 1 70 45 0 82 32 0 94 20 0 107 7 0 120 252 0 132 239 0 144 227 0 156 213 0 168 200 0 180 189 0 192 175 0 205 162 0 216 149 0 228 136 0 241 124 0 253 111 0 7 97 0 19 84 0 31 71 0 112 249 0 123 238 0 136 225 0 148 212 0 160 199 0 172 187 0 184 174 0 195 160 0 208 148 0 220 136 0 232 123 0 244 110 0 1 97 0 13 84 0 25 72 0 37 59 0 49 46 0 61 33 0 73 21 0 85 8 0 94 252 0 106 239 0 118 226 0 130 213 0 142 201 0 154 188 0 166 175 0 178 162 0 190 150 0 202 137 0 214 124 0 227 112 0 238 99 0 250 86 0 0 75 0 12 62 0 24 49 0 37 37 1 49 25 1 61 12 1 72 254 0 84 241 0 97 229 1 108 215 0 120 204 0 132 191 0 144 177 0 155 163 0 26 230 187 55 219 187 86 211 187 115 201 187 145 194 188 173 184 188 202 176 188 230 167 188 3 157 224 33 149 225 61 140 225 88 131 224 115 123 225 142 115 225 169 106 225 195 98 225 223 90 225 248 82 225 17 74 188 42 66 187 67 58 188 92 51 187 118 43 187 143 35 187 167 27 187 192 20 188 216 13 188 240 5 188 6 3 187 1 244 224 40 254 188 64 247 187 86 239 187 110 233 187 133 226 187 156 218 187 177 212 187 201 205 188 223 198 187 245 191 188 13 185 188 33 176 187 56 170 187 77 164 187 98 157 188 119 150 187 140 145 188 161 138 188 182 131 188 203 126 188 223 119 188 243 113 187 6 108 188 25 101 187 44 95 188 64 89 187 83 83 187 103 77 188 122 71 187 141 65 187 160 58 187 179 52 187 198 47 187 216 42 188 235 36 188 253 30 187 6 25 187 25 20 188 43 15 187 60 9 187 79 4 187 94 254 188 103 244 188 131 253 187 150 248 188 165 241 187 182 236 187 200 232 187 218 228 188 233 222 188 250 218 188 11 211 187 28 205 188 44 200 187 60 196 187 76 191 187 92 186 188 109 182 188 124 176 188 139 171 188 155 166 187 170 162 188 186 157 188 201 152 187 216 148 187 231 143 187 246 138 188 6 138 188 22 142 188 39 148 188 54 153 188 70 156 188 86 160 187 102 166 187 118 170 187 135 175 188 151 180 187 167 184 187 185 189 188 202 194 188 218 199 187 235 204 187 253 209 188 15 215 187 32 220 187 50 225 187 67 230 188 85 236 188 103 240 188 121 246 187 138 250 187 241 81 188 249 73 188 194 2 188 212 7 187 231 12 188 249 18 187 10 22 188 29 28 187 49 33 188 68 40 188 87 45 188 108 51 188 126 56 187 147 63 188 166 67 188 186 73 188 207 79 187 227 85 187 247 91 188 1 98 188 19 102 187 42 110 188 62 115 188 85 122 188 105 128 187 127 134 188 148 140 187 170 146 187 192 153 187 214 159 188 236 165 187 4 173 187 27 180 187 50 186 187 73 193 187 96 200 188 120 206 187 143 213 187 167 220 187 191 227 187 215 234 188 239 241 187 5 247 187 29 254 187 244 183 188 253 173 187 104 6 188 130 13 188 155 21 188 181 28 187 207 36 188 233 43 187 177 20 0 188 7 0 202 251 0 214 238 0 226 225 0 238 213 0 250 200 0 80 6 0 10 174 0 22 162 0 34 149 0 46 136 0 58 123 0 70 111 0 82 98 0 94 85 0 106 73 0 118 60 0 130 47 0 142 34 0 154 22 0 166 9 0 180 254 0 192 241 0 204 228 0 216 216 0 229 204 0 240 190 0 252 178 0 6 164 0 18 151 0 30 138 0 42 125 0 54 113 0 156 14 0 168 1 0 178 246 0 190 233 0 202 220 0 214 207 0 227 196 0 238 182 0 250 169 0 7 156 0 18 144 0 29 130 0 42 118 0 53 106 0 66 93 0 78 80 0 89 67 0 102 55 0 114 42 0 126 30 0 137 17 0 150 4 0 159 248 0 171 235 0 183 223 0 195 210 0 208 199 0 219 185 0 231 172 0 242 160 0 254 147 0 4 136 0 16 123 0 28 110 0 40 98 0 52 85 0 64 72 0 76 60 0 88 47 0 100 34 0 111 22 0 123 9 0 135 252 0 147 240 1 159 226 0 170 214 0 182 201 0 194 188 0 23 247 188 53 238 187 82 229 188 112 220 187 141 211 188 170 202 187 199 193 187 228 184 188 2 174 225 30 165 224 58 157 224 85 148 224 112 140 224 140 131 224 166 124 225 193 115 224 220 106 225 245 97 224 13 89 187 39 82 188 66 75 188 89 67 187 116 59 187 141 51 188 165 43 187 190 36 188 214 28 188 239 21 187 5 17 187 15 7 224 39 254 225 47 244 224 57 235 225 109 248 187 133 242 188 154 235 188 176 227 187 199 220 188 222 212 187 245 206 188 11 198 187 33 191 187 55 185 188 75 177 187 96 171 187 119 166 188 139 158 188 160 152 188 181 146 188 202 139 188 222 133 187 242 127 187 3 121 187 24 114 188 44 109 188 63 102 188 82 95 187 102 90 187 121 84 187 141 78 188 160 72 187 178 66 187 197 61 187 216 55 188 234 49 188 254 44 188 7 39 188 25 33 188 42 27 187 62 23 188 79 17 188 96 11 188 114 6 188 131 0 188 141 247 188 149 239 187 183 250 188 200 244 188 218 239 188 233 234 187 250 230 188 11 223 188 28 218 188 44 213 188 60 208 188 76 203 188 92 198 187 108 193 188 124 188 187 140 183 187 155 178 188 171 173 188 186 169 187 201 163 187 216 159 187 233 156 188 247 150 187 6 149 187 23 154 188 38 159 188 54 164 188 70 168 188 86 173 187 103 177 187 119 183 188 134 186 187 151 191 187 169 197 187 185 202 188 202 207 187 218 212 187 236 217 188 253 222 187 15 229 188 34 234 188 50 238 187 68 243 187 86 248 187 104 253 187 246 121 188 254 114 188 158 4 187 176 9 188 195 15 188 213 20 187 232 25 188 251 32 188 12 36 188 31 42 188 50 47 187 69 52 188 89 58 187 109 65 188 128 70 188 148 75 187 168 81 188 188 86 187 207 93 187 229 99 187 249 105 187 1 111 188 22 117 187 43 123 187 64 129 187 86 136 187 107 142 188 129 148 187 149 153 187 171 160 187 194 167 187 217 174 188 239 180 187 7 188 187 29 194 188 52 202 188 75 208 188 99 215 188 121 221 187 146 228 188 169 235 187 193 241 187 217 249 188 236 242 188 246 232 187 32 0 188 57 7 187 82 14 188 107 22 187 133 29 187 159 37 187 185 45 188 209 51 187 237 59 187 202 58 0 214 45 0 226 33 0 238 20 0 250 7 0 18 7 1 11 239 0 23 226 0 34 213 0 46 201 0 58 189 1 71 176 1 82 163 0 94 150 0 106 137 0 118 125 0 129 111 0 142 99 0 154 87 0 166 74 0 178 62 0 189 49 0 201 36 0 213 25 1 225 11 0 238 0 0 250 243 0 5 229 0 17 217 0 29 204 0 41 192 0 53 179 0 64 165 0 77 154 0 198 34 0 209 20 0 221 9 0 233 254 1 244 240 0 1 228 1 12 215 0 24 202 0 37 189 0 48 177 0 59 164 1 71 152 0 83 139 0 94 126 0 107 114 0 119 101 0 131 89 0 142 76 0 154 65 1 166 51 0 178 39 0 190 25 0 203 15 1 215 2 1 222 244 0 235 233 0 246 220 0 50 2 1 8 196 0 20 182 0 32 171 0 43 158 0 55 145 0 66 132 0 79 120 0 91 108 0 103 95 0 115 83 0 127 71 1 138 57 0 150 45 0 162 32 0 174 20 0 186 7 0 198 250 1 209 237 0 220 225 0 233 212 0 14 251 188 24 240 187 79 246 187 109 237 187 138 228 187 167 219 188 196 210 188 225 201 188 253 192 187 27 182 224 55 174 225 83 165 225 110 156 225 137 148 224 164 139 225 191 131 225 217 123 225 245 116 225 12 107 187 37 98 187 63 90 187 88 82 188 114 75 188 140 68 188 164 59 188 188 51 187 212 44 187 237 35 187 4 31 187 13 22 225 37 15 225 61 7 224 85 1 225 94 246 225 105 237 225 153 248 187 175 240 187 198 234 188 219 227 187 242 220 187 10 213 188 32 206 187 53 199 187 75 192 187 97 187 188 118 180 188 138 173 188 159 166 188 180 160 187 202 153 188 220 146 187 241 140 187 3 134 187 23 128 188 43 122 187 64 117 188 81 110 187 103 105 188 121 98 187 140 92 188 159 86 187 178 80 187 197 74 188 215 68 187 234 62 187 252 57 187 7 52 188 25 46 188 42 40 187 61 35 188 79 29 187 96 24 188 114 18 188 131 13 188 148 8 187 166 2 188 178 249 187 187 242 188 216 253 188 233 246 188 250 241 188 12 236 188 28 230 188 44 225 187 60 220 188 76 215 188 91 209 187 108 205 188 124 200 187 140 195 188 155 190 187 171 185 188 186 181 187 202 176 187 217 171 187 233 166 188 247 162 187 7 162 187 23 166 188 39 171 187 54 175 187 71 180 188 88 185 188 103 190 188 120 195 188 136 199 188 153 204 187 169 209 188 186 214 187 203 219 188 220 224 187 237 229 188 254 234 188 16 240 187 34 245 188 50 249 187 241 169 188 249 160 188 105 1 187 123 6 188 141 11 187 160 18 188 176 21 187 196 28 188 214 33 187 234 39 188 253 45 188 13 49 188 32 55 188 51 60 187 70 66 188 90 72 188 111 78 188 128 82 187 150 90 188 169 95 187 189 101 188 210 108 188 230 113 187 251 119 187 3 125 187 24 131 188 45 137 188 67 145 188 87 150 188 110 156 188 130 163 187 152 169 188 174 175 188 196 182 188 218 188 187 242 196 188 9 203 188 32 209 187 55 216 187 78 223 187 101 231 188 125 237 188 148 244 187 172 250 187 239 34 224 248 24 225 245 2 225 10 8 188 35 15 188 60 23 187 85 30 188 111 38 187 136 45 187 162 53 187 188 60 187 214 67 187 240 76 188 227 96 0 239 83 0 251 71 0 0 59 0 12 47 0 24 34 0 36 22 0 47 9 0 59 252 0 72 240 1 82 227 0 94 214 0 106 202 0 117 188 0 130 176 0 142 164 0 153 151 0 165 139 0 178 127 1 189 114 0 201 100 0 213 88 0 225 76 0 236 63 0 248 51 0 5 38 0 17 25 0 29 13 0 40 0 0 53 245 0 64 233 1 75 219 0 86 207 0 99 194 0 239 54 0 250 40 0 5 29 0 16 16 0 28 4 0 41 247 0 53 235 0 65 222 0 77 211 1 87 196 0 100 185 0 112 172 0 124 160 0 135 146 0 147 136 1 159 122 0 172 110 0 182 97 0 194 85 0 207 73 1 218 60 0 230 47 0 240 34 0 253 22 0 1 12 0 10 0 0 23 243 0 35 230 0 47 218 0 59 205 0 71 194 0 82 180 0 94 168 1 107 156 1 118 143 0 130 131 0 141 119 1 153 106 0 165 93 0 176 79 0 188 68 0 200 55 0 212 43 0 224 30 0 235 18 0 247 5 0 4 248 0 15 236 0 16 14 187 47 6 188 67 249 187 107 255 188 135 245 187 164 237 188 194 228 188 222 218 188 249 209 187 24 199 225 52 191 225 80 182 225 107 173 224 135 164 225 162 156 225 188 147 224 215 139 225 241 131 225 9 123 187 36 116 188 61 106 188 86 98 187 112 91 188 137 83 187 163 76 188 186 67 187 212 60 188 236 53 188 3 47 188 12 37 225 37 31 225 58 22 224 83 15 225 106 7 224 129 1 224 141 247 225 149 237 225 197 249 188 219 242 187 241 235 187 8 227 187 31 220 188 52 214 188 74 208 188 95 200 188 116 193 188 137 187 188 158 180 187 179 174 187 200 167 187 220 160 187 240 154 187 2 148 187 22 142 187 42 136 188 62 129 187 82 123 187 101 117 188 120 111 188 140 105 188 159 99 188 178 93 188 195 86 187 214 80 187 233 76 187 252 70 187 6 65 188 25 59 188 43 54 188 61 49 188 78 43 188 96 37 188 114 31 188 131 26 188 148 20 187 165 15 188 182 10 187 200 4 187 215 254 188 223 245 188 250 254 188 11 247 188 28 242 188 44 237 188 59 232 187 77 227 187 93 222 188 108 217 187 123 212 187 140 207 188 156 202 187 171 197 187 187 192 187 201 188 187 217 182 187 233 179 188 247 173 187 8 173 187 22 178 187 39 183 188 55 188 187 71 192 188 88 197 187 104 202 188 120 207 188 137 213 188 153 217 187 170 222 187 187 227 188 204 232 187 221 237 188 237 241 187 0 248 188 18 254 188 244 207 187 252 199 187 70 3 188 88 8 188 106 14 188 123 18 187 142 24 188 160 30 188 178 35 187 197 41 187 216 46 188 234 52 187 253 58 188 14 62 187 33 67 187 52 74 187 72 79 188 92 86 188 112 91 188 131 97 188 151 103 188 171 109 187 191 115 187 212 122 188 232 127 188 253 133 187 5 139 188 26 145 187 47 152 187 68 158 188 89 164 187 111 171 187 133 177 188 154 183 188 176 190 187 199 197 187 221 203 187 243 210 187 11 218 188 34 224 187 57 231 188 80 238 187 104 245 187 126 252 187 241 82 225 249 72 224 199 3 225 223 10 225 247 18 225 14 25 188 38 31 188 63 39 187 88 46 188 114 54 187 139 62 188 165 69 188 191 76 188 218 85 188 243 92 188 251 134 1 1 122 0 14 110 1 23 96 0 36 84 0 48 72 0 60 60 0 71 47 0 83 35 0 95 22 0 107 10 0 118 252 0 130 240 0 142 228 0 153 215 0 166 202 0 177 190 0 189 177 0 199 165 0 212 151 0 224 140 0 236 127 0 247 115 0 5 102 0 16 90 0 28 77 0 40 65 0 52 52 0 63 40 0 75 27 0 87 15 0 100 3 1 109 247 0 121 234 0 22 73 0 34 61 0 44 47 0 57 36 0 69 23 0 80 11 0 93 0 0 105 242 0 117 230 0 128 217 0 140 205 0 152 193 0 163 180 0 175 168 0 187 155 0 199 143 0 210 131 0 222 118 0 234 106 0 246 93 0 174 1 0 5 70 0 17 58 0 28 45 0 40 33 0 52 20 0 65 9 1 74 252 0 86 239 0 97 228 1 109 214 0 122 203 1 133 191 1 144 177 0 156 165 0 168 152 0 179 140 0 192 129 1 203 115 0 214 103 0 226 90 0 238 78 0 248 66 0 5 52 0 17 40 1 28 27 0 40 14 0 51 2 0 13 32 187 43 23 187 73 13 187 103 4 188 122 249 188 162 254 188 191 245 188 219 235 188 248 226 187 22 216 225 50 207 224 77 198 224 105 190 225 132 181 225 159 172 224 186 164 225 213 155 225 239 147 225 7 139 188 33 131 188 59 123 187 84 114 187 110 106 188 135 98 187 160 91 188 185 83 188 208 75 187 233 67 187 2 61 188 10 53 224 34 45 225 58 38 225 80 29 224 103 22 224 127 16 224 149 8 224 173 1 225 185 247 225 195 238 224 240 249 187 9 243 188 29 235 187 51 228 187 73 221 188 93 214 187 115 207 187 137 202 188 158 194 188 178 188 187 199 181 188 219 175 188 240 168 188 2 162 187 22 156 188 42 149 187 61 144 188 82 137 188 100 131 188 119 125 187 139 119 187 158 113 188 177 107 188 196 101 187 215 95 188 233 89 188 252 83 188 6 78 188 24 72 187 42 67 188 60 61 188 78 55 187 95 49 187 113 44 187 131 39 187 148 33 187 166 29 188 183 22 187 200 17 187 216 11 188 234 7 188 250 1 188 3 247 188 11 238 188 45 249 188 61 244 187 77 239 188 93 234 187 109 229 187 124 224 187 140 219 188 156 214 188 171 209 187 187 205 188 202 199 188 217 195 187 234 191 188 248 185 187 8 185 188 24 190 187 40 195 187 56 200 187 72 204 187 88 209 188 104 214 187 121 219 188 137 224 188 154 230 188 172 235 188 186 239 187 204 244 187 221 248 187 239 254 187 248 246 187 18 0 187 35 5 188 53 11 188 72 17 188 89 21 188 106 26 187 125 32 188 143 37 187 160 43 187 180 48 188 199 54 188 217 60 187 236 65 187 254 71 187 14 75 187 34 81 188 54 87 188 72 92 187 93 99 188 112 105 187 132 111 187 152 117 187 172 123 188 193 129 187 213 135 188 234 141 187 255 147 188 6 153 188 27 160 188 48 165 187 70 172 188 91 179 187 113 185 188 136 191 188 156 198 188 178 205 188 201 211 187 223 218 188 246 225 187 13 232 187 36 238 187 59 246 188 83 254 188 242 129 225 251 120 225 153 4 225 177 11 225 201 19 225 227 27 225 250 33 224 16 39 187 41 47 188 66 54 187 92 63 188 117 69 187 142 77 188 168 85 187 193 92 187 220 100 187 247 108 187 13 171 0 26 160 1 37 147 0 48 134 0 61 123 1 72 109 0 83 97 0 95 85 0 107 72 0 119 60 0 130 47 0 142 35 0 154 22 0 165 10 0 175 253 0 188 240 0 201 229 0 213 217 0 222 202 0 235 191 0 247 178 0 4 166 0 15 153 0 27 141 0 39 129 0 51 116 0 62 104 0 74 91 0 86 79 0 97 67 0 109 54 0 121 42 0 132 29 0 144 17 0 62 92 0 74 80 0 85 68 0 97 55 0 109 43 0 120 31 0 131 17 0 143 6 0 156 249 0 168 237 0 179 225 0 191 213 0 203 200 0 214 188 0 226 175 0 238 163 0 249 151 0 118 2 0 9 128 0 20 116 0 31 102 0 44 91 0 55 79 0 67 66 0 79 54 0 90 42 0 103 30 1 112 16 0 125 5 0 135 248 0 147 236 0 160 224 0 170 211 0 183 199 0 194 187 0 205 174 0 217 162 0 229 150 0 239 136 0 252 125 0 7 111 0 18 99 0 30 86 0 42 74 0 53 62 0 65 49 0 76 37 0 88 25 0 10 50 188 40 41 188 70 31 188 100 22 188 129 11 187 159 3 188 175 247 188 216 252 187 245 243 187 19 233 225 47 224 224 75 215 224 102 206 224 130 198 224 157 189 225 185 180 225 210 172 225 237 164 224 6 156 188 30 146 187 57 139 187 83 131 188 108 122 187 133 114 188 158 107 188 183 99 188 207 91 188 232 83 188 1 76 188 9 68 225 31 60 224 55 52 224 80 46 225 103 38 225 126 31 225 149 24 224 171 15 224 194 9 224 217 2 224 230 248 225 239 238 224 28 249 187 50 242 187 72 236 187 93 229 188 114 222 188 136 216 188 157 209 188 177 202 188 198 195 187 219 189 188 240 183 188 1 176 187 21 171 188 41 163 188 61 157 188 80 151 188 100 145 188 119 138 188 138 131 187 158 126 188 178 121 188 195 114 188 214 108 187 233 102 187 251 96 188 6 91 188 24 85 188 42 80 188 60 74 188 79 69 188 96 63 188 113 57 188 131 51 188 148 45 187 165 40 187 183 35 188 199 29 188 216 24 187 233 19 188 250 13 187 12 7 188 28 2 187 39 250 188 47 241 187 77 250 187 93 246 187 109 241 187 125 236 187 140 231 188 156 227 188 171 220 187 187 216 187 202 211 188 217 205 187 234 202 188 248 198 188 8 197 188 24 202 188 40 207 187 57 213 188 72 217 187 90 221 188 105 226 188 121 232 188 138 236 188 154 241 188 171 246 188 188 250 187 243 36 188 250 27 188 239 2 187 1 8 188 20 14 188 36 18 187 54 24 187 73 29 188 90 34 187 107 40 188 126 45 188 145 52 188 161 55 187 182 62 188 199 67 188 217 73 187 237 79 187 253 84 187 18 90 188 36 95 188 55 101 188 75 107 187 94 112 188 114 118 188 134 124 188 154 130 187 175 137 188 194 143 187 215 149 187 235 155 187 246 168 187 8 167 188 29 174 187 51 181 188 72 187 188 93 193 187 115 199 187 137 206 188 158 213 188 181 219 188 202 226 187 225 233 187 248 240 187 16 247 187 39 254 188 244 176 225 253 166 224 108 5 224 132 12 224 156 20 225 180 27 225 204 34 225 228 41 224 253 49 224 20 56 188 44 63 188 69 70 187 94 78 188 120 85 187 145 93 188 171 101 187 197 109 187 225 117 188 250 125 188 37 208 0 50 196 1 60 183 0 72 171 0 84 158 0 95 146 0 107 134 0 119 121 0 130 109 0 141 96 0 152 84 0 165 72 0 177 60 0 189 48 1 199 34 0 212 23 0 223 10 0 235 254 0 246 241 0 4 230 1 15 216 0 26 205 0 38 192 0 49 179 0 61 167 0 74 156 1 85 142 1 96 130 0 108 118 0 119 105 0 131 93 0 141 81 0 154 68 0 166 56 0 103 112 1 113 99 0 125 87 0 136 74 0 148 62 0 159 49 0 171 38 0 183 25 0 193 12 0 206 1 0 218 245 0 230 232 0 242 220 0 253 207 0 1 197 0 13 185 0 23 172 0 36 161 0 47 148 0 59 136 0 70 124 0 82 112 0 93 99 0 105 87 0 117 75 0 128 63 0 140 50 0 151 38 0 163 25 0 174 14 0 186 1 0 196 245 0 207 233 0 219 220 0 231 207 0 242 196 1 254 184 0 9 170 0 20 157 0 32 145 0 43 133 0 55 122 0 67 109 0 78 96 0 90 84 0 100 71 0 113 60 0 124 47 0 7 69 188 37 58 188 67 49 188 97 39 188 127 30 188 156 20 188 185 12 188 213 2 188 228 246 188 17 250 225 44 241 225 72 232 225 100 223 225 127 215 225 154 206 225 181 197 224 207 188 224 236 181 225 3 172 187 28 163 187 54 155 187 80 147 188 106 139 187 131 130 188 156 122 187 181 114 188 206 106 187 231 100 188 254 91 187 7 84 225 30 75 224 55 69 225 78 61 225 101 53 225 125 46 225 147 39 224 170 31 225 194 24 225 215 17 225 239 11 225 5 1 188 18 247 187 27 238 187 71 250 188 92 243 188 113 237 188 135 230 187 156 223 187 175 216 187 197 210 187 218 203 188 238 196 188 0 190 187 20 184 188 40 177 188 60 172 188 80 165 187 100 159 188 119 152 187 138 146 188 157 140 187 175 133 187 195 127 188 214 121 188 232 115 188 251 110 188 4 103 187 24 99 187 42 93 187 60 87 188 78 81 187 95 76 188 113 70 187 131 64 188 148 59 187 165 53 187 183 48 188 199 42 188 216 36 187 232 30 187 250 26 188 12 19 188 28 14 187 43 9 187 61 4 187 75 253 187 83 245 187 109 254 188 124 247 187 141 243 187 156 238 188 172 233 187 187 228 187 203 223 188 218 218 188 233 213 188 248 209 187 9 209 188 25 214 187 41 219 188 57 224 188 73 229 187 89 234 188 105 239 187 121 244 187 138 249 188 155 254 188 245 72 187 253 64 187 206 4 188 223 9 187 241 15 188 1 20 187 20 26 187 37 31 187 55 36 188 73 42 188 90 47 187 108 53 187 127 58 187 144 63 187 163 69 187 182 75 188 200 81 187 219 86 187 237 91 187 254 97 188 17 103 187 37 108 187 56 113 187 76 120 188 96 126 187 115 132 187 135 138 188 154 143 187 175 150 188 196 158 188 217 164 188 237 169 187 247 181 187 10 182 188 31 188 188 52 194 187 73 201 187 95 207 188 117 214 188 139 221 188 161 227 188 182 234 187 205 241 187 227 248 187 250 255 188 245 222 225 254 212 224 64 6 225 87 13 225 111 21 224 135 28 225 158 35 224 183 42 225 207 50 225 231 57 224 253 65 187 22 71 187 48 79 188 73 87 188 97 94 188 123 102 188 149 109 188 175 117 188 202 126 188 228 133 188 255 141 188 61 244 0 72 231 0 84 219 0 96 207 0 107 195 0 119 182 0 131 170 0 142 158 0 153 146 1 165 133 0 175 121 0 188 109 0 200 97 0 211 84 0 223 72 0 234 60 0 246 48 0 1 34 0 12 22 0 24 9 0 37 254 0 47 241 0 59 229 0 71 217 0 83 205 1 94 193 0 106 180 0 118 167 0 129 156 0 140 144 0 153 132 1 164 119 0 175 107 0 187 95 0 141 130 0 152 118 0 164 105 0 175 93 0 187 81 0 199 70 1 210 58 0 221 45 0 233 32 0 245 20 0 246 0 0 5 254 0 16 242 0 28 229 0 40 218 1 51 205 0 62 194 0 74 181 0 85 168 0 97 156 0 109 145 1 120 132 0 131 120 0 142 108 0 154 95 0 165 83 0 177 71 0 188 59 0 201 47 0 211 34 0 223 22 0 234 10 0 245 254 0 13 0 0 11 228 0 21 215 0 34 204 0 45 191 0 57 179 0 68 167 0 80 155 0 91 143 0 103 131 0 114 118 0 126 106 0 136 93 0 149 82 0 160 70 0 4 87 188 33 76 188 64 67 187 94 58 188 123 47 188 153 38 188 182 28 187 211 19 187 239 10 188 13 254 187 23 243 187 69 248 224 96 239 224 125 231 224 152 223 225 179 214 225 206 204 224 232 196 225 0 188 187 27 180 187 53 171 188 78 164 188 104 155 188 129 146 188 154 138 187 179 130 187 204 122 188 228 114 188 253 106 187 5 99 224 29 92 225 53 84 224 77 76 224 100 69 225 123 61 225 146 54 224 169 46 225 192 39 225 213 31 224 236 25 224 4 16 188 26 9 188 48 2 187 61 248 188 70 239 188 112 251 188 134 244 188 155 237 188 175 231 187 196 224 187 217 217 187 237 211 188 2 206 188 20 198 188 40 191 188 59 185 188 79 178 188 98 171 187 119 166 188 136 159 187 157 152 187 176 147 188 195 141 188 213 135 187 232 129 187 249 123 187 5 118 188 23 112 188 41 106 188 60 100 188 76 93 187 96 90 188 113 83 187 130 77 188 148 70 187 165 66 188 183 60 188 199 55 188 215 48 187 233 44 188 250 38 188 12 32 188 28 27 188 45 21 188 60 15 187 77 11 187 93 6 187 109 0 187 118 248 188 126 239 188 157 249 187 172 245 188 188 240 187 203 235 188 218 231 188 234 225 187 249 220 188 10 221 188 25 226 187 41 232 188 57 236 188 74 242 188 90 246 187 106 251 188 241 117 188 249 109 187 156 1 187 173 6 188 189 11 187 206 16 188 224 22 187 241 27 187 4 34 188 20 38 188 38 44 187 56 49 187 74 56 188 91 60 188 109 66 188 127 70 187 146 77 188 164 82 188 183 88 187 201 94 188 220 100 187 239 105 188 0 111 188 19 116 187 38 122 187 58 128 187 77 134 187 96 140 187 117 146 187 137 152 188 158 158 188 176 163 187 197 171 188 218 177 187 239 183 187 247 193 187 12 196 187 33 202 188 54 209 188 74 214 187 97 222 187 119 229 188 141 235 188 163 242 187 185 249 188 236 21 188 245 11 187 254 2 187 20 7 225 44 15 225 67 22 225 90 29 224 113 36 224 137 43 225 160 49 224 185 58 225 209 65 224 234 73 224 0 79 188 25 87 187 50 94 187 75 102 187 100 110 188 126 118 187 152 126 187 177 133 187 204 142 188 231 150 188 73 34 0 86 23 0 97 11 0 107 0 0 119 243 0 130 230 0 142 218 1 153 206 0 165 194 0 176 183 1 188 170 0 199 157 0 210 145 0 222 133 0 234 122 0 245 109 0 1 96 1 11 83 0 23 71 0 34 58 0 46 46 0 57 34 0 69 22 0 80 10 0 93 254 0 106 242 0 116 230 0 127 218 0 139 206 0 150 194 0 162 182 0 173 169 0 185 157 0 196 145 0 208 133 0 181 149 1 190 136 0 203 125 1 214 112 0 225 100 0 237 88 0 248 76 0 193 2 0 7 51 0 18 39 0 29 27 0 41 15 0 52 3 0 64 248 0 76 237 0 88 225 0 100 213 0 111 200 0 123 188 0 134 176 0 145 164 0 157 152 0 168 140 0 181 129 1 190 116 0 202 104 0 215 92 1 225 79 0 237 67 0 248 55 1 2 42 0 13 30 0 24 17 0 36 5 0 47 249 0 59 237 0 69 224 0 80 212 0 92 201 0 104 188 0 116 176 0 127 164 0 138 152 0 150 140 0 161 128 0 173 116 0 184 104 0 196 92 0 0 103 187 30 93 187 60 85 187 90 75 188 119 64 187 151 56 188 180 46 188 208 37 188 236 27 187 11 16 187 39 7 187 64 253 188 75 242 188 122 248 225 150 239 224 177 231 224 204 222 224 230 212 224 2 207 225 25 196 188 51 188 188 76 179 188 102 171 187 127 163 188 152 154 187 177 146 188 202 138 188 227 130 188 251 122 188 4 115 225 29 108 225 52 100 225 75 92 225 98 84 225 122 77 225 145 69 225 168 62 225 191 55 225 213 47 224 235 38 224 3 31 187 25 25 188 47 17 187 69 10 187 90 3 188 105 249 187 113 240 188 154 253 188 174 245 187 196 239 188 216 231 187 237 225 187 1 219 187 19 212 187 39 204 187 59 199 188 78 191 187 98 186 188 119 179 188 137 173 188 156 167 187 175 161 187 194 154 188 212 148 187 232 141 187 250 136 188 5 131 188 23 125 188 41 119 188 59 113 188 77 107 187 95 102 188 113 96 188 131 90 188 148 84 188 165 79 187 182 73 187 199 67 187 216 62 187 234 56 188 250 51 188 12 44 188 28 39 188 45 34 188 61 28 187 78 24 188 93 18 187 110 13 188 125 7 187 141 2 187 153 251 188 161 243 188 188 252 187 203 247 187 219 242 188 234 237 188 249 233 188 10 233 188 24 238 187 41 243 187 58 248 187 74 253 188 245 153 188 253 145 188 123 3 187 140 8 187 156 13 188 173 19 188 190 24 187 207 29 187 224 34 188 242 40 188 4 46 187 21 51 187 39 57 187 57 62 188 74 68 188 92 72 187 110 79 188 129 84 188 147 90 188 165 96 187 185 101 188 203 107 187 221 113 188 240 119 187 2 124 188 20 130 187 40 136 187 59 142 187 79 148 187 97 153 187 118 160 188 138 166 187 158 172 188 179 178 188 199 185 188 220 191 187 240 198 188 249 208 188 13 210 188 35 217 188 56 223 188 77 230 187 99 237 188 121 243 187 143 250 187 238 67 188 247 56 187 209 1 187 233 8 188 0 16 225 23 23 225 46 30 225 69 37 224 92 44 225 117 52 225 140 59 225 164 66 225 188 73 225 212 81 225 237 88 224 3 95 187 28 103 188 53 110 187 78 119 188 103 126 187 129 134 188 155 142 188 181 150 187 207 158 188 233 165 187 97 70 0 109 58 0 120 46 0 131 34 0 143 22 0 154 10 0 164 254 0 176 242 0 187 229 0 198 217 0 210 205 0 220 193 0 233 181 0 244 169 0 99 0 0 10 143 0 23 131 1 33 119 0 45 107 0 56 95 0 68 83 0 79 71 0 91 60 1 102 46 0 113 34 0 125 22 0 136 10 0 149 0 0 160 242 0 172 231 0 183 218 0 194 206 0 206 194 0 217 182 0 229 170 0 218 167 0 229 153 0 241 142 1 252 130 0 139 3 0 10 106 0 21 93 0 33 82 0 44 70 0 56 58 0 67 46 0 78 34 0 90 22 0 101 10 0 111 1 0 125 244 0 137 232 0 149 220 0 159 208 0 170 195 0 182 184 0 194 172 0 204 160 0 217 149 0 228 136 0 239 124 0 249 111 0 4 98 0 15 86 0 26 74 0 38 62 0 49 50 0 60 38 0 71 25 0 83 14 0 94 2 0 106 246 0 117 234 0 128 222 0 140 210 0 151 199 0 162 187 0 174 174 0 184 160 0 196 149 0 207 136 0 219 126 1 230 113 0 242 101 0 27 113 187 57 103 187 87 93 188 117 83 187 147 73 188 176 63 188 204 53 187 235 44 188 8 34 187 36 24 187 64 15 187 92 6 187 115 253 188 125 241 188 174 247 225 202 239 225 228 230 224 254 220 224 22 213 188 48 204 188 74 195 188 99 186 187 125 179 187 150 170 188 174 162 187 200 154 188 225 146 187 249 138 187 2 131 225 27 124 225 50 115 224 73 107 224 97 100 225 121 93 225 143 84 225 166 77 225 189 69 225 213 62 225 234 54 225 2 46 188 24 38 187 46 31 188 67 24 188 89 17 188 110 10 187 132 3 188 146 249 187 156 241 188 195 253 188 216 247 188 236 239 187 1 234 188 18 226 188 39 219 188 58 213 187 78 206 187 98 200 188 117 193 188 136 186 187 157 181 188 175 174 188 194 168 188 212 162 187 231 156 188 250 149 188 4 144 187 22 137 187 41 132 188 60 127 188 77 120 188 95 115 188 113 110 188 130 103 188 148 97 187 165 92 187 183 86 188 199 80 188 216 75 188 233 69 188 250 64 187 11 56 187 28 52 188 45 46 187 61 41 188 77 35 188 94 31 188 109 25 187 125 20 188 140 13 187 157 9 188 173 4 187 186 254 187 195 246 188 219 255 188 234 249 188 249 244 188 10 246 188 26 251 188 241 197 188 248 189 188 74 0 187 91 5 188 107 10 187 124 16 188 140 21 187 157 26 187 175 32 188 190 36 187 208 42 187 225 47 188 241 52 187 3 58 187 22 65 188 40 70 187 58 76 188 75 81 187 92 86 187 111 92 188 130 98 188 148 103 187 166 109 188 184 115 187 204 121 188 223 126 187 242 132 187 2 137 188 22 143 188 40 148 187 60 155 188 80 161 187 100 167 188 120 174 188 140 180 187 160 186 187 180 192 188 202 200 188 221 205 188 242 212 187 250 221 187 14 225 187 36 231 187 58 238 188 79 245 188 100 250 187 239 110 187 247 100 187 167 2 188 189 9 188 211 15 187 235 22 188 3 31 225 25 38 224 48 45 225 70 52 224 95 59 225 119 67 225 142 74 225 166 82 225 191 89 225 215 97 224 238 104 224 6 111 187 30 119 188 56 126 188 81 134 188 106 141 187 132 150 188 158 158 188 184 166 188 211 174 187 237 183 187 120 105 0 131 93 0 143 81 0 153 69 0 165 57 0 177 45 0 188 32 0 199 22 1 211 9 0 221 253 0 232 241 0 243 229 0 38 0 0 10 203 0 21 191 0 32 179 0 44 167 0 55 155 0 66 143 0 78 131 0 89 119 0 100 107 0 112 95 0 123 83 0 134 71 0 146 59 0 157 47 0 168 35 0 180 23 0 190 10 0 203 0 0 214 242 0 226 231 0 238 219 0 249 207 0 70 0 0 3 173 0 13 160 0 25 149 0 36 137 0 48 125 0 58 112 0 70 101 0 81 89 0 93 77 0 104 65 0 115 53 0 127 41 0 138 29 0 149 17 0 160 5 0 172 250 0 185 239 0 196 227 0 207 215 0 219 203 0 230 191 0 241 179 0 252 167 0 6 154 0 17 141 0 29 131 1 40 118 0 51 106 0 61 93 0 73 83 1 84 69 0 96 58 0 107 47 0 118 35 0 130 23 0 141 11 0 152 254 0 164 242 0 175 230 0 187 219 0 197 207 0 208 194 0 219 182 0 232 172 1 242 160 0 254 147 0 7 135 0 18 123 0 24 131 188 55 122 188 84 111 188 113 100 187 144 91 188 173 81 187 202 72 187 232 62 188 5 51 188 33 41 187 62 32 187 91 24 188 117 14 188 145 5 187 165 249 187 175 240 187 227 246 225 253 238 225 20 229 188 46 220 188 72 212 188 98 203 187 123 195 187 149 186 187 174 178 187 199 171 188 223 162 188 247 153 187 0 146 224 24 139 225 49 131 225 72 123 224 95 116 225 119 107 225 141 99 224 165 92 225 188 83 224 210 77 225 233 69 224 1 61 188 22 53 187 45 46 187 66 39 188 88 32 188 109 25 187 131 18 187 153 11 188 173 4 187 189 251 188 199 242 188 235 253 187 0 246 187 18 241 188 37 233 187 58 228 188 77 220 188 96 212 187 116 207 188 137 202 188 155 194 188 174 188 188 193 182 188 213 176 188 231 168 187 249 163 187 4 158 187 22 152 188 41 146 188 59 140 188 77 134 187 94 127 187 112 122 187 131 117 188 147 110 188 166 105 188 182 99 187 199 93 188 216 87 188 233 82 187 249 76 187 11 69 187 28 65 188 45 59 188 61 53 188 77 48 187 94 42 187 110 37 187 126 32 187 141 27 188 157 21 188 173 16 188 187 10 187 204 6 187 219 1 187 229 248 187 236 240 187 244 233 188 251 224 188 42 3 188 58 9 188 74 13 187 91 18 187 108 23 187 124 28 188 141 33 188 158 39 188 174 44 187 191 49 187 209 54 188 226 60 188 243 65 188 5 72 187 23 77 188 41 83 187 58 88 188 76 94 188 94 99 188 112 105 187 131 111 187 149 117 188 167 121 187 186 128 188 205 134 188 223 139 187 242 145 187 4 150 187 23 157 188 42 163 187 62 169 188 81 174 187 101 182 188 120 187 187 140 194 187 161 200 187 182 207 188 202 213 188 223 219 188 244 226 188 252 234 187 17 239 188 38 246 188 60 252 187 241 154 188 250 145 188 126 4 188 148 11 188 169 16 188 190 22 187 214 30 187 236 38 187 4 46 225 27 53 225 50 60 225 74 67 224 96 75 224 121 82 225 145 90 224 169 97 225 194 106 225 218 112 225 242 120 225 9 127 188 34 135 188 59 142 188 84 150 188 110 158 188 135 166 187 161 175 188 186 182 187 213 190 187 241 199 188 144 139 0 154 127 0 165 115 0 176 103 0 187 90 0 199 79 0 210 67 0 220 55 0 234 44 0 245 33 1 236 0 0 9 6 0 20 250 0 31 238 0 44 227 1 54 214 0 65 202 0 76 190 0 89 179 1 99 166 0 110 153 0 120 143 0 133 131 0 144 119 0 155 107 0 167 95 0 178 83 0 189 72 1 200 59 0 212 47 0 223 35 0 234 23 0 245 11 0 0 0 0 10 244 0 29 202 0 40 191 0 52 180 0 62 167 0 72 155 0 85 143 0 96 131 0 107 119 0 118 107 0 128 94 0 141 83 0 152 72 0 163 60 0 174 48 0 185 36 0 198 25 1 208 12 0 219 1 1 233 247 0 243 234 0 32 0 0 8 209 0 19 197 0 30 186 0 41 175 0 53 162 0 64 150 0 75 138 0 86 126 0 97 114 0 109 102 0 120 90 0 131 79 0 142 67 0 153 55 0 165 43 0 176 31 0 187 19 0 198 7 0 209 251 0 221 240 0 232 227 0 243 215 0 255 205 0 8 192 0 19 180 0 30 167 0 41 156 0 53 144 0 20 149 187 52 140 188 81 129 188 111 119 188 141 109 188 170 99 187 199 89 187 229 81 188 3 69 188 31 59 187 59 51 188 86 39 187 115 31 188 141 22 187 171 14 188 197 4 188 215 248 187 250 254 224 18 246 188 44 237 188 70 228 188 96 220 188 121 211 188 146 203 187 171 193 187 197 186 187 221 178 188 245 169 187 10 170 187 23 154 225 47 146 224 70 139 225 93 130 224 117 123 225 141 116 225 164 107 224 186 100 225 209 92 225 232 85 224 255 78 225 22 68 187 43 61 188 65 54 187 87 47 188 108 39 188 130 32 187 151 25 188 172 18 187 194 12 188 214 4 188 232 253 188 239 242 188 17 254 188 38 248 188 57 241 187 77 234 188 96 228 188 116 221 187 135 213 187 155 208 188 175 202 188 193 195 187 212 188 187 230 183 187 249 176 188 4 171 187 22 165 188 40 159 188 59 153 188 77 147 188 94 141 188 112 135 187 130 129 188 146 123 187 165 117 187 182 112 188 198 106 187 217 100 188 234 94 188 249 88 187 12 82 187 27 76 187 45 71 187 60 66 187 78 60 188 94 55 188 110 49 187 127 45 188 142 39 187 158 34 188 173 27 187 189 23 188 204 18 187 220 13 188 236 8 188 250 3 188 11 5 188 27 10 187 43 15 188 59 20 188 75 25 188 92 30 188 108 35 188 125 41 188 141 46 187 158 51 188 175 56 187 192 62 188 208 66 187 227 73 188 244 78 188 6 85 187 24 90 187 42 97 188 59 101 188 77 107 188 95 113 188 113 119 188 132 124 188 150 130 188 169 136 188 187 142 187 205 146 187 225 152 187 245 160 188 5 164 188 24 171 187 44 177 188 63 183 187 84 190 188 103 195 187 123 202 187 143 208 187 163 214 187 183 221 187 204 227 188 225 234 188 246 241 188 254 248 188 19 253 187 241 197 187 250 188 187 83 4 187 105 11 187 126 17 187 149 24 187 171 31 187 194 38 188 216 46 187 238 53 187 7 61 225 30 68 225 53 76 224 76 83 225 100 90 225 124 98 225 147 105 224 172 113 224 196 121 225 220 128 225 245 136 225 11 143 187 37 151 188 62 159 188 87 167 188 113 174 187 137 182 187 166 191 188 191 199 187 217 208 188 244 216 187 164 172 0 176 161 0 186 149 0 199 137 0 210 125 0 221 114 0 233 102 0 243 90 0 176 0 0 8 65 0 19 53 0 30 41 0 41 29 0 53 17 0 64 5 0 75 249 0 86 237 0 97 225 0 110 213 1 120 202 0 131 190 0 141 178 0 153 166 0 165 154 0 176 142 0 187 130 0 199 118 0 209 107 0 220 94 0 232 83 0 242 71 0 254 59 0 8 47 0 20 36 1 31 24 1 65 220 0 77 208 0 88 196 0 99 184 0 110 173 0 122 161 0 132 149 0 143 137 0 155 125 0 166 114 0 177 102 0 188 90 0 200 79 1 210 66 0 221 55 0 232 43 0 244 31 0 0 20 0 10 6 0 22 253 1 32 240 0 43 228 0 54 217 0 66 205 0 77 194 0 89 182 0 99 168 0 110 158 0 121 146 0 132 134 0 144 122 0 155 110 0 165 97 0 177 87 0 188 74 0 199 63 0 211 52 1 220 38 0 233 28 0 244 16 0 0 4 0 7 247 0 19 236 0 30 224 0 42 213 0 53 202 0 64 189 0 75 177 0 86 165 0 17 167 187 48 157 188 78 147 187 108 136 187 138 127 188 167 117 187 196 107 188 225 97 188 0 86 188 28 77 187 57 67 188 85 58 187 112 48 187 140 39 188 167 30 187 194 21 188 220 11 187 248 3 187 6 248 187 41 253 187 68 245 187 94 236 187 119 227 187 146 219 188 170 210 187 195 202 187 219 194 187 244 185 187 9 185 188 21 170 225 45 162 224 69 154 225 91 145 224 116 138 224 138 130 224 162 123 224 184 115 224 207 107 224 230 100 225 254 93 225 20 83 188 41 75 187 63 68 187 86 61 187 107 54 188 130 47 188 150 40 188 171 33 188 192 26 187 213 19 188 233 12 187 254 5 187 14 253 225 23 244 225 30 234 224 77 248 188 96 241 188 115 235 188 135 228 187 153 221 187 173 215 188 192 209 188 211 201 187 230 196 188 249 190 187 3 185 188 22 178 188 40 172 188 57 165 187 76 160 187 94 154 188 111 147 187 130 141 187 147 136 187 165 130 188 182 123 187 199 119 187 216 113 188 233 107 188 250 102 188 12 95 188 28 89 187 45 84 188 61 78 188 78 73 188 94 67 188 110 62 187 126 56 188 142 52 188 159 47 188 173 41 187 189 35 188 205 31 188 220 25 187 235 20 188 249 15 187 11 17 187 27 22 188 43 27 187 59 32 187 76 37 187 92 43 187 110 49 188 125 53 187 141 58 187 159 64 187 176 69 188 193 75 187 210 80 187 227 85 187 245 91 187 7 96 187 24 103 187 42 109 187 60 114 188 78 119 187 96 126 188 114 132 187 133 137 187 151 143 187 170 149 187 189 156 188 207 160 187 226 167 187 245 173 187 6 178 188 25 184 187 45 190 188 64 197 187 84 203 187 104 209 187 124 216 187 145 222 188 164 228 187 184 235 187 205 241 187 225 247 187 235 249 187 244 240 187 253 231 187 43 5 188 63 12 187 85 18 187 107 24 187 129 32 187 151 39 188 173 46 187 195 53 188 218 61 187 241 68 187 9 76 224 32 84 225 55 91 225 79 98 224 102 106 225 126 113 225 149 120 224 175 130 225 198 136 224 223 144 224 247 151 224 14 159 188 39 167 187 65 175 188 90 183 187 116 191 187 142 199 188 168 208 187 194 217 188 221 224 188 247 233 187 187 206 0 198 194 0 209 183 0 220 172 0 231 159 0 243 147 0 254 135 0 7 122 0 18 110 0 29 99 0 40 87 0 52 75 0 63 63 0 74 52 1 85 39 0 96 28 0 107 16 0 118 4 0 129 248 0 140 236 0 152 224 0 164 213 0 174 202 0 185 189 0 196 177 0 208 166 1 219 153 0 230 142 0 242 131 1 252 118 0 5 106 0 16 95 0 27 83 0 39 71 0 50 59 0 102 237 0 113 226 0 124 214 0 135 202 0 146 190 0 157 179 0 168 167 0 179 155 0 190 143 0 201 132 0 212 119 0 224 108 0 235 96 0 246 85 0 3 73 1 13 61 0 24 49 0 35 38 0 46 26 0 58 14 0 69 2 0 78 247 0 89 235 0 100 224 0 112 213 0 123 200 0 134 189 0 145 177 0 156 165 0 167 153 0 178 142 0 189 130 0 200 118 0 211 106 0 221 94 0 233 83 0 245 71 0 0 59 0 10 46 0 22 35 0 33 24 0 44 12 0 56 0 0 64 245 0 75 233 0 86 221 0 97 210 0 108 198 0 119 186 0 14 187 188 44 174 187 75 165 187 105 155 188 135 145 188 164 135 188 193 125 187 222 115 187 250 104 187 26 94 187 53 83 187 82 75 187 110 65 188 137 56 188 165 47 188 192 38 188 219 29 188 245 20 187 14 11 188 40 2 187 53 246 187 93 253 188 117 244 187 143 235 187 168 228 188 194 218 188 218 210 188 242 201 187 9 201 188 19 186 225 43 178 224 67 170 225 91 162 225 113 153 224 137 145 224 161 139 225 184 130 225 206 122 224 229 115 224 251 108 225 20 99 188 41 91 187 63 84 187 85 76 187 106 69 187 129 63 188 149 54 188 171 48 188 191 41 188 212 33 188 233 26 187 254 20 188 15 12 225 35 6 225 54 254 225 63 244 224 72 235 225 115 249 188 134 242 188 155 236 188 173 229 188 192 223 187 211 216 187 230 210 188 248 203 188 3 198 187 22 192 188 40 186 187 58 179 188 76 173 188 93 167 187 113 161 188 131 156 188 147 149 188 165 143 187 182 137 188 199 132 187 216 126 188 233 120 188 250 114 188 12 109 188 29 102 187 46 97 188 62 91 188 78 85 188 94 80 187 110 74 187 126 69 187 142 64 188 157 57 187 175 53 188 189 47 187 205 42 187 220 37 188 236 32 187 251 28 188 12 29 187 28 34 188 43 38 187 60 45 187 76 50 188 93 55 188 109 60 187 127 67 188 143 71 187 159 76 187 175 81 187 193 86 187 211 93 187 228 98 187 245 104 188 8 110 187 24 115 187 43 122 187 61 127 188 79 133 187 97 139 187 115 145 188 135 152 188 152 158 188 171 163 188 189 169 187 208 175 188 227 181 187 246 187 187 7 192 187 27 199 188 45 204 187 66 211 187 87 218 188 106 223 187 126 230 188 146 236 187 166 243 188 186 249 188 238 76 137 246 72 137 254 67 137 2 7 188 22 13 188 44 19 187 65 26 188 87 33 188 109 40 188 131 48 188 153 54 187 175 61 188 198 68 187 220 76 188 243 83 188 11 91 225 34 99 225 58 106 224 82 114 225 105 121 224 129 129 224 153 137 225 177 144 225 201 151 224 226 160 225 250 167 224 17 175 187 42 183 188 68 191 188 92 198 187 120 208 188 145 216 187 171 224 188 197 233 187 224 241 187 250 249 187 208 239 0 220 228 1 232 217 1 242 204 0 253 192 0 7 180 1 16 166 0 28 156 0 39 144 0 50 132 0 61 120 0 73 109 0 84 97 0 95 85 0 106 72 0 117 62 0 128 50 0 140 39 1 150 26 0 161 16 1 172 3 0 183 247 0 195 236 1 206 224 1 216 213 0 227 200 0 239 188 0 249 175 0 3 165 0 15 154 1 25 141 0 37 131 1 47 118 0 58 106 0 69 95 0 138 254 0 149 243 0 160 231 0 171 218 0 183 208 0 194 196 0 204 184 0 215 173 0 227 161 0 237 149 0 248 138 0 4 126 0 15 114 0 26 103 0 37 91 0 48 79 0 59 68 0 70 56 0 82 45 1 92 33 0 104 21 0 114 9 0 123 254 0 135 242 0 146 231 0 157 219 0 168 207 0 179 196 0 190 184 0 202 172 0 212 161 0 224 150 1 234 137 0 245 126 0 1 114 0 12 102 0 23 90 0 34 79 0 45 67 0 57 56 1 68 45 1 78 32 0 89 20 0 99 8 0 108 253 0 119 242 0 130 230 0 140 217 0 152 207 0 10 204 187 40 193 187 72 183 188 102 173 187 131 163 187 160 152 187 191 142 188 220 133 187 248 123 188 23 112 187 51 102 188 79 92 188 107 83 187 135 73 188 162 64 188 189 55 187 216 44 187 243 36 188 11 27 187 39 20 188 64 10 187 90 1 188 102 246 188 141 253 188 166 243 188 191 234 188 216 226 188 241 217 188 7 215 187 18 202 225 42 194 225 67 185 225 89 177 225 113 169 225 136 160 224 159 153 225 182 145 224 205 138 225 229 131 225 250 122 225 18 114 187 40 106 187 62 99 188 84 91 187 105 84 188 127 76 188 148 69 187 168 61 187 190 55 188 212 48 188 232 41 187 253 34 188 15 27 225 35 20 225 55 13 225 75 6 225 94 255 225 104 246 225 112 237 225 153 248 187 172 243 187 191 236 187 210 230 187 229 223 187 248 217 187 3 213 188 21 205 188 40 199 188 57 193 187 76 187 188 95 181 188 112 174 188 129 168 188 147 163 188 164 156 187 182 150 187 199 145 187 216 139 187 234 133 188 250 127 187 12 120 187 29 116 188 45 109 187 62 103 188 78 98 188 94 92 187 111 88 188 126 81 187 141 76 187 158 70 187 174 65 188 190 60 187 204 53 187 221 49 187 236 44 188 251 39 188 12 41 187 28 47 188 44 52 188 60 57 187 77 62 188 93 68 188 110 73 188 126 78 188 144 84 188 160 89 187 177 95 188 194 100 187 211 106 188 229 111 187 246 117 187 8 123 188 26 129 187 44 135 187 62 141 187 81 147 188 98 152 188 116 158 187 135 164 187 153 170 188 172 176 188 190 182 187 208 187 187 228 194 187 248 200 188 9 206 187 28 212 187 48 218 188 67 225 187 87 231 187 107 237 187 127 245 188 147 250 188 239 97 137 247 92 137 209 0 137 230 2 136 251 6 137 3 20 187 24 27 188 46 34 188 67 41 187 90 48 188 111 54 187 133 62 187 155 69 187 177 76 187 199 83 187 223 92 188 245 98 188 13 107 225 37 114 225 60 122 225 84 129 224 108 137 225 131 145 225 155 153 225 180 160 224 204 168 224 229 176 225 254 185 225 20 191 187 45 198 187 71 207 187 96 216 188 122 224 188 148 232 187 174 241 188 201 249 187 243 8 187 218 25 0 228 14 0 239 2 0 252 248 0 5 235 0 16 224 0 27 212 0 38 200 0 49 189 0 61 178 1 71 165 0 82 154 0 93 142 0 104 130 0 115 119 0 126 107 0 137 95 0 148 84 0 159 72 0 170 60 0 182 50 1 192 37 0 204 26 1 214 14 0 225 2 0 236 246 0 247 235 0 0 223 0 11 211 0 21 198 0 33 189 0 45 176 0 57 165 1 67 153 0 79 141 1 89 129 0 175 17 1 185 5 0 195 248 0 206 237 0 217 225 0 228 213 0 239 202 0 250 190 0 6 179 0 17 167 0 28 155 0 38 144 0 50 132 0 61 121 0 72 109 0 83 97 0 94 86 0 106 75 1 116 63 0 127 52 1 138 39 0 148 28 0 159 16 0 170 5 0 180 248 0 191 239 1 202 227 0 213 216 1 224 203 0 235 191 0 246 180 0 1 167 0 12 156 0 23 145 0 33 132 0 45 121 0 56 110 0 67 98 0 78 87 0 89 75 0 99 63 0 111 52 0 122 40 0 132 29 0 143 16 0 154 5 0 163 250 0 174 239 0 185 227 0 7 222 188 38 212 188 68 201 188 98 190 187 128 182 188 158 170 188 188 160 187 217 150 187 246 140 188 20 129 187 49 119 187 77 110 187 105 99 187 132 91 188 161 82 188 187 72 188 214 62 187 241 53 188 10 45 188 36 35 188 63 27 188 88 17 187 113 8 187 139 0 187 148 243 187 189 251 188 214 242 187 239 233 187 6 231 188 16 218 224 40 209 225 64 201 225 89 194 225 111 185 224 135 177 224 158 169 225 181 161 225 204 152 224 227 145 224 249 138 225 17 129 188 39 121 188 61 113 188 83 106 188 105 100 188 126 91 188 147 84 187 167 76 187 189 69 187 210 62 187 231 55 188 252 48 187 14 41 225 34 34 224 54 27 225 73 20 224 95 14 225 114 7 225 133 0 224 143 246 224 151 237 225 191 250 188 210 244 188 229 237 188 248 231 187 1 225 187 21 219 188 39 212 187 57 206 188 76 200 187 94 194 188 111 188 187 129 182 188 147 175 188 164 169 187 182 163 187 199 157 188 216 152 188 233 146 187 250 140 188 11 132 187 29 127 188 45 122 187 62 116 188 78 110 188 94 105 188 111 99 188 127 94 188 143 88 188 158 83 188 174 77 188 190 72 187 204 67 187 222 62 188 236 56 187 250 51 187 12 54 188 28 59 187 45 64 188 61 70 187 78 76 188 94 80 188 110 86 188 127 91 187 144 96 187 161 102 188 178 107 187 195 113 187 213 119 188 229 124 187 248 131 188 10 138 188 27 142 187 45 148 187 63 154 188 81 160 187 99 166 188 117 172 188 136 178 187 154 185 188 173 190 187 192 196 187 211 202 188 230 208 188 248 214 187 10 219 188 29 226 187 49 233 188 69 239 187 88 245 187 108 250 187 241 118 138 248 112 137 169 0 137 190 4 137 210 6 136 231 10 137 252 13 137 5 35 188 26 42 188 47 49 188 69 56 187 91 63 187 113 70 188 135 77 188 157 84 188 179 92 188 202 99 187 225 106 188 247 114 187 16 122 224 39 130 225 62 137 225 87 146 225 110 152 224 134 161 225 158 168 225 182 176 224 207 184 224 231 191 224 254 201 188 23 207 187 48 216 187 74 224 188 99 232 187 126 241 188 151 249 188 242 57 187 253 47 188 231 6 187 239 58 0 250 46 0 6 34 0 17 23 0 28 11 0 39 0 0 48 244 0 59 233 0 70 221 0 81 210 0 92 199 0 103 186 0 114 174 0 125 163 0 136 152 0 147 140 0 158 128 0 169 117 0 179 105 0 190 94 0 201 82 0 212 70 0 223 59 0 234 47 0 245 36 0 1 24 0 12 12 0 23 0 0 31 245 0 42 234 0 53 222 0 64 210 0 75 199 0 86 187 0 97 176 0 108 164 0 209 33 0 220 22 0 232 11 1 241 254 0 252 242 0 8 231 0 19 219 0 30 207 0 42 196 1 52 184 0 64 174 1 74 161 0 84 150 0 95 138 0 107 127 0 116 115 0 128 104 0 139 92 0 150 81 0 161 69 0 172 59 1 182 46 0 193 34 0 204 23 0 215 11 0 226 0 0 235 245 0 246 233 0 2 221 0 13 210 0 24 198 0 33 186 0 45 175 0 57 165 1 67 152 0 77 140 0 89 129 0 100 118 0 110 106 0 121 93 0 132 83 0 143 71 0 154 60 0 166 48 0 176 37 0 187 25 0 197 14 0 208 2 0 217 247 0 4 241 187 34 230 188 65 220 188 95 209 188 125 199 187 155 189 188 185 178 188 214 168 188 243 158 187 16 146 187 47 138 188 74 127 187 102 117 187 130 108 188 158 99 188 185 89 188 212 79 188 239 70 188 6 60 187 33 52 188 60 43 187 86 34 188 111 25 188 137 16 187 162 7 188 186 253 187 196 243 187 236 249 187 4 245 187 14 234 225 38 224 224 64 218 225 86 209 225 110 201 224 133 192 224 157 184 225 180 176 224 203 168 224 225 161 225 248 153 224 16 144 188 38 136 188 60 129 187 82 121 187 103 113 187 125 106 187 146 100 188 167 91 188 189 84 188 209 77 188 231 69 188 250 62 187 13 55 225 33 48 225 53 41 225 73 34 225 93 28 225 113 21 224 133 14 225 152 7 225 171 1 224 183 247 225 190 238 224 228 250 187 247 244 187 2 239 187 21 232 187 39 226 187 56 219 187 75 212 187 93 208 188 111 202 188 129 195 187 147 189 188 164 183 188 182 176 187 199 171 187 216 165 187 233 159 188 249 152 187 12 146 187 29 140 187 45 134 188 62 129 187 78 123 187 95 117 187 111 112 188 127 106 187 143 101 187 160 95 188 174 90 188 190 84 188 206 79 187 221 73 187 237 68 188 253 64 188 13 67 188 30 72 188 45 77 187 61 82 188 78 87 188 94 93 188 111 98 188 129 105 188 144 109 187 161 116 188 177 119 187 196 126 188 213 132 188 231 137 188 248 144 188 11 151 188 28 155 188 46 161 188 64 168 188 82 173 188 99 178 187 118 185 187 137 190 187 154 196 187 174 203 187 193 209 187 212 216 187 232 223 188 250 229 188 11 234 188 31 240 188 50 246 188 70 253 188 240 136 136 250 132 137 130 1 137 150 4 137 171 7 137 191 11 137 212 14 137 232 16 136 254 21 137 7 50 187 28 58 188 49 63 187 71 71 187 93 78 187 115 85 188 136 91 187 159 99 187 182 108 188 204 114 188 228 122 188 249 128 187 18 138 225 41 145 225 65 153 224 89 161 225 112 169 225 137 177 225 161 184 225 185 192 225 209 200 225 234 208 224 0 214 187 26 225 188 51 232 188 77 240 188 102 249 188 242 106 188 252 96 187 181 6 188 207 15 188 234 23 188 5 89 0 16 78 0 28 67 0 38 55 0 48 43 0 59 32 0 70 21 0 81 9 0 91 253 0 102 242 0 112 230 0 123 219 0 134 207 0 146 196 1 156 184 0 167 173 0 178 161 0 189 150 0 199 138 0 210 127 0 221 115 0 232 104 0 243 92 0 254 81 0 10 69 1 20 57 0 32 46 1 42 34 0 53 22 0 64 11 0 71 0 0 83 244 0 94 233 0 105 221 0 115 210 0 126 198 0 244 50 0 216 0 0 9 25 0 20 14 0 31 2 0 43 247 0 53 236 0 64 224 0 75 213 0 86 202 0 97 190 0 109 179 0 119 168 1 129 156 0 139 143 0 151 133 0 163 122 1 172 110 0 183 99 1 194 87 0 205 75 0 216 64 0 226 52 0 236 40 0 248 30 0 1 18 0 12 7 0 23 250 0 35 240 0 45 228 0 56 217 0 67 205 0 78 194 0 88 182 0 100 171 0 111 160 0 121 148 0 132 137 0 143 125 0 154 114 0 163 101 0 175 91 0 186 78 0 197 68 0 208 56 0 218 45 0 229 33 0 240 22 0 251 10 0 2 1 0 31 249 187 61 237 187 92 228 187 122 217 187 152 207 187 182 196 188 211 186 188 240 176 188 15 165 187 42 154 187 72 145 187 100 135 187 127 125 187 155 116 187 182 106 187 209 97 188 236 87 187 5 78 187 31 69 187 57 59 187 84 51 187 109 42 188 136 34 188 160 24 187 186 14 187 210 6 187 232 252 187 242 242 188 14 250 225 37 241 224 61 233 225 85 225 225 109 216 225 132 207 224 155 200 224 178 192 224 201 184 225 224 176 225 247 168 225 15 159 187 37 151 188 58 143 187 82 136 188 102 128 188 124 121 187 145 113 187 166 106 187 188 99 187 209 91 187 229 84 188 250 77 187 11 69 224 33 63 225 53 56 224 73 49 225 93 42 224 112 35 224 132 28 224 152 21 224 172 14 225 190 8 225 208 1 224 220 248 224 229 239 225 2 253 188 20 246 188 39 239 187 57 233 188 74 227 187 93 220 188 111 214 187 129 208 188 147 202 188 164 196 188 182 190 188 199 184 187 216 178 187 233 172 187 250 166 188 12 159 187 29 153 187 46 147 188 63 142 188 78 136 188 96 131 188 110 123 187 128 120 188 143 113 187 159 107 187 175 102 187 190 96 188 206 91 188 222 86 187 237 80 188 252 75 187 13 79 187 29 84 188 45 89 187 62 95 188 78 100 187 95 105 188 111 111 187 128 116 187 145 122 187 163 129 188 179 133 188 196 139 188 214 145 187 231 150 187 249 156 188 10 162 187 30 170 188 47 174 187 65 180 187 83 187 188 101 192 187 119 199 188 138 205 188 156 211 188 175 217 188 194 223 187 213 229 187 232 236 187 251 242 188 11 246 187 32 254 188 243 156 137 251 152 137 91 1 137 111 5 137 132 8 137 152 11 137 172 14 137 193 18 137 213 20 136 235 24 137 245 65 187 7 63 187 30 71 188 51 78 187 72 86 187 95 93 188 117 100 188 139 107 188 161 115 187 185 122 188 206 129 188 229 136 187 253 145 188 21 154 225 44 161 225 67 169 225 91 176 225 115 184 224 139 192 225 163 200 225 188 208 225 212 216 225 237 225 225 3 232 187 28 239 187 54 248 187 242 154 188 253 144 188 131 6 188 158 14 187 184 23 187 211 32 187 238 41 188 26 121 0 37 109 0 47 98 0 58 86 0 69 75 0 80 63 0 91 52 0 100 39 0 112 29 0 123 16 0 134 6 0 143 251 0 154 240 0 165 228 0 175 217 0 186 204 0 197 193 0 208 182 0 219 171 0 230 159 0 241 148 0 250 135 0 7 124 0 18 113 0 29 101 0 39 90 0 51 79 1 61 67 0 72 56 0 82 43 0 93 33 0 104 20 0 115 10 0 123 0 0 134 243 0 145 232 0 23 65 1 32 53 0 43 42 0 54 30 0 65 19 0 74 7 0 87 254 0 98 241 0 109 230 0 120 219 0 130 207 0 140 195 0 152 184 0 163 173 0 173 162 0 185 150 0 196 139 0 207 128 1 216 116 0 227 105 0 238 93 0 249 82 0 2 70 0 12 59 0 23 48 0 34 36 0 45 25 0 55 13 0 66 2 0 78 247 0 89 235 0 100 224 0 110 212 0 121 202 0 132 190 0 142 178 0 153 167 0 164 155 0 174 144 0 185 133 0 196 121 0 207 110 0 218 98 0 229 87 0 239 76 0 250 64 0 2 56 1 12 43 0 23 32 0 33 19 0 44 9 0 34 30 0 89 246 187 118 234 187 149 225 188 179 214 187 208 204 188 237 194 187 13 183 188 41 172 187 69 162 187 96 152 187 125 143 188 153 133 187 179 122 187 208 114 188 235 104 188 4 96 188 29 87 188 54 76 187 81 66 187 108 58 188 133 49 188 158 40 188 184 31 188 210 24 188 234 14 187 2 7 187 9 253 188 16 241 187 59 249 225 83 240 224 108 233 225 131 224 225 154 216 225 177 208 225 200 199 225 223 191 225 245 183 225 13 174 188 36 165 187 58 159 187 80 151 188 101 143 188 123 136 187 144 128 187 166 121 187 187 113 187 208 106 187 229 99 188 249 91 187 12 84 225 32 77 224 52 69 224 72 63 225 92 56 225 112 49 224 131 41 224 151 35 225 171 29 225 190 22 224 209 15 225 228 7 224 246 2 225 9 2 225 4 241 187 37 253 187 57 247 187 75 240 187 93 234 188 111 228 187 129 221 188 146 215 188 165 209 188 182 203 187 199 197 188 216 190 187 233 184 187 249 179 187 12 171 187 28 165 187 46 160 187 62 154 187 79 148 188 96 143 188 111 137 187 127 131 187 143 125 187 159 120 188 175 114 188 191 109 188 206 103 187 222 97 187 237 92 187 253 87 187 14 91 188 30 96 187 46 102 187 61 107 187 80 114 188 95 118 188 111 123 187 129 129 188 146 135 188 163 140 188 180 146 188 196 151 187 214 158 187 232 163 187 249 169 188 12 176 188 30 182 187 47 188 187 65 194 187 84 200 187 102 206 188 120 213 188 139 218 188 157 224 187 176 231 188 195 237 188 214 242 187 233 248 187 236 180 137 244 176 137 252 171 137 53 2 137 73 5 137 93 8 137 113 11 137 133 15 137 153 18 137 174 21 137 195 25 137 216 28 137 237 31 137 246 77 187 9 78 187 31 87 188 53 93 188 75 100 188 97 109 188 119 115 187 141 122 187 163 130 187 186 137 187 207 145 187 231 151 187 254 160 188 23 169 225 47 178 225 70 184 224 94 192 224 117 200 225 142 208 225 166 216 225 191 224 225 215 233 225 240 241 225 6 248 188 242 202 188 250 192 187 83 5 188 110 14 188 135 22 188 161 31 188 187 40 187 214 50 188 241 57 187 45 151 0 57 140 0 68 129 0 79 117 0 89 106 0 100 95 0 111 83 0 122 72 0 132 60 0 143 49 0 154 38 0 166 26 0 175 15 0 186 3 0 196 248 0 205 237 0 217 226 0 229 215 1 238 203 0 249 192 0 5 180 0 15 168 0 26 157 0 38 145 0 48 134 0 58 123 0 69 111 0 81 100 1 91 89 0 100 76 0 112 66 0 123 54 0 134 43 0 144 31 0 155 20 0 166 9 0 56 81 0 66 69 0 77 58 0 88 47 0 98 35 0 109 24 0 120 13 0 130 1 0 141 246 0 153 235 0 164 224 0 174 213 0 185 201 0 196 190 0 206 179 0 217 167 0 228 156 0 239 145 0 249 133 0 2 122 0 13 111 0 25 100 1 34 88 0 45 77 0 56 65 0 66 54 0 76 42 0 88 31 0 97 19 0 109 9 0 121 253 0 131 242 0 141 231 0 154 220 1 164 208 0 174 197 0 184 184 0 195 174 0 206 163 0 217 151 0 229 140 0 238 129 0 248 117 0 0 109 0 11 96 0 21 85 0 32 74 0 44 63 1 53 51 0 64 40 0 75 28 0 86 17 0 96 6 0 116 254 187 146 243 188 176 234 188 205 222 188 235 213 188 8 199 187 39 191 188 67 181 188 94 170 187 122 160 188 151 151 188 178 141 188 204 131 187 232 121 187 0 112 188 27 103 187 53 93 188 79 84 187 105 75 187 132 67 188 157 57 187 182 48 187 207 38 187 232 30 187 1 23 187 10 14 188 34 5 188 53 251 187 61 240 187 106 247 224 129 240 224 152 231 225 176 223 225 199 215 224 222 207 225 245 199 225 12 190 187 34 182 188 57 174 188 80 166 188 100 158 187 122 151 188 144 144 188 165 135 187 186 128 188 207 121 187 229 113 188 248 106 188 11 99 224 30 91 224 51 84 225 73 78 225 93 71 225 111 63 225 131 56 224 150 49 224 170 42 224 189 36 225 208 29 225 227 22 224 246 15 224 1 10 187 20 3 187 35 251 188 42 241 187 75 254 188 93 247 188 111 241 188 129 235 187 146 228 187 164 222 188 181 216 188 198 209 187 216 204 188 234 199 188 250 192 187 11 184 187 29 179 188 46 173 187 61 166 187 80 161 188 95 155 188 111 149 188 126 144 187 144 138 188 159 131 187 175 127 187 190 121 187 207 116 188 222 110 188 238 105 187 253 99 188 14 103 188 31 110 188 46 114 187 63 119 187 79 125 187 97 132 188 113 136 187 130 142 188 146 148 188 163 153 188 181 160 188 198 165 187 214 171 187 233 175 187 249 182 187 13 189 187 30 196 188 49 202 188 66 207 187 85 213 187 103 218 187 121 225 188 139 232 187 159 238 187 177 244 187 195 250 187 238 18 225 246 9 225 254 0 225 15 2 137 34 5 137 53 8 136 74 12 137 94 15 137 114 18 137 135 22 137 155 25 137 176 28 137 195 32 137 218 36 138 237 38 136 248 93 188 12 94 187 33 101 188 55 108 188 77 116 188 99 123 187 121 130 187 143 138 187 165 145 188 188 153 188 211 160 187 234 168 187 2 177 225 25 184 225 49 192 225 72 200 225 96 208 225 119 216 224 144 224 225 169 232 225 194 241 225 218 249 225 241 249 188 251 239 188 34 5 188 59 13 187 86 22 187 112 30 187 138 39 187 164 48 188 191 57 188 216 65 187 244 75 187 67 182 0 77 171 0 88 160 0 99 148 0 109 137 0 119 124 0 131 114 0 141 103 0 152 91 0 163 80 0 174 69 0 184 57 0 196 46 0 206 35 0 216 22 0 228 12 1 238 1 0 247 246 0 2 234 0 13 223 0 24 212 0 34 200 0 45 189 0 57 179 1 67 166 0 77 155 0 88 144 0 99 131 0 109 121 0 120 110 0 131 99 1 141 87 0 152 76 0 163 64 0 173 53 0 184 42 0 89 97 0 99 85 0 110 74 0 121 63 0 132 52 0 142 40 0 153 29 0 164 18 0 175 6 0 187 253 0 197 241 0 207 229 0 217 217 0 230 208 1 239 196 0 250 185 1 3 173 0 13 162 0 25 152 1 35 139 0 46 129 1 56 117 0 66 105 0 77 94 0 88 83 0 98 72 0 109 60 0 120 49 0 130 38 0 141 27 0 150 15 0 163 5 1 174 248 0 184 238 0 196 227 0 206 215 0 216 204 0 227 192 0 237 181 0 247 170 0 98 2 0 10 149 0 20 138 0 30 126 0 42 115 0 52 104 0 63 93 0 73 82 0 84 70 0 96 60 1 105 48 0 115 35 0 126 24 0 137 14 0 149 3 0 173 251 188 202 240 187 231 230 188 7 218 188 35 208 187 64 198 187 92 188 187 120 178 187 148 168 188 175 158 187 202 148 188 231 139 188 1 130 188 25 120 188 51 110 187 77 101 187 103 92 187 129 83 187 155 72 187 180 64 188 204 54 187 231 48 188 0 37 187 8 30 188 32 21 187 56 13 187 80 4 188 98 250 188 107 240 188 151 247 225 174 239 224 197 230 224 219 221 224 243 214 225 11 205 188 33 197 188 55 189 188 77 181 187 99 173 188 122 167 188 141 158 187 164 150 188 185 143 187 206 135 188 227 127 187 248 122 188 11 114 225 31 106 225 52 100 225 71 92 225 92 86 225 111 77 224 131 70 225 150 63 225 169 56 225 189 50 225 208 43 224 227 36 224 246 29 225 1 24 188 19 17 188 38 10 187 56 4 188 70 250 187 79 243 188 111 254 188 128 248 187 146 242 188 164 235 187 180 229 187 199 223 187 216 217 188 233 211 188 249 204 187 12 197 187 29 191 188 46 185 188 62 180 187 79 174 188 95 168 187 111 162 187 128 156 188 144 149 187 160 145 187 176 139 188 191 134 188 208 128 188 222 122 188 239 118 188 253 111 188 14 116 187 30 121 187 47 127 188 62 131 187 80 138 187 96 144 187 113 149 188 130 155 188 148 162 188 164 166 188 181 171 187 198 178 187 216 184 187 233 190 187 251 197 188 13 202 188 31 208 187 49 214 188 67 221 187 86 227 188 104 233 187 121 239 187 141 245 188 160 252 187 239 57 224 248 48 225 215 0 224 236 7 225 253 7 137 16 9 137 36 12 137 56 16 137 75 19 137 96 22 137 116 25 137 136 29 137 157 32 137 177 35 137 198 38 136 219 42 137 240 47 137 249 106 187 14 109 187 35 116 187 57 123 187 79 131 187 101 138 187 124 145 188 145 153 188 167 160 187 190 168 188 213 177 188 236 183 187 4 192 225 28 200 225 51 208 225 75 216 225 99 224 225 124 233 225 147 240 225 172 248 225 242 39 187 251 30 188 246 5 187 12 13 187 37 21 187 63 30 188 89 38 187 115 47 188 141 56 188 167 65 188 194 74 188 221 83 187 248 92 188 87 212 0 97 202 0 108 190 0 119 179 0 129 167 0 140 156 0 151 145 0 161 134 0 172 122 0 182 111 0 194 100 0 204 87 0 213 76 0 225 66 0 237 55 1 246 43 0 226 2 0 11 22 1 20 10 0 32 254 0 42 242 0 53 232 0 64 221 0 75 209 0 85 198 0 96 187 0 106 175 0 117 164 0 128 153 0 138 142 0 150 131 1 160 119 0 170 108 0 181 97 0 191 85 0 201 74 0 122 112 0 133 101 0 143 90 0 154 79 0 165 68 0 175 56 0 186 45 0 196 34 0 207 23 0 217 12 0 228 0 0 240 246 0 250 236 0 2 224 0 14 212 0 24 201 0 35 190 0 45 179 0 56 168 0 67 156 0 77 145 0 88 134 0 98 123 0 109 111 0 119 100 0 131 90 1 141 78 0 151 67 0 162 55 0 172 44 0 183 33 0 193 22 0 204 11 0 213 1 0 226 244 0 237 233 0 246 221 0 45 1 0 9 202 0 19 190 0 30 179 0 39 167 0 51 155 0 63 146 1 72 134 0 83 123 0 93 112 0 104 100 0 114 89 0 125 78 0 135 67 0 146 56 0 157 44 0 167 33 0 178 22 0 188 11 0 199 0 0 229 247 187 4 236 188 32 226 187 61 216 188 89 205 188 117 195 187 145 185 187 173 175 188 200 166 187 227 156 188 254 146 188 22 136 187 49 126 187 75 119 188 101 109 187 127 99 188 153 90 188 179 82 188 204 73 188 228 62 187 253 54 187 6 46 188 31 37 187 55 29 187 79 20 188 103 12 188 126 3 188 142 249 188 173 254 225 196 246 225 219 238 225 241 230 224 11 221 188 32 212 187 54 204 187 76 196 188 98 189 187 120 181 187 141 174 188 163 164 187 184 157 187 206 151 188 226 143 188 247 135 187 10 129 225 31 122 225 50 113 224 70 106 225 90 99 225 110 92 224 130 85 224 149 78 225 169 71 225 188 64 224 207 57 225 226 50 225 245 43 225 0 37 188 19 31 188 38 24 188 56 17 187 74 11 188 92 4 187 108 252 188 116 242 187 124 235 188 164 249 188 181 242 188 199 236 187 216 230 187 234 225 188 249 217 187 12 210 188 28 204 187 46 198 187 62 192 187 79 186 188 94 181 187 112 175 187 129 170 188 144 163 187 160 157 188 176 152 188 192 146 187 208 141 188 224 136 188 238 129 187 255 124 188 15 129 187 31 134 188 47 140 188 63 144 187 80 151 188 97 156 187 115 163 188 131 168 188 148 173 187 166 180 188 182 184 187 199 191 187 216 196 187 234 203 188 253 209 188 14 216 188 32 222 188 51 229 188 68 234 188 86 239 187 105 246 187 123 254 188 241 96 225 249 87 224 180 2 225 198 7 224 217 15 224 237 21 225 254 13 137 17 16 137 37 19 137 58 24 138 76 25 136 97 29 137 117 32 137 138 36 137 159 40 137 179 43 137 200 46 137 221 49 137 241 53 136 251 120 188 15 124 188 37 131 187 59 138 187 81 146 188 104 153 188 125 161 187 147 168 187 170 176 187 192 183 188 215 191 188 238 198 187 8 209 225 30 216 224 53 224 225 77 232 224 101 241 225 125 248 225 241 85 187 251 75 188 198 5 188 223 13 188 247 22 187 15 29 187 40 38 188 66 46 188 92 55 187 119 65 188 144 73 187 171 82 188 197 91 188 224 100 187 250 109 187 107 242 0 117 231 0 128 220 0 138 209 0 149 198 0 159 186 0 170 175 0 182 165 1 191 153 0 202 140 0 212 130 0 223 119 0 233 108 0 244 97 0 169 0 0 7 74 0 17 62 0 29 52 0 39 41 0 51 30 1 61 19 1 70 7 0 82 252 0 92 240 0 104 230 0 113 217 0 125 207 0 135 196 0 146 184 0 156 173 0 167 162 0 178 151 0 188 140 0 199 129 0 208 116 0 220 106 0 155 128 0 167 118 1 176 106 0 187 96 1 197 84 0 208 72 0 218 61 0 229 50 0 239 39 0 250 28 0 3 18 1 13 6 0 25 251 0 35 240 0 46 229 0 56 217 0 67 207 0 78 196 1 88 185 0 98 173 0 109 162 0 120 151 1 130 140 0 140 129 0 151 117 0 161 106 0 172 95 0 182 84 0 194 74 1 203 62 0 214 51 0 224 39 0 235 28 0 245 17 0 248 0 0 8 253 0 18 242 0 29 230 0 39 219 0 51 208 0 60 197 0 71 186 0 81 175 0 92 164 0 102 153 1 113 140 0 123 130 0 134 119 0 144 108 0 155 97 0 165 86 0 176 74 0 186 63 0 197 52 0 207 41 0 218 30 0 228 19 0 238 8 0 2 255 188 30 244 187 58 233 188 87 223 187 115 212 187 144 204 188 170 193 188 198 183 188 225 173 188 253 163 188 20 154 187 47 144 187 73 135 187 99 125 188 125 116 188 151 107 188 176 98 188 201 88 187 226 79 188 251 70 188 4 62 187 29 54 187 53 45 188 77 36 188 101 27 187 125 19 187 149 10 188 172 2 187 185 247 188 218 254 225 240 245 224 9 236 188 31 228 188 53 219 187 75 212 188 97 204 187 119 196 187 140 188 187 162 180 188 183 173 187 204 165 187 225 157 187 246 150 187 10 144 225 29 135 224 49 128 225 71 121 225 90 113 225 110 106 225 129 99 225 149 92 225 168 85 225 188 78 225 207 71 224 226 64 224 245 56 224 0 51 187 19 43 187 37 38 188 56 31 188 74 24 188 92 18 187 110 11 188 128 5 187 144 253 188 152 244 187 160 236 187 199 249 187 216 243 187 233 237 187 249 231 187 12 223 188 29 217 187 46 211 187 62 204 187 79 199 188 96 193 187 112 187 187 128 182 187 144 176 188 160 170 188 176 164 187 192 158 187 208 153 187 223 147 188 239 140 187 254 136 188 15 141 188 32 147 188 48 152 187 64 158 188 80 163 187 97 169 188 114 175 188 131 181 187 148 186 187 165 192 188 182 198 187 200 204 187 217 210 187 236 217 188 252 222 187 15 230 188 33 235 187 51 241 187 69 248 188 87 254 187 241 133 224 250 125 224 143 3 224 161 9 224 181 16 225 200 22 224 219 29 225 238 35 224 0 20 137 19 23 137 38 26 137 58 29 137 78 33 137 98 37 137 119 39 137 138 43 137 160 46 137 180 50 137 201 52 136 222 57 137 243 60 137 252 133 187 16 138 187 39 146 188 61 153 188 82 161 188 105 168 187 127 176 188 148 184 187 173 191 188 194 199 187 217 207 188 239 214 187 10 225 225 32 232 224 56 240 224 80 248 224 241 130 188 250 120 187 152 4 187 177 13 187 201 21 188 226 30 187 250 38 187 18 46 187 43 54 187 69 63 188 95 72 188 121 81 187 147 90 188 175 100 188 201 108 187 228 117 187 116 26 0 125 15 0 136 4 0 147 250 0 158 238 0 168 227 0 179 217 0 189 205 0 200 194 0 210 183 0 221 172 0 232 160 0 242 149 0 252 138 0 5 127 0 15 115 0 27 106 1 37 93 0 46 82 0 58 71 0 68 60 0 79 49 0 90 39 1 100 27 0 110 16 0 121 5 0 133 249 1 143 237 0 153 228 0 164 216 0 174 205 0 185 194 0 195 183 0 207 172 1 215 159 0 227 149 0 237 138 0 188 144 0 198 132 0 208 121 0 219 110 0 229 99 0 240 88 0 250 77 0 3 66 0 13 54 0 24 44 0 34 33 0 44 22 0 55 11 0 65 0 0 77 245 0 88 234 0 98 223 0 110 213 1 119 201 0 129 190 0 140 179 0 150 167 0 161 157 0 172 145 0 183 134 0 192 123 0 204 113 0 213 101 0 223 90 0 234 79 0 244 68 0 197 0 0 5 46 0 15 35 0 26 24 0 37 13 0 47 0 0 59 248 0 70 238 1 81 227 1 90 215 0 101 204 0 112 194 1 122 183 0 132 171 0 142 160 0 153 148 0 163 137 0 174 126 0 185 116 0 195 104 0 205 93 0 216 82 0 227 72 1 236 60 0 247 49 0 0 36 0 10 25 0 20 14 0 31 3 0 56 251 187 84 241 188 112 232 188 140 221 188 168 210 187 196 201 188 223 190 187 250 181 188 18 172 188 45 161 187 71 152 188 97 142 188 123 133 187 149 124 188 174 114 187 200 105 188 225 96 188 250 87 188 2 78 187 27 69 187 52 61 188 76 52 188 100 44 187 123 35 187 146 25 187 170 18 188 193 9 187 216 1 188 228 246 188 7 251 188 30 242 187 53 236 188 74 227 187 96 219 187 118 211 188 140 203 188 161 195 188 182 188 187 203 180 187 223 171 187 245 165 188 9 158 225 28 150 225 49 141 224 69 135 225 89 128 225 109 120 225 129 113 225 148 106 225 168 99 225 187 92 225 207 85 224 226 78 224 245 70 224 0 65 188 18 58 187 37 51 187 55 45 188 74 38 187 93 32 188 111 25 188 128 18 188 147 13 188 164 5 188 181 255 188 188 245 187 197 237 188 233 249 187 250 244 188 12 236 187 28 230 187 46 224 188 63 217 187 80 213 188 96 206 187 112 200 187 128 193 187 144 188 188 160 182 187 176 177 187 192 171 188 208 166 188 224 161 188 240 154 188 254 148 188 16 154 188 33 160 188 48 165 187 65 172 188 82 176 188 99 183 188 116 189 188 132 194 188 150 199 188 166 205 188 182 211 187 201 217 188 218 223 187 236 229 187 253 235 187 16 242 187 34 249 187 236 181 225 244 171 225 252 162 224 107 4 224 125 10 225 144 17 225 163 23 225 182 30 225 201 36 224 220 43 224 239 49 224 0 27 137 20 30 137 40 33 137 60 36 137 79 39 136 99 42 136 120 47 137 141 50 137 160 53 136 182 57 137 203 60 137 224 64 137 245 67 136 253 147 188 19 153 187 42 162 188 62 168 188 85 176 188 107 184 188 129 191 188 150 198 187 174 207 187 197 215 188 219 221 187 242 229 187 12 241 225 35 248 224 241 175 187 250 166 188 106 4 187 130 12 188 155 21 188 179 29 188 205 38 188 229 46 187 255 56 188 21 62 187 46 71 187 73 80 188 98 89 188 124 98 187 150 107 187 177 116 187 205 126 188 232 134 188 134 55 0 144 44 0 155 33 0 165 21 0 176 11 0 186 0 0 198 246 0 207 235 0 219 225 1 229 212 0 240 202 0 249 190 0 3 179 0 13 168 0 24 157 0 34 146 0 46 136 1 55 124 0 66 113 0 76 102 0 86 91 0 97 80 0 107 67 0 118 57 0 128 46 0 139 36 0 149 24 0 160 13 0 170 2 0 182 247 0 192 236 0 202 225 0 213 214 0 223 203 0 234 191 0 244 181 0 85 0 0 220 159 0 231 149 1 240 137 0 251 127 1 3 115 0 14 104 0 23 92 0 34 82 0 45 71 0 55 60 0 65 49 0 76 38 0 86 27 0 97 16 0 108 6 1 119 250 0 128 238 0 139 228 0 150 217 0 160 206 0 171 195 0 181 184 0 192 173 0 202 162 0 212 150 0 223 140 0 233 129 0 242 118 0 254 107 0 4 96 0 14 85 0 25 74 1 35 63 0 45 52 0 55 40 0 66 29 0 77 19 0 87 8 0 99 0 0 110 244 0 120 234 1 130 222 0 141 212 0 151 201 0 161 190 1 172 178 0 182 166 0 193 155 0 203 145 0 213 134 0 224 123 0 234 112 0 245 101 0 165 0 0 8 77 0 18 66 0 28 55 0 38 43 0 49 33 0 60 23 1 70 11 0 80 0 0 110 249 188 138 238 188 165 228 188 193 218 187 220 208 188 247 199 188 16 188 188 43 179 187 69 169 187 95 159 187 121 150 188 147 140 187 172 131 188 198 122 188 223 112 187 248 103 188 1 95 188 26 86 188 50 77 188 74 68 187 98 60 187 123 52 188 145 42 187 169 34 187 192 25 187 216 18 188 238 8 188 5 255 188 14 244 187 51 250 187 73 242 187 95 235 188 117 226 188 139 218 188 160 210 187 181 203 187 203 195 188 225 188 188 244 178 187 7 172 224 28 164 225 48 157 224 67 148 224 88 141 224 108 135 225 128 128 225 148 119 224 167 113 225 187 106 225 206 99 225 225 92 224 245 85 225 7 84 225 18 72 187 37 65 187 54 58 187 74 52 188 93 46 188 110 38 187 129 33 188 146 25 188 164 20 188 181 11 187 199 6 187 216 0 188 224 246 188 232 237 188 12 250 188 28 242 187 46 237 187 63 231 188 79 225 188 95 218 187 112 213 188 128 207 187 145 201 188 160 195 187 177 189 188 192 182 187 208 178 187 225 172 188 239 166 188 0 161 188 16 166 187 32 172 187 49 178 188 65 183 188 82 189 187 99 195 187 115 201 188 132 207 187 149 213 188 167 218 188 184 224 188 201 229 187 219 237 188 236 242 187 254 249 188 237 217 224 245 208 225 253 200 225 71 5 225 89 11 224 108 17 224 126 24 225 145 30 225 164 37 224 183 43 225 202 50 225 221 57 224 241 63 225 2 33 137 20 37 136 40 39 136 60 42 136 81 47 137 101 50 137 121 53 136 142 57 137 162 60 136 184 64 137 205 68 137 227 71 137 247 75 137 255 161 188 21 169 187 43 176 187 64 184 187 86 191 188 109 199 188 131 207 188 153 214 188 176 222 188 199 230 188 222 238 188 245 246 187 240 219 187 249 210 187 61 3 187 85 12 188 109 19 187 133 28 188 157 37 187 182 45 187 207 54 187 232 63 188 254 71 188 24 79 187 48 87 187 75 96 187 101 106 187 127 115 187 153 123 187 181 133 188 208 142 188 234 152 187 153 84 0 164 73 0 174 61 0 185 52 1 195 40 0 205 29 0 217 18 0 226 6 0 238 253 0 248 242 0 1 231 0 11 220 0 21 208 0 32 198 0 43 187 0 53 176 0 63 165 0 72 153 0 85 144 1 94 132 0 106 122 1 115 110 0 126 100 1 136 88 0 146 77 0 156 66 0 167 55 0 177 44 0 188 33 0 198 22 0 208 11 0 219 1 1 230 245 0 241 234 0 251 223 0 2 213 0 11 201 0 250 174 0 4 163 0 14 152 0 24 141 0 35 130 0 45 119 0 56 109 1 65 96 0 76 86 0 87 76 0 97 65 0 107 54 0 117 43 0 128 32 0 138 21 0 148 10 0 158 1 0 170 244 0 181 233 0 191 223 0 202 213 0 212 201 0 222 190 0 232 179 0 243 168 0 254 158 1 3 146 0 14 136 1 24 124 0 34 113 0 44 102 0 54 90 0 65 80 0 75 69 0 86 58 0 97 48 1 106 36 0 116 24 0 127 14 0 137 3 0 150 250 1 160 239 0 170 228 0 180 217 0 190 206 0 201 196 0 211 185 0 222 174 0 232 163 0 242 152 0 253 140 0 5 129 0 16 119 1 27 108 1 36 96 0 46 85 0 57 74 0 67 63 0 77 52 0 88 41 0 98 30 0 108 19 0 119 8 0 243 228 0 164 246 188 191 236 187 217 224 187 245 215 187 14 206 188 41 196 188 67 186 187 93 176 188 119 167 188 145 157 187 170 148 188 196 138 188 221 129 187 246 120 187 11 121 188 23 102 187 49 95 188 73 85 187 97 76 187 120 67 188 144 58 187 167 50 188 191 41 187 214 32 187 237 24 188 5 14 188 27 6 188 47 253 188 56 243 187 94 250 188 116 241 188 138 233 187 159 226 187 181 217 187 202 210 188 224 202 188 244 194 188 6 187 225 26 178 224 47 172 224 68 164 225 88 157 225 108 148 224 128 142 225 146 134 224 167 127 225 187 120 225 205 112 224 225 106 225 245 100 225 7 98 225 18 86 188 36 79 187 55 72 188 73 66 187 92 59 187 110 52 187 128 45 188 146 39 188 163 32 188 181 26 188 199 19 187 217 14 188 233 6 187 249 0 187 3 245 187 11 237 188 46 250 187 63 244 187 80 238 188 96 232 187 112 226 187 129 220 187 146 215 188 161 208 188 177 202 188 194 196 188 208 190 188 224 184 188 240 179 187 0 173 188 16 179 188 33 185 188 49 190 187 66 196 188 82 202 188 99 208 188 116 214 188 133 220 187 150 226 188 167 232 187 184 238 187 202 244 187 219 249 187 238 254 225 246 245 225 254 236 225 36 6 224 54 12 225 72 18 225 90 25 224 109 31 225 127 38 225 147 45 225 166 52 225 185 57 225 203 64 225 221 70 224 242 78 224 3 40 137 23 44 137 42 47 137 62 50 137 82 53 136 103 57 137 124 62 138 144 64 137 164 68 137 185 71 137 207 76 138 227 78 137 248 81 136 1 176 188 24 185 188 44 191 188 66 199 188 89 208 188 111 214 188 133 222 188 155 230 188 178 238 188 201 246 188 224 254 187 248 253 187 16 3 187 38 10 187 63 19 188 87 28 188 111 36 188 135 45 187 159 52 187 185 62 188 210 70 187 235 79 187 1 87 187 26 95 187 52 105 187 78 114 188 104 123 188 131 132 188 157 140 187 184 150 187 211 159 187 238 169 188 172 113 0 183 102 0 193 90 0 203 80 0 214 69 0 225 58 0 234 47 0 245 36 0 230 0 0 7 14 0 17 3 0 28 248 0 40 238 0 50 227 0 60 217 0 71 205 0 81 194 0 91 183 0 102 172 0 113 161 1 122 150 0 133 140 0 142 128 0 153 118 0 164 107 0 174 96 0 184 85 0 195 74 0 205 63 0 215 52 0 226 41 0 237 31 1 246 19 0 251 2 0 7 0 0 20 245 1 29 233 0 25 189 0 35 178 0 45 167 0 55 156 0 66 145 0 76 135 0 86 124 0 97 113 0 107 102 0 118 92 1 127 80 0 138 69 0 148 58 0 157 46 0 168 37 0 179 26 0 189 15 0 198 3 0 212 250 0 220 238 0 231 228 0 241 217 0 252 205 0 2 195 0 12 184 0 22 173 0 33 162 0 43 151 0 53 141 0 64 130 0 74 119 0 84 108 0 94 96 0 105 86 0 115 74 0 125 64 0 135 53 0 146 43 0 156 32 0 166 21 0 177 10 0 184 2 0 199 246 0 209 235 0 219 224 0 230 213 0 239 201 0 250 191 0 3 179 0 13 168 0 23 157 0 34 147 0 43 135 0 54 125 0 64 114 0 75 103 0 85 92 0 95 81 0 104 69 0 116 58 0 127 49 0 136 38 0 146 27 0 157 16 0 167 5 0 188 253 188 216 243 188 242 233 187 11 223 188 38 213 188 65 204 188 91 193 187 116 184 187 144 175 188 169 166 188 194 155 188 219 146 188 245 136 188 10 135 187 22 119 187 47 110 188 72 102 188 95 92 188 119 83 188 143 74 188 166 66 188 189 57 188 213 48 188 235 40 187 5 31 188 27 23 188 49 13 187 71 5 187 90 251 188 97 240 187 138 249 188 158 241 187 180 233 187 202 225 188 221 217 187 243 209 188 6 202 224 26 194 224 47 186 225 67 179 225 87 171 225 107 164 224 127 156 225 147 149 225 166 142 225 186 134 224 205 127 225 224 120 225 245 113 225 5 110 224 17 100 187 36 93 187 55 86 187 73 79 188 91 72 187 110 66 188 127 58 187 145 52 188 164 47 188 181 39 187 199 33 188 216 26 187 233 20 188 250 13 188 13 6 188 29 254 188 38 247 188 46 237 188 80 250 187 96 245 188 112 238 187 129 232 187 145 226 187 161 220 188 177 215 188 193 209 187 209 203 187 224 197 188 239 190 187 1 186 187 17 192 188 33 198 187 49 202 187 65 208 187 83 215 188 100 222 188 117 227 188 134 233 187 151 239 188 167 245 187 185 251 188 239 34 188 246 24 187 254 16 188 1 8 225 17 12 224 36 19 225 54 25 224 72 32 224 92 40 225 110 45 225 128 52 224 147 58 225 166 65 225 184 70 224 204 78 224 224 85 224 243 92 225 4 47 137 24 52 137 44 54 137 65 58 138 85 62 138 104 64 137 125 68 137 145 71 137 167 76 138 186 77 136 208 82 137 229 86 137 249 89 136 3 191 187 25 199 188 46 206 188 68 214 188 90 222 188 114 231 188 135 238 187 158 245 188 180 254 188 247 41 188 226 1 187 249 10 187 18 19 187 42 27 187 66 36 188 90 44 188 114 52 187 138 61 187 163 70 187 187 79 188 212 87 188 238 97 188 4 104 188 30 112 188 55 122 188 82 131 188 107 140 187 134 149 188 160 158 187 187 168 187 214 177 188 241 187 188 191 141 0 202 131 1 213 119 0 222 108 0 233 98 0 243 87 0 252 75 0 5 65 0 15 54 0 26 43 0 35 31 0 46 21 0 56 10 0 67 0 0 78 245 0 89 234 0 99 223 0 108 212 0 119 201 0 130 191 0 140 181 1 150 169 0 160 158 0 171 147 0 181 136 0 191 126 1 201 115 0 213 104 0 222 93 0 233 82 0 243 71 0 253 60 0 2 48 0 13 38 0 24 27 0 34 17 0 44 6 0 56 204 0 66 193 0 77 183 1 86 171 0 97 161 0 107 150 0 116 138 0 127 128 0 137 117 0 149 107 1 158 96 0 168 85 0 178 74 0 188 63 0 199 52 0 209 42 1 219 31 0 229 20 0 240 9 0 250 0 0 1 244 0 10 232 0 21 222 0 31 211 0 42 201 0 52 190 0 62 179 0 72 168 0 83 157 0 93 146 0 103 134 0 113 125 0 123 113 0 134 103 0 145 92 0 154 81 0 164 70 0 175 60 0 185 49 0 196 39 0 205 27 0 215 16 0 226 5 0 238 252 0 248 242 0 0 229 0 10 218 0 21 208 0 31 197 0 41 186 0 51 175 0 62 164 0 72 154 0 83 144 1 92 132 0 102 121 0 113 110 0 123 99 0 133 89 0 143 78 0 153 67 0 163 55 0 174 45 0 184 34 0 194 24 0 205 13 0 215 2 0 239 249 187 9 241 187 36 230 188 63 221 187 89 211 188 116 202 188 141 191 188 167 182 187 192 172 187 218 162 188 242 153 187 8 152 188 20 135 187 45 126 188 69 117 187 94 108 188 117 99 188 141 90 188 166 83 188 188 73 188 211 64 187 234 55 187 2 46 188 24 37 187 47 28 187 70 21 188 92 12 188 114 4 188 130 250 188 139 240 188 179 248 188 200 240 187 221 232 187 242 224 187 5 216 224 24 208 224 47 202 225 66 193 224 87 186 225 107 178 224 126 171 224 146 163 224 166 156 225 185 150 225 205 141 225 224 134 225 243 127 225 6 125 225 18 114 188 36 107 188 54 100 187 73 93 188 91 86 187 109 79 187 127 73 188 145 66 187 163 59 187 182 53 188 198 46 187 216 40 187 233 33 188 250 28 188 13 19 187 30 13 187 46 6 187 63 0 187 72 247 187 80 238 187 113 251 187 130 246 188 145 239 188 161 234 188 177 227 187 193 221 188 208 215 187 225 209 188 240 204 188 1 198 187 17 205 187 34 210 188 50 216 188 67 222 187 83 228 188 100 235 188 117 240 187 134 246 187 151 253 188 240 69 188 247 60 187 202 0 187 221 7 188 239 13 187 1 20 225 19 27 225 37 33 225 55 39 224 74 46 225 92 52 225 110 58 224 129 65 225 149 73 225 167 79 225 187 86 225 205 92 225 226 100 225 245 107 225 5 54 137 24 57 136 45 61 137 65 65 137 85 68 137 106 71 137 126 75 137 147 79 137 168 82 137 189 86 137 209 88 136 232 93 137 252 97 137 6 207 188 26 214 188 48 222 187 70 230 187 91 236 187 114 244 187 137 253 188 247 84 187 183 2 188 205 9 188 229 16 187 253 25 188 21 35 187 44 43 187 68 52 188 93 61 188 116 69 187 140 77 187 165 86 187 190 95 188 215 104 187 240 113 187 7 120 188 34 130 188 58 138 187 84 148 187 111 157 188 137 166 187 164 176 187 191 185 188 218 196 188 245 204 187 209 168 0 220 158 0 230 147 0 240 136 0 250 125 0 4 116 1 13 104 0 23 93 0 33 82 0 44 72 0 54 61 0 64 50 0 74 39 0 85 28 0 95 18 1 105 7 0 117 252 0 128 243 1 137 232 0 147 220 0 158 209 0 168 198 0 178 187 0 188 177 0 198 166 0 209 155 0 218 144 0 229 133 0 239 122 0 249 111 0 164 5 0 10 90 0 20 79 0 30 68 0 40 57 0 50 47 0 61 36 0 86 218 0 96 208 0 107 197 0 117 186 0 126 174 0 137 165 0 147 154 0 157 143 0 168 132 0 178 122 0 188 111 0 198 99 0 208 89 0 218 78 0 229 67 0 239 57 0 248 45 0 1 37 0 10 25 0 21 15 0 32 5 1 41 248 0 50 237 0 61 227 0 71 216 0 81 206 0 90 195 0 102 184 0 112 173 0 122 163 0 131 152 0 142 141 0 152 130 0 164 119 0 173 109 0 182 97 0 193 87 0 204 77 1 213 66 0 223 55 0 234 44 0 243 32 0 254 22 0 9 12 0 20 1 0 28 247 0 39 236 0 49 225 0 58 213 0 69 205 0 79 193 0 89 182 0 99 171 0 111 161 1 120 150 0 131 139 0 140 128 0 150 117 0 160 108 0 171 96 0 181 85 0 191 74 0 202 64 0 211 53 0 221 42 0 232 31 0 242 20 0 253 10 0 0 0 255 34 248 188 60 238 187 87 228 187 113 218 187 139 208 187 165 199 188 190 189 187 216 179 187 241 171 188 7 167 188 18 151 187 43 143 187 68 134 187 92 125 187 116 116 187 140 107 188 163 97 187 187 89 187 210 80 187 233 71 188 1 61 188 24 53 188 46 44 188 69 36 188 91 28 188 113 19 187 134 10 187 156 3 188 171 249 187 180 238 187 220 247 187 241 239 188 4 231 225 25 224 225 45 216 225 66 207 224 86 200 225 107 194 225 126 184 224 146 178 225 165 170 224 185 164 225 204 155 224 225 149 225 243 141 224 6 139 225 17 127 187 36 121 188 53 113 187 73 107 188 90 99 187 109 93 187 127 86 188 145 80 187 163 73 187 181 66 188 198 60 187 216 53 187 233 45 187 249 40 187 13 32 187 30 26 187 47 19 187 63 13 188 80 7 187 96 1 187 106 248 187 114 240 188 146 253 188 162 246 187 178 240 187 194 235 188 208 228 187 225 221 187 241 216 187 1 212 188 18 217 188 35 224 188 51 229 188 67 235 187 84 241 188 101 247 187 118 253 187 241 105 188 249 96 188 169 1 187 187 8 188 204 14 188 222 20 188 239 26 188 2 34 224 20 40 225 38 47 225 55 53 224 75 60 225 93 67 225 112 73 224 130 79 225 148 86 224 168 93 225 187 100 225 207 106 225 226 113 225 246 120 225 7 61 137 27 65 137 46 68 137 67 72 137 87 75 137 107 79 137 128 82 137 148 86 137 169 89 137 190 93 137 212 97 137 234 100 138 255 104 137 7 222 187 28 230 188 50 237 187 72 245 188 94 253 188 247 126 188 139 2 188 161 8 187 185 17 188 208 25 188 231 33 187 254 41 188 23 51 187 47 59 188 72 68 188 95 77 188 119 84 187 144 94 188 168 103 187 194 112 188 218 120 188 243 130 188 10 137 187 36 146 188 62 156 187 88 165 187 114 174 187 141 185 188 167 194 188 194 203 187 221 212 188 248 222 187 228 197 0 238 187 0 249 175 0 1 164 0 11 154 0 21 143 0 31 132 0 41 121 0 52 111 0 62 100 0 71 88 0 82 78 0 92 67 0 102 57 0 113 46 0 124 36 0 132 24 0 143 14 0 153 3 0 165 249 0 174 238 0 185 227 0 195 216 0 205 205 0 217 196 0 226 184 0 236 173 0 246 162 0 106 1 0 5 140 0 16 130 0 26 119 0 36 109 0 47 98 0 58 87 0 67 76 0 77 65 0 118 234 1 127 222 0 137 212 0 147 202 0 158 191 1 167 179 0 177 169 1 186 157 0 197 146 0 208 137 0 218 126 0 229 116 1 239 105 1 248 94 0 0 84 0 10 74 0 19 62 0 30 52 0 40 41 0 50 31 0 60 21 1 70 9 0 79 254 0 90 243 1 100 233 1 110 222 0 121 212 1 130 200 0 141 189 0 151 179 0 161 168 0 171 157 0 181 147 0 190 136 0 201 125 0 211 114 0 221 104 0 231 92 0 242 82 0 252 72 0 7 61 0 16 49 0 27 39 0 37 29 0 47 18 0 58 7 0 66 253 0 76 242 0 88 233 1 97 221 0 107 210 0 117 200 0 127 189 0 137 178 0 147 167 0 157 157 0 167 146 0 176 134 0 188 125 0 198 113 0 208 103 0 218 92 0 228 82 0 238 71 0 249 61 1 3 49 0 13 38 0 23 28 0 32 16 0 43 6 0 0 0 255 85 245 188 111 235 187 137 225 187 163 216 188 189 206 188 214 196 188 239 186 187 6 183 188 18 169 188 42 159 187 66 150 188 90 141 188 114 132 188 138 123 188 162 114 187 185 105 188 209 96 188 232 87 188 0 77 188 23 69 187 45 60 187 69 53 188 90 43 187 112 35 187 134 26 188 155 18 187 178 11 188 198 2 187 211 248 188 240 253 187 3 246 224 24 238 225 45 231 224 65 224 225 85 215 225 105 207 224 125 200 224 144 191 224 165 185 224 185 177 225 205 170 225 224 164 225 242 155 225 5 153 224 17 142 188 35 135 188 53 127 187 72 121 188 91 114 188 110 108 188 127 100 188 145 93 188 164 86 188 181 80 188 198 72 187 216 66 187 233 60 188 250 53 188 13 46 187 29 38 187 47 33 187 63 26 187 81 21 188 97 14 188 113 7 188 129 1 188 140 248 188 147 240 188 178 254 188 194 247 187 210 241 187 225 235 188 241 229 187 2 224 188 18 231 188 35 237 188 51 242 187 67 247 187 84 254 187 241 138 187 250 131 187 135 2 188 153 8 188 170 15 187 187 21 188 205 27 188 222 33 188 240 40 187 3 47 224 21 54 225 39 60 224 57 67 225 76 72 224 94 80 224 113 87 225 132 93 225 150 100 225 168 107 224 188 113 224 208 121 225 227 128 224 247 135 224 8 68 137 28 72 137 47 74 136 67 79 137 88 82 137 109 86 137 129 89 137 149 93 137 171 97 137 192 100 137 213 104 137 235 109 137 244 236 187 8 237 187 30 245 188 52 253 188 246 168 187 96 0 187 119 8 187 141 16 188 165 25 188 187 33 188 210 41 187 233 49 187 2 59 188 25 67 187 49 76 187 73 84 188 96 92 187 122 102 188 146 110 188 171 119 187 196 128 188 222 138 188 246 146 187 14 154 188 39 163 188 66 174 188 91 182 188 117 191 188 144 201 187 169 209 187 197 220 187 224 230 187 252 240 188 246 224 0 45 3 1 9 203 0 19 192 0 29 181 0 39 170 0 49 160 0 59 149 0 69 138 0 80 128 0 90 117 0 100 106 0 111 95 1 120 85 0 130 74 0 140 63 0 150 53 0 160 42 0 170 31 0 181 20 0 191 10 0 202 0 0 213 245 0 223 235 1 232 223 0 243 213 1 254 202 0 2 191 0 13 182 0 23 171 1 34 160 1 43 149 0 53 138 0 63 126 0 72 115 0 83 106 0 93 95 0 147 248 1 157 236 0 166 225 0 178 216 1 186 204 0 196 193 0 207 182 0 217 173 0 227 162 0 238 151 0 247 140 0 125 1 0 9 121 0 19 110 0 29 99 0 39 89 0 49 78 0 59 67 0 69 57 0 78 45 0 89 35 0 99 25 0 109 14 0 119 3 0 129 248 0 139 237 0 149 227 0 158 215 0 169 205 0 180 196 0 188 184 0 199 173 0 209 164 0 218 151 0 229 141 0 238 130 0 248 119 0 5 109 0 15 99 0 25 88 0 35 78 0 45 67 0 55 56 0 64 45 0 75 35 0 85 24 0 94 13 0 105 3 0 114 249 0 124 238 0 134 227 0 144 218 0 153 206 0 165 196 1 174 185 0 184 174 0 194 164 0 204 153 0 214 142 0 224 132 0 234 121 0 246 111 0 153 0 0 9 88 0 19 78 0 29 67 0 38 57 0 49 46 0 60 35 0 70 25 0 80 14 0 90 3 0 109 252 187 135 241 187 161 233 188 187 224 188 212 212 187 238 204 188 6 199 188 16 185 187 40 176 188 65 167 187 90 158 188 113 148 187 137 139 187 160 130 187 185 122 188 207 112 188 231 104 188 253 94 187 22 84 187 44 76 187 66 67 188 88 58 187 111 50 187 133 42 187 154 35 188 176 25 188 197 17 187 219 9 188 240 1 187 250 247 187 23 254 225 44 245 224 65 239 225 85 230 225 105 222 225 125 214 225 145 207 224 164 199 225 184 192 225 205 184 225 222 176 224 242 170 225 5 167 225 16 156 187 35 149 188 54 142 187 72 135 188 91 128 187 109 121 188 127 114 188 145 107 188 163 100 187 181 93 187 198 87 187 216 80 187 234 73 188 250 67 188 13 59 188 30 52 187 47 46 188 64 39 188 80 33 187 97 27 188 113 20 187 130 14 187 146 8 187 162 2 187 173 248 187 181 241 187 210 253 187 226 247 188 241 241 187 2 237 188 18 242 187 35 248 187 236 182 188 244 174 187 251 166 188 102 3 188 119 9 188 136 16 188 153 22 187 171 28 188 188 33 187 206 41 187 223 47 188 241 53 188 4 61 225 22 67 225 40 74 225 58 81 225 77 87 225 95 94 225 114 101 224 133 107 225 151 114 224 171 121 224 190 128 225 209 135 224 228 142 225 248 149 224 9 75 137 29 79 137 50 83 138 69 86 137 90 89 137 110 93 137 131 97 137 151 100 137 172 105 137 193 108 137 215 111 137 236 115 137 246 251 188 10 252 187 247 211 188 54 0 188 76 8 187 98 16 187 121 24 188 143 32 187 166 40 188 188 47 187 213 58 188 235 65 188 3 74 187 28 83 188 52 92 187 76 101 188 99 109 187 124 118 187 149 127 188 173 136 188 198 145 187 224 154 187 249 163 188 15 171 187 42 180 188 68 190 187 94 199 187 120 209 187 147 218 188 174 228 188 201 238 187 229 248 188 250 4 0 7 251 0 17 239 0 27 230 0 37 219 0 47 208 0 56 198 0 67 187 0 77 176 0 87 166 0 97 155 0 107 144 0 116 133 0 126 122 0 137 112 0 147 102 0 157 91 0 167 81 0 177 70 1 187 59 0 197 49 0 208 38 0 218 27 0 228 17 0 238 6 0 248 252 0 22 5 0 10 232 1 19 220 0 29 208 0 39 199 0 50 189 1 59 177 0 69 167 0 79 156 1 89 145 0 99 135 0 109 124 0 158 9 0 186 251 0 196 240 0 206 230 0 216 219 0 226 208 0 236 198 0 246 187 0 78 0 0 8 167 0 19 158 1 28 146 0 38 136 0 48 125 0 58 114 0 68 104 0 79 94 1 88 83 0 97 71 0 108 61 0 119 52 1 128 40 0 138 30 0 148 19 0 158 8 0 167 253 0 177 242 1 188 233 1 197 221 0 207 211 0 217 200 0 227 188 0 237 179 0 247 168 0 2 158 0 12 147 0 22 136 0 32 126 0 42 115 0 52 105 0 62 94 0 72 83 0 81 72 0 92 62 0 102 52 0 112 41 0 122 30 0 131 19 0 141 9 0 149 0 0 161 245 0 171 234 0 181 223 0 191 213 0 201 202 0 210 191 0 222 182 1 232 171 1 241 160 0 250 149 0 6 138 0 16 127 0 26 117 0 36 106 0 46 96 0 56 85 0 64 73 0 75 64 0 84 53 0 95 43 0 105 32 0 116 22 1 125 11 0 135 0 0 159 249 187 185 240 187 210 231 188 235 220 188 4 214 187 14 202 187 39 193 188 63 182 187 87 174 188 111 165 188 135 156 188 159 145 187 183 137 188 206 128 188 229 119 187 252 110 188 20 100 187 43 92 187 65 83 188 88 74 187 110 66 188 132 57 188 153 49 188 175 41 187 195 31 187 218 24 187 239 16 187 2 8 188 23 0 188 32 246 188 63 252 224 84 245 224 104 237 225 124 229 225 144 221 224 163 213 224 185 206 225 203 198 224 222 191 225 242 185 225 5 181 225 16 170 187 35 163 187 53 156 188 72 149 187 90 142 188 110 136 188 126 128 187 145 121 187 163 114 187 181 107 188 199 100 188 216 93 188 233 87 187 251 80 188 13 72 188 30 66 187 47 59 187 64 53 187 79 46 187 96 39 187 114 34 188 130 27 187 146 21 188 161 14 187 178 8 187 195 3 188 206 250 188 213 241 187 241 253 187 3 250 187 237 217 187 245 207 187 254 201 188 69 3 187 85 10 187 102 16 188 119 23 187 137 29 187 153 35 187 171 41 187 189 48 188 206 54 187 225 62 188 242 67 187 4 75 225 23 82 225 40 87 224 59 94 225 78 101 224 97 109 225 116 116 225 134 121 225 153 128 225 171 134 224 191 142 225 209 149 224 231 156 225 249 163 224 11 82 137 31 86 137 51 89 137 71 93 137 91 97 137 112 99 137 132 104 137 153 108 137 174 111 137 195 115 137 216 119 137 238 122 137 245 251 188 254 242 188 34 7 187 56 15 188 77 22 187 100 31 188 123 39 187 145 48 187 168 56 188 190 63 187 214 73 188 238 81 187 7 92 188 31 101 188 54 108 187 78 117 188 102 126 188 127 135 188 151 145 188 176 153 188 201 162 187 226 171 187 252 180 188 19 188 188 44 198 187 70 206 187 97 216 188 123 226 188 151 237 188 176 246 187 219 32 0 7 35 0 18 26 1 27 14 0 37 4 0 44 2 1 54 246 0 64 235 0 74 225 0 84 214 0 94 204 0 104 194 0 113 182 0 124 172 0 134 161 1 144 151 0 154 140 0 164 129 0 174 119 0 184 108 0 194 98 0 205 88 1 214 76 0 224 66 0 235 55 0 244 45 0 254 34 0 6 25 0 17 14 0 26 4 0 35 248 0 45 238 0 55 227 0 65 216 0 74 205 0 85 195 0 95 185 0 105 174 0 116 164 0 125 153 0 208 12 0 218 1 0 225 254 0 235 244 0 245 233 0 32 0 0 7 212 0 17 203 0 27 192 0 37 182 0 47 172 0 57 161 0 67 150 0 76 140 0 86 129 0 96 119 0 106 108 0 116 98 0 126 87 0 136 76 0 146 67 0 156 55 0 166 45 0 175 34 0 186 24 0 196 13 0 206 3 0 215 247 0 226 238 1 236 227 1 245 216 0 0 205 0 9 194 0 20 184 0 30 174 0 40 163 0 51 153 1 60 142 0 70 131 0 80 121 0 90 110 0 99 99 0 110 90 0 119 79 0 129 68 0 139 58 0 149 47 0 159 36 0 169 26 0 179 15 0 189 5 0 199 251 0 208 240 0 217 230 0 227 219 0 237 208 0 247 198 0 2 187 0 11 176 0 22 166 0 32 155 0 42 145 0 52 134 0 61 124 0 71 113 0 81 103 0 91 92 0 101 82 0 112 72 1 121 61 0 131 50 0 141 40 0 151 29 0 160 17 0 171 8 0 0 0 255 208 247 187 235 238 188 2 230 187 12 219 187 37 209 187 61 200 188 86 190 187 111 182 188 134 172 187 158 162 187 181 152 187 205 144 187 228 135 188 250 126 187 20 117 188 43 108 188 64 99 187 87 90 187 110 82 188 131 73 188 152 64 187 174 56 187 196 48 187 218 39 188 238 31 188 1 23 187 22 15 188 43 7 187 63 254 188 71 245 188 104 252 225 124 244 225 144 236 224 163 228 224 184 222 225 203 213 225 222 206 224 241 198 225 5 195 225 16 185 188 34 177 187 53 170 187 73 164 188 90 156 188 108 149 188 126 140 187 144 133 187 163 127 188 180 121 188 198 114 188 215 106 187 233 100 188 251 93 188 12 85 187 30 79 188 47 72 188 64 66 187 81 59 188 97 53 187 114 46 188 130 40 188 146 34 187 163 27 188 179 21 188 196 15 188 211 9 188 226 3 188 238 250 187 246 242 187 254 234 187 37 6 188 52 11 188 69 17 188 86 23 188 103 30 187 119 36 187 137 42 187 154 48 187 172 55 187 188 61 187 207 68 188 225 74 187 243 81 188 6 89 225 23 95 225 42 102 225 60 108 224 78 116 225 98 123 225 116 129 225 135 136 225 154 143 225 173 150 225 191 157 224 211 164 225 231 171 224 250 178 224 12 89 137 32 93 137 52 97 137 72 100 137 93 105 137 113 107 137 134 111 137 155 115 137 176 119 137 197 122 137 245 76 137 254 72 137 249 12 188 14 15 188 36 23 188 58 31 187 80 39 188 102 47 187 125 55 187 147 65 188 170 72 188 193 79 187 217 88 187 240 97 188 9 107 188 32 116 187 56 125 187 81 133 188 105 142 188 129 151 188 154 160 188 178 168 187 204 179 187 229 188 188 252 198 188 22 205 188 49 216 188 74 224 187 99 234 187 127 244 187 153 253 187 4 82 0 15 72 0 25 62 0 35 51 0 45 41 0 55 30 0 64 19 0 74 9 0 78 4 0 91 250 0 103 242 1 112 230 0 121 219 0 132 209 0 141 199 0 151 188 0 161 178 0 171 167 0 181 157 0 191 146 0 201 135 0 211 125 0 221 114 0 232 105 0 241 93 0 250 83 0 2 74 0 12 63 0 22 52 0 32 42 0 41 30 0 51 20 0 62 10 0 73 0 0 82 245 0 91 234 0 101 223 0 111 213 0 121 201 0 131 192 0 141 181 0 238 27 1 247 15 0 249 1 0 0 5 0 16 249 0 26 238 0 37 229 1 45 217 0 55 207 0 65 196 0 75 186 0 85 175 0 95 165 0 105 153 0 115 144 0 125 133 0 134 123 0 144 112 0 154 102 0 165 92 1 175 82 0 185 70 0 194 60 0 204 49 0 214 39 0 223 28 0 233 18 0 244 8 1 253 252 0 8 241 0 18 231 0 28 221 0 37 210 0 47 200 0 57 189 0 67 179 0 78 168 1 87 158 0 97 147 0 108 138 1 116 126 0 127 117 1 136 105 0 146 95 0 156 84 0 166 75 1 176 63 0 186 53 0 195 42 0 205 32 0 215 22 0 226 11 0 235 1 0 245 247 0 254 236 0 8 225 0 18 215 0 28 204 0 38 194 0 48 183 0 58 173 0 67 162 0 77 152 0 87 141 0 96 130 0 107 120 0 117 110 0 127 99 0 137 89 0 146 78 0 156 68 1 166 57 0 176 47 0 186 36 0 195 25 0 206 15 0 216 5 0 232 254 188 1 246 187 10 236 187 35 226 188 60 216 187 84 207 187 108 197 188 132 188 188 156 180 188 181 171 188 203 160 187 227 151 188 250 142 187 18 132 187 41 123 188 63 114 188 84 106 187 108 97 187 130 88 188 152 80 187 173 71 187 195 63 187 216 55 187 237 46 188 0 38 188 21 30 187 42 22 188 62 14 188 83 6 188 101 253 188 110 245 188 144 251 225 164 243 225 183 235 225 202 228 225 222 220 224 241 213 225 4 209 225 15 199 188 34 191 188 53 184 187 71 177 188 89 170 187 108 162 187 126 155 187 145 148 187 164 141 188 180 134 187 199 127 188 216 121 187 233 114 188 250 107 187 13 99 187 31 92 188 47 86 188 64 79 188 81 72 188 97 66 188 114 60 187 130 52 187 147 47 188 163 40 187 179 34 187 195 28 187 211 21 187 227 15 188 242 9 187 3 6 187 20 12 188 36 18 188 53 24 187 71 31 188 87 37 187 104 43 188 121 49 188 138 56 187 155 62 188 173 68 187 190 75 188 208 81 188 225 88 188 243 94 187 6 102 225 23 109 224 43 115 224 61 122 224 79 129 224 98 136 225 117 143 224 136 149 224 155 157 225 174 164 225 193 171 225 213 178 225 232 185 225 253 194 225 13 97 137 33 99 137 53 104 137 74 107 137 94 111 137 115 115 137 135 118 137 156 122 137 245 96 136 254 91 136 220 134 137 241 137 137 250 27 188 16 30 188 38 38 187 59 45 187 82 55 188 104 63 187 127 71 188 150 79 187 173 88 188 196 96 187 219 105 188 242 114 187 11 123 188 34 131 187 59 141 188 83 150 187 107 159 187 131 167 187 157 177 187 182 186 188 208 196 188 233 205 188 254 213 188 25 222 188 51 232 187 77 242 188 103 251 188 3 130 0 13 119 0 23 109 0 33 99 1 42 88 0 52 77 0 62 67 0 73 57 1 82 46 0 92 35 0 102 25 0 112 14 0 121 4 0 128 2 1 139 246 0 149 237 0 158 225 0 168 215 0 178 205 0 189 194 1 199 183 0 207 173 0 218 163 0 229 153 1 237 142 0 247 131 0 139 3 0 10 112 1 19 101 0 29 90 0 38 80 0 48 69 0 58 59 0 68 49 0 78 38 0 88 28 0 98 17 0 109 8 1 117 250 0 127 241 0 137 230 0 147 220 0 156 209 0 3 41 0 13 31 0 23 20 0 32 11 0 24 10 0 53 252 0 63 241 0 74 231 0 84 221 0 94 210 0 103 200 0 113 190 0 124 180 1 133 169 0 143 157 0 154 149 1 162 137 0 172 127 0 182 116 0 192 106 0 202 96 0 212 85 0 221 75 0 231 64 0 242 55 1 251 44 0 4 32 0 14 21 0 24 11 0 34 0 0 44 246 0 55 236 0 64 226 0 75 216 1 84 205 0 94 194 0 104 184 0 114 174 0 123 163 0 133 153 1 143 142 0 153 132 0 163 121 0 173 111 0 182 101 0 191 89 0 202 80 0 212 69 0 222 59 0 232 47 0 241 38 0 251 28 0 4 18 1 14 8 1 24 253 0 34 242 0 43 231 0 54 221 0 63 211 0 73 200 0 83 190 0 93 179 0 103 169 0 113 158 0 122 148 0 132 138 0 141 127 0 153 117 0 162 106 0 172 96 0 182 85 0 191 75 0 201 65 0 211 53 0 221 44 0 232 34 1 240 23 0 249 12 0 0 0 255 9 254 188 33 242 187 58 233 187 83 224 188 108 214 188 131 205 188 155 195 188 178 186 187 202 178 188 226 168 188 248 158 188 17 148 188 39 139 187 62 130 188 84 121 188 107 113 188 129 104 187 151 95 187 172 87 188 194 78 187 215 70 187 236 62 188 2 55 187 20 45 188 41 37 187 62 29 187 82 21 188 102 13 188 123 5 187 139 253 188 148 243 187 182 250 225 202 242 224 221 235 224 241 227 225 3 222 224 15 213 187 34 206 187 53 199 188 71 190 187 90 184 187 109 177 188 126 169 188 144 162 187 162 155 188 180 148 188 198 141 187 216 133 187 233 126 187 251 120 188 13 112 188 30 106 188 47 99 187 64 92 188 81 86 187 97 79 188 114 73 188 131 66 187 147 60 187 163 53 187 179 47 187 195 41 187 211 34 187 227 28 188 243 22 187 3 18 187 20 25 188 37 31 187 53 37 188 70 44 188 86 50 187 104 56 188 121 63 187 139 70 188 156 75 188 172 82 187 191 88 188 207 95 187 226 101 188 244 108 187 8 117 225 25 123 224 43 129 225 62 136 224 81 144 225 99 150 225 119 158 225 137 164 225 156 171 225 175 178 225 194 185 224 214 194 225 233 200 225 253 207 224 14 104 137 34 107 136 55 111 137 75 116 137 97 119 138 116 122 137 244 116 137 254 112 137 179 133 137 201 137 137 221 141 137 243 145 137 252 40 187 18 46 187 38 53 187 62 62 188 84 70 187 107 79 188 129 87 187 152 95 188 174 104 187 198 112 188 221 121 187 246 131 188 13 140 187 37 149 187 61 158 188 86 167 188 110 175 187 135 185 187 159 194 187 184 203 188 210 212 187 235 222 188 2 230 187 28 240 187 54 248 187 1 176 0 11 166 0 20 155 0 30 145 0 40 134 0 50 124 0 60 113 0 70 103 0 79 93 0 90 83 1 99 72 0 108 60 0 119 51 0 129 40 0 138 30 0 148 20 0 158 9 0 161 4 0 175 252 0 185 241 0 195 231 0 205 221 0 214 210 0 224 200 0 234 189 0 245 180 1 254 168 0 5 159 0 15 149 0 25 138 0 35 128 0 45 118 0 54 107 0 65 97 1 74 86 0 85 76 0 94 65 0 104 55 0 113 45 0 124 35 1 133 24 0 143 12 0 153 3 0 162 248 0 172 237 0 31 55 0 41 44 0 51 34 0 61 24 0 70 13 0 79 3 0 89 1 0 101 245 0 111 235 0 121 224 0 131 214 0 140 204 0 150 193 0 161 183 0 170 173 0 180 162 0 191 153 1 200 141 0 210 131 0 218 120 0 229 110 0 239 100 0 249 90 0 2 78 0 12 67 0 21 57 0 30 46 0 41 36 0 51 26 0 60 15 0 70 5 0 81 250 0 91 241 0 101 231 0 111 220 0 121 210 0 130 200 0 140 189 0 149 178 0 160 168 0 169 158 0 179 148 0 189 137 0 199 128 1 209 117 0 218 106 0 229 97 1 238 85 0 248 75 0 0 65 0 9 54 0 19 44 0 29 34 0 39 23 0 49 13 0 58 2 0 69 247 0 79 238 0 89 227 0 99 218 0 108 207 0 118 196 0 128 186 0 138 175 0 148 165 0 158 156 1 168 145 1 178 135 1 187 124 0 196 113 0 206 103 0 216 93 0 226 82 0 236 72 0 245 61 0 203 0 0 219 5 0 7 32 0 17 22 0 27 11 0 38 2 1 57 250 188 81 240 188 105 231 187 129 221 188 153 212 187 177 202 188 202 194 188 224 184 187 246 174 187 16 164 188 38 155 187 61 146 187 83 137 187 106 128 187 128 120 188 150 111 187 172 103 188 193 94 187 215 86 188 236 77 187 1 70 188 21 62 188 40 52 188 61 44 188 82 36 187 102 28 188 121 19 187 142 12 188 162 4 187 177 250 187 186 241 187 221 249 225 240 241 225 4 237 224 15 227 187 34 220 187 53 213 188 70 204 187 90 198 187 107 189 187 126 183 187 144 176 188 162 169 187 180 162 188 198 155 188 216 148 187 233 140 187 250 134 187 13 127 188 30 119 188 47 112 188 64 106 187 82 100 188 98 92 188 114 86 188 131 79 188 147 73 188 163 66 187 180 60 187 196 54 188 213 47 188 227 41 188 243 35 187 4 32 187 21 38 187 37 44 188 54 51 188 71 57 187 88 63 187 105 70 188 122 76 188 138 81 187 156 89 188 173 94 187 191 102 188 209 109 188 227 115 187 245 121 187 8 130 224 26 137 224 45 144 225 63 150 225 81 157 225 99 164 224 119 171 224 138 179 225 158 185 225 176 194 225 195 200 224 215 207 225 235 214 225 254 222 224 17 112 137 36 115 137 56 118 137 76 122 137 244 135 137 253 130 137 138 133 137 159 137 137 180 140 136 202 145 137 223 148 137 245 152 137 253 54 188 19 61 188 41 69 188 64 78 187 86 86 187 108 94 188 131 103 188 154 111 187 177 120 188 200 129 187 223 137 188 247 146 187 16 156 188 40 165 187 64 174 187 88 183 188 113 193 188 137 202 188 162 212 188 187 220 188 212 230 187 238 239 188 5 247 188 109 143 0 7 212 0 18 201 0 29 192 1 38 180 0 48 170 0 56 159 0 66 148 0 77 139 0 86 129 0 96 118 0 107 109 0 116 97 0 126 87 0 136 77 0 145 66 0 154 55 0 165 46 0 175 35 0 185 25 0 195 15 1 205 4 0 210 1 0 221 247 0 231 236 0 241 227 0 250 216 0 2 207 0 13 196 1 21 186 0 31 176 0 41 165 0 51 155 0 61 145 1 69 134 0 80 123 0 90 113 0 100 103 0 109 93 0 120 83 1 129 72 0 138 60 0 149 51 0 159 42 1 168 31 0 178 20 0 188 10 0 59 68 0 69 58 0 79 47 0 90 38 1 98 27 0 108 16 0 118 5 0 119 6 0 139 249 0 150 239 0 159 228 0 169 218 0 178 207 0 188 196 0 199 187 0 208 176 0 217 165 0 228 157 1 237 145 0 246 135 0 0 123 0 9 113 0 18 102 0 29 92 0 38 82 0 48 72 0 58 61 0 68 51 0 77 41 0 87 30 0 97 20 0 108 11 1 114 2 0 127 246 0 137 236 0 146 224 0 157 215 0 166 205 0 176 194 0 186 184 0 196 174 0 205 163 0 215 153 0 225 143 0 234 131 0 245 122 1 254 112 0 6 101 0 17 92 1 25 81 0 35 70 0 45 60 0 54 50 0 63 38 0 73 29 0 84 19 0 93 9 0 104 254 0 114 245 1 124 235 0 133 223 0 144 213 1 153 203 0 163 192 0 173 183 1 182 171 0 192 160 0 202 151 0 211 140 0 221 130 0 232 120 0 240 110 0 250 99 0 168 3 0 2 81 0 12 70 0 22 60 0 31 50 0 41 39 0 51 29 0 61 20 0 70 8 0 0 0 255 104 247 188 128 238 187 153 229 188 176 219 188 199 209 188 223 200 187 246 191 187 14 180 188 37 171 187 60 162 187 82 153 187 105 144 188 127 135 187 149 127 188 170 118 188 192 109 187 213 101 187 235 92 188 1 85 188 19 76 187 40 67 187 60 59 188 82 52 188 101 43 187 121 35 187 141 26 187 161 19 187 181 11 187 201 3 187 215 250 187 223 239 187 3 251 225 13 241 187 34 235 188 52 228 188 71 218 187 90 213 188 108 205 187 126 197 188 143 189 187 162 182 187 180 175 187 198 169 187 216 162 187 233 155 188 251 149 188 14 139 188 30 133 187 47 126 187 64 119 187 81 112 188 99 107 188 114 99 188 131 92 188 147 87 188 165 80 188 180 73 188 196 67 187 213 61 188 228 54 187 244 48 187 5 45 187 20 50 187 38 58 187 54 64 188 70 69 187 88 77 187 105 82 187 122 89 187 140 96 187 157 101 187 175 110 188 192 116 188 210 122 188 229 130 188 246 136 187 9 144 225 27 150 225 45 157 225 64 164 224 82 171 224 101 178 224 120 185 224 139 194 225 158 200 225 177 207 225 197 214 225 217 223 225 236 229 225 254 115 137 17 118 137 37 121 137 244 154 137 253 149 137 98 133 137 119 137 137 140 140 137 160 144 137 182 148 137 202 152 136 225 156 137 246 160 137 254 69 188 21 76 187 43 85 188 65 93 188 88 102 188 110 110 187 134 120 188 156 127 187 179 136 187 202 145 187 227 154 188 249 163 188 19 174 188 42 182 187 66 191 187 91 200 188 116 209 188 140 218 187 166 229 188 190 237 187 215 247 187 76 173 0 5 1 0 16 247 0 26 236 0 36 226 0 45 216 0 55 205 0 65 195 0 75 185 1 84 174 0 94 164 0 104 154 0 113 143 0 124 134 1 133 123 0 144 113 0 152 102 0 162 92 0 172 82 0 182 71 0 191 61 0 201 51 0 211 40 0 220 31 1 230 20 0 240 9 0 243 4 0 6 2 0 8 243 0 18 233 0 28 223 0 37 212 0 48 202 1 57 192 0 66 181 0 75 170 0 86 161 0 95 149 0 104 139 0 115 130 0 124 118 0 135 109 0 144 99 0 154 88 0 164 78 0 175 68 0 183 57 0 193 47 0 203 37 0 87 81 0 97 71 0 107 61 0 115 50 0 126 40 0 135 29 0 145 20 0 155 10 0 148 9 0 177 252 0 186 242 0 196 232 0 206 221 0 215 211 0 226 202 1 234 190 0 244 180 0 254 170 0 7 158 0 17 148 0 26 138 0 36 127 0 47 118 1 55 108 1 65 97 0 75 86 0 84 76 0 94 66 0 104 56 0 113 45 0 124 36 1 133 25 0 143 14 0 152 4 0 163 251 0 173 240 0 183 230 0 192 220 0 202 210 0 213 199 0 221 189 0 232 180 1 240 169 0 250 158 0 2 148 0 12 138 0 22 127 0 30 116 0 41 107 0 51 97 0 61 87 1 70 76 0 80 66 0 89 56 0 99 45 0 109 35 0 118 25 0 128 15 0 138 5 1 149 250 0 157 239 0 168 230 0 178 219 0 186 208 0 197 199 0 207 188 0 216 178 0 226 168 0 236 158 0 245 146 0 117 0 0 134 6 0 8 119 1 18 109 1 25 97 0 36 88 0 46 77 0 55 67 0 64 57 0 75 47 0 83 35 0 94 26 0 104 16 0 112 4 0 127 255 188 150 245 187 174 235 187 198 226 188 221 216 187 245 207 187 13 196 188 36 187 188 59 178 187 81 169 187 103 160 187 125 150 187 148 142 187 170 135 188 191 125 188 212 116 187 234 108 188 0 100 187 18 91 188 39 83 188 60 74 187 80 66 188 101 58 187 121 50 188 141 42 188 161 34 188 181 26 188 201 18 188 219 10 187 239 2 187 253 249 188 20 4 187 33 249 187 52 241 187 71 233 188 89 226 188 108 219 188 126 211 187 144 204 188 162 197 187 180 190 187 198 182 188 216 175 188 233 168 188 251 161 188 13 153 188 30 146 188 47 139 188 64 132 188 81 126 187 98 119 187 116 113 188 132 107 188 148 99 188 164 93 188 179 85 187 196 80 188 212 73 187 229 67 188 245 61 188 5 58 188 21 64 188 38 71 188 55 77 187 72 82 187 89 90 187 107 97 188 123 103 187 140 109 187 158 116 187 175 124 188 194 129 188 210 135 187 229 143 187 246 149 187 9 158 224 28 164 225 46 171 225 65 178 225 83 185 225 102 193 225 121 200 224 140 208 225 160 214 225 178 221 225 198 229 224 217 236 225 237 244 224 254 121 136 242 172 136 252 168 137 59 133 137 79 136 137 100 140 137 121 144 137 141 148 137 164 153 137 183 155 136 204 160 136 227 164 137 247 167 137 1 84 187 23 93 187 45 100 187 67 110 188 90 118 187 112 126 188 135 135 188 157 144 187 181 152 187 205 161 187 228 170 188 253 179 188 21 188 187 44 198 187 69 207 188 93 218 188 118 226 188 143 235 187 167 244 187 193 254 187 2 45 0 13 36 0 21 24 0 32 15 0 42 5 0 53 251 0 62 240 0 72 230 0 82 220 0 91 210 0 101 199 1 111 189 0 120 179 0 130 169 0 139 157 0 149 148 0 159 138 0 169 127 0 177 116 0 188 107 0 198 96 0 208 86 0 217 76 0 228 67 1 237 56 0 246 45 0 222 1 0 2 27 0 12 16 0 22 6 0 31 2 0 42 248 0 53 238 0 63 228 0 72 218 0 82 207 0 92 197 0 101 187 0 111 177 0 121 166 0 130 156 0 140 146 0 150 136 0 160 125 0 168 114 0 179 105 0 189 95 0 198 84 0 208 74 0 218 64 0 116 95 0 124 84 0 134 74 0 144 64 0 153 54 0 163 43 0 172 33 0 182 22 0 193 14 1 201 3 0 211 1 0 223 245 0 232 235 0 242 225 0 252 214 0 5 203 0 14 193 0 25 183 1 34 172 0 44 162 0 53 152 0 63 142 0 71 130 0 82 121 0 91 111 0 100 100 0 111 91 0 120 80 0 131 70 0 140 60 0 149 50 0 160 41 0 168 29 0 178 19 0 189 10 1 197 1 0 208 245 0 218 235 0 228 225 0 237 215 0 247 204 0 61 1 0 8 185 0 18 174 0 28 164 0 37 153 0 47 143 0 56 133 0 67 124 1 76 112 0 85 102 0 95 92 0 105 82 0 114 72 0 124 61 0 133 51 0 143 41 0 153 31 0 162 21 0 172 10 0 182 0 0 191 245 0 202 236 0 212 226 0 221 215 0 231 205 0 241 195 0 249 184 0 82 3 0 2 166 0 12 156 1 21 146 0 31 135 1 40 125 0 50 115 0 60 105 0 69 95 0 79 84 0 89 74 0 98 64 0 109 55 1 118 43 0 127 33 0 137 23 0 146 13 0 155 3 0 173 252 187 197 242 188 220 234 188 243 223 188 12 213 187 34 202 187 58 195 188 80 185 188 102 176 188 125 167 187 147 158 188 169 149 188 190 140 187 213 132 188 233 123 188 254 115 188 17 106 188 38 98 188 59 90 187 80 81 187 99 72 187 120 65 188 140 57 188 160 49 188 180 40 187 200 33 187 220 25 187 239 17 188 3 12 188 14 2 188 26 249 187 34 239 187 70 248 188 89 240 188 107 233 187 126 225 188 144 217 187 162 211 187 180 203 187 198 196 187 216 189 188 234 183 188 250 174 187 12 167 187 30 160 188 46 152 187 64 146 188 81 139 188 98 132 188 115 126 188 131 119 187 148 112 187 163 105 187 180 99 187 197 93 187 213 86 187 228 80 188 244 73 187 5 71 188 22 78 188 38 84 187 55 90 188 73 97 188 90 104 188 106 110 187 124 116 187 141 123 188 158 130 187 175 136 187 194 144 188 211 150 187 229 157 187 247 164 187 10 172 224 29 179 225 47 186 225 65 193 224 84 200 224 103 207 225 122 214 225 141 221 225 160 229 224 180 236 225 198 242 224 219 250 224 244 2 187 250 187 137 20 132 137 40 136 137 60 140 137 82 145 137 101 148 137 122 151 137 143 155 137 164 160 137 185 163 137 207 167 137 229 172 137 250 175 137 3 100 187 25 108 187 47 117 188 69 125 188 92 134 188 114 142 187 137 150 187 160 160 187 182 168 187 207 177 188 230 186 187 254 195 187 23 206 188 47 215 188 71 224 188 96 233 187 120 243 187 145 252 187 1 90 0 11 80 0 20 70 0 30 60 0 40 50 0 49 39 0 59 29 0 68 19 0 78 9 0 89 0 0 99 244 0 108 234 0 118 224 0 127 214 0 137 204 0 147 194 0 155 182 0 166 173 0 176 163 0 184 152 0 195 141 0 204 132 0 214 122 0 224 112 0 233 100 0 242 91 0 253 81 0 198 8 0 9 62 0 18 52 0 28 42 0 37 31 0 47 21 0 57 11 0 66 1 0 77 254 0 88 244 0 98 234 0 107 223 0 116 212 0 126 203 0 136 194 0 146 182 0 155 172 0 165 162 0 174 152 0 185 142 0 194 131 0 203 121 0 213 111 0 222 100 0 233 91 0 141 108 0 152 97 0 160 86 0 171 77 0 180 67 0 190 57 0 200 48 1 209 36 0 219 26 0 228 16 0 238 6 0 239 5 0 3 247 0 12 237 0 22 227 0 31 217 0 41 207 0 50 196 0 60 186 0 70 176 0 79 166 0 89 156 0 98 146 0 108 135 0 117 125 0 127 116 1 138 106 1 146 95 0 157 86 1 165 74 0 175 64 0 185 54 0 194 44 0 204 34 0 213 24 0 223 14 0 233 4 1 242 249 0 253 239 0 5 230 0 14 219 0 24 209 0 32 198 0 43 189 0 52 178 0 62 169 0 72 159 0 82 149 1 91 138 0 100 128 0 110 118 0 119 107 0 129 98 0 139 87 0 148 77 0 159 68 1 168 57 0 177 47 0 186 36 0 196 26 0 206 16 0 215 6 0 226 253 0 236 242 0 245 232 0 33 0 0 49 6 0 6 202 0 16 193 0 27 183 1 35 173 0 45 162 0 55 152 0 64 142 0 74 132 0 83 122 0 93 112 0 102 101 0 112 91 0 122 81 0 131 71 0 141 61 0 150 51 0 160 40 0 169 30 0 179 20 0 189 10 0 199 0 0 219 249 187 242 240 188 11 230 188 34 219 187 56 210 188 79 201 187 101 192 188 123 182 187 146 174 187 168 165 187 189 156 187 212 147 188 232 139 187 254 130 187 17 122 188 37 112 187 58 106 188 79 96 188 99 88 187 120 80 188 140 73 188 160 63 187 180 55 188 199 47 188 219 39 188 240 32 188 2 26 187 13 17 187 32 9 187 51 1 187 62 248 187 89 254 187 108 247 188 126 239 188 144 233 188 162 225 188 180 217 188 199 211 188 216 203 187 233 196 188 251 189 188 13 180 188 29 172 187 48 166 188 65 159 187 82 153 187 97 145 187 115 139 187 132 132 187 149 125 188 164 119 187 181 112 187 197 106 188 213 100 188 230 94 188 245 86 187 6 85 187 22 91 187 39 96 187 56 104 188 73 111 188 90 117 187 107 123 187 124 130 188 142 138 188 160 144 188 177 150 188 194 157 188 212 164 187 230 171 188 247 177 187 11 186 224 29 194 225 48 200 224 66 207 225 86 214 225 104 221 224 123 228 225 142 237 225 161 243 225 181 250 224 242 40 187 252 31 187 240 5 187 1 136 137 21 140 137 40 143 136 61 146 136 82 150 137 103 155 137 124 159 137 145 163 137 165 166 136 187 171 137 207 174 137 230 179 137 252 183 137 5 116 188 27 124 188 49 133 187 71 141 188 94 150 188 117 158 188 138 167 187 162 176 187 186 184 187 208 194 187 233 203 187 1 213 188 25 222 187 50 232 188 74 241 187 98 250 188 0 0 255 9 124 0 18 114 0 28 104 0 37 94 0 47 84 0 57 73 0 66 63 0 76 53 0 85 43 0 95 33 0 104 23 0 114 13 0 123 2 0 134 248 0 144 238 0 153 228 0 163 218 0 173 208 0 182 197 0 192 187 0 202 177 0 211 167 0 221 157 0 231 147 1 240 137 0 249 126 0 146 4 0 5 108 0 15 98 0 24 88 0 34 77 0 44 67 0 53 57 0 63 47 0 72 37 0 82 27 0 92 16 0 101 6 0 110 2 0 123 250 1 132 240 1 142 229 0 150 218 0 160 207 0 169 198 0 180 189 0 189 178 0 199 168 1 209 158 0 217 146 0 228 136 0 237 127 0 247 117 0 169 120 0 178 110 0 189 100 0 198 89 0 207 80 0 217 70 0 226 60 0 236 50 0 245 40 0 225 0 0 6 18 0 16 8 0 14 8 0 39 251 1 48 241 0 57 230 0 67 220 0 77 210 0 86 200 0 96 190 0 105 180 0 115 169 0 124 160 0 134 150 0 143 139 0 153 129 0 162 119 0 172 109 0 181 99 0 190 89 0 199 78 0 210 69 0 220 59 0 229 48 0 239 38 0 248 28 0 0 18 0 9 8 0 20 0 0 30 245 0 39 234 0 49 224 0 58 214 0 68 204 0 77 194 0 87 184 0 96 174 0 106 164 0 116 154 0 125 143 0 135 133 0 145 124 0 153 113 0 163 103 0 173 93 0 183 84 1 192 73 0 201 63 0 211 51 0 219 41 0 230 32 0 239 22 0 249 12 0 255 4 1 3 250 1 11 240 0 21 230 0 30 219 0 40 209 0 49 199 0 58 188 0 68 179 0 78 169 0 87 159 0 96 148 0 107 139 0 116 128 0 126 118 0 135 108 0 145 98 0 154 88 0 164 78 0 173 68 0 183 58 0 192 48 0 202 37 0 211 27 0 221 17 0 231 8 1 0 0 255 9 245 188 32 236 187 55 226 188 78 217 187 99 207 187 123 199 188 144 189 187 167 181 187 189 173 188 210 163 187 231 154 187 253 146 187 16 137 187 37 129 187 58 120 187 79 113 188 99 103 187 119 95 187 139 87 187 160 79 188 179 70 187 199 62 187 219 54 188 238 46 188 2 40 188 13 31 187 32 24 188 52 17 188 70 8 188 88 1 187 98 247 188 126 255 188 144 246 187 162 239 187 180 232 188 198 224 187 217 218 188 234 210 188 250 202 187 13 194 187 30 187 188 48 181 188 65 173 188 82 166 188 98 159 188 115 152 188 132 145 187 148 139 188 165 132 187 181 125 187 197 119 187 213 112 188 229 106 187 245 99 187 6 98 187 22 103 187 39 111 188 56 117 187 73 124 187 90 131 188 108 137 188 125 144 188 142 151 188 161 158 188 177 164 188 195 171 188 213 178 188 231 185 187 248 190 187 12 200 225 29 207 224 50 214 225 67 221 225 86 228 225 105 236 224 124 243 224 143 250 225 243 78 187 253 69 188 201 4 187 221 12 187 242 21 188 2 143 137 23 148 138 43 151 137 63 155 137 84 158 137 103 161 136 125 166 137 146 170 137 167 174 137 189 178 137 210 182 137 233 187 138 254 190 136 7 131 188 29 140 188 51 148 188 73 157 187 96 166 188 119 175 187 142 183 188 165 192 188 188 201 187 211 210 187 235 219 188 4 230 187 28 239 187 52 248 187 0 0 255 7 168 0 16 158 0 26 149 0 35 138 0 45 128 0 55 118 1 64 107 0 73 97 0 83 87 0 92 77 0 102 67 0 111 57 0 121 47 0 130 37 0 139 25 0 150 16 0 159 5 0 170 252 0 179 242 0 190 233 1 198 222 0 208 212 0 217 202 0 227 192 0 236 181 0 246 171 0 95 1 0 2 153 0 11 143 0 21 133 0 31 123 0 40 112 0 50 102 0 59 92 0 69 82 0 78 72 0 88 62 0 97 53 1 106 41 0 116 32 0 126 21 0 135 11 0 145 1 0 157 254 0 166 244 0 176 234 0 185 225 0 195 214 0 204 204 0 214 194 0 223 185 0 233 173 0 242 163 0 252 153 0 5 142 0 196 133 0 205 124 1 216 114 1 224 103 0 234 93 0 243 83 0 254 73 1 4 61 0 14 51 0 23 41 0 33 31 0 42 21 0 52 11 0 61 1 0 74 254 0 83 244 0 93 234 0 102 225 0 112 214 0 121 204 0 131 194 0 139 184 0 150 174 0 159 163 0 169 153 0 179 144 1 188 133 0 197 123 0 207 113 0 216 103 0 226 93 0 235 83 0 245 73 0 255 64 1 6 53 0 16 44 1 25 33 0 34 23 0 44 13 0 53 3 0 64 249 0 73 239 0 82 229 0 92 219 0 102 209 0 111 198 0 121 189 0 131 180 1 140 169 0 149 159 0 160 149 0 168 139 0 179 130 1 187 119 0 197 108 0 206 98 0 217 88 0 225 78 0 235 68 0 244 58 0 254 48 0 221 5 0 4 28 0 14 18 0 23 8 0 33 1 0 45 247 1 54 236 0 64 227 1 73 215 0 82 205 0 93 196 1 101 185 0 111 175 0 120 166 0 130 155 0 139 145 0 149 135 0 158 125 0 166 114 0 177 105 0 186 95 0 195 85 0 204 74 0 215 65 0 224 55 0 234 44 0 243 34 0 253 24 0 4 13 0 14 3 0 31 253 188 54 243 188 78 234 188 99 224 187 122 215 188 144 206 188 166 197 188 188 188 188 209 180 188 231 170 187 252 161 187 15 153 187 36 144 187 57 135 188 78 127 188 98 118 188 119 110 187 139 102 187 159 92 187 179 85 188 199 77 188 217 69 187 238 61 187 2 55 188 13 46 187 32 38 187 51 30 187 69 23 188 88 15 187 107 7 188 125 0 187 134 246 187 162 253 187 180 245 187 198 238 187 216 231 188 233 223 187 251 216 188 13 208 188 31 202 188 48 194 187 65 187 188 82 179 187 99 173 187 115 166 188 132 159 187 149 152 188 165 145 188 181 138 187 197 132 188 213 124 187 230 119 187 246 113 188 8 112 188 23 118 188 40 124 187 57 130 187 74 137 188 91 144 188 108 150 187 125 157 188 144 164 188 160 172 188 178 178 188 196 185 188 214 192 187 232 198 188 249 206 187 13 214 224 31 221 225 50 228 225 68 236 225 87 243 225 106 250 225 243 115 188 250 106 187 164 4 187 183 12 188 204 20 188 222 27 188 242 35 188 4 151 137 24 154 137 45 159 138 65 162 137 85 166 137 106 170 137 127 174 137 148 178 137 169 182 137 190 186 137 212 190 137 234 194 137 245 148 187 8 147 187 31 156 188 53 164 187 75 173 187 98 183 188 122 191 188 144 200 187 167 209 188 190 218 188 215 228 188 237 236 187 5 246 187 0 0 255 5 211 0 14 201 0 24 191 0 33 181 0 42 171 0 52 161 0 61 151 0 71 141 0 80 131 0 90 121 0 99 111 0 109 101 0 119 91 0 128 80 0 137 70 0 147 60 0 156 50 0 165 40 0 175 30 0 185 20 0 193 9 0 204 0 0 214 246 0 224 236 0 234 227 0 243 217 1 252 205 0 71 8 0 9 188 1 19 178 1 27 167 0 36 157 0 46 147 0 55 137 0 65 127 0 74 117 0 84 108 0 93 97 0 103 87 0 112 77 0 122 67 0 131 57 0 141 47 0 150 37 0 160 27 0 169 16 0 179 6 0 188 2 0 200 249 0 208 239 0 219 229 0 228 219 0 238 209 0 247 199 0 0 189 0 10 178 0 19 167 0 221 145 0 233 136 0 241 126 0 250 117 0 2 104 0 12 95 1 21 85 0 30 74 0 39 63 0 49 54 0 59 44 0 68 34 0 77 24 0 87 14 0 96 4 0 103 3 0 119 247 0 128 237 0 137 227 0 147 218 0 155 207 0 166 197 0 175 187 0 184 177 0 194 167 0 204 157 0 213 147 0 222 137 0 232 127 0 241 117 0 251 107 0 1 96 0 12 87 0 22 78 1 30 67 0 40 57 0 49 47 0 59 37 0 68 27 0 77 16 0 87 7 0 98 254 0 107 244 0 117 234 0 126 224 0 136 214 0 145 204 0 155 194 0 164 184 0 172 173 0 182 163 0 192 154 0 202 144 0 212 134 0 221 124 0 230 114 0 239 104 0 249 94 1 172 2 0 0 74 0 9 63 0 18 54 0 28 44 0 37 34 0 47 24 0 56 14 0 66 4 0 76 252 0 86 242 0 97 233 1 105 222 0 115 212 0 124 202 0 133 192 0 144 183 1 152 172 0 163 163 1 170 151 0 182 142 0 190 132 0 198 121 0 208 112 0 218 102 0 228 92 0 237 82 0 247 72 0 194 1 0 8 50 0 17 40 0 28 31 1 36 20 0 45 10 0 54 0 0 76 249 188 98 240 187 121 231 187 143 222 188 166 213 188 186 202 187 208 194 188 231 185 188 251 178 188 14 167 187 35 159 187 56 150 187 77 142 188 98 134 188 119 126 188 139 118 188 158 108 188 178 100 187 198 91 187 218 84 188 238 77 188 1 69 187 13 62 188 31 53 188 50 45 188 68 37 187 88 29 188 107 21 187 125 14 187 144 7 188 161 254 188 169 245 188 198 252 187 216 245 187 233 237 188 250 230 187 13 221 188 31 214 188 48 207 188 65 200 187 83 194 188 99 186 188 116 179 188 133 173 188 149 165 188 165 158 187 182 152 187 199 145 188 214 138 188 231 132 188 246 125 187 7 124 188 24 131 187 40 137 187 57 144 187 75 151 188 90 157 187 109 164 187 126 171 188 144 179 188 161 185 188 179 192 188 196 199 188 214 205 188 233 213 188 250 219 187 14 228 224 33 236 225 51 242 224 69 250 225 242 151 188 250 141 187 127 5 188 145 11 187 165 19 187 184 26 187 204 34 188 223 42 187 243 49 188 6 158 137 25 162 137 45 166 137 66 169 137 87 173 137 107 177 137 127 181 136 149 185 137 171 189 137 192 193 137 214 197 137 235 202 137 246 162 187 11 164 188 32 172 188 54 180 187 78 190 188 101 199 188 123 207 187 146 216 187 168 224 187 192 234 188 216 243 187 240 253 188 3 254 0 12 244 0 21 234 0 31 224 0 40 214 0 50 204 0 59 194 0 69 184 0 78 174 0 87 164 0 97 154 0 106 144 0 116 134 0 125 124 0 135 114 0 144 104 0 152 93 0 163 84 0 171 73 0 182 64 0 191 54 0 201 44 0 210 34 0 220 24 0 229 14 0 238 4 0 249 250 0 21 4 0 5 233 0 14 222 0 23 212 0 33 202 0 42 192 0 53 183 1 61 172 0 71 162 0 80 152 0 90 142 0 100 132 0 109 123 1 118 112 0 127 102 0 136 91 0 146 82 0 156 72 0 165 62 0 174 52 0 184 42 0 194 32 0 203 22 0 212 11 0 222 2 0 233 0 0 243 246 0 252 235 0 5 223 0 14 213 0 24 203 0 34 194 1 247 158 0 0 146 0 8 136 0 19 127 0 28 117 0 37 107 0 47 97 0 56 87 0 65 77 0 75 67 0 84 57 0 94 47 0 103 37 0 112 27 0 122 18 0 131 8 0 130 8 0 153 250 0 163 240 0 172 232 1 182 221 0 191 211 0 200 201 0 210 191 0 219 181 0 229 172 0 238 161 0 247 151 0 114 1 0 8 131 0 18 122 1 27 111 0 36 102 0 46 92 0 55 82 0 64 73 0 74 62 0 83 52 0 93 42 0 102 32 0 111 22 0 121 12 0 130 1 0 140 248 0 149 239 0 159 229 0 169 219 0 178 209 0 188 199 0 196 188 0 208 180 0 216 169 0 225 159 0 235 149 0 244 139 0 255 130 1 140 5 0 4 109 0 14 99 0 23 89 0 33 80 1 42 69 0 51 58 0 60 49 0 70 40 0 78 29 0 89 20 0 98 10 0 107 0 0 119 248 0 128 238 0 137 228 0 147 218 0 156 208 0 166 198 0 175 188 0 185 179 1 194 168 0 203 157 0 212 147 0 222 138 0 231 128 0 241 118 0 250 108 0 1 96 0 11 87 0 20 77 0 31 68 1 39 57 0 48 47 0 57 36 0 67 27 0 77 17 0 86 7 0 0 0 255 121 248 188 141 238 187 164 228 188 186 218 187 208 211 188 229 201 187 250 193 188 13 184 187 36 176 188 56 166 187 76 157 188 97 149 187 117 140 187 138 132 188 158 123 187 178 115 188 198 107 187 217 99 188 238 90 188 1 84 188 11 74 187 31 67 188 50 59 187 68 51 187 88 44 188 106 36 187 126 29 188 143 21 188 161 13 187 180 5 187 196 254 188 204 244 188 234 251 188 250 244 187 13 235 188 31 228 187 48 221 187 66 215 188 82 207 187 99 200 187 116 193 188 132 186 188 149 179 187 165 172 187 182 165 187 199 158 188 215 151 188 230 145 187 246 138 188 7 138 188 24 144 187 41 151 188 58 158 187 75 164 188 91 171 187 109 178 188 127 185 187 144 192 188 163 199 188 180 205 188 197 212 187 215 220 188 233 227 188 251 234 188 15 242 225 34 249 225 242 188 188 249 179 187 90 4 188 108 11 188 127 18 187 146 26 187 165 32 187 185 41 188 205 49 188 226 58 188 245 64 188 6 165 137 26 169 137 47 173 137 67 177 137 88 181 137 109 185 137 130 188 137 151 193 137 172 197 137 194 201 137 215 205 137 236 208 136 248 177 187 12 179 188 34 188 188 57 197 187 79 205 187 102 214 187 125 223 187 148 233 188 171 242 187 194 250 187 0 0 255 9 30 0 18 20 0 27 10 0 37 0 0 48 248 1 57 237 0 67 228 0 76 217 0 84 207 0 94 197 0 104 187 0 113 177 0 123 167 0 132 157 0 140 146 0 151 137 0 159 126 0 169 117 0 179 107 0 188 97 0 199 87 0 207 77 0 216 67 0 227 58 1 235 47 0 245 37 0 254 27 0 252 9 0 9 8 0 20 0 0 30 246 0 39 236 0 47 225 0 58 216 0 67 206 0 76 196 0 86 186 0 95 176 0 105 166 0 114 156 0 124 146 1 133 136 0 142 126 0 150 115 0 161 106 0 170 96 0 180 86 0 188 76 0 198 66 0 207 56 0 217 45 0 227 36 0 236 27 0 245 17 0 248 0 0 8 2 0 19 248 0 28 238 0 38 228 0 47 218 0 16 169 0 25 159 0 35 149 0 44 140 0 54 130 0 64 120 0 72 110 0 83 100 0 91 90 0 100 80 0 111 70 1 119 60 0 129 51 1 138 40 0 147 31 0 156 21 0 166 11 0 175 1 0 188 254 0 196 244 0 206 234 0 216 224 0 226 215 1 234 204 0 244 195 0 254 185 0 5 175 0 14 166 0 23 155 0 34 146 1 42 135 0 51 125 0 61 116 0 69 106 0 79 96 0 89 86 0 98 76 0 107 66 0 117 56 0 126 45 0 135 36 0 145 26 0 154 16 0 164 7 0 174 253 0 182 242 0 194 233 0 202 223 0 211 214 0 221 205 0 230 194 0 239 184 0 249 174 0 92 2 0 107 8 0 10 145 1 18 134 0 27 124 0 37 115 0 46 105 0 54 94 0 65 85 0 74 75 0 83 65 0 93 55 0 102 45 0 111 35 0 121 25 0 130 15 0 139 6 0 151 254 0 160 244 0 169 234 0 179 224 0 188 214 0 197 204 0 207 193 0 217 185 0 225 174 0 235 164 0 244 154 0 253 144 0 6 134 1 15 124 1 22 113 0 33 104 0 42 94 0 51 84 0 61 74 0 71 65 1 79 54 0 89 44 0 98 34 0 107 24 0 117 14 0 126 5 0 141 254 188 163 244 188 185 235 188 208 227 188 228 217 187 250 208 188 13 199 187 34 190 187 55 182 188 77 174 188 96 164 188 117 156 188 136 146 187 157 138 187 178 131 188 197 122 187 217 113 188 237 105 187 1 98 188 12 90 188 30 82 187 50 74 187 69 66 188 88 58 188 107 51 188 125 43 188 143 35 188 161 27 188 179 18 187 198 12 188 215 4 187 230 250 187 239 243 188 12 248 187 31 241 187 48 235 187 65 227 188 82 219 187 98 212 187 116 206 188 134 200 188 149 192 187 166 185 187 182 178 188 199 172 188 214 165 187 232 158 188 246 150 187 9 152 188 24 158 188 42 165 188 58 171 187 75 179 188 92 185 188 110 192 187 126 198 187 145 204 187 162 212 188 179 218 187 198 226 188 216 234 188 234 241 187 253 248 188 242 224 187 250 215 188 51 2 187 71 10 188 90 18 188 109 25 188 128 33 188 148 40 187 167 47 187 186 56 188 206 64 187 227 73 188 247 79 188 8 172 137 28 176 137 48 180 137 69 185 137 90 188 137 110 192 137 131 196 137 153 200 137 175 205 137 195 209 137 217 213 137 240 218 138 249 192 187 14 195 187 36 204 188 59 212 187 82 223 188 104 231 187 127 241 188 150 249 188 0 0 255 7 72 0 16 62 0 25 52 0 35 42 0 44 32 0 53 22 0 63 12 0 72 2 0 83 249 0 92 239 0 101 229 0 111 219 0 120 209 0 129 200 0 139 190 0 148 180 0 157 170 0 167 160 0 177 151 1 185 140 0 195 130 0 205 121 1 213 110 0 223 101 0 232 91 0 241 81 0 250 71 0 204 7 0 6 51 0 15 41 0 24 31 0 34 21 0 44 12 1 52 1 0 63 249 0 73 239 0 83 231 0 91 220 0 100 210 0 110 200 0 119 190 0 129 180 0 138 171 1 147 160 0 158 151 1 166 140 0 175 131 0 185 121 0 194 111 0 203 101 0 212 90 0 222 81 0 231 71 0 241 61 0 249 51 0 1 39 0 11 30 0 21 21 1 30 10 0 39 0 0 52 253 0 61 244 0 42 182 0 51 172 0 60 162 0 70 152 0 79 142 0 88 132 0 98 122 0 107 112 0 116 103 0 125 93 0 135 83 0 145 73 0 153 63 0 163 53 0 172 44 0 181 34 0 191 24 0 200 14 0 208 4 0 217 3 0 231 247 0 240 238 0 249 228 0 1 217 0 10 208 0 20 198 0 29 188 0 39 180 1 48 169 0 57 159 0 66 149 0 75 139 0 85 129 0 94 119 0 103 110 0 114 100 1 121 89 0 131 80 0 140 70 0 150 60 0 159 50 0 168 41 0 179 32 1 187 21 0 196 11 0 207 2 1 217 249 1 226 238 0 235 228 0 244 217 0 253 208 0 60 5 0 4 189 0 13 179 0 22 169 0 32 159 0 41 149 0 50 139 0 60 130 0 69 120 0 78 110 0 87 100 0 97 90 0 106 80 0 114 69 0 125 61 0 134 51 0 144 42 1 152 31 0 162 21 0 171 11 0 180 1 0 191 250 0 201 240 0 211 231 1 219 220 0 229 210 0 238 200 0 247 190 0 75 2 1 8 169 0 17 159 0 27 150 0 36 140 0 45 130 0 54 120 0 64 110 0 73 100 0 82 91 0 91 81 0 101 71 0 110 61 0 119 51 0 129 41 0 138 31 0 147 22 0 157 12 0 166 2 0 184 250 187 206 242 188 227 233 187 249 224 188 12 215 188 33 206 187 54 197 188 75 188 188 96 179 187 116 171 188 137 162 187 157 154 188 177 145 188 197 137 187 217 127 187 236 120 187 1 113 187 11 105 188 30 96 187 50 89 187 69 81 188 87 73 188 106 65 187 125 57 188 143 49 187 161 41 187 179 34 188 197 26 187 215 18 188 233 11 187 251 3 188 8 249 188 16 240 188 49 249 188 65 241 188 82 234 187 100 228 188 116 220 188 133 213 188 149 205 187 166 199 187 183 193 188 199 185 187 214 177 187 232 172 188 247 164 187 8 165 188 25 171 187 42 178 188 59 185 187 76 192 187 93 199 188 110 205 187 128 212 188 145 218 187 163 226 188 181 234 188 199 241 188 217 248 187 239 1 187 249 250 188 16 2 187 35 10 187 53 17 188 72 24 187 91 32 188 110 40 188 128 46 187 150 55 188 168 63 188 188 71 187 208 80 188 227 86 187 247 94 188 9 180 137 29 184 137 50 188 137 69 191 136 91 196 137 112 200 137 133 204 137 155 208 138 175 212 136 197 216 137 219 220 138 241 225 137 249 206 187 16 211 188 38 220 187 61 230 188 83 238 187 106 247 188 0 0 254 5 113 0 14 103 0 23 94 0 32 84 0 42 73 0 51 64 0 60 54 0 70 44 0 79 34 0 88 25 0 97 15 0 107 5 0 117 253 1 127 242 0 136 232 0 145 222 0 155 212 0 164 202 0 173 192 0 182 183 0 192 173 0 201 163 0 210 153 0 220 143 0 229 133 0 239 124 1 247 114 0 154 2 0 2 94 0 11 84 0 21 74 0 30 64 0 39 54 0 49 45 0 58 35 0 67 25 0 77 15 0 86 5 0 97 253 0 106 243 0 116 233 0 125 224 0 134 213 0 143 204 0 153 194 0 162 184 0 171 174 0 181 164 0 190 155 0 199 145 0 208 135 0 218 125 0 227 115 0 236 105 0 246 96 0 169 0 0 6 74 0 16 65 0 24 54 0 34 45 0 43 35 0 53 25 0 62 15 0 71 5 0 67 194 0 76 184 0 86 174 0 95 164 0 104 154 0 114 146 1 123 135 0 132 125 0 141 115 0 150 105 0 160 96 0 169 86 0 178 76 0 187 67 0 197 56 0 206 47 0 215 38 0 224 27 0 234 17 0 243 7 0 242 8 0 7 251 0 16 241 0 25 231 0 35 221 0 45 213 1 53 202 0 62 192 0 72 182 0 81 172 0 90 163 0 98 152 0 109 143 0 119 133 1 127 123 0 136 114 0 146 104 0 155 94 0 164 84 0 173 74 0 183 65 0 192 55 0 201 45 0 210 35 0 220 25 0 230 16 0 238 6 0 248 252 0 13 2 0 28 8 0 8 223 0 18 213 0 28 204 1 36 194 0 45 185 0 55 174 0 64 164 0 73 154 0 82 145 0 92 135 0 100 125 0 110 115 0 119 105 0 128 96 0 138 86 0 146 75 0 156 66 0 165 56 0 175 47 0 184 37 0 193 27 0 202 17 0 212 7 0 221 0 0 232 246 0 242 237 1 250 227 1 2 215 0 10 204 0 20 195 0 30 185 0 39 175 0 48 166 0 57 156 0 68 146 1 76 136 0 85 127 0 94 117 0 104 107 0 113 96 0 123 88 1 131 78 0 141 68 0 150 58 0 159 48 0 168 38 0 177 28 0 187 19 0 196 9 0 0 0 255 226 249 187 247 239 187 11 231 187 31 221 187 53 213 187 74 204 188 95 195 188 116 186 187 136 177 188 156 169 188 176 160 188 196 152 188 216 143 187 236 135 187 0 127 188 11 120 188 30 111 187 48 102 187 68 95 187 88 88 188 106 79 188 124 71 188 143 63 187 162 57 188 179 48 188 197 40 187 216 34 188 233 25 188 251 17 188 14 9 188 31 1 188 41 248 188 50 239 188 83 248 188 99 240 187 116 233 187 133 226 188 150 219 188 166 213 188 183 205 188 198 198 187 215 191 187 231 184 187 247 178 187 9 178 187 25 185 187 41 191 187 58 198 187 76 204 187 94 212 188 111 218 187 128 227 188 146 233 188 164 240 188 181 247 188 240 38 187 248 29 188 236 1 188 254 8 188 18 18 188 35 23 187 54 32 188 73 39 188 92 47 188 111 54 188 130 62 188 150 70 188 169 78 187 189 86 187 209 94 188 228 102 187 248 110 187 10 187 137 31 191 137 51 195 137 72 199 137 92 203 137 113 207 137 134 210 136 156 216 137 177 220 137 199 224 137 221 228 137 242 233 137 253 221 188 18 227 187 40 237 188 63 245 188 85 254 187 3 154 0 12 145 0 20 134 0 30 125 0 40 115 0 49 105 0 58 97 1 68 87 1 76 76 0 86 66 0 95 56 0 104 47 0 113 37 0 123 27 0 132 17 0 141 7 0 152 254 0 161 244 0 170 235 0 180 225 0 188 215 0 198 205 0 207 195 0 218 185 1 226 176 0 235 166 0 244 155 0 254 146 0 132 9 0 9 128 1 17 117 0 27 107 0 36 97 0 45 87 0 54 78 0 64 68 0 73 58 0 82 48 0 91 38 0 101 29 0 110 19 0 119 9 0 129 1 0 139 247 0 150 238 1 158 228 0 167 218 0 176 208 0 186 198 0 195 188 0 204 179 0 213 169 0 223 159 0 232 149 0 241 139 0 250 129 0 2 118 0 11 109 0 21 100 1 28 89 0 39 79 0 48 69 0 57 60 0 66 50 0 76 40 0 84 29 0 92 206 0 102 196 0 111 186 0 120 176 0 129 167 0 138 158 1 148 147 0 157 137 0 166 128 0 175 118 0 185 109 1 194 98 0 203 88 0 212 78 0 221 69 0 230 59 0 239 49 0 249 41 1 3 30 0 12 20 0 21 10 0 30 0 0 41 255 1 50 244 0 59 235 0 68 226 0 77 215 0 86 205 0 96 196 0 105 186 0 114 176 0 124 166 0 132 158 0 142 147 0 151 137 0 160 127 0 169 117 0 178 108 0 188 98 0 197 88 0 206 78 0 215 69 0 224 59 0 233 49 0 243 39 0 252 30 0 238 4 0 4 11 0 13 2 0 21 246 0 31 237 0 40 228 0 50 218 0 59 207 0 68 198 0 77 189 0 87 180 1 97 169 0 106 160 0 114 150 0 123 140 0 132 130 0 141 120 0 151 111 0 161 102 1 169 91 0 178 81 0 187 72 0 197 62 0 206 52 0 215 42 0 225 34 1 233 23 0 242 13 0 253 3 0 5 249 0 14 240 0 22 231 0 33 221 0 42 211 0 52 202 1 60 193 0 69 182 0 79 172 0 88 162 0 97 152 0 106 143 0 115 132 0 125 123 0 134 113 0 143 104 0 152 94 0 161 84 0 171 74 0 180 65 0 189 55 0 199 45 0 206 34 0 217 26 0 226 16 0 235 6 0 0 0 255 10 246 188 32 237 188 54 229 188 74 219 188 94 210 187 115 202 188 135 193 187 156 185 188 176 175 187 196 167 188 217 159 188 236 150 188 0 141 187 11 134 187 30 126 187 50 119 188 68 110 187 87 102 188 106 94 188 124 86 188 143 78 187 161 70 187 179 62 188 197 54 188 215 47 188 234 40 188 250 32 187 14 23 187 31 15 187 49 9 188 66 0 187 75 247 187 100 255 188 117 247 188 133 240 187 150 233 187 167 225 187 183 218 188 199 212 188 216 204 188 233 199 188 248 191 188 8 191 187 26 198 188 43 205 188 60 212 187 77 218 187 94 227 188 112 233 187 130 240 188 146 246 187 165 255 188 247 64 187 200 0 187 217 8 187 236 15 187 0 24 188 17 30 187 37 39 187 55 46 188 74 54 187 93 61 188 112 69 188 131 77 188 150 85 187 170 93 187 190 101 187 210 109 188 230 117 187 250 125 188 12 196 137 32 199 137 52 203 137 73 207 137 94 212 137 115 215 137 135 218 136 158 224 138 179 228 137 201 233 137 222 236 137 244 239 136 254 237 188 21 243 188 42 253 188 1 196 0 10 185 0 19 176 0 28 166 0 37 156 0 48 147 1 56 137 0 65 127 0 74 117 0 83 107 0 93 98 0 103 89 1 111 78 0 121 69 1 129 59 0 139 49 0 148 39 0 157 29 0 166 19 0 175 10 0 185 0 0 195 247 0 204 237 0 213 227 0 223 218 0 232 208 0 241 198 0 250 189 1 84 5 0 5 169 0 14 160 0 23 149 0 31 138 0 42 130 0 51 120 0 60 110 0 69 100 0 78 91 0 88 81 0 97 71 0 105 60 0 116 52 0 124 42 0 134 32 0 144 23 1 152 13 0 161 3 0 172 251 1 181 241 0 191 231 0 200 222 0 209 212 0 218 202 0 227 192 0 238 183 0 246 173 0 92 0 0 6 152 0 16 142 0 24 132 0 34 123 0 43 113 0 52 103 0 62 94 0 71 84 0 79 73 0 90 65 1 98 54 0 117 217 0 125 207 0 136 199 0 145 188 0 154 179 0 163 168 0 172 160 1 181 149 0 191 140 0 200 130 0 209 120 0 218 111 0 228 101 0 236 90 0 245 82 0 183 1 1 8 62 0 18 52 0 27 42 0 37 34 1 45 23 0 54 13 0 63 3 0 67 3 0 82 247 0 93 239 1 101 228 0 110 217 0 119 209 0 128 199 0 137 189 0 147 180 0 155 170 0 166 161 1 174 151 0 183 141 0 191 130 0 201 121 0 211 112 0 220 102 0 229 92 0 238 83 0 247 73 0 192 1 0 206 7 0 9 45 0 18 35 0 27 26 0 35 15 0 45 6 0 54 252 0 63 242 0 72 232 0 81 223 0 90 213 0 99 203 0 109 193 0 119 185 1 127 174 0 136 164 0 145 155 0 154 145 0 164 135 1 173 126 0 182 116 0 190 106 0 200 96 0 209 87 0 218 77 0 228 67 0 237 58 0 247 49 1 0 38 0 10 28 0 19 19 0 28 9 0 34 1 0 45 246 0 54 237 0 63 227 0 72 217 0 82 208 1 91 199 0 100 188 0 109 178 0 118 168 0 127 159 0 136 149 0 145 139 0 155 131 0 164 120 0 173 110 0 182 100 0 191 91 0 200 81 0 209 70 0 219 62 0 228 52 0 237 42 0 246 33 0 0 22 0 9 13 0 18 3 0 31 253 187 52 244 187 73 235 187 93 226 187 114 217 188 135 208 188 155 199 188 175 191 188 195 182 187 215 174 187 236 166 188 0 157 188 10 149 188 30 141 188 49 133 187 68 125 187 87 116 188 106 109 188 124 100 188 143 92 188 160 84 187 179 77 188 198 70 188 215 61 188 234 54 188 250 46 187 14 37 188 31 29 188 48 22 187 67 15 188 84 8 188 100 0 188 108 246 187 134 253 187 150 247 188 167 239 188 183 232 187 200 225 188 216 218 188 233 212 188 248 204 187 8 204 187 25 212 187 43 219 188 60 226 188 77 233 187 95 240 188 112 247 188 130 254 188 247 98 188 165 0 187 183 7 187 202 16 188 219 22 188 237 29 187 0 38 187 19 46 187 37 53 188 56 61 188 75 68 187 94 76 188 113 85 188 133 92 188 152 100 187 172 109 188 191 117 188 211 124 187 231 131 187 251 140 188 13 202 137 33 206 137 54 210 137 75 214 137 95 218 137 117 223 137 138 227 137 160 232 137 182 236 137 202 239 137 225 245 138 246 248 137 254 251 188 0 0 255 8 226 0 17 217 0 25 205 0 35 197 0 44 187 0 54 177 0 63 167 0 71 157 0 82 149 1 90 138 0 99 129 0 108 119 0 118 109 0 126 98 0 136 90 0 145 80 0 153 70 0 163 61 0 173 51 0 182 41 0 191 32 0 200 22 0 209 12 0 217 2 0 229 249 0 237 239 0 247 230 0 37 1 0 2 210 0 11 202 0 20 190 0 29 182 0 38 171 0 47 162 0 57 152 0 66 142 0 75 133 0 84 123 0 93 113 0 101 104 0 111 94 0 121 85 0 130 74 0 139 65 0 148 55 0 157 45 0 166 36 0 174 26 0 185 16 0 193 6 0 205 1 1 214 245 0 223 235 0 232 226 0 242 217 1 250 206 0 2 195 0 12 185 1 20 176 0 29 166 0 39 156 1 48 147 0 58 137 0 66 127 0 75 117 0 84 108 0 93 98 0 103 88 0 112 79 0 142 229 0 151 220 1 160 210 0 169 201 0 178 191 0 187 181 0 197 172 0 206 162 0 215 152 0 224 142 0 233 133 0 241 123 0 251 113 0 5 103 0 14 93 0 24 85 1 32 74 0 41 65 0 51 55 0 59 44 0 69 36 0 77 25 0 87 16 0 96 7 0 93 8 0 115 250 0 124 241 0 133 231 0 142 222 0 152 212 0 161 203 0 170 193 0 179 183 0 188 174 0 197 164 0 206 154 0 215 145 0 225 136 1 234 125 0 243 116 0 253 106 0 161 5 1 4 88 0 13 78 0 22 69 0 31 59 0 41 50 1 49 40 0 58 30 0 68 20 0 76 10 0 86 1 0 93 246 0 104 238 1 113 227 0 122 218 0 131 208 0 140 198 0 149 189 0 157 179 0 167 169 0 176 160 0 184 149 0 193 139 0 204 131 0 213 121 0 222 111 0 231 102 0 240 92 0 249 82 0 4 73 0 13 63 0 22 53 0 31 44 0 40 34 0 49 24 0 58 15 0 67 5 0 75 252 0 85 242 1 93 233 0 102 223 0 112 213 0 121 204 0 130 194 0 139 184 0 148 175 0 157 165 0 165 155 0 175 146 0 185 136 0 193 126 0 203 117 0 213 108 0 221 97 0 230 87 0 239 78 0 248 68 0 3 59 1 11 49 0 20 39 0 28 28 0 38 20 0 47 10 0 57 0 0 72 250 188 93 241 188 114 232 188 134 224 188 155 215 187 175 206 187 195 197 187 215 188 187 235 180 187 255 173 188 11 165 188 29 156 187 48 148 188 68 139 188 86 130 187 104 122 187 125 116 188 141 107 187 161 99 188 179 91 187 197 83 187 215 75 187 234 68 188 251 60 188 15 52 188 31 43 188 50 37 188 66 28 188 83 21 187 100 14 188 116 5 187 132 253 187 141 245 188 167 252 187 184 245 187 200 238 187 216 231 187 232 224 187 248 217 187 10 219 188 27 226 188 43 233 187 61 240 188 78 247 187 94 253 187 247 133 188 130 0 187 149 7 188 166 14 187 184 22 187 201 28 187 219 36 187 238 44 187 2 54 188 20 60 187 38 68 187 57 75 188 76 83 187 95 91 188 113 98 187 134 107 187 153 115 188 174 124 188 192 130 187 213 139 188 232 147 188 252 155 187 14 210 137 34 213 136 55 218 137 76 222 137 97 226 137 118 231 137 138 234 136 161 240 138 183 243 137 204 247 137 227 253 137 0 0 255 0 0 254 14 1 0 23 245 0 33 237 0 42 227 0 51 217 0 60 208 0 70 198 0 79 188 0 88 179 0 97 169 0 106 159 0 115 150 0 124 140 0 134 131 1 141 121 0 152 111 0 161 101 0 170 91 0 178 81 0 188 72 0 197 63 0 205 52 0 215 43 0 224 34 0 233 24 0 243 14 0 252 5 0 15 8 0 8 242 0 18 233 1 26 223 0 34 212 0 45 204 1 53 194 0 62 184 0 71 175 1 80 166 0 89 155 0 99 145 0 108 136 0 117 126 0 127 117 1 135 108 1 144 96 0 153 87 0 162 78 0 171 67 0 181 58 1 190 49 0 199 39 0 207 30 0 217 20 0 226 10 0 235 1 0 246 249 0 15 0 0 6 228 0 16 218 0 25 209 0 35 199 1 43 189 0 51 179 0 61 170 0 70 160 0 79 151 0 88 141 0 98 131 0 108 123 1 115 111 0 125 102 0 166 241 0 175 231 0 185 223 1 193 212 0 203 202 0 212 193 0 222 183 1 230 174 0 239 164 0 248 154 0 2 144 0 11 135 0 21 126 1 29 115 0 38 106 0 47 96 0 56 87 0 65 77 0 74 67 0 83 58 0 92 48 0 101 39 0 110 29 0 118 18 0 128 10 0 138 0 0 147 254 0 157 244 0 166 235 0 175 225 0 184 216 0 193 206 0 201 195 0 212 187 0 220 177 0 229 168 0 238 158 0 247 149 1 116 1 0 131 7 0 8 121 0 17 111 0 26 102 0 35 92 0 44 83 1 54 73 0 63 63 0 72 53 0 81 44 0 90 34 0 99 25 0 108 15 0 117 5 0 125 250 0 134 240 0 144 232 0 153 222 0 163 213 1 171 203 0 180 194 0 189 184 0 198 174 0 207 165 0 216 155 0 226 146 1 235 137 1 243 126 0 252 116 0 7 107 0 16 97 0 24 88 0 34 78 0 43 68 0 52 59 0 61 50 0 70 40 0 79 30 0 88 20 0 96 11 0 107 2 1 114 248 0 124 239 1 132 229 0 141 219 0 150 210 0 159 200 0 168 190 0 178 181 0 187 171 0 195 160 0 205 152 0 214 142 0 223 133 0 232 123 0 241 113 0 250 104 0 4 94 0 12 84 0 22 75 0 30 64 0 40 55 0 50 46 0 58 36 0 67 26 0 76 17 0 84 6 0 0 0 255 113 248 188 134 240 188 154 230 188 174 221 187 194 213 188 213 204 187 234 195 188 255 187 188 10 179 187 30 172 188 49 163 188 67 154 187 86 145 187 105 138 188 124 129 187 142 121 187 162 114 188 179 105 187 197 97 188 215 89 188 233 82 188 251 74 188 14 65 187 30 56 187 49 50 187 66 42 187 84 36 188 99 26 187 117 20 188 134 12 188 151 5 188 166 253 188 173 245 188 201 253 188 217 245 187 233 237 188 249 230 187 10 232 187 27 239 188 44 246 188 61 253 187 246 167 188 254 158 188 112 7 187 131 14 187 149 21 188 166 28 187 185 37 188 202 43 188 220 52 188 239 58 188 2 67 188 20 74 187 38 81 187 58 90 188 77 98 188 96 106 187 115 114 188 135 122 188 154 130 187 174 138 188 194 146 187 213 154 188 233 162 188 254 171 187 16 217 137 37 221 137 58 226 137 79 230 138 99 235 138 120 238 137 141 242 137 162 246 137 184 250 137 0 0 255 6 36 0 15 26 0 25 17 0 34 7 0 32 9 1 47 1 0 58 248 0 67 238 0 76 228 0 85 219 0 94 209 0 104 199 0 113 191 0 122 180 0 130 171 0 139 160 0 148 150 0 158 142 0 167 132 0 175 123 0 185 113 0 193 102 0 203 94 0 212 84 0 221 75 0 231 65 0 238 54 0 249 46 0 223 3 0 6 28 0 13 17 0 23 8 0 30 253 0 40 245 0 50 235 0 58 225 0 68 216 0 77 206 0 86 196 0 95 187 0 104 177 0 113 168 0 122 158 0 130 148 0 140 139 0 149 129 0 158 120 0 167 110 0 176 100 0 185 91 0 195 81 0 204 71 0 213 62 0 222 52 0 231 43 0 240 33 0 249 23 0 3 14 0 13 5 1 19 250 0 30 243 1 39 233 1 47 222 0 56 213 0 64 203 0 74 193 0 84 184 0 93 174 0 102 165 0 111 155 0 121 146 1 129 136 0 138 126 0 190 252 0 199 243 0 207 233 0 217 224 0 227 214 0 236 205 0 245 195 0 254 185 0 7 175 0 16 166 0 25 156 0 34 146 0 43 137 0 52 128 0 60 118 0 70 109 0 80 100 1 88 89 0 97 80 0 106 69 0 116 61 0 125 51 0 134 41 0 143 32 0 153 22 1 160 12 0 171 4 1 174 3 0 189 248 0 198 238 0 208 229 0 216 219 0 225 209 0 235 200 0 243 190 0 253 182 0 85 2 0 4 163 0 13 153 0 22 144 0 31 134 0 40 125 0 49 115 0 58 105 0 67 96 0 76 86 0 85 77 0 94 67 0 103 58 0 112 48 0 121 38 0 131 29 0 139 19 0 148 10 0 157 0 0 165 246 0 174 236 0 183 228 0 192 217 0 201 208 0 211 199 1 219 188 0 228 179 0 237 169 0 247 161 1 0 149 0 10 141 0 19 131 0 28 122 0 37 112 0 46 102 0 54 93 0 63 82 0 72 73 0 82 64 0 91 55 0 100 46 1 109 35 0 118 26 0 127 16 0 135 6 0 144 254 0 153 244 0 162 235 0 171 225 0 181 215 0 189 206 0 199 196 0 207 187 0 215 176 0 226 169 1 234 158 0 243 149 1 252 138 0 6 129 0 14 118 0 25 111 1 33 100 0 42 91 0 51 81 0 60 71 0 69 62 0 78 52 0 86 42 0 97 34 0 105 24 0 114 14 0 123 5 0 0 0 255 154 246 188 174 237 187 194 228 187 214 219 187 234 210 187 254 202 188 9 194 188 29 186 187 49 178 188 67 169 188 86 161 188 105 152 187 125 145 188 142 136 188 161 128 188 179 120 187 197 112 187 216 105 188 233 96 188 250 87 187 14 79 188 31 71 188 48 63 187 66 56 188 84 49 188 99 41 187 117 33 187 135 27 188 150 18 187 168 11 188 185 4 188 198 251 187 206 243 188 234 251 188 249 244 188 11 246 188 28 253 187 247 201 188 254 192 188 79 6 188 96 13 188 114 21 188 131 28 188 149 35 188 168 44 188 185 50 188 203 57 188 221 65 188 240 73 188 3 81 187 21 89 187 40 97 187 59 105 188 78 113 188 96 120 187 116 128 188 135 136 187 156 146 188 175 153 187 196 162 188 215 169 188 235 178 188 254 221 138 16 224 136 37 229 137 58 233 137 78 237 136 100 241 137 122 247 137 142 250 137 164 254 137 4 75 0 13 65 0 23 56 0 31 46 0 41 37 0 50 27 0 59 18 0 68 9 1 65 9 0 80 2 0 92 248 0 101 239 0 110 230 0 119 220 0 128 210 0 137 201 0 146 191 0 155 182 0 164 172 0 174 164 1 183 154 1 190 144 0 201 134 1 209 124 0 217 114 0 228 106 0 236 96 0 246 87 1 254 77 0 2 68 0 11 59 0 20 49 0 29 40 0 38 30 0 47 20 0 56 11 0 64 0 0 73 247 0 82 237 0 91 229 1 100 218 0 109 209 0 118 199 0 126 189 0 136 180 0 145 170 0 154 161 0 164 151 1 172 142 0 181 132 0 190 123 0 199 113 0 208 103 0 217 94 0 226 84 0 235 75 0 244 65 0 253 55 0 7 45 0 17 37 0 26 27 0 35 17 0 44 8 0 51 0 0 61 245 0 70 236 0 78 226 0 88 217 0 97 207 0 106 197 0 115 188 0 123 177 0 133 169 0 142 159 0 150 150 0 216 7 0 223 254 0 232 245 0 240 235 0 250 227 1 4 216 0 13 206 0 22 197 0 31 187 0 40 178 0 49 168 0 58 159 0 66 148 0 75 139 0 85 131 0 94 122 0 104 112 0 112 101 0 120 91 0 130 82 0 139 73 0 149 64 1 155 53 0 165 44 0 174 35 0 182 24 0 193 17 1 201 6 0 199 8 1 220 251 0 229 241 0 238 232 0 247 222 0 42 1 0 55 5 0 9 196 1 17 186 0 26 176 0 36 167 1 43 156 0 53 147 0 62 138 0 71 128 0 80 119 0 89 109 0 98 99 0 107 90 0 116 81 0 126 72 1 133 62 0 142 52 0 151 43 0 160 34 0 169 24 0 178 14 0 186 4 0 196 250 0 205 241 0 213 231 0 223 222 0 233 213 0 241 203 0 250 193 0 4 184 0 13 174 0 22 165 0 31 155 0 40 146 0 49 136 0 58 127 0 67 117 0 76 108 0 85 98 0 94 89 0 103 79 0 112 69 0 121 60 0 130 50 0 139 41 0 147 31 0 156 22 0 165 12 0 173 2 0 182 250 0 191 240 0 200 231 0 209 221 0 217 212 0 228 203 1 237 194 0 245 182 0 254 174 0 8 163 0 16 154 0 25 145 0 34 135 0 43 126 0 52 116 0 61 107 0 70 97 0 79 88 0 88 78 0 97 69 0 106 59 0 115 48 0 124 40 0 133 30 0 142 21 0 151 11 0 160 2 0 173 253 188 193 242 187 214 235 188 233 226 188 254 218 188 9 209 188 28 201 188 48 192 187 67 185 188 86 175 188 106 168 188 123 159 188 142 151 188 160 141 187 179 134 187 196 126 187 215 118 187 233 110 188 251 102 187 14 93 187 32 86 188 49 78 187 66 70 188 83 62 187 101 55 187 118 47 187 134 40 187 151 32 187 167 24 187 184 18 188 201 10 188 217 3 187 229 250 188 238 242 188 245 233 187 254 225 188 45 6 188 62 13 187 80 20 187 97 27 188 114 35 188 132 42 187 150 49 187 168 57 188 187 65 188 204 72 187 222 79 187 240 87 187 4 96 187 22 104 188 40 111 187 60 120 187 79 127 188 98 135 187 117 143 188 137 152 187 156 160 188 176 168 188 195 176 187 216 184 188 236 193 187 253 228 136 18 232 137 39 236 137 60 240 137 80 245 137 102 248 137 123 253 137 3 114 0 12 104 0 21 95 0 30 84 0 39 76 0 47 66 0 56 57 0 65 47 0 74 38 0 83 28 0 92 19 0 101 10 1 110 0 0 112 2 0 126 249 0 135 240 0 144 231 0 153 221 0 162 212 0 171 202 0 180 193 0 188 183 0 197 174 0 206 164 0 215 155 0 223 144 0 233 136 0 242 126 0 250 117 0 156 6 0 7 99 0 16 89 0 25 80 0 34 70 0 43 61 0 52 51 0 61 42 0 70 32 1 79 23 0 89 14 1 97 4 0 107 250 1 115 240 0 122 229 0 133 222 1 141 212 0 150 202 0 160 193 1 168 183 0 177 173 0 186 164 0 195 154 0 205 146 1 213 135 0 222 126 0 231 116 0 240 107 0 248 96 0 3 88 0 12 78 0 22 70 1 29 58 0 39 50 0 48 40 0 57 31 0 66 21 0 75 11 0 84 2 0 92 249 0 101 239 0 110 230 0 119 219 0 128 211 0 137 202 0 146 193 0 155 182 0 164 173 0 239 19 0 248 9 0 253 3 1 10 246 0 19 237 0 27 227 0 36 218 0 45 208 0 54 199 0 63 188 0 71 179 0 82 170 0 90 161 0 100 152 1 108 142 0 117 133 0 126 123 0 134 113 0 144 104 0 153 96 1 161 85 0 170 76 0 180 67 0 188 57 0 197 47 0 206 38 0 215 28 0 225 20 1 233 9 0 242 0 0 253 255 1 12 3 0 3 236 0 11 227 0 21 217 0 30 208 0 39 199 0 49 190 1 57 180 0 66 170 0 74 160 0 84 151 0 92 141 0 101 132 0 110 123 0 118 112 0 128 104 0 137 94 0 146 85 0 155 75 0 164 67 0 174 57 1 182 47 0 191 37 0 201 29 1 209 18 0 218 9 0 226 0 0 235 245 0 244 236 0 253 226 0 7 217 0 16 207 0 25 198 0 34 188 0 43 179 0 52 169 0 61 161 1 69 151 0 79 141 1 87 132 0 96 122 0 105 113 0 115 104 1 123 94 0 132 84 0 141 75 0 150 65 0 159 56 0 168 47 1 177 37 0 186 27 0 195 18 0 204 8 0 210 1 0 220 246 0 230 237 0 238 227 0 247 217 0 0 208 0 8 198 0 18 189 0 27 179 0 36 170 0 45 160 0 54 151 0 63 141 0 72 132 0 82 123 1 90 113 0 99 103 0 108 94 0 116 84 0 125 75 0 134 66 0 143 56 0 152 47 0 161 37 0 170 28 0 179 18 0 188 9 0 0 0 255 213 250 187 233 241 187 254 233 188 9 225 188 27 216 187 47 207 187 67 199 187 86 190 188 104 182 187 124 174 188 142 165 188 160 157 188 179 149 187 197 141 188 215 133 187 233 125 188 251 117 188 14 107 188 31 100 187 49 92 187 66 84 187 84 76 188 101 69 188 118 61 187 135 54 188 151 46 187 167 38 187 185 31 188 201 24 187 218 17 188 234 10 187 250 2 188 12 5 187 28 12 188 46 20 188 63 27 187 81 35 188 97 41 187 115 49 187 134 57 188 149 63 187 167 70 187 186 79 188 204 86 187 223 94 188 241 102 188 5 111 188 23 118 187 42 126 187 61 134 188 80 142 187 99 150 187 118 157 187 139 168 188 158 175 188 177 183 187 197 191 188 217 200 187 237 208 188 0 236 137 20 239 136 40 244 137 61 248 137 82 252 137 1 152 0 10 143 0 20 134 0 27 123 0 36 115 0 46 106 1 54 96 0 63 86 0 72 77 0 81 67 0 90 58 0 99 48 0 109 40 1 117 29 0 126 20 0 135 10 0 144 1 0 146 4 0 160 251 0 168 242 0 177 232 0 186 223 0 195 213 0 204 204 0 212 194 0 221 185 0 230 175 0 238 165 0 248 156 0 111 2 0 4 139 0 14 130 1 22 120 0 31 110 0 40 101 0 49 91 0 58 82 0 67 72 0 76 63 0 85 53 0 94 44 0 102 35 0 111 25 0 120 16 0 129 6 0 137 252 0 147 242 0 155 233 0 164 223 0 173 214 0 182 204 0 190 194 0 200 186 0 209 176 0 218 168 1 227 157 0 236 148 0 245 138 0 254 129 0 8 119 0 17 110 0 25 99 0 35 91 0 44 82 0 53 72 0 62 62 0 70 53 0 79 43 0 88 34 0 96 24 0 105 14 0 115 6 0 122 253 0 132 243 0 141 234 0 149 223 0 158 215 0 167 205 0 176 196 0 5 30 0 14 20 0 23 11 0 31 0 0 42 247 0 51 239 0 60 229 0 69 221 1 77 210 0 86 202 0 95 192 0 105 183 1 113 173 0 122 163 0 131 154 0 139 144 0 148 135 0 157 126 0 166 116 0 175 107 0 184 97 0 193 88 0 202 78 0 211 69 0 221 61 1 228 50 0 237 41 0 246 31 0 232 0 0 0 14 0 10 6 1 8 5 0 25 249 0 34 240 0 43 230 0 52 221 0 61 211 0 71 203 1 79 192 0 88 183 0 96 174 0 106 164 0 114 155 0 123 145 0 132 136 0 141 126 0 150 117 0 159 108 0 168 98 0 176 89 0 185 79 0 194 70 0 203 60 0 212 51 0 221 42 0 231 32 0 239 23 0 247 13 0 0 2 0 10 250 0 19 240 0 28 232 0 37 221 0 45 212 0 54 203 0 63 193 0 72 184 0 82 175 1 90 165 0 98 154 0 108 146 0 117 137 0 126 127 0 134 118 0 143 108 0 152 99 0 161 89 0 170 80 0 178 70 0 189 61 1 197 52 0 206 42 0 214 33 0 223 23 0 232 14 0 241 5 0 249 252 0 2 242 0 11 232 0 20 223 0 29 213 0 38 204 0 47 195 0 56 185 0 64 176 0 72 165 0 82 157 0 91 147 0 100 138 0 109 129 0 118 119 0 127 110 0 136 100 0 144 91 0 153 81 0 163 73 1 172 64 1 180 53 0 188 44 0 199 34 0 207 25 0 216 15 0 225 7 1 0 0 255 252 247 188 8 240 188 28 231 188 47 222 188 66 214 187 85 205 188 104 197 187 123 188 187 142 180 187 160 172 187 179 164 188 197 155 188 215 147 188 233 139 187 251 131 188 14 122 188 32 114 187 49 106 188 66 97 187 84 90 188 101 83 188 118 75 187 135 67 187 152 60 187 168 52 187 184 45 187 201 38 187 217 30 187 234 23 187 250 16 188 12 19 188 30 27 188 46 34 188 63 41 188 81 48 187 98 54 187 116 63 188 133 70 188 150 78 187 169 85 187 188 94 188 204 100 187 225 109 188 242 116 187 5 125 188 24 133 187 43 141 188 62 149 187 81 157 187 100 165 187 120 173 187 139 182 187 159 190 188 178 198 187 198 207 187 217 214 187 238 223 187 1 244 138 21 247 137 42 252 137 0 0 255 8 181 0 17 172 0 26 162 0 34 153 0 43 143 0 52 134 0 60 124 0 70 115 0 79 106 0 88 97 0 97 87 0 105 77 0 114 68 0 123 59 0 132 49 0 141 40 0 150 30 0 159 21 0 167 10 0 177 2 0 178 5 0 192 253 0 201 242 0 210 234 0 218 224 0 227 215 0 236 205 0 246 196 1 255 187 0 1 178 0 10 169 0 18 159 0 28 150 0 37 140 0 45 131 0 54 122 0 63 112 0 72 103 0 82 93 0 90 84 0 100 75 1 109 66 1 117 56 0 125 46 0 134 37 0 143 27 0 152 18 0 161 8 0 168 254 0 178 245 0 187 235 0 196 226 0 204 216 0 215 208 1 223 198 0 232 188 0 240 179 0 249 169 0 4 160 0 12 151 0 21 141 0 30 132 0 38 121 0 48 113 0 57 103 0 67 94 0 75 85 0 84 75 0 92 66 0 100 56 0 110 47 0 119 37 0 128 28 0 137 19 0 146 9 0 155 0 0 162 247 0 172 238 1 180 228 0 189 219 1 28 41 0 37 30 0 46 22 0 55 13 0 64 3 0 74 250 0 82 240 0 91 231 0 100 222 0 108 212 0 118 203 0 127 194 1 136 184 0 144 175 0 153 166 0 162 156 0 171 147 0 180 137 0 189 128 0 198 119 0 206 109 0 215 100 0 224 90 0 233 81 0 242 72 0 251 62 0 203 3 0 4 45 0 13 36 0 22 27 0 30 16 0 40 8 0 33 9 0 56 253 0 65 243 0 74 234 1 82 224 0 91 215 0 99 204 0 109 196 0 118 186 0 128 178 1 136 168 0 145 159 1 153 149 0 161 139 0 172 131 0 180 121 0 189 111 0 198 102 0 206 93 0 215 83 0 223 73 0 233 64 0 241 55 0 250 46 0 3 35 0 12 25 0 22 17 1 29 7 0 40 254 0 48 245 0 57 235 0 66 226 0 74 215 0 84 207 0 93 199 0 102 188 0 110 179 0 119 170 0 128 160 0 137 150 0 146 141 0 155 132 0 164 123 0 172 113 0 181 104 0 190 95 0 199 85 0 208 76 0 217 66 0 224 56 0 234 47 0 243 38 0 252 29 0 3 19 0 12 10 0 21 1 0 32 248 1 40 238 0 48 229 0 57 218 0 65 209 0 75 200 0 85 191 1 93 182 0 102 173 1 110 163 0 119 153 0 128 144 0 137 135 0 146 125 0 154 116 0 163 107 0 172 97 0 181 88 0 190 78 0 199 69 0 208 60 0 216 50 0 226 41 0 234 32 0 243 22 0 253 14 1 1 1 255 0 0 255 27 246 188 46 236 187 66 230 188 85 220 187 104 212 188 123 203 188 142 195 187 160 187 188 180 179 188 197 170 188 215 161 188 233 153 188 250 145 187 13 135 187 31 127 187 49 120 187 67 112 188 84 104 187 101 97 187 118 89 187 135 81 188 152 74 187 169 66 188 185 59 188 202 51 187 218 44 187 234 37 188 251 29 188 12 33 187 30 41 188 46 47 187 63 54 187 81 62 188 99 69 187 116 77 188 134 85 187 152 92 188 170 100 187 188 108 187 207 116 188 224 123 187 243 131 188 6 140 188 25 148 188 45 157 188 63 164 187 82 172 188 101 181 188 120 188 187 140 198 188 160 204 187 180 214 188 200 222 188 220 231 188 240 239 187 2 251 137 0 0 255 6 219 0 15 209 0 24 200 0 32 191 0 41 182 0 50 172 0 58 163 0 68 153 0 77 144 0 85 134 0 94 125 0 103 116 0 112 107 0 122 98 1 130 87 0 139 78 0 147 69 0 156 59 0 165 50 0 174 41 0 183 31 0 192 22 0 200 12 0 209 3 0 210 6 0 224 253 0 233 244 0 242 235 0 250 225 0 46 5 0 7 208 0 16 198 0 24 189 0 33 180 0 42 170 0 51 161 0 59 151 0 69 142 0 78 133 0 86 123 0 95 114 0 104 105 0 113 95 0 122 86 0 131 76 0 139 67 0 148 58 0 157 48 0 166 39 0 175 30 0 184 20 0 193 11 0 201 1 0 211 248 1 218 238 0 227 228 0 236 219 0 245 210 0 255 201 1 8 191 0 18 183 1 26 172 0 35 163 0 42 152 0 52 144 0 61 135 0 70 125 0 79 117 0 88 107 0 96 97 0 105 88 0 114 78 0 123 69 0 132 60 0 141 50 0 150 41 0 158 31 0 167 22 0 176 13 0 184 2 0 192 250 0 202 241 0 51 52 0 60 42 0 69 33 0 78 24 0 86 14 0 95 5 0 106 253 0 114 243 0 123 233 0 132 224 0 140 215 0 149 204 0 158 196 0 168 187 0 175 176 0 185 168 0 194 158 0 202 149 0 211 140 0 220 130 0 230 121 0 237 112 0 246 102 0 161 1 1 0 85 0 9 76 0 17 67 0 26 57 0 35 48 0 44 39 0 54 29 1 61 20 0 69 11 0 79 1 0 85 1 0 94 245 0 104 237 0 113 228 0 122 218 0 130 209 0 138 198 0 149 190 0 157 181 0 166 171 0 174 162 0 183 153 0 192 143 0 201 134 0 210 125 0 218 115 0 227 106 0 237 97 1 245 86 0 254 78 0 6 67 0 16 59 1 24 48 0 31 38 0 41 30 0 51 21 1 59 11 0 68 2 0 78 249 0 86 240 0 95 231 0 104 221 0 113 213 1 122 202 0 130 193 0 139 185 0 148 174 0 158 166 0 166 156 0 175 147 1 183 137 0 192 128 0 201 118 0 210 109 0 219 100 0 227 90 0 237 82 0 245 72 0 254 62 0 5 53 0 14 44 0 22 34 0 31 25 0 40 16 0 49 6 0 59 253 0 67 244 0 76 235 1 86 226 1 94 216 0 103 206 0 112 197 0 120 188 0 129 178 0 137 168 0 147 160 0 156 150 0 164 141 0 172 131 0 183 122 1 191 113 0 200 104 0 208 94 0 217 85 0 226 76 0 235 66 0 244 57 0 253 48 1 222 5 0 7 31 0 15 21 0 24 12 0 33 3 0 46 254 188 67 245 188 86 236 188 104 226 188 123 218 188 141 208 187 161 202 188 179 193 187 197 185 188 215 176 188 233 168 187 250 160 187 14 150 187 32 142 188 50 135 188 67 126 188 84 118 187 101 112 188 119 104 188 135 95 188 153 89 188 169 80 188 186 72 187 202 65 187 218 57 187 235 50 187 251 43 188 14 48 188 30 54 187 47 62 188 64 69 188 82 76 188 100 85 188 117 91 188 135 99 188 152 107 188 169 113 187 189 122 188 208 130 188 225 138 188 244 146 187 7 155 187 25 163 187 45 171 187 65 180 188 83 187 188 102 196 188 122 205 188 141 212 187 161 221 188 181 229 187 201 238 187 221 246 188 0 0 255 3 0 0 13 247 0 22 238 0 30 228 0 38 218 0 48 210 0 57 200 0 67 191 1 73 182 0 83 172 0 92 164 0 100 153 0 110 144 0 118 135 0 127 125 0 136 116 0 145 107 0 154 97 0 162 88 0 171 79 0 180 69 0 188 59 0 198 51 0 206 41 0 215 32 0 224 23 0 234 13 0 242 5 0 241 5 0 3 2 0 4 247 0 12 237 0 20 228 0 30 218 0 39 209 0 48 200 0 56 190 0 65 181 0 74 172 0 83 164 0 92 153 0 99 143 0 110 135 1 118 125 0 127 116 0 136 106 0 144 96 0 153 88 0 162 78 0 171 69 0 180 60 0 188 50 0 197 41 0 206 32 0 215 21 0 224 13 0 232 3 0 241 250 0 250 240 0 4 231 0 12 222 0 21 213 0 30 203 0 39 194 0 48 184 0 56 174 0 65 166 0 74 156 0 83 146 0 92 138 0 100 128 0 109 119 0 118 110 0 127 100 0 136 91 0 145 82 0 153 72 0 162 63 0 171 54 0 180 44 0 189 35 0 197 25 0 205 16 0 216 8 1 74 63 0 83 53 0 92 44 0 99 35 0 109 25 0 118 16 0 126 7 0 137 254 0 145 244 0 154 235 0 163 226 0 172 217 0 180 207 0 189 198 0 199 190 1 206 178 0 215 170 0 224 161 0 233 151 0 242 142 0 250 133 0 133 3 0 4 116 0 13 107 0 22 97 0 30 88 0 39 79 0 48 70 0 58 61 1 66 52 1 74 42 0 83 32 0 91 22 0 100 14 0 109 4 0 109 5 0 125 249 0 134 240 0 143 230 0 152 221 0 160 212 0 169 203 0 178 193 0 186 184 0 195 175 0 204 165 0 212 155 0 222 147 0 230 138 0 239 128 0 248 119 0 0 109 0 9 99 0 18 90 1 26 79 0 35 71 0 44 62 0 53 52 0 62 43 0 70 34 0 79 24 0 88 15 0 96 6 0 107 253 0 116 245 0 124 235 0 133 225 0 142 216 0 150 207 0 159 198 0 168 188 0 177 179 0 186 170 0 195 161 1 203 151 0 213 142 1 221 133 0 230 123 0 238 113 0 247 105 0 160 1 1 8 87 0 15 77 0 25 68 1 33 58 0 42 49 0 50 40 0 59 30 0 68 21 0 77 12 0 86 2 0 95 248 0 104 240 0 113 232 0 122 221 0 130 212 0 139 203 0 148 193 0 157 184 0 166 175 0 174 166 0 183 156 0 192 147 0 202 138 1 208 127 0 217 119 0 227 110 0 236 100 0 245 91 1 253 82 0 188 6 0 8 66 1 16 56 0 24 45 0 33 37 0 42 28 0 51 19 0 60 9 0 68 0 0 85 250 188 104 241 188 123 233 187 141 224 187 160 216 188 178 208 188 197 199 187 215 191 188 233 182 187 250 174 187 15 166 188 32 158 188 49 149 188 67 141 187 84 133 187 101 125 188 119 117 187 136 109 187 152 101 188 169 94 188 186 86 188 202 79 187 219 71 187 235 64 188 251 56 188 13 61 187 30 68 187 48 76 187 65 83 188 82 91 188 100 98 188 117 106 187 135 113 188 153 121 188 171 128 187 189 137 188 208 144 188 227 153 188 245 160 188 8 170 188 27 178 187 46 186 188 64 193 187 84 202 188 104 212 188 123 219 187 142 227 187 161 236 187 183 245 188 202 253 187 1 37 0 10 28 0 18 19 0 27 9 0 36 0 0 46 247 0 54 237 0 63 229 0 72 219 0 82 211 1 90 200 0 98 191 0 107 182 0 116 172 0 125 163 0 134 154 0 142 145 0 150 134 0 160 127 0 169 117 0 177 107 0 186 98 0 196 90 1 205 79 1 212 70 0 221 61 0 230 52 0 238 41 0 247 33 0 0 25 0 9 16 0 18 7 0 10 8 0 25 1 0 36 248 0 45 239 1 53 229 0 61 219 0 71 211 0 79 201 0 88 192 0 97 183 0 105 172 0 114 164 0 123 155 0 131 144 0 141 136 0 149 127 0 158 118 0 167 108 0 176 99 0 186 91 1 193 80 0 202 71 0 211 62 0 220 53 0 229 43 0 237 34 0 245 24 0 240 1 1 7 5 0 17 253 0 26 243 0 34 234 0 43 224 0 53 216 1 61 206 0 70 196 1 78 187 0 87 178 0 96 168 0 104 159 0 113 150 0 122 141 0 132 132 1 139 122 0 148 113 0 158 104 0 166 94 0 174 85 0 183 76 1 192 66 0 202 58 1 210 48 0 218 38 0 227 29 0 97 73 0 105 64 0 113 54 0 123 46 0 131 35 0 140 27 0 149 18 0 157 8 0 165 0 0 176 246 0 185 237 0 194 228 0 202 219 0 211 209 0 220 200 0 229 191 0 237 182 0 245 171 0 90 0 0 0 156 0 8 146 0 17 137 0 26 128 0 34 119 0 43 109 0 52 100 0 61 91 0 69 81 0 78 72 0 87 63 0 96 55 1 104 43 0 113 35 0 122 26 0 131 18 1 140 8 1 133 10 0 156 253 1 164 243 0 173 234 0 181 224 0 190 215 0 198 206 0 207 197 0 216 187 0 225 178 0 234 169 0 242 161 1 251 150 0 2 139 0 11 129 0 22 122 0 28 111 0 38 103 0 47 93 0 56 84 0 63 74 0 73 66 0 82 56 0 90 47 0 99 38 0 109 29 0 117 19 0 125 10 0 134 1 0 144 248 0 153 239 0 162 230 0 170 220 0 179 212 0 188 202 0 196 193 0 206 185 1 215 175 1 223 165 0 231 156 0 240 147 0 249 137 0 1 129 1 8 119 0 17 110 0 26 100 1 35 91 0 43 82 0 52 72 0 61 63 0 69 54 0 78 45 0 87 36 0 97 27 1 104 17 0 113 8 0 123 0 0 132 245 0 140 236 0 149 227 0 158 218 0 167 208 0 175 199 0 184 190 0 193 181 0 201 171 0 210 162 0 218 152 0 228 144 0 236 134 0 245 125 0 255 117 1 154 6 0 9 100 1 16 90 0 26 82 1 34 71 0 43 62 0 51 53 0 60 44 0 68 33 0 78 26 1 86 16 0 95 7 0 0 0 255 122 248 187 141 239 188 159 231 187 178 222 188 197 214 188 215 205 187 233 197 187 251 189 188 13 179 187 32 171 188 50 163 188 67 155 188 84 147 187 102 139 188 119 131 187 137 124 188 152 115 187 170 108 187 186 100 188 203 92 187 219 85 187 236 77 187 252 70 187 14 75 187 31 82 188 48 90 188 65 97 188 84 106 188 100 112 187 119 120 188 136 128 187 154 135 188 172 143 188 191 151 188 207 158 187 227 167 188 244 174 187 9 184 188 28 193 188 47 202 188 66 209 188 85 217 188 104 226 187 124 235 188 143 243 188 164 251 188 0 0 255 8 65 0 17 55 0 25 46 0 34 37 0 43 28 0 51 18 0 60 9 0 69 0 0 79 247 0 87 237 0 96 228 0 105 219 0 114 210 0 121 200 0 130 190 0 140 182 0 148 173 0 157 163 0 166 154 0 175 145 0 182 135 0 192 126 0 202 118 1 210 108 0 218 99 0 227 89 0 237 80 1 245 71 0 254 62 0 6 54 0 15 45 0 23 36 0 32 27 0 40 16 0 49 8 0 42 9 0 56 2 0 67 249 0 76 240 0 85 230 0 93 221 0 102 212 0 111 203 0 119 193 0 128 184 0 137 175 0 146 166 0 153 156 0 163 146 0 172 138 0 181 129 0 189 119 0 198 110 0 207 101 0 215 92 0 224 82 0 233 73 0 242 64 0 249 54 0 2 44 0 12 36 1 20 25 0 29 16 0 37 7 0 47 254 0 56 245 0 65 236 0 74 227 0 82 217 0 91 207 0 100 199 0 108 190 0 116 179 0 126 171 0 135 162 0 143 153 0 153 144 1 161 134 0 169 125 0 178 116 0 186 106 0 196 97 0 204 87 0 213 79 0 222 69 0 231 60 0 239 51 0 119 84 0 128 75 0 136 66 0 144 55 0 154 48 1 162 38 0 171 29 0 180 20 0 188 10 0 197 1 0 207 248 0 216 239 0 224 230 0 233 221 0 242 211 0 250 202 0 63 2 0 4 185 0 12 176 0 21 167 0 30 158 0 38 149 0 47 139 0 56 130 0 64 120 0 73 112 0 82 103 0 91 93 0 99 84 0 108 75 0 117 66 0 125 57 0 134 47 0 143 38 0 151 29 0 160 20 0 169 10 0 177 1 0 183 0 0 193 246 0 202 238 1 211 228 0 219 218 0 228 209 0 237 200 0 245 191 0 254 182 0 6 172 0 15 162 0 24 152 0 32 143 0 41 134 0 50 125 0 57 116 0 67 106 0 75 96 0 85 89 1 93 79 0 101 69 0 110 60 0 119 51 0 128 42 0 136 34 0 144 23 0 154 14 0 162 5 0 172 253 0 181 242 0 190 234 0 199 225 0 207 216 0 216 207 0 225 196 0 233 188 0 242 179 0 251 171 1 2 161 0 10 151 0 19 141 0 28 133 0 37 125 1 44 115 0 54 105 0 62 96 0 71 87 0 80 78 0 88 69 0 97 59 0 107 51 0 114 41 0 124 32 0 132 22 0 140 14 1 149 4 0 160 251 1 168 242 0 176 234 1 185 223 0 194 214 0 202 205 0 212 196 0 220 187 0 228 176 0 237 168 0 245 158 0 254 150 0 121 6 0 8 133 0 16 123 0 26 116 0 34 105 0 43 96 0 52 87 0 60 78 0 69 69 0 78 59 0 86 50 0 94 41 0 104 32 0 112 23 0 121 13 0 130 4 0 141 254 187 160 245 187 178 237 188 197 228 188 215 220 188 233 212 187 250 203 187 14 194 188 31 184 187 50 177 187 67 169 188 85 161 188 102 153 187 119 145 188 136 137 188 153 129 188 170 121 187 187 114 188 203 106 188 220 99 188 236 91 188 252 84 187 14 89 188 31 96 187 48 104 187 66 111 188 83 120 188 101 127 188 119 134 188 137 142 187 154 150 188 173 158 188 191 166 187 209 174 187 228 182 188 246 190 188 10 199 188 29 208 188 48 216 187 67 224 187 86 233 188 105 241 187 125 249 188 0 0 255 6 101 0 15 92 0 23 84 1 32 73 0 41 64 0 49 55 0 58 46 0 67 36 0 75 27 0 84 18 0 93 9 0 101 0 0 112 247 0 120 237 0 128 227 0 136 218 0 146 210 0 155 201 0 164 191 1 172 182 0 181 173 0 190 165 1 199 154 1 207 145 0 215 136 0 225 127 1 233 118 0 241 108 0 250 99 0 3 92 0 11 83 0 20 74 0 29 64 0 38 55 0 46 46 0 55 37 0 64 27 0 72 18 0 81 9 0 90 0 0 87 4 0 99 250 0 108 241 0 117 233 1 126 223 1 134 213 1 142 205 0 151 195 0 159 186 0 168 176 0 177 167 0 184 157 0 194 149 0 203 140 0 211 130 0 220 121 0 230 113 1 237 103 0 246 94 0 170 0 0 7 74 0 16 64 0 24 55 0 33 46 0 42 37 0 50 28 0 59 18 0 68 10 0 75 0 0 86 248 0 95 238 0 104 229 0 112 220 0 121 211 0 129 201 0 138 192 0 147 183 0 156 174 0 164 165 0 173 155 0 182 145 0 190 137 0 198 127 0 207 118 0 216 109 0 225 100 0 235 91 0 243 82 0 251 73 0 141 95 0 150 85 0 158 76 0 167 67 0 176 58 0 184 49 0 193 40 0 202 30 0 210 21 0 219 12 0 228 3 0 237 250 0 245 240 0 22 0 0 36 6 1 8 215 0 17 206 0 25 197 0 33 188 0 44 179 1 51 169 0 60 160 0 68 151 1 77 142 0 87 133 0 94 123 0 103 114 0 112 105 0 120 97 0 129 87 0 139 79 1 146 68 0 155 59 0 163 50 0 172 41 0 181 32 0 188 23 0 198 13 0 207 4 0 207 5 0 223 248 0 232 240 0 240 231 0 248 223 1 0 211 0 10 202 1 18 194 0 26 183 0 36 175 1 44 165 0 52 156 0 61 146 0 70 138 0 78 128 0 87 119 0 96 110 0 104 101 0 113 92 0 122 83 0 130 73 0 139 64 0 147 55 0 155 46 0 165 37 0 173 28 0 182 18 0 191 10 1 199 0 0 209 248 0 218 239 0 226 229 0 236 220 1 245 212 1 252 202 0 3 193 0 12 184 0 21 174 0 29 165 0 38 156 0 47 147 0 55 138 0 64 129 0 73 119 0 81 110 0 91 102 1 98 92 0 107 83 0 116 74 0 124 65 1 133 55 0 141 46 0 149 37 0 159 28 0 168 20 1 177 10 1 185 0 0 195 247 0 203 238 0 212 229 0 220 220 0 229 211 0 238 201 0 246 192 0 71 0 0 0 176 0 9 167 0 17 157 0 26 148 0 35 139 0 43 130 0 53 122 1 61 112 0 69 102 0 78 93 0 86 84 0 95 75 0 104 66 0 112 57 0 121 47 0 130 38 0 138 29 0 146 20 0 156 11 0 164 2 0 179 253 188 197 242 187 215 236 188 233 226 187 251 218 188 14 208 187 32 200 187 50 192 188 67 183 188 85 175 188 102 167 188 120 160 188 136 151 188 153 143 187 170 135 187 186 127 187 203 120 188 220 112 187 235 104 187 254 97 188 15 103 188 32 110 187 49 118 188 66 126 188 84 132 187 102 141 188 120 150 188 137 157 187 155 165 187 173 172 187 192 180 187 210 189 188 228 197 187 246 204 187 11 214 188 29 223 187 48 231 188 67 239 187 87 248 188 0 0 255 5 138 1 13 128 0 21 119 0 29 108 0 39 100 0 47 91 0 56 82 0 65 73 0 73 64 0 82 54 0 90 45 0 100 37 0 108 27 0 117 18 0 125 9 0 133 0 0 143 246 0 152 237 0 161 229 0 168 218 0 179 211 1 187 202 1 195 190 0 205 183 1 212 173 0 221 164 0 231 156 0 238 146 0 247 137 1 0 129 0 8 120 0 17 111 0 26 102 0 34 93 0 43 83 0 52 73 0 60 65 0 68 55 0 77 47 0 86 38 0 95 28 0 103 19 0 112 10 0 121 1 0 116 3 0 131 251 1 138 242 0 147 233 0 155 224 0 164 215 0 173 205 0 181 196 0 191 187 0 200 179 1 207 169 0 216 160 0 225 150 0 233 141 0 242 132 0 251 123 0 3 112 0 11 103 0 20 94 0 29 85 0 38 76 0 46 66 0 54 57 0 63 48 0 72 39 0 80 30 0 90 22 1 97 10 0 106 2 0 116 250 0 125 241 0 133 232 0 142 222 0 150 212 0 159 204 0 168 195 0 176 185 0 185 177 1 194 167 0 203 158 0 211 149 0 220 140 0 228 130 0 237 122 0 246 112 0 254 103 0 6 95 1 163 105 0 172 96 0 180 87 0 189 78 0 198 69 0 207 61 1 215 50 0 223 41 0 232 32 0 241 23 0 249 14 0 250 2 0 4 254 0 12 244 0 22 236 1 29 226 0 38 217 0 46 208 0 54 198 0 64 190 0 71 180 0 82 172 0 89 162 0 98 153 0 107 144 0 116 135 1 123 125 0 132 117 0 141 109 0 150 98 0 158 89 0 167 80 0 175 71 0 184 62 0 194 53 0 201 44 0 211 36 1 217 25 0 227 16 0 236 7 0 230 9 0 253 253 0 4 242 0 12 232 0 21 223 0 29 214 0 37 204 0 47 196 0 54 186 0 64 178 0 72 169 0 81 159 0 90 150 0 98 141 0 107 132 0 115 123 0 124 114 0 133 105 0 141 96 0 151 87 1 158 77 0 167 68 0 176 59 0 184 50 0 193 41 0 201 32 0 210 23 0 219 13 0 227 4 0 237 253 0 245 242 0 254 234 0 5 225 0 14 215 0 22 206 0 32 198 1 39 188 0 48 179 0 57 170 0 64 160 0 73 152 0 82 143 0 91 133 0 100 124 0 108 115 0 117 106 0 125 97 0 135 89 1 143 79 0 151 70 0 160 60 0 168 51 0 177 42 0 186 33 0 194 25 1 203 15 0 211 6 0 221 253 0 230 244 0 238 234 0 247 225 0 39 0 0 1 209 0 9 200 0 18 191 0 26 181 0 35 172 0 44 163 0 52 154 0 60 145 0 69 136 0 78 127 0 86 117 0 95 108 0 104 99 0 112 90 0 121 81 0 130 72 0 137 62 0 147 54 0 155 45 0 163 34 0 173 26 0 181 17 0 190 8 0 0 0 255 215 249 188 233 241 187 251 232 188 14 223 188 32 214 187 50 206 188 67 198 187 85 190 188 101 181 187 119 173 187 136 166 188 153 157 187 170 150 187 187 142 187 204 134 187 220 126 187 238 120 188 253 111 187 15 117 187 32 125 187 49 132 188 67 140 187 84 148 187 102 156 188 120 163 187 139 172 188 156 179 187 174 187 188 192 195 188 212 204 188 229 211 187 248 220 188 12 230 188 30 238 187 50 247 188 0 0 254 2 173 0 11 164 0 19 154 0 28 145 0 37 136 0 46 128 1 54 118 0 62 110 0 71 100 0 80 91 0 88 81 0 97 73 1 105 63 0 114 54 0 123 45 0 131 37 0 140 27 0 148 18 0 157 8 0 165 0 0 174 246 0 185 238 0 193 228 0 201 219 0 210 210 0 218 201 0 227 192 0 236 182 0 244 173 0 253 164 0 5 157 0 14 148 0 23 139 0 31 130 0 40 121 0 48 111 0 58 102 0 66 92 0 73 84 0 83 75 0 91 66 0 100 57 0 109 48 0 118 39 1 126 29 0 134 20 0 143 11 0 152 2 0 148 5 0 160 252 0 169 243 0 178 234 0 186 225 0 195 216 0 203 208 0 213 199 0 221 188 0 229 179 0 238 170 0 246 161 0 103 0 0 7 140 0 16 132 0 24 123 0 33 114 0 41 105 0 50 96 0 59 87 0 67 78 0 75 67 0 84 59 0 93 50 0 102 41 0 110 32 0 119 23 0 127 14 0 137 6 1 146 252 0 154 243 0 164 235 0 172 225 0 180 216 0 189 207 0 197 197 0 205 188 0 215 179 0 223 170 0 232 161 0 240 152 0 249 144 0 0 134 0 8 124 0 17 115 0 185 116 0 193 106 0 202 97 0 212 89 1 219 79 0 228 69 0 237 62 1 245 52 0 254 44 1 223 4 0 6 25 0 14 16 0 23 7 0 31 1 0 43 247 1 50 237 0 59 228 0 68 219 0 76 210 0 85 201 0 93 192 0 102 183 0 110 174 0 119 165 0 127 155 0 136 146 0 145 137 0 153 128 0 162 119 0 170 110 0 179 101 0 187 92 0 196 83 0 204 74 0 212 64 0 222 56 0 230 46 0 239 37 0 247 28 0 235 0 0 8 10 1 15 0 0 23 253 0 32 245 0 41 236 0 49 226 0 58 217 0 66 208 0 75 199 0 84 190 0 92 181 0 101 172 0 109 163 0 117 153 0 126 145 0 134 135 0 143 127 0 152 117 0 161 109 1 169 99 0 178 90 0 186 81 0 195 72 0 204 64 0 212 54 0 220 45 0 229 36 0 238 27 0 246 18 0 246 0 0 5 0 0 15 247 0 24 238 0 33 229 0 41 220 0 50 212 0 58 202 0 67 194 0 75 184 0 85 175 1 91 164 0 101 156 0 110 146 0 119 139 1 127 129 0 135 120 0 144 111 0 152 102 0 161 93 0 169 85 0 178 75 0 187 66 0 195 56 0 204 47 0 212 38 0 221 29 0 229 20 0 238 11 0 247 2 0 6 1 0 1 242 0 10 233 0 18 223 0 27 214 0 35 205 0 44 196 0 53 187 0 61 178 0 69 168 0 77 159 0 87 151 0 95 141 0 104 133 0 112 123 0 120 114 0 131 106 0 139 97 1 147 87 0 155 78 0 164 70 0 172 60 0 182 52 1 190 42 0 198 33 0 207 24 0 215 14 0 224 6 0 0 0 255 250 247 187 14 237 188 32 229 187 50 220 187 68 212 188 85 205 188 102 196 188 120 189 188 137 180 188 153 171 187 171 164 188 187 156 187 204 148 188 221 140 188 237 132 188 253 125 188 15 131 188 33 139 188 50 147 187 67 154 188 85 162 188 103 170 188 120 178 188 138 187 188 156 194 187 175 202 187 193 210 187 211 218 187 230 226 187 249 235 188 11 244 187 31 254 188 0 208 0 10 199 1 19 191 1 26 181 0 36 173 1 43 163 0 52 154 0 60 144 0 69 135 0 77 126 0 85 116 0 95 109 0 103 100 0 112 90 0 120 81 0 129 72 0 137 64 0 146 54 0 155 45 0 163 35 0 172 26 0 181 18 1 189 8 0 198 0 0 207 246 0 216 237 0 224 228 0 234 219 0 241 210 0 250 201 0 2 194 0 11 185 0 19 176 0 28 166 0 37 157 0 46 149 1 54 139 0 62 130 0 71 121 0 79 112 0 88 103 0 95 93 0 104 84 0 114 76 0 122 67 0 131 57 0 139 49 1 149 39 0 155 30 0 165 21 0 174 12 0 182 3 0 177 5 0 191 253 0 199 244 0 207 234 0 216 226 0 225 217 0 235 208 1 241 198 0 251 190 0 3 179 0 11 170 0 20 161 0 28 152 0 37 143 0 46 134 0 54 125 0 63 116 0 71 107 0 80 98 0 88 90 0 96 78 0 105 70 0 114 61 0 123 52 0 130 43 0 140 34 0 148 25 0 157 16 0 165 7 0 174 254 0 184 245 0 193 237 1 201 227 0 208 217 0 218 209 1 227 200 0 235 191 0 244 182 0 253 173 0 2 163 0 12 155 0 20 146 0 29 136 0 205 125 0 215 117 0 223 108 0 232 99 0 239 89 0 249 82 1 184 1 0 2 64 1 10 53 0 19 45 1 26 34 0 35 26 0 44 17 0 52 8 0 57 4 0 71 248 0 80 240 1 88 230 0 97 221 0 105 212 0 114 203 0 123 194 0 131 185 0 139 175 0 148 167 0 157 158 0 165 148 0 174 139 0 181 130 0 191 122 0 199 112 0 208 103 0 216 93 0 225 85 0 233 76 0 241 67 0 250 58 0 1 48 0 9 39 0 18 30 0 27 21 0 36 12 1 44 3 0 49 3 1 61 248 0 69 239 0 78 230 0 86 221 0 94 211 0 103 202 0 112 193 0 120 184 0 128 174 0 137 166 0 146 157 0 154 148 0 164 139 0 171 129 0 180 121 0 187 111 0 197 103 0 205 94 0 214 85 0 222 76 0 231 67 0 239 58 0 248 49 0 215 0 0 7 31 0 16 22 0 24 13 0 32 3 0 43 250 0 52 243 1 60 233 0 68 224 0 77 215 0 85 206 0 94 197 0 102 188 0 111 179 0 119 170 0 128 161 0 137 153 1 145 143 0 153 134 0 162 125 0 170 116 0 179 107 0 189 98 0 196 89 0 205 80 0 212 70 0 222 62 0 231 53 1 239 43 0 246 34 0 230 0 0 0 16 0 9 8 1 16 0 0 27 247 0 36 238 0 44 229 0 53 219 0 61 211 0 70 202 0 78 193 0 87 184 0 95 175 0 104 166 0 113 157 0 120 148 0 130 139 0 138 131 0 147 121 0 155 111 0 163 101 0 172 93 0 181 84 0 189 75 0 198 66 0 206 57 0 215 48 0 223 39 0 232 30 0 240 21 0 249 12 0 0 2 0 14 252 187 32 243 188 50 235 188 68 227 187 85 218 187 103 210 188 120 202 188 138 195 188 154 187 188 171 178 187 188 169 187 205 162 188 221 154 188 237 146 188 255 140 188 17 146 188 33 153 188 50 161 188 68 169 188 86 177 187 103 184 188 121 192 188 139 201 188 157 208 187 175 217 188 193 224 187 213 234 188 230 240 187 250 250 188 0 0 255 8 235 1 16 225 0 23 215 0 33 207 0 41 198 0 49 188 0 58 180 0 67 171 0 75 162 0 84 153 0 92 144 0 100 134 0 109 126 0 118 117 0 126 108 0 135 98 0 143 89 0 152 80 0 160 71 0 169 62 0 179 54 1 186 44 0 195 35 0 204 26 1 212 17 0 220 8 0 229 0 0 238 246 0 247 238 0 27 0 0 8 221 0 16 212 0 25 203 0 33 194 0 42 184 0 50 176 0 59 167 0 68 158 0 75 148 0 85 140 0 93 131 0 103 123 1 110 112 0 118 102 0 127 94 0 136 85 0 144 76 0 153 67 0 161 58 0 170 49 0 178 40 0 187 31 0 194 21 0 203 12 0 212 4 0 206 5 0 221 0 0 230 246 0 238 236 0 247 227 0 37 0 0 7 208 0 16 199 0 24 190 0 33 181 0 41 172 0 51 164 1 58 153 0 67 145 0 75 136 0 84 127 0 92 118 0 102 109 1 109 99 0 119 90 0 127 82 0 135 72 0 143 63 0 153 55 1 160 45 0 169 36 0 177 27 0 187 18 0 194 9 0 203 0 0 213 248 0 221 239 0 230 230 0 238 221 0 247 212 0 53 1 0 6 193 0 15 184 0 23 175 0 32 166 0 40 157 0 228 136 0 236 127 0 245 118 0 253 108 0 157 4 0 5 91 0 14 82 0 22 73 0 31 64 0 39 55 0 48 46 0 56 37 0 64 27 0 73 19 0 81 9 0 90 1 0 101 250 0 109 241 0 118 232 0 126 223 0 135 214 0 143 205 0 152 196 0 160 187 0 168 179 1 177 169 0 186 161 1 193 150 0 202 142 0 211 133 0 219 124 0 228 115 0 237 107 0 245 97 0 253 88 0 4 78 0 12 69 0 21 60 0 29 51 0 38 42 0 45 32 0 55 24 0 63 15 0 72 6 0 70 6 0 89 251 0 97 242 0 106 233 0 114 224 0 123 215 0 131 206 0 140 197 0 148 188 0 157 179 0 165 170 0 174 161 0 182 152 0 190 143 0 199 134 0 207 125 0 215 115 0 225 108 1 233 98 0 240 89 0 250 80 1 0 71 0 10 62 0 17 53 0 26 44 0 34 35 0 43 26 0 51 17 0 60 8 0 68 1 0 77 246 0 87 238 0 95 230 1 105 220 0 112 211 0 121 202 0 130 194 0 137 184 0 146 175 0 155 166 0 163 157 0 171 148 0 180 139 0 189 131 1 197 121 0 205 112 0 214 103 0 222 94 0 231 85 0 239 76 0 247 67 0 198 0 0 0 49 0 9 40 0 17 31 0 26 22 0 34 13 0 43 4 0 53 252 0 61 242 0 70 234 0 79 226 0 87 216 0 96 207 0 104 199 0 113 189 0 120 179 0 130 171 0 138 162 0 147 153 0 155 144 0 162 134 0 172 126 0 180 117 0 189 108 0 197 99 0 206 90 0 214 81 0 223 73 0 231 64 0 240 55 0 247 46 0 220 2 0 7 26 0 16 17 0 24 8 0 0 0 255 51 250 188 68 241 188 85 233 187 103 224 188 120 216 187 137 208 188 154 200 188 171 192 187 188 184 188 205 176 187 221 168 187 237 159 187 254 152 187 16 159 187 34 167 187 51 175 188 68 183 187 86 191 188 104 199 188 122 207 187 140 215 187 158 223 187 176 231 187 194 240 187 213 248 188 0 0 255 4 12 0 12 3 0 22 250 0 31 242 0 39 233 0 48 224 0 57 216 1 64 205 0 73 197 0 82 188 0 90 179 0 99 170 0 108 161 1 116 152 0 124 143 0 133 134 0 140 124 0 150 117 1 158 107 0 165 97 0 175 89 0 183 80 1 192 71 0 200 62 0 209 53 0 217 44 0 226 35 0 234 26 0 243 17 0 251 8 0 3 1 0 13 248 0 22 239 0 30 230 0 39 221 0 47 213 0 56 203 0 63 193 0 73 185 1 82 176 1 90 167 0 98 158 0 107 149 0 115 140 0 124 131 0 132 122 0 141 113 0 149 104 0 158 95 0 166 86 0 174 77 0 183 68 0 191 59 0 200 50 0 207 41 0 218 32 0 225 23 0 234 14 0 242 5 0 237 7 0 250 1 1 4 246 1 11 236 0 21 228 1 28 218 0 38 209 0 46 201 1 54 191 0 62 182 0 71 173 0 79 164 0 88 155 0 96 145 0 106 138 1 113 128 0 122 119 0 130 110 0 138 100 0 147 92 0 155 83 0 165 75 1 172 65 0 181 56 0 189 47 0 198 38 0 206 29 0 215 20 0 223 11 0 232 2 0 242 250 0 250 241 0 1 233 0 9 223 0 18 214 0 26 205 0 35 196 0 43 186 0 52 178 0 249 147 1 118 1 0 1 128 0 10 119 0 18 110 0 26 101 0 34 91 0 43 83 0 52 73 0 60 65 0 69 57 0 77 48 0 86 39 0 94 30 0 102 21 0 111 12 0 120 4 1 130 252 0 138 243 0 147 234 0 155 225 0 163 216 0 172 207 0 180 198 0 188 188 0 198 181 1 206 171 0 214 162 0 223 154 1 231 144 0 239 135 0 248 127 0 137 1 0 8 108 1 15 98 0 24 89 0 32 80 0 41 71 0 49 62 0 57 53 0 65 43 0 74 35 0 83 26 0 91 18 0 100 9 0 108 0 0 117 254 0 125 245 0 133 236 0 142 228 0 150 218 0 160 209 0 167 200 0 176 191 0 184 182 0 193 172 0 202 165 1 209 155 0 218 146 0 226 137 0 235 128 0 243 119 0 253 111 0 2 102 0 10 92 0 19 84 0 28 75 0 36 66 0 44 57 0 53 48 0 60 38 0 69 29 0 78 21 0 87 12 0 95 3 0 104 250 0 113 242 0 123 234 1 130 224 0 139 215 0 147 206 0 155 196 0 164 188 0 172 179 0 182 171 1 188 160 0 199 153 1 206 143 0 215 134 0 223 125 0 231 115 0 240 107 0 248 98 0 166 1 0 1 81 0 9 72 0 18 63 0 26 54 0 36 46 1 43 36 0 52 27 0 60 18 0 69 9 0 77 0 0 87 248 0 96 240 0 104 231 0 113 222 0 121 213 0 130 204 0 138 195 0 146 186 0 155 177 0 163 168 0 172 159 0 180 150 0 188 140 0 198 133 1 206 123 0 214 114 0 222 106 0 231 97 0 239 88 0 248 79 0 187 1 0 7 59 0 15 51 0 24 42 0 32 33 0 41 24 0 49 15 0 57 6 0 0 0 255 85 247 187 104 240 188 120 231 187 137 222 188 154 214 188 171 206 187 188 199 188 205 190 188 222 182 188 239 175 188 254 166 188 18 175 188 34 182 188 51 190 188 69 199 188 87 206 188 104 214 187 122 223 188 140 230 187 159 238 187 177 246 188 1 1 255 2 47 0 12 39 1 19 29 0 26 19 0 36 11 0 43 1 0 54 250 0 64 242 1 70 232 0 80 223 0 88 214 0 96 205 0 106 196 1 113 187 0 122 178 0 131 169 1 139 160 0 147 151 0 155 142 0 163 132 0 172 124 0 181 115 0 188 106 0 199 97 0 206 88 0 215 79 0 223 70 0 231 61 0 240 53 0 248 44 0 0 35 0 8 26 0 17 17 0 24 7 0 34 1 0 45 248 1 53 239 0 61 230 0 68 220 0 78 212 0 86 203 0 94 193 0 103 185 0 112 175 0 119 166 0 128 157 0 137 149 0 145 140 0 154 131 0 163 122 1 171 114 0 179 105 0 188 96 0 195 86 0 205 78 0 212 69 0 221 60 0 230 51 0 238 42 0 246 33 0 231 0 0 6 14 0 13 4 0 10 7 0 24 0 0 32 246 0 41 237 0 49 228 0 57 218 0 66 211 0 75 202 0 83 193 0 93 185 1 101 176 1 108 165 0 118 158 1 125 149 0 134 139 0 142 130 0 151 121 0 159 112 0 166 102 0 176 94 0 185 85 1 193 75 0 201 66 0 209 57 0 217 48 0 227 40 0 235 31 0 243 22 0 252 13 0 2 5 0 12 252 0 21 242 0 29 234 0 38 225 0 46 216 0 55 208 0 63 199 0 5 156 0 14 147 0 22 138 0 30 129 0 39 120 0 47 111 0 57 104 1 64 94 0 72 85 0 81 76 0 89 67 0 98 58 0 107 50 0 114 40 0 123 31 0 131 22 1 140 13 0 149 6 1 158 253 0 167 245 0 175 236 0 185 228 0 192 217 0 200 209 0 209 200 0 217 190 0 226 182 0 234 173 0 242 164 0 250 155 0 1 145 0 10 136 0 18 127 0 27 118 0 35 109 0 43 101 0 52 92 0 60 83 0 69 74 0 77 65 0 85 56 0 95 48 1 102 38 0 111 29 0 119 20 0 127 11 0 136 3 0 140 2 0 152 247 0 160 238 0 169 231 0 179 222 1 186 212 0 195 203 0 203 194 0 211 185 0 220 176 0 228 167 0 237 159 0 245 150 0 253 141 0 3 131 0 12 123 0 21 114 0 29 105 0 38 96 0 46 87 0 55 79 1 63 70 0 71 61 0 79 51 0 89 44 1 96 33 0 105 25 0 113 16 0 122 7 0 131 0 0 140 246 0 148 237 0 157 228 0 165 219 0 173 210 0 183 202 0 190 192 0 198 182 0 207 175 0 215 166 0 225 158 1 232 148 0 241 139 0 249 130 0 134 1 0 2 112 0 9 102 0 18 94 0 27 85 0 35 77 0 44 68 0 53 60 1 60 50 0 68 41 0 76 31 0 86 23 0 94 14 0 103 6 1 113 254 0 122 246 1 130 237 0 138 227 0 146 218 0 155 210 0 164 202 0 172 192 0 180 182 0 188 174 0 198 166 0 205 156 0 214 147 0 222 138 0 230 129 0 239 120 0 247 111 0 153 0 0 6 92 0 16 84 1 23 75 0 31 66 0 40 57 0 47 47 0 57 39 0 65 30 0 73 21 0 82 12 0 89 3 0 102 253 187 120 245 188 137 237 187 155 228 187 172 220 188 189 212 187 205 204 187 222 196 188 238 188 187 0 180 187 17 188 188 34 195 187 52 204 187 69 211 187 87 220 188 105 228 188 123 236 187 141 246 188 159 253 187 0 81 0 9 72 0 17 63 0 26 54 0 34 45 0 42 36 0 51 27 0 59 18 0 68 10 0 76 1 0 86 248 0 94 239 0 104 231 1 112 223 1 119 213 0 128 205 0 136 195 0 145 186 0 153 177 0 161 168 0 170 159 0 178 150 0 187 141 0 195 132 0 203 123 0 212 115 0 219 105 0 229 96 0 237 88 0 245 78 0 254 70 0 6 61 0 14 52 0 22 43 0 30 33 0 39 26 0 48 17 0 56 8 0 64 0 0 75 248 0 83 239 0 91 230 0 100 221 0 108 212 0 117 203 0 126 195 1 133 185 0 142 176 0 150 168 0 159 159 0 167 150 0 174 140 0 184 132 0 192 123 0 202 114 1 209 105 0 218 96 0 227 88 1 235 79 1 243 69 0 250 61 0 3 51 1 9 40 0 17 31 0 27 24 0 35 15 0 44 6 0 39 7 0 53 2 1 62 247 0 70 239 0 79 230 0 87 221 0 95 213 0 104 203 0 112 194 0 121 185 0 129 176 0 137 167 0 146 158 0 153 148 0 163 139 0 171 131 0 179 123 0 188 114 0 196 105 0 205 96 0 213 87 0 221 78 0 231 69 0 238 60 0 247 51 0 213 0 0 6 34 0 15 25 1 22 16 0 30 6 0 41 0 0 49 246 0 57 237 0 66 228 0 74 219 0 26 166 0 34 157 0 43 148 0 51 139 0 59 130 0 67 121 0 76 113 0 85 104 0 93 95 0 101 86 0 110 77 0 118 68 0 126 59 0 135 51 0 143 42 0 150 33 0 160 24 0 168 15 0 177 6 0 185 2 1 195 246 0 204 237 0 212 229 0 219 219 0 230 212 1 237 202 0 245 193 0 254 184 0 4 174 0 13 165 0 22 156 1 29 147 0 38 139 0 46 130 0 54 121 0 63 112 0 71 103 0 79 94 0 88 85 0 96 76 0 105 68 0 113 59 0 121 50 0 130 41 0 138 32 0 146 23 0 155 14 0 163 5 0 162 6 0 180 251 0 188 242 0 197 233 0 205 224 0 213 215 0 222 206 0 230 197 0 238 189 0 248 181 1 84 0 0 6 162 0 14 153 0 22 144 0 31 135 0 39 127 0 47 118 0 56 109 0 63 99 0 73 91 0 81 82 0 89 72 0 98 64 0 106 56 0 114 47 0 123 38 0 130 29 0 140 20 0 148 11 0 156 2 0 166 250 0 175 241 0 183 232 0 190 222 0 199 215 0 208 206 0 216 197 0 225 188 0 233 179 0 240 169 0 250 161 0 104 2 0 2 144 0 11 135 0 19 126 0 27 117 0 36 108 0 44 99 0 52 90 0 61 81 0 69 73 0 77 64 0 86 54 0 94 46 0 103 37 0 111 28 0 119 19 0 128 10 0 137 3 1 145 250 0 156 242 1 163 233 0 171 224 0 181 215 0 188 206 0 196 197 0 205 188 0 213 180 0 222 171 0 230 162 0 238 153 0 247 144 0 118 0 0 6 125 0 14 116 0 22 107 0 31 98 0 39 89 0 47 81 0 56 72 0 63 62 0 73 55 1 81 45 0 89 36 0 98 27 0 106 18 0 114 10 0 123 1 0 137 250 187 156 244 188 172 234 188 189 226 187 206 218 188 222 210 188 239 202 188 0 195 187 19 204 188 35 211 188 52 219 187 70 227 188 88 236 188 106 243 188 124 250 187 0 0 255 7 106 0 15 97 0 24 88 0 32 79 0 40 70 0 49 61 0 57 53 0 66 44 0 75 36 1 82 26 0 92 18 1 99 8 0 109 1 0 117 247 0 124 237 0 134 229 0 142 220 0 151 211 0 159 203 0 167 194 0 176 185 0 184 176 0 192 167 0 201 158 0 209 149 0 218 140 0 226 132 0 234 122 0 243 114 0 251 106 1 2 96 0 11 87 0 19 79 0 28 70 0 37 61 0 43 51 0 53 43 0 61 34 0 69 25 0 78 16 0 87 8 0 95 1 0 105 248 0 113 239 0 121 230 0 130 221 0 138 213 0 147 203 0 155 194 0 163 186 0 172 177 0 180 168 0 189 160 1 197 150 0 205 141 0 214 132 0 221 122 0 230 115 0 239 106 0 247 97 0 168 1 0 6 78 0 14 69 0 23 60 0 31 51 0 39 42 0 48 33 0 56 24 0 64 16 0 74 8 1 68 8 0 81 2 0 92 250 1 100 240 0 108 231 0 115 221 0 124 213 0 133 204 0 141 195 0 149 186 0 158 178 0 167 170 1 174 160 0 183 151 1 191 142 0 200 133 0 207 124 0 216 115 0 225 107 0 234 99 1 242 90 1 250 80 0 1 72 1 8 61 0 17 53 0 25 45 0 34 36 0 43 28 0 50 18 0 59 9 0 67 0 0 77 248 0 85 239 0 47 176 0 54 167 0 63 158 0 72 149 0 80 140 0 88 132 0 97 123 0 106 114 0 113 105 0 121 96 0 131 88 1 138 79 0 146 69 0 155 61 0 163 52 0 171 43 0 180 34 0 188 26 0 196 18 1 205 8 0 208 2 0 223 248 0 232 239 0 239 230 0 248 222 0 42 1 0 7 203 0 16 195 1 24 185 0 32 176 0 40 167 0 48 157 0 57 150 0 65 141 0 74 132 0 82 123 0 90 114 0 99 105 0 107 97 0 115 88 0 124 79 0 132 70 0 140 61 0 150 53 1 158 44 0 165 35 0 174 26 0 182 17 0 190 8 0 185 11 1 207 254 0 215 245 0 224 236 0 233 228 0 240 218 0 249 209 0 55 1 0 7 192 0 15 182 0 24 174 0 32 165 0 41 157 0 49 148 0 57 139 0 66 130 0 75 122 1 82 112 0 91 104 0 99 95 0 108 87 0 116 77 0 124 68 0 132 60 1 140 51 0 149 42 0 157 33 0 166 24 0 174 15 0 183 6 0 192 254 0 200 245 0 209 236 0 217 228 0 225 219 0 234 210 0 242 201 0 250 192 0 72 3 0 3 175 0 11 166 0 20 158 1 28 148 0 36 139 0 43 129 0 53 122 0 61 113 0 69 104 0 78 95 0 86 86 0 94 77 0 103 69 0 112 60 0 119 51 0 128 42 0 136 33 0 144 24 0 153 16 0 161 7 0 170 1 0 179 247 0 189 238 0 195 229 0 204 220 0 212 212 0 221 203 0 229 194 0 238 185 0 246 176 0 254 167 0 5 157 0 13 148 0 22 140 0 30 131 0 39 122 1 47 113 0 55 104 0 63 95 0 71 87 0 80 78 0 88 69 0 96 60 0 105 51 0 113 42 0 122 34 0 130 25 0 138 16 0 146 7 0 0 0 255 172 249 187 189 241 188 206 232 187 223 224 187 239 216 187 1 209 187 19 218 188 35 225 187 53 233 188 72 241 188 88 249 188 0 0 255 6 139 1 13 131 0 22 122 0 30 113 0 38 104 0 46 94 0 54 86 0 63 78 0 72 69 0 80 60 0 88 52 0 97 42 0 105 33 0 113 25 0 121 16 0 130 7 0 140 0 0 148 246 0 156 237 0 165 228 0 173 219 0 181 210 0 190 202 0 198 193 0 206 184 0 215 175 0 224 167 1 231 157 0 240 149 0 248 140 0 0 131 0 8 122 0 16 113 0 25 105 0 33 96 0 41 87 0 50 78 0 58 69 0 67 60 0 75 52 0 83 43 0 91 34 0 100 25 0 109 16 0 116 7 0 125 1 0 135 248 0 143 239 0 151 230 0 160 221 0 168 213 0 176 203 0 185 195 0 193 186 0 201 177 0 210 168 0 218 159 0 226 149 0 235 141 0 244 134 1 250 124 0 2 113 0 10 105 0 18 96 0 27 87 0 35 78 0 43 70 0 52 61 0 60 53 0 68 43 0 77 34 0 84 24 0 93 17 0 102 8 0 96 9 0 109 2 0 120 250 0 128 241 0 136 232 0 145 223 0 153 214 0 161 205 0 170 197 0 178 188 0 186 179 0 195 170 0 203 160 0 211 152 0 220 144 0 228 135 0 236 126 0 245 116 0 253 108 0 3 100 0 12 91 0 20 82 0 28 73 0 37 64 0 45 54 0 53 47 0 62 38 0 70 29 0 78 20 0 87 11 0 95 2 0 68 187 0 75 177 0 84 167 0 92 159 0 100 150 0 108 142 0 117 133 0 124 123 0 132 115 0 142 106 0 150 98 0 157 88 0 166 80 0 175 71 0 183 62 0 191 54 0 200 45 0 208 36 0 216 27 0 224 18 0 233 9 0 241 1 0 250 249 0 1 239 0 10 231 0 18 222 0 27 212 0 35 205 0 44 196 1 51 187 0 60 178 0 68 169 0 76 161 0 84 151 0 93 143 0 101 134 0 109 125 0 119 117 1 126 108 0 134 99 0 143 90 0 150 81 0 159 73 0 167 64 0 176 55 0 184 46 0 192 38 0 201 28 0 208 20 0 217 11 0 226 2 0 230 2 0 242 248 0 250 239 0 1 231 0 9 222 0 17 213 0 26 204 0 33 194 0 42 186 0 51 178 0 59 169 0 67 160 0 75 151 0 84 142 0 91 133 0 100 125 0 110 117 1 116 107 0 125 98 0 133 90 0 141 81 0 150 72 0 158 63 0 166 53 0 175 46 0 183 38 0 191 28 0 200 19 0 207 10 0 216 2 0 227 249 0 234 241 0 243 232 0 251 223 0 43 3 0 3 205 0 12 197 0 20 189 0 28 179 0 37 171 1 45 161 0 53 152 0 61 144 0 70 135 0 78 126 0 86 118 0 94 109 0 103 100 0 111 91 0 119 82 0 128 74 0 136 65 0 144 56 0 152 47 0 161 38 0 169 30 0 177 21 0 187 12 0 193 2 0 205 253 1 212 243 0 221 236 1 229 226 0 238 218 0 246 208 0 255 199 0 4 189 0 13 181 0 21 172 0 29 163 0 37 154 0 46 145 0 54 137 0 62 128 0 71 119 0 79 110 0 87 101 0 95 93 0 104 84 0 112 75 0 120 66 0 129 57 0 138 50 1 145 40 0 152 30 0 162 22 0 170 13 0 178 5 0 0 0 255 206 247 187 223 238 187 241 231 188 1 224 188 18 232 187 36 240 187 52 247 187 0 0 255 3 172 0 11 163 0 20 155 0 28 146 0 37 137 0 45 129 0 53 120 0 61 111 0 70 102 0 77 93 0 86 85 0 95 76 0 103 67 0 112 59 1 119 50 0 128 41 0 136 32 0 144 23 0 153 14 0 161 6 0 171 253 0 179 244 0 187 236 0 195 227 0 204 217 0 212 208 0 220 201 0 229 191 0 237 183 0 245 174 0 253 165 0 5 157 0 13 148 0 22 139 0 30 130 0 38 122 0 46 113 0 54 104 0 63 95 0 71 87 0 80 78 0 88 69 0 96 60 0 105 51 0 113 43 0 121 34 0 128 24 0 139 17 1 146 7 0 155 1 0 164 247 0 173 239 0 181 230 0 189 221 0 198 212 0 206 204 0 214 195 0 222 186 0 231 177 0 239 167 0 248 161 1 106 2 1 6 141 0 14 132 0 23 123 0 31 114 0 39 105 0 47 97 0 56 88 0 64 79 0 72 70 0 81 61 0 89 53 0 97 44 0 106 35 0 114 26 0 121 16 0 130 9 0 138 0 0 137 3 0 148 250 0 156 242 0 166 234 0 173 224 0 182 217 0 190 207 0 198 198 0 206 189 0 214 180 0 223 172 0 231 163 0 239 154 0 248 145 0 121 2 0 7 128 0 15 119 0 23 110 0 31 101 0 40 93 0 48 84 0 56 75 0 64 66 0 73 57 0 81 49 0 89 40 0 98 31 0 106 22 0 87 195 0 95 186 0 104 178 0 112 169 0 120 160 0 128 151 0 137 143 0 145 134 0 153 126 1 161 116 0 169 107 0 178 99 0 187 90 0 194 81 0 203 73 0 211 64 0 219 55 0 227 46 0 236 38 0 244 29 0 253 20 0 6 11 0 14 3 0 21 249 0 28 241 0 38 233 0 46 224 0 54 215 0 62 207 0 71 199 0 79 189 0 87 180 0 94 171 0 104 164 0 113 154 1 120 145 0 128 137 0 137 128 0 145 119 0 154 111 1 161 102 0 170 93 0 179 85 1 186 75 0 194 66 0 203 58 0 211 49 0 219 40 0 228 31 1 237 24 1 244 14 0 252 5 0 252 6 0 12 251 1 19 242 0 27 234 0 35 225 0 44 216 0 52 208 0 60 198 0 68 190 0 77 181 0 85 172 0 93 163 0 103 156 1 110 146 0 117 136 0 126 128 0 134 119 0 144 112 1 151 102 0 159 93 0 168 84 0 176 76 0 185 68 1 192 58 0 202 49 0 208 40 0 217 32 0 225 23 0 234 14 0 242 7 1 251 253 0 13 4 0 4 236 0 12 227 0 21 218 1 29 210 0 37 201 0 45 192 0 53 183 0 62 175 0 70 166 0 78 157 0 87 149 1 95 140 0 103 131 0 111 122 0 119 113 0 128 105 0 136 97 0 144 87 0 152 78 0 161 70 0 169 61 0 177 52 0 185 44 1 194 35 0 202 26 0 209 16 0 218 8 0 227 0 0 237 249 0 245 240 0 254 232 0 4 221 0 11 212 0 21 205 0 28 195 0 37 186 0 45 177 0 52 168 0 61 160 0 70 151 0 78 142 0 86 134 0 94 125 0 103 116 0 111 107 0 119 99 0 127 90 0 136 81 0 144 72 0 152 63 0 159 54 0 169 46 0 177 37 0 185 28 0 193 20 0 202 11 0 210 2 0 223 252 187 240 244 188 2 238 188 19 246 187 36 254 188 2 206 0 10 197 0 19 189 1 26 179 0 34 170 0 43 162 0 51 153 0 59 144 0 68 136 0 76 127 0 84 118 0 92 109 0 100 100 0 109 92 0 117 83 0 125 74 0 134 66 0 142 57 0 149 47 0 158 39 0 167 30 0 174 22 0 183 13 0 191 4 0 202 253 0 209 243 0 218 235 0 226 226 0 234 217 0 241 207 0 251 199 0 2 191 0 10 182 0 19 173 0 27 165 0 35 156 0 43 147 0 52 138 0 60 130 0 68 121 0 76 113 0 85 103 0 93 95 0 101 86 0 109 77 0 118 68 0 126 60 0 133 50 0 141 42 0 151 33 0 159 25 0 167 16 0 175 7 0 184 0 0 194 247 0 202 239 0 209 229 0 218 220 0 227 212 0 236 205 0 243 195 0 252 186 0 1 175 0 11 168 1 18 159 0 27 149 0 35 141 0 43 132 0 52 123 0 59 114 0 67 105 0 76 97 0 85 88 0 93 80 0 101 71 0 109 62 0 117 52 0 126 45 0 134 36 0 141 27 0 151 18 0 160 11 1 167 1 0 166 4 0 176 253 0 185 243 0 193 234 0 201 226 0 209 217 0 218 208 0 226 199 0 234 191 0 242 183 0 251 173 0 1 164 0 9 156 0 18 147 0 26 138 0 34 129 0 42 121 0 52 112 0 59 103 0 67 94 0 75 86 0 84 77 0 91 67 0 100 59 0 109 52 1 116 41 0 107 205 0 115 196 0 124 187 0 131 179 0 140 171 0 148 161 0 157 152 0 165 144 0 172 134 0 181 126 0 189 118 0 198 109 0 206 100 0 213 90 0 222 83 0 230 74 0 239 65 0 247 57 0 0 48 0 9 39 0 16 29 0 25 22 0 34 13 0 42 4 0 48 253 0 57 243 0 65 235 0 72 226 0 81 217 0 90 208 0 99 201 1 106 191 0 114 182 0 122 174 0 131 165 0 139 156 0 147 147 0 155 138 0 163 130 0 172 121 0 180 112 0 188 104 0 196 95 1 205 86 0 213 78 0 221 70 1 229 60 0 237 52 0 246 43 0 254 34 0 7 25 0 14 15 0 22 7 0 15 10 0 37 254 0 46 246 1 54 237 1 61 228 0 70 219 0 78 210 0 86 201 0 95 193 0 102 184 0 112 175 0 119 167 0 127 158 0 136 149 0 144 140 0 152 132 0 160 123 0 169 114 0 177 106 0 185 97 0 193 88 0 201 79 0 210 71 0 218 62 0 226 52 0 234 45 0 243 37 1 250 26 0 238 2 0 5 11 0 13 2 0 21 249 0 29 240 0 37 231 0 45 224 0 54 214 0 63 205 1 70 197 0 78 188 0 87 179 0 95 170 0 103 162 0 111 153 0 119 144 0 128 135 0 136 127 0 144 118 0 152 109 0 161 102 1 169 92 0 177 83 0 185 74 0 193 66 0 201 57 0 210 48 0 217 40 0 226 31 0 234 22 0 243 13 0 251 5 0 3 253 0 12 245 0 20 236 1 28 226 0 36 217 0 44 209 0 53 201 0 61 192 0 70 183 0 77 174 0 85 165 0 93 157 0 102 148 0 110 139 0 119 131 1 126 122 0 134 113 0 144 104 0 150 96 0 160 88 1 168 79 1 177 71 1 184 61 0 192 52 0 200 43 0 207 35 0 217 26 0 224 16 0 233 7 0 241 0 0 3 254 188 1 239 1 9 231 0 16 221 0 25 212 0 33 203 0 41 196 0 49 186 0 57 177 0 66 169 0 74 160 0 82 151 0 90 142 0 98 134 0 107 125 0 115 116 0 123 108 0 131 99 0 140 90 0 148 81 0 156 73 0 164 64 0 172 55 0 181 47 0 188 38 0 197 29 0 205 20 0 213 12 0 222 3 0 231 250 0 240 242 0 248 233 0 31 1 0 7 217 0 16 207 0 24 199 0 31 190 0 40 181 0 49 172 0 57 164 0 65 155 0 73 146 0 81 138 0 90 130 1 98 120 0 106 111 0 114 103 0 122 94 0 132 86 1 139 77 0 147 68 0 155 59 0 165 51 1 172 42 0 180 33 0 189 24 0 196 16 0 204 7 0 214 1 0 223 247 0 231 239 0 239 230 0 248 221 0 44 1 0 6 202 0 14 194 0 23 185 0 31 176 0 39 168 0 48 160 1 56 151 1 64 141 0 72 133 0 80 124 0 88 115 0 97 106 0 105 98 0 113 89 0 121 80 0 129 73 0 137 63 0 146 54 0 154 45 0 163 38 1 171 28 0 179 19 0 187 11 0 195 2 0 194 6 1 204 253 0 213 244 0 221 235 0 229 227 0 238 218 0 246 209 0 254 202 0 4 192 0 12 183 0 21 175 0 29 166 0 37 158 0 45 148 0 53 139 0 62 131 0 69 121 0 78 113 0 86 105 0 95 97 0 103 87 0 111 79 0 119 70 0 127 61 0 127 214 0 135 206 0 143 197 0 152 188 0 160 180 0 168 171 0 176 162 0 184 153 0 194 146 1 201 136 0 209 127 0 218 120 1 226 111 1 233 101 0 242 93 0 250 84 0 3 75 0 12 68 1 20 57 0 28 49 0 36 41 0 44 32 0 52 23 0 61 15 0 69 6 0 76 254 0 84 245 0 92 237 1 100 228 0 109 219 1 117 210 0 126 203 1 133 193 0 140 184 0 149 176 0 157 167 0 166 158 0 174 150 0 182 141 0 190 132 0 199 125 1 206 115 0 215 106 0 224 98 1 231 89 0 239 80 0 248 73 1 0 61 0 8 54 0 17 45 0 25 36 0 33 28 0 41 19 0 49 10 0 58 2 0 59 2 0 71 248 0 79 239 0 88 232 0 97 223 1 104 213 0 112 205 0 120 196 0 130 187 1 137 179 0 146 171 1 153 161 0 161 152 0 169 145 0 177 134 0 186 126 0 194 118 0 203 110 1 210 100 0 218 92 0 227 83 0 235 74 0 243 67 0 251 58 1 209 4 0 5 41 0 14 32 0 21 23 0 30 15 0 38 6 0 46 253 0 54 244 0 62 235 0 70 227 0 78 217 0 87 209 0 95 201 0 103 192 0 111 182 0 119 175 0 129 166 1 136 157 0 144 149 0 152 140 0 160 131 0 168 123 0 177 114 0 184 105 0 194 97 0 201 88 0 209 79 0 217 71 0 226 61 0 235 53 0 242 45 0 250 36 0 5 28 1 12 19 0 20 10 0 28 1 0 35 249 0 43 240 0 52 232 0 60 223 0 68 214 0 76 206 0 84 197 0 92 188 0 101 181 1 110 172 0 117 162 0 125 154 0 132 144 0 141 136 0 151 129 1 157 118 0 166 110 0 174 102 0 182 93 0 191 84 0 199 75 0 207 67 0 215 58 0 223 49 0 231 41 0 240 32 0 248 23 0 1 14 0 9 6 0 15 254 0 23 245 0 31 236 0 38 227 0 47 219 0 54 209 0 65 202 1 72 193 0 80 184 0 88 175 0 96 167 0 105 159 1 113 150 0 121 141 0 128 131 0 137 123 0 145 114 0 154 107 0 162 97 0 171 89 0 178 80 0 186 71 0 194 62 0 204 54 0 211 45 0 219 36 0 227 28 0 235 18 0 244 10 0 253 2 0 5 250 0 13 241 0 21 232 0 29 224 0 37 215 0 46 207 1 54 198 0 62 189 0 70 181 1 78 172 0 86 163 0 95 154 0 104 146 1 111 137 0 118 127 0 127 120 0 134 110 0 144 102 0 152 93 0 160 85 0 168 76 0 176 67 0 185 59 0 193 50 0 202 41 0 209 33 0 217 24 0 224 14 0 234 7 0 243 2 1 252 247 0 2 238 0 9 229 0 19 220 0 28 212 0 35 202 0 43 194 0 51 184 0 59 176 0 68 168 0 76 159 0 85 150 0 92 142 0 100 133 0 110 124 1 117 116 0 125 107 0 133 98 0 141 90 0 149 81 0 158 72 0 166 64 0 175 55 0 183 46 0 190 38 0 198 29 0 207 20 0 215 12 0 223 3 0 220 5 0 232 254 0 240 245 0 249 237 0 31 3 0 7 218 0 14 211 0 23 202 0 32 194 0 40 185 0 48 176 0 56 167 0 65 160 1 72 150 0 81 140 0 90 134 1 97 124 0 106 116 0 113 107 0 122 98 0 131 90 0 138 81 0 147 224 0 155 215 0 164 207 1 171 199 0 179 189 0 188 180 0 196 172 0 205 164 0 212 153 0 220 146 0 228 137 0 236 129 0 245 120 0 253 111 0 6 103 0 14 94 0 22 85 0 30 76 0 39 68 0 47 59 0 55 51 0 63 42 0 71 34 0 79 25 0 87 15 0 96 8 0 100 1 0 112 248 1 119 238 0 127 231 0 135 221 0 143 212 0 150 204 0 160 195 0 168 186 0 176 178 0 184 169 0 192 160 0 200 152 0 208 143 0 217 134 0 225 126 0 233 117 0 241 109 0 249 100 0 3 91 1 11 83 0 18 74 0 26 65 0 35 56 0 43 48 0 51 39 0 58 29 0 67 22 0 75 13 0 83 5 0 79 5 0 97 251 0 105 242 0 112 234 0 121 225 0 130 216 0 138 207 0 146 199 0 154 190 0 162 182 0 170 173 0 179 163 0 187 156 0 195 147 0 203 139 0 211 130 0 218 120 0 227 113 0 236 104 0 245 95 0 253 87 1 180 4 0 6 71 0 14 62 0 22 53 0 30 45 0 38 36 0 46 27 0 55 19 0 64 11 1 71 2 0 79 248 0 86 239 0 95 231 0 103 222 0 111 214 0 119 205 0 128 196 1 136 188 0 144 179 0 153 171 1 159 161 0 168 153 0 176 145 0 185 136 0 193 127 0 201 119 0 208 110 0 217 101 0 225 93 0 233 84 0 242 75 0 250 67 0 3 58 0 11 49 0 19 41 0 28 32 0 36 24 0 44 15 0 53 6 0 59 254 0 67 246 0 75 237 0 83 228 0 91 220 0 100 211 0 108 202 0 116 194 0 123 184 0 132 176 0 140 168 0 148 159 0 157 150 0 165 142 0 173 133 0 182 125 0 189 116 0 197 107 0 205 100 0 214 90 0 221 80 0 230 73 0 239 65 1 246 55 0 254 47 0 7 38 0 15 29 0 23 20 0 32 12 0 40 3 0 45 250 0 53 242 0 62 234 0 70 226 0 78 216 0 86 207 0 94 199 0 102 190 0 110 182 0 119 173 0 127 165 0 135 156 0 144 147 0 151 139 0 160 130 0 167 121 0 175 112 0 185 105 0 192 95 0 200 87 0 208 78 0 217 70 1 224 61 0 233 52 0 241 44 0 248 35 0 2 28 0 11 20 1 19 10 0 27 2 0 34 248 0 42 240 0 51 231 0 59 224 0 67 214 0 75 205 0 83 197 0 91 188 0 99 179 0 108 171 0 116 162 0 123 152 0 132 145 0 140 136 0 148 128 0 156 119 0 165 110 0 173 102 0 181 92 0 189 85 0 197 76 0 205 67 0 213 58 0 222 50 0 230 41 0 238 32 0 245 23 0 254 14 0 8 6 0 14 254 0 23 246 0 31 237 0 39 229 0 47 220 0 55 211 0 64 204 0 71 193 0 80 185 0 88 177 0 96 167 0 104 159 0 112 151 0 120 142 0 128 133 0 137 125 0 145 117 0 153 108 0 161 99 0 168 89 0 178 83 1 185 73 0 195 65 1 202 56 0 210 47 0 218 38 0 226 30 0 234 21 0 242 12 0 251 5 1 247 6 0 2 0 0 10 247 0 18 238 0 26 229 0 35 221 0 43 213 0 51 203 0 59 195 0 67 186 0 75 177 0 83 169 0 92 160 0 100 152 0 108 143 0 116 134 0 124 126 0 132 117 0 140 108 0 150 100 1 166 233 0 174 224 0 184 217 1 190 207 0 199 199 0 207 190 0 215 181 0 224 174 1 232 164 1 239 156 0 247 147 1 1 138 0 9 130 0 18 122 1 25 112 0 32 104 0 41 95 0 49 87 0 58 78 0 66 69 0 74 61 0 82 52 0 90 44 0 98 35 0 107 26 0 114 18 0 122 9 0 131 1 0 137 248 0 146 241 1 154 231 0 161 222 0 170 214 0 177 205 0 186 196 0 194 188 0 202 180 0 210 171 0 218 163 0 228 154 0 235 145 0 243 137 0 251 128 0 4 119 0 12 111 0 20 102 0 28 93 1 36 85 0 44 76 0 52 68 0 60 59 0 68 49 0 77 42 0 86 34 1 93 25 0 101 17 1 109 7 0 101 10 0 123 254 0 131 245 0 139 236 0 147 228 0 156 219 1 163 211 0 171 202 0 179 193 0 188 185 0 196 176 0 204 168 0 212 159 0 220 150 0 228 141 0 236 133 0 244 125 0 252 116 0 150 4 0 5 99 0 15 92 0 23 83 0 30 73 0 39 66 0 47 57 0 56 50 1 63 40 0 71 31 0 79 23 0 87 14 0 96 6 0 103 252 0 111 244 0 119 235 0 127 226 0 135 217 0 144 209 0 152 202 0 160 192 0 168 183 0 176 175 0 184 166 0 192 158 0 199 148 0 210 141 1 217 132 0 225 123 0 233 115 0 241 106 0 249 97 0 3 89 0 11 80 0 19 72 0 27 63 0 35 54 0 43 46 0 51 37 0 59 29 0 67 20 0 76 11 0 85 3 0 90 250 0 99 242 0 107 233 0 115 225 0 124 217 1 131 208 0 140 200 1 147 190 0 155 182 0 163 173 0 171 165 0 180 156 0 189 147 0 195 139 0 204 130 0 212 122 0 220 113 0 228 104 0 236 96 0 244 87 0 253 79 0 5 69 0 13 61 0 22 52 0 30 44 0 37 35 0 46 27 0 55 19 1 62 9 0 70 1 0 76 249 0 84 240 0 92 231 0 100 223 0 109 215 1 116 206 0 124 197 0 133 188 0 140 179 0 149 171 0 157 163 0 165 153 0 173 145 0 182 137 0 189 128 0 197 120 0 205 111 0 214 102 0 222 94 0 230 85 0 238 77 0 246 68 0 254 59 0 8 52 0 15 43 0 24 35 0 31 25 0 40 18 0 48 9 0 56 1 0 64 247 0 72 239 0 80 231 0 88 221 0 96 212 0 104 204 0 112 196 0 120 187 0 130 178 0 137 170 0 145 161 0 153 153 0 161 145 1 169 135 0 177 127 0 184 118 0 193 110 0 201 100 0 211 93 1 217 84 0 226 75 0 234 67 0 242 58 0 249 49 0 4 41 0 11 31 0 20 24 0 28 15 0 36 6 0 43 254 0 51 246 0 59 237 0 67 228 0 76 221 1 83 211 0 92 203 0 99 193 0 108 184 0 116 177 0 124 168 0 132 160 0 140 151 0 148 141 0 156 134 0 165 125 0 173 117 0 181 108 0 188 99 0 197 91 0 205 83 1 213 74 0 221 65 0 229 55 0 237 48 0 246 39 0 254 31 0 7 22 0 15 13 0 23 4 0 15 7 0 28 1 0 37 247 0 45 239 0 54 230 0 61 221 0 70 213 0 77 204 0 86 196 0 93 186 0 101 178 0 110 170 0 118 162 0 127 153 0 135 144 0 143 136 0 151 127 0 159 119 0 186 242 0 195 235 1 202 226 0 210 216 0 218 208 0 226 199 0 234 191 0 242 182 0 250 174 0 4 165 0 12 157 0 20 148 0 28 139 0 36 131 0 44 122 0 51 113 0 60 105 0 68 97 0 76 88 0 84 78 0 92 71 0 100 62 0 110 55 1 117 45 0 125 37 0 133 28 0 141 19 0 149 11 0 157 2 0 165 250 1 172 242 0 180 233 0 189 225 0 196 216 0 204 208 0 212 199 0 220 190 0 229 183 0 236 173 0 245 166 1 254 156 0 5 146 0 13 139 0 21 130 0 31 122 1 38 113 0 46 104 0 54 96 0 62 87 0 70 79 0 78 70 0 87 62 1 94 53 0 102 44 0 110 36 0 119 27 0 127 19 0 135 10 0 143 2 0 145 2 0 156 248 0 164 239 0 172 231 0 180 222 0 188 214 0 198 206 1 205 198 1 213 188 0 221 179 0 230 172 0 237 162 0 245 153 0 253 145 0 121 5 0 7 129 0 16 122 1 23 112 0 31 104 0 39 95 0 47 87 0 55 78 0 63 69 0 71 61 0 80 52 0 88 44 0 96 35 0 104 27 0 112 18 0 121 11 1 127 0 0 136 248 0 144 239 0 152 230 0 160 222 0 168 213 0 176 205 0 184 196 0 192 188 0 200 178 0 208 172 0 216 162 0 224 153 0 232 145 0 240 136 0 249 128 0 2 119 0 10 111 0 17 101 0 26 93 0 34 85 0 42 76 0 50 68 0 58 59 0 67 51 0 75 42 0 84 35 1 91 25 0 99 16 0 107 7 0 112 1 0 122 247 1 131 240 0 138 230 0 146 222 0 154 213 1 161 204 0 170 196 0 178 187 0 187 179 0 194 170 0 202 162 0 211 153 0 219 144 0 227 136 0 235 127 0 243 119 0 250 110 0 4 101 0 13 94 1 20 84 0 28 75 0 36 67 0 44 58 0 52 50 0 60 41 0 68 34 0 76 24 0 84 16 0 92 7 0 98 0 0 106 246 0 114 238 0 122 229 0 130 221 0 138 212 0 145 202 0 155 195 0 163 186 0 171 178 0 179 169 0 187 161 0 194 151 0 203 143 0 211 135 0 219 126 0 227 118 0 235 109 0 242 100 0 251 92 0 5 85 0 13 76 0 20 67 0 29 59 0 37 51 0 45 42 0 53 34 0 61 25 0 69 16 0 77 8 0 85 0 0 93 246 0 101 237 0 108 229 0 117 220 0 125 212 0 133 204 1 141 196 1 149 186 0 158 178 0 166 169 0 174 160 0 182 152 0 191 144 1 198 135 0 206 126 0 214 118 0 221 109 0 230 100 0 239 93 1 246 83 0 255 76 1 8 66 0 16 58 0 24 49 0 32 40 0 40 32 0 48 23 0 56 15 0 64 6 0 71 254 0 79 246 0 87 237 0 94 228 0 103 219 0 111 211 0 119 203 0 129 195 1 135 186 0 144 177 0 152 169 0 161 161 1 167 150 0 176 144 1 184 134 0 192 126 0 200 117 0 207 109 0 217 100 1 224 91 0 233 83 0 241 74 0 249 67 0 1 57 0 9 48 0 18 40 0 27 32 1 35 22 1 42 14 0 50 5 0 43 8 0 55 2 0 64 249 0 72 240 0 81 232 0 89 223 0 97 214 0 106 206 0 113 197 0 121 189 0 129 180 0 137 172 0 145 163 0 153 154 0 160 146 0 169 137 0 205 250 0 213 243 0 221 234 0 229 226 0 237 217 0 245 208 0 253 200 0 6 192 0 14 183 0 23 175 1 30 166 0 39 157 0 47 149 0 55 140 0 63 131 0 72 124 1 79 116 0 87 106 0 94 97 0 103 89 0 111 81 0 119 72 0 127 64 0 135 55 0 144 47 0 151 38 0 160 31 1 167 21 0 175 13 0 183 4 0 190 252 0 198 242 0 206 235 0 214 226 0 222 217 0 230 209 0 238 201 0 246 192 0 254 184 0 7 174 0 15 166 0 23 158 0 30 149 0 39 141 0 47 132 0 55 124 0 63 115 0 71 107 0 80 99 1 87 90 0 95 81 0 103 73 0 113 65 1 120 55 0 127 46 0 136 38 0 144 30 0 152 21 0 160 13 0 168 5 1 165 6 0 181 250 0 189 242 0 197 234 0 205 225 0 213 218 0 221 208 0 230 200 0 239 191 1 246 183 0 253 173 0 93 5 0 7 158 0 15 150 0 23 141 0 33 134 1 40 124 0 49 117 1 56 107 0 64 99 0 72 90 0 79 81 0 88 72 0 96 65 0 104 56 0 112 48 0 120 39 0 128 30 0 136 22 0 144 13 0 152 5 0 160 252 0 167 242 0 175 235 0 184 226 0 191 217 0 200 209 0 208 201 1 216 192 0 224 183 0 232 174 0 240 166 0 248 158 0 0 148 0 9 141 0 18 133 1 24 123 0 34 115 0 42 107 0 50 98 0 59 91 1 66 81 0 74 73 0 82 64 0 89 54 0 98 47 0 107 39 1 114 31 0 122 21 0 130 13 0 139 5 1 144 252 0 152 243 0 161 235 0 169 227 0 177 218 0 185 210 0 193 201 0 201 193 0 209 184 0 217 176 0 225 167 0 233 158 0 241 150 0 249 141 0 2 132 0 10 124 0 18 115 0 26 108 0 34 98 0 42 90 0 50 81 0 58 73 0 66 64 0 74 56 0 82 47 0 90 39 0 98 31 1 106 22 0 115 13 0 123 5 0 128 253 0 136 244 0 144 235 0 152 227 0 160 218 0 167 210 0 176 201 0 184 193 0 192 184 0 199 175 0 208 167 0 216 159 0 224 149 0 233 141 0 241 133 0 249 125 0 2 117 0 10 109 0 18 100 0 26 92 0 34 83 0 42 75 0 50 66 0 58 58 0 66 49 0 73 41 0 82 32 0 90 24 0 97 14 0 107 8 0 114 253 0 122 245 0 130 236 0 138 228 0 146 219 0 154 211 0 162 202 0 170 193 0 178 185 0 186 177 0 194 168 0 201 159 0 210 150 0 218 142 0 226 134 0 234 125 0 242 117 0 250 109 0 5 100 1 12 91 0 21 83 0 29 75 1 37 67 0 44 57 0 52 49 0 60 40 0 68 32 0 77 23 1 84 15 0 92 7 1 99 254 0 108 247 1 115 237 0 123 228 0 131 220 0 139 211 0 147 203 0 155 194 0 163 186 0 171 177 0 179 169 0 187 161 1 195 152 0 204 144 1 211 135 0 220 126 0 228 118 0 236 109 0 244 101 0 252 92 0 4 83 0 12 75 0 20 66 0 29 57 0 38 50 1 46 41 1 53 32 0 61 23 0 70 16 1 77 6 0 69 8 0 81 2 0 91 250 0 99 240 0 107 233 0 115 224 0 123 216 0 131 207 0 139 199 0 147 190 0 156 182 0 164 173 0 172 165 0 180 156 0 223 4 0 232 253 0 240 243 0 248 236 0 1 226 0 8 217 0 16 208 0 24 201 0 33 192 0 41 184 0 49 175 0 58 167 0 65 158 0 73 150 0 81 142 0 89 133 0 96 125 0 105 116 0 113 108 0 121 99 0 129 91 0 137 82 0 145 74 0 153 65 0 161 57 0 169 48 0 177 40 0 186 32 1 193 23 0 201 14 0 209 6 0 217 255 1 224 245 0 232 237 0 240 228 0 248 220 1 1 211 0 10 202 1 17 194 0 24 184 0 33 177 0 41 167 0 49 160 0 57 151 0 65 143 0 72 133 0 81 126 0 89 116 0 97 109 0 106 100 1 113 92 0 121 83 0 129 75 0 137 66 0 145 58 0 153 50 0 161 42 1 169 33 0 177 24 0 185 16 0 193 7 0 185 10 0 206 254 0 214 245 0 222 237 0 230 228 0 239 220 0 246 211 0 254 203 0 0 196 0 8 186 0 16 179 0 24 170 0 32 162 0 40 153 0 47 145 0 56 136 0 64 128 0 72 119 0 80 111 0 88 102 0 96 94 0 104 85 0 112 77 0 120 68 0 128 60 0 136 51 0 144 43 0 152 34 0 159 25 0 167 17 0 176 9 0 185 0 0 191 247 0 199 239 0 207 230 0 215 222 0 223 212 0 231 205 0 239 196 0 246 188 0 2 180 1 9 171 0 17 162 0 25 154 0 33 145 0 41 137 0 49 128 0 57 120 0 65 111 0 73 103 0 81 94 0 88 85 0 97 78 1 105 69 0 113 60 0 121 52 0 128 42 0 137 35 0 145 26 0 153 18 0 161 10 1 169 1 0 176 249 0 185 240 1 192 233 0 200 223 0 207 215 0 217 207 1 224 199 0 232 189 0 239 180 0 248 172 0 0 164 0 8 155 0 16 147 0 23 137 0 33 131 1 40 121 0 48 113 0 56 104 0 63 95 0 72 86 0 79 78 0 88 70 0 96 62 0 104 53 0 112 45 0 120 36 0 128 28 0 136 19 0 144 11 0 152 2 0 158 250 0 166 242 0 175 234 0 182 225 0 190 216 0 199 208 1 206 199 0 214 191 0 222 183 0 230 174 0 238 165 0 246 157 0 254 148 0 8 141 1 15 133 0 24 125 1 31 116 0 39 108 0 47 99 0 55 90 0 63 82 0 71 73 0 79 65 0 86 55 0 95 48 0 103 39 0 110 30 0 119 22 0 127 14 0 135 5 0 143 252 0 151 244 0 159 235 0 167 227 0 175 218 0 183 210 0 191 202 0 199 194 0 206 183 0 215 176 0 223 167 0 231 159 0 239 150 0 247 142 0 0 132 0 8 125 0 16 116 0 24 108 0 33 100 1 41 91 1 49 83 1 56 74 0 63 64 0 72 57 0 80 48 0 88 40 0 96 31 0 103 22 0 112 14 0 120 6 0 127 254 0 135 246 0 144 237 0 151 229 1 159 220 0 167 211 0 175 203 0 183 194 0 191 186 0 199 177 0 207 169 0 215 160 0 223 152 0 231 144 0 239 135 0 247 127 0 136 0 0 7 109 0 15 101 0 23 92 0 31 84 0 39 75 0 47 67 0 55 58 0 63 50 0 71 41 0 79 33 0 88 25 1 95 16 0 103 7 0 96 8 0 109 3 0 118 250 0 126 242 0 133 234 0 142 225 0 150 217 0 158 208 0 166 200 0 174 190 0 182 182 0 190 174 0 243 14 0 251 6 0 4 253 0 12 244 0 21 237 0 28 227 0 36 219 0 44 210 0 52 202 0 60 194 0 68 185 0 76 176 0 84 168 0 92 159 0 100 151 0 108 143 0 115 134 0 123 126 0 130 117 0 139 110 0 147 99 0 156 92 0 163 83 0 172 76 1 179 66 0 187 58 0 195 50 0 203 41 0 211 32 0 219 24 0 227 16 0 236 8 1 240 1 0 249 247 0 2 238 0 10 230 0 18 221 0 26 213 0 34 204 0 42 196 0 51 187 1 58 179 0 66 170 0 75 163 1 82 153 0 90 145 0 98 137 0 105 127 0 114 120 0 122 111 0 130 103 0 138 94 0 146 86 0 155 78 1 162 69 0 170 61 0 178 52 0 186 44 0 194 35 0 202 27 0 210 18 0 217 10 0 226 1 0 228 2 0 239 248 0 246 239 0 23 0 0 0 224 0 8 216 0 17 208 1 24 199 0 32 190 0 40 183 0 48 173 0 56 165 0 64 156 0 72 148 0 80 139 0 89 131 1 96 123 0 104 113 0 112 107 0 120 97 0 127 88 0 136 80 0 145 73 1 152 63 0 160 54 0 167 46 0 176 38 0 184 30 0 193 22 1 200 13 0 207 3 0 215 251 0 223 242 0 231 234 0 239 226 0 247 218 0 1 209 1 9 201 1 17 193 1 24 182 0 32 175 0 40 166 0 48 158 0 56 150 0 64 141 0 71 132 0 80 124 0 88 116 0 96 107 0 104 99 0 113 90 1 120 82 0 128 73 0 136 65 0 144 57 0 152 48 0 160 40 0 167 31 0 175 22 0 184 14 0 191 6 0 199 255 0 206 246 0 214 237 0 222 229 0 230 220 0 238 212 0 246 203 0 254 195 0 7 186 0 15 177 0 22 169 0 30 160 0 38 152 0 45 144 0 53 134 0 62 127 0 70 119 0 78 111 0 87 101 0 94 93 0 102 84 0 109 75 0 118 67 0 126 59 0 134 52 0 142 42 0 150 34 0 157 24 0 166 18 0 174 8 0 183 0 0 187 248 1 195 239 0 203 231 0 212 222 0 219 214 0 227 206 0 236 197 0 243 189 0 250 180 0 5 174 0 12 165 0 20 156 0 29 149 1 36 139 0 44 131 0 51 121 0 60 114 0 68 106 0 77 97 1 84 89 0 92 80 0 100 72 0 108 63 0 116 55 0 124 46 0 132 38 0 140 29 0 148 21 0 156 13 0 163 4 0 172 251 1 179 242 0 187 234 0 195 226 0 203 217 0 212 210 1 219 200 0 228 193 0 235 183 0 243 175 0 250 166 0 4 158 0 12 149 0 20 141 0 28 133 0 36 123 0 44 116 0 52 107 0 60 99 0 68 90 0 76 82 0 84 73 0 92 65 0 100 56 0 108 48 0 116 40 0 124 31 1 131 23 0 139 14 0 146 6 0 153 253 0 162 246 0 170 237 0 178 228 0 187 220 0 194 211 0 202 204 1 210 195 0 218 186 0 227 179 1 235 170 1 242 161 0 249 152 0 2 143 0 10 135 0 18 127 0 26 118 0 34 110 0 42 101 0 50 93 0 57 83 0 66 76 0 73 66 0 82 59 0 90 50 0 98 42 0 106 34 0 114 25 0 122 17 0 130 8 0 138 0 0 132 3 0 143 252 0 152 243 0 159 234 0 168 227 0 176 218 1 184 210 0 193 202 1 200 193 0 5 22 0 13 13 0 21 5 0 30 254 0 38 245 0 46 236 0 54 228 0 62 219 0 70 211 0 78 203 0 87 194 1 94 186 0 102 177 0 110 169 0 118 160 0 126 152 0 133 143 0 142 136 1 150 127 0 156 117 0 165 110 0 172 101 0 180 92 0 188 84 0 198 77 1 205 68 0 213 59 1 222 52 1 229 43 0 237 34 0 245 26 0 253 16 0 2 8 0 11 1 0 20 248 0 28 240 0 36 231 0 44 223 0 52 215 0 60 206 0 67 198 0 74 188 0 83 181 0 91 171 0 99 164 0 107 156 0 115 147 0 123 139 0 131 130 0 139 122 0 147 114 0 155 105 0 163 97 0 171 88 0 180 81 1 186 71 0 194 63 0 202 55 0 210 46 0 217 38 0 226 29 0 235 22 0 242 12 0 249 3 0 246 6 0 1 253 0 9 244 0 17 236 0 25 228 0 33 217 0 41 210 0 48 201 0 57 193 0 64 185 0 72 176 0 80 168 0 88 160 0 96 151 0 104 143 0 111 133 0 120 126 0 128 117 0 135 109 0 144 101 0 152 92 0 160 84 0 167 74 0 176 67 0 182 58 0 190 50 0 199 42 0 207 33 0 215 25 0 223 16 0 231 8 0 239 0 0 246 246 0 0 238 0 9 231 0 17 222 1 23 213 0 31 205 0 39 196 0 47 188 0 56 180 1 63 171 0 72 163 1 79 154 0 87 145 0 95 137 0 103 129 0 111 120 0 119 112 0 127 103 0 135 95 0 141 87 0 150 78 0 157 69 0 166 61 0 174 53 0 182 44 0 190 36 0 197 27 0 206 19 0 214 11 0 222 2 0 229 250 0 236 242 0 244 234 0 253 226 1 5 216 0 13 208 0 21 200 0 29 190 0 36 182 0 45 174 0 53 166 1 60 157 0 69 150 1 76 141 0 83 131 0 92 124 0 100 115 0 108 107 0 116 99 0 124 90 0 132 83 0 140 73 0 148 65 0 156 56 0 164 48 0 171 40 0 179 31 0 187 23 0 195 14 0 203 6 0 209 254 0 217 245 0 224 237 0 232 229 0 240 220 0 249 213 1 1 205 0 9 196 0 17 188 0 26 181 1 33 171 0 41 163 0 49 154 0 57 146 0 65 137 0 72 129 0 81 121 0 89 112 0 97 104 0 105 95 0 113 87 0 120 79 1 128 70 0 136 62 0 145 54 0 152 45 0 160 36 0 168 28 0 176 20 0 184 11 0 192 3 0 199 250 0 208 242 1 216 234 1 223 224 0 231 216 0 238 207 0 247 199 0 0 191 0 9 183 1 16 174 0 24 165 0 32 157 0 39 148 0 48 140 0 55 131 0 64 123 0 73 116 0 79 107 0 87 98 0 95 90 1 103 81 0 111 73 0 119 64 0 127 56 0 135 48 0 143 39 0 151 31 0 159 22 0 167 14 0 174 6 0 181 254 0 189 246 0 198 238 1 204 228 0 213 220 0 220 212 0 229 203 0 237 195 0 245 186 0 253 178 0 5 168 0 13 161 0 21 152 0 29 144 0 38 135 0 45 127 0 54 120 1 61 110 0 70 103 1 77 93 0 85 85 0 93 76 0 101 68 0 109 61 1 116 51 0 124 43 0 132 34 0 140 26 0 148 17 0 156 10 1 164 1 0 159 4 0 170 253 0 178 245 0 186 236 0 194 228 0 202 219 0 210 211 0 24 30 0 32 22 0 40 14 0 47 5 0 57 254 0 65 245 0 73 237 0 81 229 1 88 220 0 96 212 0 104 203 0 112 195 0 120 187 1 128 178 0 136 170 0 144 161 0 152 153 0 160 145 0 167 136 0 175 128 0 183 119 0 190 110 0 199 103 0 207 94 0 216 87 1 223 78 0 232 70 0 239 61 0 246 52 0 254 44 0 4 36 0 12 27 0 20 19 0 28 11 0 36 2 0 44 249 0 53 240 0 60 233 0 68 225 0 77 216 0 85 208 0 93 200 0 100 191 0 108 183 0 116 174 0 124 166 0 132 158 0 140 149 0 148 141 0 156 133 0 164 124 0 172 116 0 179 107 0 187 99 0 196 91 0 203 82 0 211 74 0 219 66 1 227 57 0 235 49 0 243 40 0 251 32 0 233 3 0 3 17 0 11 9 0 19 0 0 24 0 0 33 247 0 42 239 1 49 230 0 57 221 0 65 213 0 73 205 0 81 196 0 88 188 0 97 181 0 104 171 0 112 163 0 120 154 0 128 146 0 135 137 0 144 129 0 152 121 0 160 112 0 167 104 0 174 96 0 182 87 0 191 79 0 198 71 0 207 62 0 216 54 0 223 45 0 231 37 0 240 29 0 246 20 0 254 12 0 6 2 0 15 250 0 23 241 0 31 234 0 39 225 0 47 217 0 53 207 0 62 200 0 70 192 0 78 183 0 86 175 0 94 167 0 101 157 0 110 150 0 119 142 1 126 132 0 133 125 0 141 117 0 149 108 0 156 98 0 165 91 0 173 82 0 181 74 0 189 66 0 197 58 0 205 50 1 213 42 1 220 32 0 228 24 0 236 16 0 244 7 0 250 0 0 3 247 0 11 239 0 20 231 1 26 220 0 35 213 0 44 205 1 51 195 0 57 188 0 66 180 0 74 171 0 82 163 0 89 153 0 98 146 0 106 138 0 114 129 0 122 121 0 131 113 0 137 104 0 146 97 1 153 87 0 161 79 0 169 71 0 177 62 0 185 54 0 193 45 0 201 37 0 209 30 1 217 20 0 224 12 0 232 4 0 238 252 0 247 243 1 253 235 0 7 229 0 14 219 0 22 211 0 30 203 0 39 194 1 46 186 0 54 178 0 63 170 1 70 161 0 78 152 0 86 144 0 93 136 0 101 127 0 109 119 0 117 111 0 125 102 0 133 94 0 141 85 0 149 77 0 158 70 1 166 60 0 172 52 0 180 43 0 189 36 0 195 27 0 204 18 0 212 10 0 220 2 0 228 248 0 235 240 0 243 233 1 251 223 0 5 216 1 12 208 1 20 199 0 28 190 0 36 181 0 44 173 0 52 165 0 59 156 0 68 149 1 75 139 0 83 131 0 91 123 0 99 114 0 108 107 0 115 98 0 123 89 0 131 81 0 138 72 0 147 65 1 154 56 0 162 47 0 170 39 0 178 31 0 186 22 0 194 15 1 202 5 0 208 255 1 216 245 0 224 237 0 233 228 0 239 219 0 248 212 0 0 203 0 9 195 1 16 186 0 23 177 0 32 169 0 40 160 0 48 153 0 56 145 0 64 136 0 71 127 0 80 120 1 87 111 0 96 103 1 103 94 0 112 86 1 119 77 0 128 70 1 135 60 0 143 52 0 150 44 0 158 35 0 166 27 0 174 18 0 182 10 0 190 2 0 185 5 0 196 254 0 204 245 0 212 237 0 220 229 0 42 39 0 50 31 0 58 22 0 66 14 0 73 6 0 83 254 0 91 246 0 100 238 1 106 229 0 114 221 0 122 213 0 130 204 0 137 195 0 145 186 0 153 179 0 162 171 0 169 162 0 177 154 0 185 146 0 194 137 0 201 129 0 208 120 0 217 112 0 225 104 0 232 96 0 240 87 0 248 79 0 184 1 0 6 62 0 14 54 0 22 46 0 30 37 0 38 29 0 45 20 0 53 12 0 62 5 1 69 252 0 79 243 1 86 235 0 94 226 0 102 218 0 110 210 0 118 202 1 125 193 0 133 185 0 141 176 0 148 167 0 158 161 1 165 151 0 172 143 0 180 135 0 188 126 0 196 118 0 204 110 0 212 101 0 220 93 0 228 85 0 235 76 0 243 68 0 250 60 0 204 2 0 3 45 0 11 36 0 19 28 0 27 20 0 35 11 0 43 3 0 44 4 0 57 249 0 65 241 0 73 233 0 81 224 0 90 217 1 96 208 0 104 199 0 112 191 0 120 183 0 128 174 0 136 166 0 144 158 0 150 148 0 159 141 0 167 133 0 175 124 0 183 116 0 191 108 0 199 100 0 207 91 0 213 81 0 222 74 0 230 66 0 238 57 0 246 49 0 254 41 0 5 31 0 13 23 0 21 14 0 29 6 0 37 253 0 46 246 0 54 238 0 61 229 0 69 221 0 77 212 0 85 204 0 93 196 0 101 187 0 109 179 0 117 171 0 124 162 0 132 154 0 140 146 0 148 137 0 156 129 0 165 122 1 172 112 0 179 104 0 187 96 0 196 87 0 203 79 0 211 71 0 219 62 0 227 54 0 235 46 0 242 37 0 249 29 0 1 22 1 8 12 0 15 3 0 25 253 0 33 243 0 41 235 0 49 227 0 57 217 0 64 210 0 72 202 0 80 193 0 88 184 0 96 177 0 104 168 0 112 160 0 120 151 0 127 143 0 135 135 1 143 126 0 151 119 0 160 110 0 167 101 0 175 93 0 182 85 0 190 76 0 198 68 0 206 60 0 214 51 0 223 44 1 230 35 0 238 26 0 246 19 1 254 11 1 3 4 1 12 251 0 20 242 0 27 234 0 35 226 0 43 217 0 51 208 0 59 202 0 67 192 0 75 184 0 82 176 0 90 167 0 98 159 0 106 150 0 114 142 0 122 134 0 130 126 0 138 117 0 145 109 0 153 101 0 161 93 1 169 85 0 177 75 0 185 67 0 193 59 0 200 50 0 208 42 0 216 34 0 224 25 0 232 17 0 240 9 0 248 0 0 0 247 0 8 239 0 16 232 0 25 222 0 32 214 0 40 206 0 49 198 1 55 189 0 63 181 0 71 172 0 79 164 0 87 155 0 96 148 1 103 139 0 110 130 0 119 122 0 126 114 0 134 105 0 141 97 0 150 89 0 158 80 0 166 72 0 173 64 0 181 55 0 188 47 0 197 39 0 205 30 0 213 22 0 221 14 0 228 5 0 235 254 0 243 246 1 251 237 0 3 228 0 11 219 0 19 211 0 27 203 0 35 195 0 43 186 0 51 179 1 58 170 0 66 161 0 74 153 0 82 144 0 90 136 0 98 128 0 106 119 0 113 111 0 121 103 0 129 94 0 137 86 0 145 78 0 153 69 0 161 61 0 169 53 0 176 44 0 184 36 0 192 28 0 200 19 0 208 11 0 216 3 0 210 6 0 223 1 1 231 248 1 61 49 1 67 39 0 76 31 0 85 23 1 93 16 1 100 6 0 109 0 0 117 246 0 124 238 0 132 231 0 140 221 0 148 213 0 156 205 0 164 197 0 171 188 0 178 179 0 187 172 0 196 164 0 203 155 0 211 147 0 218 139 1 227 131 0 234 122 0 242 113 0 249 105 0 0 97 0 8 89 0 16 80 0 23 72 0 31 64 0 39 55 0 47 47 0 55 39 0 63 30 0 70 22 0 78 14 0 86 5 0 95 253 0 103 245 0 111 237 0 119 228 0 126 219 0 134 212 0 142 203 0 150 196 1 158 187 0 166 178 0 173 170 0 181 162 0 189 153 0 197 145 0 206 138 1 214 130 1 220 120 0 228 112 0 236 104 0 244 95 0 253 87 0 178 4 0 4 72 0 12 64 0 19 55 0 27 47 0 35 38 0 43 31 0 52 22 0 59 14 0 66 6 0 63 8 0 81 252 0 89 244 0 97 236 0 104 228 0 113 219 1 120 212 0 128 202 0 136 193 0 145 187 1 151 177 0 159 168 0 168 162 1 175 152 0 183 144 0 191 136 0 198 128 0 205 118 0 214 111 0 222 103 0 230 94 0 237 85 0 245 78 0 254 69 0 4 59 0 12 51 0 19 42 0 28 35 0 36 26 0 44 18 0 51 10 0 59 1 0 68 250 0 76 241 0 84 233 0 92 226 0 100 217 0 108 208 0 114 199 0 123 192 0 130 182 0 139 175 0 147 167 0 155 158 0 162 149 0 170 142 0 178 133 0 187 125 0 193 116 0 202 108 0 209 100 0 217 92 0 225 84 0 233 75 0 241 68 1 249 59 0 206 1 0 7 42 0 14 34 0 22 25 0 31 18 1 38 9 0 46 0 0 55 248 0 63 240 0 70 232 0 78 223 0 86 215 0 94 207 0 102 198 0 110 190 0 117 182 0 125 173 0 134 166 1 141 157 0 149 149 0 157 140 0 164 132 0 172 124 0 180 115 0 188 107 0 196 99 0 204 89 0 211 82 0 219 74 0 227 65 0 235 57 0 243 49 0 251 40 0 226 4 0 7 26 0 14 17 0 22 9 0 30 1 0 40 248 0 47 239 0 55 232 0 64 224 0 72 215 0 80 208 1 87 199 0 95 190 0 103 182 0 112 175 1 119 165 0 126 157 0 134 150 1 142 140 0 150 132 0 158 124 0 166 116 0 173 107 0 181 99 0 189 91 0 197 82 0 205 74 0 213 66 0 219 57 0 228 49 0 237 41 0 244 32 0 252 24 0 3 14 0 11 6 0 21 255 1 28 246 0 36 237 0 43 229 0 51 221 0 59 213 0 67 205 0 75 196 0 83 188 0 90 180 0 98 171 0 105 163 0 114 155 0 122 146 0 130 138 0 136 130 0 145 121 0 153 113 0 161 105 0 169 97 0 177 88 0 184 79 0 192 72 0 200 63 0 207 54 0 216 47 0 224 38 0 231 30 0 240 23 1 247 13 0 250 0 0 6 253 0 14 245 0 22 237 0 30 228 0 38 220 0 45 211 0 53 203 0 61 195 0 69 186 0 77 178 0 85 170 0 91 160 0 99 152 0 109 145 0 116 137 0 124 128 0 131 119 0 139 112 0 147 103 0 154 94 0 163 87 0 172 78 0 179 69 0 186 62 0 194 53 0 201 45 0 210 37 0 217 27 0 227 21 0 233 12 0 241 4 0 235 7 0 79 56 0 87 49 1 94 40 0 102 32 0 111 24 1 118 15 0 126 8 1 132 1 0 141 246 0 150 239 0 157 230 0 167 223 1 172 213 0 182 207 1 189 197 0 197 189 0 205 181 0 212 173 0 220 164 0 228 156 0 236 148 0 244 139 0 251 131 0 1 122 0 10 116 1 17 107 0 25 98 0 33 90 0 41 81 0 48 73 0 56 65 0 64 57 0 72 48 0 80 40 0 87 32 0 95 24 0 104 16 1 112 7 0 119 0 0 127 247 0 135 238 0 143 230 0 151 222 0 159 213 0 166 205 0 174 197 0 182 189 0 190 180 0 198 172 0 205 164 0 213 156 0 221 147 0 229 139 0 237 131 0 244 122 0 252 113 0 151 4 0 4 99 0 12 91 0 20 83 0 28 75 0 36 66 0 43 58 0 51 50 0 59 41 0 68 34 1 75 25 0 82 17 0 90 8 0 98 0 0 104 0 0 113 248 1 120 238 0 128 230 0 136 222 0 144 214 0 150 204 0 158 196 0 167 189 0 175 180 0 183 172 0 189 163 0 198 156 0 206 147 0 214 139 0 221 131 0 229 123 0 237 114 0 245 106 0 253 98 0 4 88 0 12 80 0 19 71 0 27 63 0 35 55 0 43 47 0 51 38 0 58 30 0 66 22 0 74 13 0 82 5 0 91 254 0 100 246 1 108 238 1 114 229 0 122 221 0 130 212 0 138 204 0 146 196 1 154 188 1 161 179 0 169 171 0 177 164 0 185 154 0 192 146 0 200 138 0 208 129 0 216 121 0 224 113 0 232 105 0 239 96 0 247 88 0 175 1 1 6 73 1 13 63 0 20 55 0 28 47 0 37 39 1 44 30 0 52 22 0 59 14 0 67 5 0 76 253 0 84 245 0 91 237 0 99 228 0 107 220 0 116 213 1 123 204 0 131 195 0 139 187 0 146 179 0 154 170 0 162 162 0 170 154 0 178 146 0 185 137 0 193 129 0 201 121 0 209 113 0 217 104 0 224 96 0 232 88 0 240 79 0 248 71 0 192 1 0 4 56 0 12 48 0 19 40 0 27 31 0 35 23 0 42 14 0 51 7 0 61 254 0 69 246 0 76 238 0 84 230 0 92 221 0 100 213 0 108 205 0 115 197 0 123 188 0 130 180 0 139 172 0 147 164 0 153 155 0 162 147 0 170 139 0 178 130 0 187 123 1 193 114 0 202 106 0 209 97 0 217 89 0 225 81 0 232 72 0 240 64 0 248 56 0 208 1 0 6 37 0 15 30 0 23 22 1 30 13 0 38 5 0 47 254 0 54 245 0 63 237 0 71 228 0 80 220 1 87 213 0 93 204 0 101 195 0 111 187 0 118 179 0 124 170 0 132 162 0 141 154 0 150 147 1 157 137 0 164 129 0 172 121 0 180 113 0 188 104 0 195 96 0 203 88 0 211 79 0 219 71 0 227 63 0 235 55 0 242 47 1 250 38 0 0 30 0 8 21 0 16 13 0 24 5 0 32 253 0 40 244 0 48 236 0 57 229 1 64 220 0 71 211 0 80 204 1 87 195 0 95 187 0 102 177 0 111 170 0 118 162 0 126 153 0 133 144 0 142 137 0 150 129 0 157 120 0 166 113 0 173 104 0 181 96 0 189 87 0 196 79 0 204 71 0 212 62 0 220 54 0 228 46 0 235 37 0 242 29 0 251 21 0 251 7 0 96 65 0 105 58 1 112 49 0 120 40 0 129 33 1 135 24 0 143 16 0 151 8 1 156 2 0 168 248 0 175 239 0 183 232 1 191 223 0 200 216 1 206 206 0 214 198 0 222 190 0 231 183 1 238 173 0 245 165 0 253 157 0 3 149 0 11 140 0 19 132 0 26 124 0 34 116 0 43 108 1 49 98 0 58 91 0 65 84 1 73 75 0 81 66 0 89 58 0 96 50 0 104 42 0 112 33 0 119 24 0 128 18 1 135 9 0 143 0 0 152 247 0 160 240 0 167 232 0 175 223 0 182 215 0 190 207 0 198 199 0 206 191 0 214 182 0 222 174 0 230 166 0 237 158 0 245 149 0 253 140 0 125 5 0 5 126 0 13 118 0 20 110 0 28 102 0 35 92 0 45 86 1 51 77 0 59 69 0 67 60 0 75 52 0 83 44 0 90 36 0 98 27 0 106 19 0 114 11 0 121 3 0 123 3 0 136 249 0 143 241 0 151 233 0 159 225 0 168 217 1 174 208 0 182 200 0 190 192 0 198 184 0 204 174 0 213 167 0 221 160 0 229 151 0 237 142 0 244 134 0 252 126 0 3 116 0 11 108 0 19 100 0 27 91 0 34 83 0 42 75 0 50 67 0 58 58 0 65 50 0 73 42 0 82 35 1 89 25 0 97 17 0 104 9 0 111 0 0 121 249 0 129 241 0 137 233 0 144 224 0 152 216 0 160 208 0 167 200 0 176 192 0 183 183 0 190 174 0 199 167 0 207 159 0 214 150 0 222 142 0 230 134 0 239 127 1 245 117 0 253 109 0 3 101 0 11 93 0 19 84 0 27 76 0 33 67 0 42 60 0 50 51 0 58 43 0 65 35 0 73 27 0 81 18 0 88 9 0 96 2 0 105 250 0 113 242 0 121 234 0 129 225 0 136 217 0 144 209 0 152 200 0 160 192 0 167 185 0 175 176 1 183 167 0 190 159 0 199 151 0 206 143 0 214 134 0 222 126 0 230 118 0 237 110 0 245 102 0 253 93 0 2 88 1 9 79 0 17 70 0 23 61 0 32 54 0 40 46 0 48 37 0 55 29 0 63 21 0 71 13 0 79 4 0 90 253 0 97 244 0 103 235 0 112 227 0 120 219 0 128 211 0 135 203 0 143 195 0 150 186 0 159 178 0 168 171 1 174 162 0 182 153 0 190 145 0 198 137 0 205 129 0 213 120 0 222 113 1 229 103 0 237 97 0 244 87 0 252 79 0 2 68 0 11 61 0 19 53 0 26 45 0 34 36 0 43 29 1 50 20 0 59 13 1 65 3 0 74 252 0 82 244 0 90 236 0 97 226 0 105 219 0 113 211 0 121 203 0 129 194 0 137 187 0 144 178 0 152 170 0 160 161 0 168 153 0 175 145 0 183 137 0 191 128 0 199 120 0 206 112 0 214 104 0 223 95 1 230 87 0 238 79 0 245 71 0 253 62 0 3 54 0 12 47 1 19 38 0 26 29 0 34 21 0 42 13 0 50 5 0 59 253 0 66 244 0 73 236 0 82 228 0 90 220 0 97 211 0 105 203 0 113 195 0 121 187 0 128 178 0 136 170 0 144 162 0 152 154 0 160 146 0 167 137 0 174 128 0 183 121 0 191 113 0 198 104 0 206 96 0 214 88 0 222 80 0 229 71 0 237 63 0 245 55 0 254 47 0 230 10 0 240 32 0 114 73 0 121 64 0 130 57 0 137 49 0 145 41 0 153 32 0 162 25 1 168 16 0 176 9 0 184 0 0 194 249 1 201 240 0 208 232 0 217 225 1 224 215 0 232 207 0 239 199 0 248 191 1 72 0 0 5 174 0 12 166 0 20 158 0 27 149 0 36 140 0 43 133 0 51 125 0 58 116 0 67 109 0 74 100 0 82 92 0 91 85 1 98 76 0 105 68 0 113 59 0 121 51 0 128 43 0 136 35 0 145 28 0 152 18 0 159 9 0 167 2 0 176 250 0 184 241 0 192 233 0 199 225 0 208 218 0 215 209 0 222 201 0 230 192 0 238 184 0 246 176 0 253 168 0 98 5 0 5 153 0 13 145 0 21 137 0 29 129 0 36 120 0 44 112 0 52 104 0 59 96 0 67 87 0 75 79 0 83 71 0 90 63 0 99 55 1 106 46 0 113 38 0 121 30 0 129 22 0 136 13 0 145 5 0 142 7 0 159 252 0 166 244 0 174 236 0 181 227 0 190 219 0 197 211 0 205 203 0 212 194 0 221 187 0 228 178 0 236 170 0 244 162 0 252 154 0 3 144 0 10 136 0 18 128 0 26 119 0 34 111 0 41 103 0 50 96 1 57 87 0 65 78 0 72 70 0 80 62 0 88 54 0 96 44 0 103 37 0 111 29 0 118 20 0 127 13 0 134 4 0 143 253 0 151 245 0 159 237 0 166 228 0 174 220 0 182 212 0 189 204 0 197 195 0 205 187 0 213 179 0 221 171 0 228 163 0 236 155 0 244 146 0 252 138 0 2 130 0 9 122 0 16 112 0 24 105 0 33 97 0 41 90 1 48 81 0 56 72 0 63 64 0 71 56 0 79 48 0 87 40 0 94 31 0 102 23 0 111 15 1 117 6 0 126 0 0 134 247 0 142 238 0 149 230 0 157 222 0 165 214 0 173 205 0 181 197 0 188 189 0 196 181 0 204 173 0 212 164 0 218 156 0 228 149 1 235 140 0 243 132 0 250 123 0 143 3 0 6 109 0 14 101 0 23 93 1 29 84 0 37 76 0 45 68 0 53 59 0 59 50 0 68 43 0 76 35 0 83 27 0 91 18 0 99 10 0 107 2 0 117 249 0 124 242 0 132 235 0 140 226 0 148 217 0 155 209 0 163 202 0 171 192 0 179 184 0 186 176 0 194 168 0 202 160 0 210 151 0 218 144 1 226 136 1 233 127 0 240 120 0 248 110 0 154 1 0 7 93 0 15 84 0 23 76 0 30 68 0 38 60 0 46 51 0 54 43 0 61 35 0 69 27 0 76 18 0 85 11 1 92 2 0 100 250 0 109 243 0 117 234 0 124 226 0 132 218 0 140 210 0 148 202 0 155 193 0 163 185 0 171 177 0 180 169 1 186 161 0 194 152 0 201 144 0 210 136 0 217 128 0 226 120 0 234 112 0 240 103 0 248 95 0 170 2 0 6 78 0 14 70 0 20 61 0 29 54 0 37 46 0 46 38 1 52 29 0 60 21 0 68 13 0 76 5 0 84 253 0 92 244 0 100 236 0 108 228 0 115 220 0 123 211 0 131 203 0 139 195 0 145 186 0 154 179 0 161 169 0 170 162 0 177 154 0 185 147 1 193 138 0 201 130 1 207 121 0 216 113 0 224 105 0 231 97 0 239 88 0 247 80 0 182 0 0 208 13 0 236 27 1 242 45 0 132 82 0 140 74 0 146 66 0 155 57 0 163 49 0 169 40 0 179 34 1 186 25 0 194 16 0 201 8 0 208 0 0 218 249 0 226 241 0 233 232 0 241 224 0 249 216 0 47 1 0 6 200 0 14 192 0 22 183 0 29 175 0 37 167 0 45 160 0 53 151 0 60 141 0 68 134 0 77 127 1 83 118 0 91 110 0 99 102 0 106 93 0 114 85 0 122 77 0 131 70 1 137 61 0 145 53 0 153 44 0 159 35 0 169 29 1 176 20 0 183 12 0 191 4 0 200 251 0 208 243 0 215 235 0 223 228 0 232 219 0 238 210 0 246 201 0 254 194 0 72 5 0 6 180 0 14 172 0 21 163 0 29 156 0 37 147 0 43 138 0 52 131 0 61 123 1 67 114 0 75 106 0 83 98 0 92 91 1 98 82 0 106 73 0 114 65 1 121 57 0 129 49 0 137 41 0 144 33 0 151 23 0 160 16 0 168 8 0 175 0 0 181 0 0 189 247 0 197 239 0 205 230 0 213 222 0 219 213 0 228 206 0 236 198 0 243 190 0 251 182 0 2 171 0 11 164 1 18 155 0 25 147 0 32 138 0 41 131 0 48 123 0 56 114 0 64 106 0 71 98 0 79 90 0 87 82 0 95 74 0 103 66 1 109 56 0 118 49 0 124 40 0 133 33 0 141 25 0 149 16 0 156 8 0 164 0 0 173 248 0 181 240 0 188 232 0 195 224 0 204 216 0 211 208 0 219 200 0 228 191 1 235 182 0 242 175 1 249 167 0 0 159 0 9 151 1 15 141 0 23 134 0 31 126 0 38 118 0 46 110 0 54 102 0 62 93 0 68 84 0 77 77 0 85 69 0 92 61 0 100 52 0 108 44 0 115 36 0 123 28 0 131 20 0 140 13 1 146 3 0 155 250 0 163 243 0 172 236 1 178 227 0 186 219 0 194 211 0 201 202 0 209 194 0 218 187 0 224 178 0 232 170 0 240 162 0 248 153 0 110 0 0 3 139 0 11 131 0 19 122 0 26 114 0 34 107 1 42 97 0 50 90 0 57 82 0 65 73 0 73 65 0 80 57 0 88 49 0 96 41 0 104 32 0 111 24 0 119 16 0 126 7 0 134 0 0 145 248 1 152 240 0 160 231 0 167 223 0 175 215 0 183 207 0 191 199 0 198 191 0 206 183 0 214 174 0 221 166 0 229 158 0 237 150 0 244 141 0 253 133 1 3 124 0 11 115 0 19 107 0 26 99 0 34 91 0 42 83 0 50 75 0 57 66 0 64 57 0 73 50 0 80 42 0 88 34 0 96 26 0 102 16 0 111 9 0 120 2 1 128 250 0 136 241 0 143 233 0 151 226 0 159 217 0 166 209 0 175 202 0 182 192 0 190 184 0 197 176 0 205 168 1 213 160 0 220 152 0 229 144 0 236 135 0 242 126 0 251 119 0 2 112 1 9 103 0 16 94 0 24 86 0 33 79 1 41 70 1 47 61 0 55 53 0 63 45 0 70 37 0 78 29 0 86 21 0 94 13 0 100 4 0 110 252 0 118 244 0 125 236 0 133 228 0 141 220 0 149 212 0 156 203 0 164 195 0 172 187 0 178 178 0 187 171 0 195 163 0 203 154 0 210 146 0 217 138 0 227 131 1 233 122 0 241 113 0 249 106 1 161 3 0 186 15 0 214 30 0 240 43 0 243 57 0 149 90 0 157 82 0 165 74 0 172 67 0 180 58 0 188 49 0 195 41 0 204 34 1 211 24 0 217 16 0 227 9 0 234 1 0 243 249 0 250 241 0 0 233 0 8 225 0 17 218 1 22 208 0 31 201 0 39 192 0 45 184 0 54 175 0 63 168 1 68 159 0 77 152 0 85 143 0 92 135 0 100 127 0 109 119 0 115 111 0 123 103 0 131 95 0 138 87 0 146 79 1 153 69 0 160 61 0 169 54 0 177 46 0 185 39 1 192 30 0 201 22 1 207 13 0 215 5 0 224 253 0 232 245 0 239 237 0 247 229 0 33 0 0 46 6 0 7 207 1 14 198 0 22 190 0 29 182 0 36 172 0 45 165 0 52 157 0 60 149 0 68 141 0 75 133 0 83 125 0 91 117 0 99 109 1 106 100 0 114 92 0 121 84 0 129 76 0 137 68 0 144 59 0 152 51 0 160 43 0 167 35 0 174 27 0 183 19 0 190 11 0 198 3 0 201 4 0 212 249 0 220 241 0 228 234 0 235 225 0 242 217 0 250 209 0 2 199 0 8 190 0 17 183 0 25 175 0 32 167 0 40 158 0 48 150 0 55 142 0 63 134 0 72 127 1 78 118 0 86 110 0 94 101 0 101 93 0 109 85 0 117 77 0 124 69 0 131 61 0 140 53 0 147 44 0 156 37 0 163 28 0 170 20 0 178 12 0 186 4 0 195 252 0 202 244 0 210 236 0 218 229 0 225 220 0 233 212 0 241 205 1 247 194 0 68 1 0 6 179 0 14 171 0 22 164 0 29 155 0 36 146 0 44 138 0 52 130 0 59 121 0 67 114 0 75 106 0 83 98 0 90 90 0 98 81 0 106 73 0 112 64 0 121 57 0 129 49 0 136 41 0 144 33 0 152 25 0 160 17 1 167 8 0 174 0 0 184 248 0 191 240 0 199 233 0 207 224 0 214 216 0 222 207 0 230 199 0 237 191 0 246 183 0 253 174 0 1 168 0 8 160 0 16 152 0 24 144 0 31 136 0 39 128 0 47 120 0 54 111 0 62 103 0 69 94 0 77 87 0 85 78 0 93 71 0 100 63 0 108 54 0 116 46 0 123 38 0 130 30 0 139 22 0 146 14 0 154 7 1 164 254 0 172 245 0 179 237 0 187 230 0 195 221 0 202 213 0 211 205 1 218 197 0 225 189 0 233 180 0 241 172 0 248 164 0 0 154 0 7 146 0 15 138 0 23 130 0 30 122 0 38 114 0 46 106 0 53 97 0 61 89 0 69 82 0 77 74 1 85 65 1 92 57 0 100 50 1 108 42 0 115 32 0 122 24 0 130 16 0 138 8 0 144 0 0 153 247 0 162 240 0 170 232 0 178 225 1 185 216 0 193 207 0 200 200 0 208 193 1 216 182 0 223 174 0 231 166 0 239 160 0 246 151 0 254 143 0 4 135 0 12 126 0 19 118 0 28 111 1 35 102 0 42 94 0 50 86 0 57 77 0 65 69 0 72 60 0 81 53 0 87 44 0 95 36 0 104 29 0 111 21 0 119 12 0 127 4 0 136 253 0 143 244 0 150 236 0 159 228 0 166 220 1 174 212 0 182 203 0 190 196 1 197 186 0 205 179 0 213 172 1 220 163 0 229 156 1 236 147 1 243 138 0 250 130 0 140 6 0 166 19 0 192 33 0 219 46 0 246 61 1 246 71 0 167 98 0 174 90 0 182 82 0 190 74 0 197 66 0 205 59 1 212 50 0 220 42 0 228 34 0 236 26 0 243 17 0 250 9 0 0 1 0 9 250 0 17 241 0 24 234 0 32 226 0 40 217 0 48 209 0 55 202 0 63 194 0 72 185 1 78 177 0 86 169 0 93 161 0 101 153 0 110 144 0 116 136 0 124 128 0 132 120 0 138 111 0 146 104 0 155 96 0 162 88 0 170 80 0 177 71 0 184 63 0 193 55 0 200 47 0 208 39 0 216 31 0 223 23 0 231 15 0 239 7 0 247 0 0 8 0 0 20 6 0 7 232 0 13 223 0 21 215 0 29 207 0 37 200 0 44 192 0 53 184 0 60 175 0 69 168 1 76 160 0 83 150 0 90 143 0 98 135 0 107 128 1 113 118 0 120 110 0 129 102 0 137 94 0 145 87 1 152 78 0 160 70 0 167 62 0 175 54 0 183 46 0 190 38 0 198 30 0 204 20 0 213 14 1 221 5 0 218 7 0 235 252 0 242 244 0 249 236 0 1 226 0 9 218 0 16 210 0 24 202 0 32 194 1 40 187 1 47 178 0 56 171 1 62 162 0 70 154 1 77 145 0 85 137 0 93 129 0 100 121 0 108 113 0 116 105 0 123 96 0 130 89 0 140 81 1 146 72 0 154 64 0 161 56 0 170 49 1 177 40 0 185 32 0 192 24 0 200 16 0 207 8 0 214 1 0 224 248 0 232 239 0 239 232 0 247 224 0 254 216 0 4 208 0 12 199 0 20 191 0 27 183 0 35 175 0 43 167 0 50 159 0 58 151 0 65 143 0 73 136 1 81 126 0 88 118 0 96 110 0 104 101 0 112 95 1 119 86 0 127 78 0 134 70 0 141 62 0 150 54 0 157 45 0 165 37 0 172 29 0 180 21 0 188 13 0 196 5 0 205 254 0 212 245 0 219 237 0 227 229 0 235 221 0 242 212 0 250 204 0 61 3 0 6 190 0 13 182 0 21 174 0 29 166 0 36 157 0 44 149 0 51 141 0 59 133 0 67 125 0 74 117 0 82 109 0 89 100 0 97 93 0 105 84 0 113 76 0 120 68 0 129 61 1 135 52 0 143 44 0 150 36 0 157 27 0 166 21 1 174 12 0 181 3 0 191 251 0 199 243 0 207 235 0 214 228 0 222 219 0 229 211 0 236 202 0 246 196 1 252 187 0 3 177 0 11 169 0 19 161 0 26 153 0 33 144 0 43 137 1 49 128 0 57 120 0 65 112 0 72 104 0 80 97 0 88 88 0 95 80 0 103 72 0 110 63 0 118 55 0 126 47 0 133 39 0 141 31 0 149 23 0 156 15 0 164 7 0 172 0 0 182 247 0 188 239 0 196 231 0 203 223 0 211 215 0 219 207 0 226 199 0 234 191 0 242 182 0 249 174 0 92 3 0 7 158 0 14 150 0 22 141 0 30 134 0 37 126 0 45 118 0 53 110 0 60 101 0 68 93 0 76 85 0 83 77 0 91 69 0 98 61 0 106 53 0 114 45 0 121 37 0 129 28 0 138 21 1 144 11 0 152 4 0 161 252 0 168 244 0 176 236 0 185 229 0 191 220 0 199 212 0 207 204 0 214 195 0 222 187 0 230 179 0 237 171 0 245 163 0 252 155 0 120 9 0 145 22 0 171 36 0 197 49 0 225 64 0 251 77 0 249 84 0 184 107 0 191 99 0 199 91 0 208 82 0 214 74 0 223 67 1 230 59 1 238 51 1 245 42 0 252 34 0 2 26 0 9 17 0 17 10 0 25 2 0 34 250 0 41 242 0 49 234 0 58 227 0 65 218 1 72 210 0 79 202 0 87 194 0 95 186 0 102 178 0 110 170 0 119 162 0 125 154 0 133 145 0 139 136 0 149 130 1 156 121 0 163 113 0 171 105 0 178 97 0 187 90 0 194 81 0 202 73 0 209 65 0 216 57 0 225 50 1 233 42 0 239 32 0 247 24 0 254 15 0 250 6 0 5 0 0 15 250 0 23 242 0 30 234 0 37 225 0 45 218 0 53 210 0 61 202 0 68 193 0 76 185 0 83 177 0 91 169 0 99 161 0 106 153 0 113 144 0 121 137 0 129 129 0 137 121 0 144 113 0 152 105 0 159 97 0 167 89 0 175 80 0 183 73 1 190 64 0 199 56 0 204 47 0 213 40 0 220 32 0 228 24 0 236 16 0 243 8 0 250 0 0 0 253 0 8 245 0 16 237 0 23 229 0 31 221 0 38 212 0 45 204 0 54 197 0 61 188 0 70 182 1 77 173 0 84 165 0 92 158 1 99 148 0 107 140 0 115 132 0 122 124 0 130 116 0 137 108 0 144 99 0 153 92 0 160 84 0 168 76 0 175 68 0 183 60 0 191 52 0 198 44 0 207 36 1 214 27 0 221 19 0 229 11 0 236 3 0 245 252 0 253 244 0 3 236 0 10 228 0 18 220 0 26 211 0 33 203 0 42 196 0 48 187 0 56 179 0 64 171 0 71 163 0 79 155 0 86 147 0 94 139 0 102 131 0 109 123 0 117 116 0 124 107 0 132 98 0 140 90 0 146 81 0 156 75 1 163 66 0 171 59 1 178 50 0 185 42 0 194 35 1 201 26 0 207 18 0 216 10 0 224 3 1 232 249 0 240 242 0 247 235 0 29 0 0 3 219 0 11 211 0 18 203 0 26 195 0 33 187 0 41 179 0 49 172 0 56 163 0 64 155 0 71 146 0 79 138 0 87 130 0 94 122 0 102 114 0 109 106 0 117 98 0 125 90 0 132 82 0 140 74 0 147 66 0 155 57 0 164 51 1 170 42 0 178 33 0 186 24 0 193 17 0 202 9 0 208 2 1 217 248 0 226 241 0 233 233 0 241 225 0 248 217 0 0 207 0 7 199 0 14 190 0 23 183 0 30 175 0 38 167 0 45 159 0 53 151 0 61 143 0 68 135 0 76 127 0 83 119 0 91 111 0 100 102 1 106 94 0 114 86 0 121 78 0 129 70 0 137 62 0 144 54 0 152 46 0 160 38 0 167 30 0 175 22 0 181 13 0 191 7 1 199 254 0 206 246 0 214 238 0 222 231 0 230 223 1 237 214 0 245 206 0 252 198 0 2 191 0 10 182 0 17 174 0 25 165 0 32 157 0 40 149 0 48 141 0 55 133 0 63 125 0 70 117 0 78 109 0 86 101 0 93 93 0 101 85 0 108 77 0 116 69 0 124 61 0 131 52 0 138 43 0 147 36 0 154 28 0 162 20 0 169 12 0 176 3 0 186 252 0 193 244 0 201 236 0 209 229 1 216 220 0 224 212 0 232 205 1 239 196 0 247 189 0 254 179 0 99 12 0 124 25 0 150 39 0 176 52 0 202 67 1 229 80 0 239 103 0 251 97 0 202 116 0 208 107 0 216 99 0 224 91 0 231 82 0 239 75 0 247 68 1 254 59 0 4 51 0 11 43 0 19 35 0 26 27 0 34 19 0 41 10 0 49 2 0 58 251 0 67 243 1 73 236 0 81 227 0 88 219 0 96 211 0 102 202 0 111 196 0 119 187 0 126 179 0 134 171 0 141 163 0 149 153 0 158 146 0 164 138 0 172 130 0 179 122 0 188 115 1 194 106 0 202 98 0 211 91 1 217 82 0 225 74 0 232 66 0 240 58 0 247 50 0 212 0 0 223 5 0 6 26 0 12 17 0 21 10 0 29 2 0 38 252 0 46 245 0 53 236 0 61 227 0 68 219 0 76 211 0 84 203 0 91 195 0 99 187 0 106 179 0 114 171 0 121 164 0 129 155 0 137 147 0 144 139 0 152 131 0 159 123 0 167 115 0 175 108 1 182 99 0 190 91 0 197 83 0 205 75 0 213 67 0 220 59 0 228 51 0 236 43 0 243 35 0 250 27 0 0 17 0 8 9 0 15 1 0 20 2 0 30 248 0 38 240 0 46 233 1 53 224 0 61 216 0 68 208 0 76 200 0 84 193 1 91 184 0 98 176 0 107 168 0 114 160 0 120 151 0 129 143 0 136 135 0 144 127 0 151 119 0 159 111 0 167 103 0 174 94 0 182 87 0 188 79 0 197 71 0 205 63 0 212 55 0 220 47 0 227 39 0 235 31 0 242 23 0 250 15 0 1 8 1 7 1 0 16 247 0 25 240 1 31 231 0 39 223 0 47 215 0 54 207 0 61 198 0 69 190 0 77 182 0 84 175 0 92 167 0 100 159 0 107 151 0 115 143 0 122 135 0 130 127 0 138 119 0 145 111 0 152 102 0 160 95 0 169 88 1 174 78 0 183 72 1 191 63 0 198 55 0 206 47 0 213 39 0 221 30 0 228 22 0 237 14 0 245 7 0 253 254 0 0 248 0 8 240 0 15 233 0 24 225 1 30 215 0 39 208 1 46 200 0 53 192 0 60 184 0 68 176 0 76 168 0 84 160 0 91 152 0 99 144 0 106 136 0 114 128 0 121 119 0 129 111 0 137 103 0 144 95 0 152 87 0 159 79 0 167 71 0 174 63 0 183 55 0 190 47 0 197 39 0 205 31 0 212 23 0 220 15 0 228 7 0 237 0 0 245 247 0 253 239 0 4 229 0 11 221 0 19 213 0 26 204 0 34 197 0 42 188 0 49 181 0 57 173 0 64 165 0 72 158 0 79 149 0 87 141 0 94 132 0 102 125 0 111 118 1 116 109 0 125 101 0 131 92 0 140 85 0 149 77 0 155 69 0 163 61 0 171 54 1 178 45 0 185 37 0 193 28 0 201 20 0 207 12 0 217 5 0 225 253 0 232 245 0 240 237 0 247 229 0 34 0 0 5 213 0 11 204 0 20 197 0 28 189 0 35 182 0 42 172 0 50 165 0 58 157 0 65 150 0 73 140 0 81 132 0 88 124 0 96 116 0 103 108 0 111 100 0 118 92 0 126 84 0 133 75 0 141 68 0 149 60 0 156 52 0 164 44 0 171 36 0 180 28 0 187 20 0 193 12 0 201 3 0 211 252 0 218 244 0 227 237 0 233 228 0 241 220 0 247 212 0 54 2 0 80 16 1 104 28 0 129 41 0 155 55 0 181 69 0 207 82 0 234 96 0 241 116 0 253 110 0 218 123 0 225 115 0 233 107 0 240 99 0 247 90 0 172 1 1 5 75 0 13 67 0 20 59 0 27 50 0 35 43 0 43 35 0 50 27 0 58 19 0 66 12 1 73 3 0 81 250 0 89 242 0 97 235 0 105 227 0 112 219 0 120 212 1 127 203 0 135 196 0 141 186 0 150 179 0 157 171 0 164 163 0 173 155 0 180 147 0 188 139 0 195 131 0 203 123 0 210 115 0 218 107 0 226 100 1 233 91 0 240 83 0 248 75 0 187 0 0 198 7 0 5 50 0 14 43 0 21 35 0 29 27 0 38 20 1 44 11 0 52 3 0 61 254 0 69 245 0 76 237 0 84 229 0 91 221 0 99 213 0 106 205 0 114 197 0 122 189 1 129 181 0 137 173 0 144 165 0 152 157 0 158 148 0 167 141 0 174 133 0 182 125 0 189 118 1 197 109 0 204 101 0 212 93 0 220 85 0 227 76 0 235 69 0 242 61 0 249 52 0 211 2 0 7 36 0 14 28 0 22 20 0 30 12 0 37 4 0 38 5 0 52 250 0 60 243 0 67 235 0 75 227 0 82 219 0 90 211 0 97 203 0 105 195 0 113 187 0 119 179 0 128 171 0 136 164 1 143 155 0 150 147 0 158 139 0 165 131 0 173 123 0 182 116 0 187 106 0 195 98 0 203 90 0 211 82 0 218 75 0 226 67 0 233 59 0 241 51 0 248 43 0 221 1 0 6 27 0 13 19 0 21 11 0 28 3 0 37 250 0 45 243 0 52 235 0 60 227 0 67 219 0 75 211 0 83 203 0 90 196 1 97 186 0 105 179 0 112 171 0 120 163 0 128 155 0 134 146 0 143 139 0 150 131 0 158 123 0 166 115 0 173 107 0 181 99 0 188 91 0 196 83 0 203 75 0 211 67 0 218 59 0 226 51 0 233 42 0 241 35 0 249 27 0 237 0 0 3 11 0 11 3 0 20 253 0 28 245 0 35 237 0 43 229 0 50 220 0 58 213 0 67 205 0 73 197 0 81 189 0 88 181 0 96 173 0 103 165 0 111 157 0 118 149 0 126 141 0 133 133 0 141 125 0 150 117 0 156 109 0 164 101 0 172 94 1 180 86 1 186 77 0 193 69 0 201 61 0 209 53 0 216 45 0 225 38 1 232 28 0 239 21 0 247 13 0 254 5 0 7 250 0 15 242 0 23 235 0 29 227 0 38 218 0 45 211 0 53 203 0 60 196 0 68 187 0 75 179 0 83 171 0 90 163 0 97 155 0 106 147 0 113 139 0 121 131 0 128 123 0 136 115 0 142 106 0 151 100 1 158 91 0 166 83 0 174 76 1 181 67 0 188 58 0 196 52 0 204 43 0 212 36 1 219 27 0 226 19 0 234 11 0 241 3 0 250 253 0 0 244 0 8 236 0 15 229 1 23 220 0 30 212 0 39 205 1 45 196 0 53 188 0 60 181 0 68 172 0 76 164 0 83 156 0 91 148 0 97 139 0 105 131 0 113 123 0 121 116 0 128 108 0 136 100 0 144 93 1 151 84 0 159 75 0 166 68 0 174 60 0 181 52 0 188 44 0 195 36 0 204 28 0 211 19 0 219 12 0 225 3 0 235 252 0 243 244 0 250 236 0 33 5 0 57 17 0 83 31 0 110 45 0 134 58 0 160 72 0 186 85 0 213 99 0 239 113 0 244 129 0 2 125 0 234 131 0 242 123 0 249 115 0 148 1 0 7 99 0 14 91 0 22 83 0 29 75 0 37 67 0 44 59 0 53 52 1 59 43 0 67 35 0 74 27 0 82 19 0 89 11 0 97 3 0 107 253 0 113 244 0 121 236 0 128 228 0 136 220 0 143 212 0 151 204 0 158 196 0 166 188 0 173 180 0 181 172 0 189 164 0 195 155 0 202 147 0 211 140 0 218 132 0 226 124 0 235 117 0 241 109 0 248 101 0 162 1 0 174 7 0 7 77 0 14 69 0 22 61 0 29 53 0 38 46 1 43 36 0 52 29 0 59 21 0 67 13 0 74 5 0 83 0 0 91 247 0 99 239 0 106 231 0 114 223 0 121 215 0 130 208 1 136 199 0 145 192 1 152 182 0 159 174 0 167 167 0 174 159 0 182 151 0 189 143 0 197 135 0 204 127 0 212 119 0 219 112 1 227 103 0 235 95 0 242 87 0 248 78 0 184 2 0 6 62 0 14 54 0 21 46 0 29 38 0 36 30 0 44 22 0 51 14 0 58 5 0 56 9 0 74 253 0 82 245 0 89 237 0 97 229 0 105 222 1 111 212 0 119 205 0 127 198 0 134 190 0 142 182 0 149 174 0 157 166 0 163 157 0 171 149 0 180 142 1 186 133 0 194 126 0 202 118 0 209 110 0 217 102 0 224 94 0 232 86 0 239 78 0 247 70 0 254 62 0 5 55 1 12 46 0 19 38 0 27 30 0 34 22 0 42 14 0 49 6 0 58 0 0 67 248 1 73 239 0 81 231 0 88 223 0 96 215 0 103 207 0 111 199 0 118 191 0 126 183 0 133 175 0 141 167 0 148 159 0 156 151 0 163 143 0 171 134 0 178 127 0 186 119 0 193 111 0 202 103 0 208 95 0 216 88 0 223 80 0 231 72 0 238 64 0 247 57 1 253 48 0 1 40 0 8 32 0 16 24 0 23 16 0 32 9 1 38 0 0 48 250 0 55 242 0 63 234 0 70 226 0 78 218 0 85 210 0 93 202 0 100 194 0 108 186 0 115 178 0 123 170 0 131 162 0 139 154 1 145 146 0 153 138 0 160 130 0 168 122 0 175 114 1 183 106 0 190 98 0 198 90 0 205 82 0 213 74 0 219 66 0 228 58 0 235 50 0 243 42 0 249 34 0 0 25 0 8 17 0 15 9 0 23 1 0 34 249 0 41 241 0 49 233 0 56 225 0 64 217 0 71 209 0 79 201 0 86 194 0 95 185 1 101 177 0 109 169 0 117 160 0 124 153 0 132 145 0 140 139 1 147 130 0 154 122 1 162 114 0 169 107 0 176 97 0 184 90 0 191 81 0 199 74 0 206 65 0 214 58 0 222 50 0 230 43 0 237 34 0 244 26 0 252 17 0 1 10 0 9 2 0 18 251 0 26 243 1 33 235 0 40 227 0 48 219 0 55 211 0 63 203 0 71 195 0 78 186 0 86 179 0 93 172 0 101 163 0 109 156 0 116 147 0 123 139 0 131 131 0 138 123 0 146 115 0 152 107 0 161 99 0 168 91 0 176 83 0 183 75 0 191 67 0 199 60 1 206 51 0 213 43 0 221 35 0 229 28 1 236 19 0 243 12 0 251 4 0 13 8 0 38 21 0 63 34 0 88 48 0 112 60 0 138 75 0 165 88 0 190 102 0 218 116 0 245 130 0 246 141 0 7 142 0 250 138 0 1 131 0 8 123 0 16 115 0 23 107 0 31 99 0 38 91 0 46 83 0 53 75 0 61 67 0 68 60 0 76 52 0 83 44 0 90 36 0 98 28 0 105 20 0 113 12 0 120 4 0 129 253 0 137 245 0 144 237 0 152 229 0 159 220 0 167 213 0 174 205 0 182 197 0 189 189 0 197 181 0 204 172 0 213 166 0 219 158 0 228 150 1 234 141 0 242 133 0 249 126 0 138 2 1 0 110 0 7 102 0 16 95 1 22 86 0 30 78 0 37 70 0 45 62 0 52 54 0 59 45 0 67 38 0 75 30 0 82 22 0 90 14 0 97 6 0 103 2 0 114 248 0 121 239 0 129 233 0 136 225 0 144 217 0 151 209 1 159 201 0 166 193 0 174 184 0 181 177 0 189 169 0 196 161 0 204 153 0 211 144 0 219 137 0 226 129 0 235 122 1 241 113 0 248 105 0 158 1 0 6 88 0 13 80 0 21 72 0 28 64 0 36 56 0 43 49 0 50 40 0 58 33 0 66 25 0 73 17 0 81 9 0 88 0 0 94 1 0 103 248 0 111 240 0 118 232 0 127 225 1 133 216 0 140 207 0 148 200 0 155 191 0 163 184 0 170 177 0 178 169 0 185 161 0 194 153 0 200 145 0 207 137 0 215 129 0 223 121 0 230 112 0 238 105 0 245 97 0 253 89 0 2 81 0 10 74 0 17 66 0 25 58 0 31 50 0 40 42 0 47 34 0 55 26 0 62 18 0 70 10 0 76 1 0 86 250 0 95 244 1 101 235 0 109 227 0 116 219 0 124 211 0 131 203 0 139 195 0 146 187 0 154 179 0 161 171 0 169 163 0 176 155 0 184 147 0 191 139 0 198 132 0 206 124 0 213 116 0 221 108 0 229 101 1 236 91 0 243 84 0 251 76 0 190 4 0 5 60 0 13 52 0 21 44 0 28 37 0 35 28 0 43 20 0 50 12 0 58 5 0 67 254 0 75 246 0 82 239 0 90 231 0 97 223 0 105 214 0 112 207 0 120 199 1 127 191 0 135 183 0 142 175 0 149 167 0 157 159 0 165 151 0 173 144 1 179 135 0 186 126 0 194 119 0 202 111 0 209 104 0 217 96 0 224 88 0 232 79 0 239 72 0 247 64 0 254 56 0 4 47 0 11 39 0 19 31 0 26 23 0 34 15 0 41 7 0 52 0 0 60 247 0 67 239 0 75 231 0 82 223 0 90 215 0 97 207 0 106 200 1 112 191 0 119 182 0 127 174 0 135 167 0 142 160 0 150 152 0 157 144 0 166 137 1 172 128 0 180 120 0 187 112 0 196 104 0 202 96 0 210 88 0 217 80 0 225 72 0 232 64 0 240 56 0 247 48 0 214 0 0 4 33 0 12 25 0 19 17 0 27 9 0 34 1 0 43 250 0 51 242 0 58 234 0 66 226 0 73 218 0 81 210 0 89 202 1 95 194 0 102 186 0 110 178 0 118 170 0 125 162 0 132 153 0 140 146 0 149 138 0 154 129 0 163 123 0 169 114 0 178 107 0 185 99 0 193 91 0 200 83 0 208 75 0 215 67 0 223 59 0 230 51 0 238 43 0 246 35 0 254 28 1 247 9 0 17 23 0 42 37 0 67 51 0 93 64 0 119 78 1 144 91 0 170 105 0 196 119 0 223 133 0 250 148 0 248 156 0 13 159 0 10 147 0 17 139 0 25 131 0 32 123 0 39 115 0 47 107 0 54 99 0 61 90 0 69 84 0 77 76 0 85 68 1 92 60 0 99 52 0 107 44 0 114 36 0 121 28 0 130 21 1 136 12 0 144 4 0 153 253 0 160 245 0 168 238 1 175 229 0 183 221 0 190 214 0 197 206 0 205 198 0 212 190 0 220 182 0 228 175 1 235 166 0 241 158 0 249 150 0 113 2 0 0 134 0 9 127 1 15 119 0 23 111 0 30 103 0 37 94 0 44 86 0 53 79 0 60 71 0 67 63 0 75 55 0 82 46 0 90 40 0 97 32 0 105 24 0 112 16 0 120 8 0 127 0 0 136 249 0 144 242 0 152 235 1 159 226 0 166 217 0 174 210 0 181 203 0 189 195 0 196 187 0 203 179 0 211 171 0 218 163 0 226 155 0 233 146 0 241 139 0 248 131 0 131 2 1 6 114 1 13 106 0 21 98 0 28 90 0 35 83 0 43 75 0 50 67 0 58 60 1 65 51 0 72 43 0 80 35 0 87 27 0 94 19 0 102 11 0 110 4 0 111 5 0 125 251 0 132 243 0 139 235 0 146 227 0 154 219 0 162 212 0 169 204 1 177 195 0 184 187 0 191 179 0 199 173 1 207 164 0 214 156 0 220 148 0 229 140 0 235 131 0 244 123 0 250 116 0 1 110 0 8 101 0 17 94 1 23 85 0 30 76 0 38 69 0 47 61 1 53 53 0 60 45 0 68 37 0 74 28 0 83 22 0 91 15 1 98 6 0 107 254 0 114 246 0 122 239 0 129 232 0 136 223 0 144 215 0 151 207 0 160 199 1 165 190 0 175 183 1 181 174 0 189 167 0 196 159 0 204 152 0 212 145 1 218 136 0 226 127 0 233 119 0 241 112 0 249 105 1 159 1 0 3 88 0 11 80 0 18 72 0 25 65 0 34 58 1 41 50 1 48 41 0 55 33 0 62 25 0 70 18 1 77 9 0 84 0 0 93 250 0 103 243 1 109 235 0 117 228 0 124 220 0 131 212 0 139 204 0 146 196 0 154 188 0 161 180 0 169 172 0 176 164 0 185 156 0 191 149 1 199 140 0 206 133 0 213 125 0 221 117 0 228 109 0 236 101 0 242 93 0 251 85 0 0 76 0 8 68 0 15 60 0 23 52 0 30 44 0 39 37 0 45 28 0 52 21 0 60 13 0 67 5 0 78 253 0 85 244 0 93 237 0 101 230 0 109 221 0 116 213 0 123 204 0 130 196 0 138 189 0 146 182 0 154 175 1 160 166 0 168 158 0 175 150 0 183 142 0 191 135 1 198 126 0 205 118 0 213 110 0 221 103 1 228 94 0 235 87 0 242 79 0 250 72 1 0 63 0 8 55 1 14 47 0 22 39 0 29 31 0 37 24 0 43 15 0 52 8 0 59 0 0 68 248 0 76 241 0 83 233 0 90 225 0 98 218 0 105 208 0 113 201 0 120 193 0 128 185 0 135 177 0 143 169 0 150 161 0 158 154 0 165 146 0 172 138 0 180 130 0 187 122 0 195 113 0 203 107 1 210 98 0 218 91 1 225 82 0 233 74 0 240 67 0 246 58 0 254 51 0 228 13 1 251 26 1 22 40 0 47 53 0 72 67 0 97 80 0 123 94 0 149 108 0 175 122 0 201 135 0 228 150 0 239 175 0 251 169 0 18 176 0 26 155 0 33 146 0 41 139 0 48 131 0 55 122 0 63 115 0 71 107 0 78 99 0 85 92 0 93 85 0 99 75 0 109 68 1 115 60 0 123 52 0 130 44 0 137 36 0 145 29 0 152 21 0 160 13 0 167 5 0 176 254 0 183 246 0 191 238 0 198 230 0 206 222 0 213 214 0 221 206 0 229 199 0 235 191 0 243 183 0 250 175 0 88 2 0 1 159 0 8 151 0 16 143 0 23 135 0 31 128 0 38 120 0 45 112 0 53 104 0 59 96 0 68 88 0 75 80 0 82 72 0 90 65 0 97 57 0 104 48 0 112 41 0 120 33 0 127 25 0 134 17 0 142 9 0 149 2 0 159 252 0 166 244 0 173 236 0 181 228 0 188 220 0 196 212 0 203 205 0 211 196 0 218 189 0 226 182 0 234 173 0 240 165 0 248 157 0 105 0 0 5 139 0 12 132 0 19 123 0 27 116 0 34 108 0 42 101 0 49 93 0 57 85 0 64 77 0 73 70 1 79 61 0 86 53 0 94 45 0 101 38 0 109 30 0 116 22 0 123 14 0 131 6 0 129 9 0 145 253 0 153 245 0 161 238 0 168 230 0 175 222 0 183 214 0 190 206 0 198 198 0 205 191 0 212 182 0 220 175 0 227 167 0 235 159 0 242 151 1 250 144 1 121 2 0 7 127 0 13 119 0 21 112 0 29 104 0 35 95 0 44 88 0 51 80 0 59 72 0 66 64 0 74 57 0 82 49 0 89 42 0 96 33 0 104 25 0 111 17 0 118 8 0 125 1 0 133 249 0 142 242 0 149 234 0 158 227 1 164 219 0 171 211 0 179 203 0 186 195 0 194 187 0 201 179 0 209 171 0 215 162 0 224 156 1 231 148 0 238 140 0 246 132 0 253 124 0 0 116 0 8 108 0 15 100 0 23 93 0 30 85 0 37 77 0 45 69 0 52 61 0 60 53 0 67 45 0 74 37 0 82 30 0 89 22 0 97 14 0 104 6 0 112 1 0 121 247 0 128 240 0 136 232 0 143 224 0 151 217 0 158 209 0 165 201 0 173 194 0 180 185 0 188 177 0 195 168 0 204 161 0 210 153 0 217 146 0 226 139 1 232 130 0 240 122 0 247 114 0 149 0 0 4 97 0 13 90 1 20 82 1 26 73 0 34 66 0 41 58 0 49 50 0 55 41 0 62 33 0 71 26 0 77 17 0 86 10 0 93 2 0 104 251 0 113 243 1 119 236 0 127 227 0 134 219 0 141 211 0 149 203 0 156 195 0 164 188 0 171 180 0 178 172 0 186 164 0 193 156 0 202 149 1 208 140 0 216 132 0 223 125 0 230 117 0 238 109 0 245 101 0 253 93 0 2 85 0 10 77 0 17 70 0 25 62 0 31 53 0 39 47 1 47 38 0 54 30 0 62 22 0 69 14 0 77 7 0 85 0 0 93 247 0 100 239 0 107 232 0 115 224 0 123 216 0 131 208 0 137 200 0 145 192 0 152 185 0 160 176 0 167 168 0 174 161 0 182 153 0 189 145 0 197 137 0 205 130 0 212 121 0 219 113 0 226 106 0 234 98 0 241 90 0 248 81 0 184 2 0 207 15 0 231 28 0 2 43 0 27 56 0 50 69 0 77 83 0 102 97 0 129 112 1 154 126 1 180 139 0 206 153 0 233 167 0 241 188 0 253 182 0 24 194 0 42 162 0 49 154 0 57 147 0 64 139 0 71 130 0 79 123 0 86 115 0 93 107 0 101 100 0 109 92 0 117 85 0 124 77 1 131 68 0 138 60 0 146 53 0 153 45 0 161 38 1 168 29 0 175 21 0 183 13 0 190 5 0 198 253 0 206 246 0 214 238 0 221 232 0 229 223 0 236 215 0 243 207 0 251 199 0 64 2 0 2 185 1 10 176 1 16 168 0 23 160 0 31 152 0 38 144 0 46 136 0 53 129 0 60 121 0 68 113 0 75 105 0 83 97 0 89 89 0 97 82 0 104 73 0 112 66 0 120 58 0 127 50 0 134 42 0 142 34 0 149 27 0 157 19 0 164 11 0 172 4 1 181 253 0 188 245 0 195 237 0 203 230 0 210 222 0 218 214 0 225 206 0 232 199 0 240 190 0 247 183 0 79 0 0 4 165 0 13 159 1 19 150 0 25 141 0 34 134 0 41 126 0 48 118 0 56 111 0 64 104 1 71 95 0 79 87 1 85 79 0 94 72 1 100 64 0 109 56 0 115 48 0 122 40 0 130 32 0 137 24 0 145 16 0 152 9 0 159 1 0 165 1 0 173 247 0 182 240 0 188 232 0 196 226 0 204 217 0 211 208 0 219 201 0 226 193 0 233 185 0 242 178 1 248 170 0 93 1 0 5 154 0 12 146 0 19 137 0 27 131 0 35 123 0 42 115 0 49 107 0 57 99 0 63 90 0 71 82 0 79 76 0 87 68 1 93 60 0 101 52 0 109 44 0 116 36 0 123 29 0 131 21 0 138 13 0 146 5 0 154 254 0 162 246 0 169 238 0 177 231 0 184 222 0 191 215 0 199 208 0 206 199 0 214 191 0 221 183 0 229 176 1 236 167 0 243 160 0 251 152 0 114 3 0 6 137 1 13 129 1 20 120 0 27 113 0 35 105 0 42 97 0 49 89 0 57 81 0 63 72 0 72 65 0 79 58 0 86 50 0 94 42 0 101 34 0 109 26 0 117 18 1 123 11 0 131 3 0 140 254 0 147 245 0 156 238 1 163 230 1 170 221 0 177 213 0 184 205 0 193 199 0 199 190 0 207 182 0 214 174 0 221 166 0 229 159 0 236 151 0 245 144 1 250 135 0 0 126 0 8 118 0 15 110 0 22 101 0 30 94 0 37 87 0 45 79 0 52 71 0 60 64 0 67 55 0 74 47 0 82 40 0 88 31 0 97 24 0 104 16 0 112 9 1 119 0 0 130 247 0 137 241 1 145 233 0 152 225 0 159 217 0 167 209 0 174 202 0 183 194 1 189 186 0 196 178 0 204 170 0 212 163 1 218 153 0 226 146 0 233 139 0 241 131 1 247 122 0 141 1 0 5 107 0 12 99 0 20 92 0 27 84 0 35 76 0 42 68 0 50 61 1 57 52 0 64 45 0 72 37 0 79 29 0 86 21 0 94 13 0 101 5 0 110 254 0 116 245 0 125 239 0 131 231 0 140 223 0 147 215 0 154 207 0 162 199 0 169 191 0 177 183 0 184 176 0 191 168 0 199 160 0 206 152 0 214 144 0 221 136 0 228 129 0 236 121 0 243 113 0 251 106 0 164 5 0 189 19 1 212 31 0 237 44 0 6 59 0 31 72 0 57 87 1 81 100 0 107 113 0 134 128 1 159 142 0 185 156 1 212 170 0 239 185 0 244 202 0 1 196 0 29 212 0 58 170 0 67 163 1 73 154 0 80 147 0 89 140 1 95 131 0 103 123 0 110 116 0 116 108 0 125 100 0 132 92 0 139 84 0 147 76 0 153 67 0 160 60 0 169 53 0 175 44 0 184 37 0 190 28 0 198 22 0 206 14 0 213 6 0 221 0 0 230 247 0 237 239 0 244 231 0 250 223 0 39 2 0 2 208 0 9 200 0 17 192 0 24 184 0 31 177 0 39 169 0 46 161 0 53 153 0 61 145 0 68 137 0 75 130 0 83 122 0 90 114 0 98 107 0 105 97 0 112 91 0 120 83 0 127 75 0 134 67 0 141 58 0 148 51 0 156 44 0 164 36 0 172 28 0 180 21 1 186 12 0 193 5 0 202 0 0 210 247 0 217 239 0 225 231 0 232 223 0 239 216 0 247 208 0 254 200 0 4 191 0 11 183 0 18 175 0 26 167 0 33 160 0 40 152 0 48 144 0 55 136 0 63 128 0 70 121 0 77 113 0 85 105 0 92 97 0 100 90 1 106 80 0 114 74 0 121 66 0 129 57 0 136 50 0 144 42 0 150 35 0 158 27 0 166 19 0 173 11 0 180 3 0 183 6 1 195 250 0 201 242 0 210 236 0 217 227 0 225 219 0 232 212 0 239 204 0 247 196 0 255 189 1 4 181 0 11 173 0 17 165 0 26 157 0 33 149 0 40 141 0 48 134 0 55 126 0 62 118 0 70 111 0 77 102 0 86 95 1 92 87 0 99 79 0 107 71 0 114 63 0 121 56 0 129 48 0 136 40 0 143 32 0 151 24 0 158 16 0 166 9 0 173 1 0 182 250 0 188 241 0 196 235 1 204 226 0 211 217 0 220 211 1 227 204 0 233 195 0 241 187 0 248 179 0 83 1 0 3 165 1 10 156 0 17 148 0 25 140 0 32 132 0 39 125 0 47 117 0 54 109 0 60 100 0 69 93 0 76 85 0 83 78 0 91 70 0 97 61 0 106 54 0 113 46 0 120 39 0 128 31 0 135 23 0 142 15 0 150 7 0 156 2 0 166 249 0 174 242 0 181 234 0 189 227 0 195 217 0 204 210 0 211 203 0 217 195 0 225 187 0 233 179 0 240 171 0 247 164 0 98 0 0 4 147 0 12 139 0 19 131 0 26 123 0 34 115 0 40 107 0 48 99 0 56 92 0 63 84 0 71 76 0 78 68 0 85 61 0 92 53 0 100 45 0 107 37 0 115 29 0 122 22 0 129 14 0 137 6 0 148 254 0 155 246 0 163 238 0 170 231 0 177 223 0 184 214 0 193 208 1 199 199 1 207 192 0 213 184 0 221 176 0 229 168 0 236 160 0 244 152 0 251 145 0 0 136 0 8 129 0 15 121 0 22 114 0 30 106 0 37 98 0 45 90 0 52 82 0 59 74 0 67 67 0 74 59 0 81 51 0 88 42 0 96 35 0 104 28 0 111 20 0 119 13 1 126 4 0 134 253 0 142 245 0 149 237 0 157 230 0 164 222 0 171 214 0 179 206 0 186 198 0 193 190 0 201 183 0 208 175 0 214 166 0 223 159 0 231 151 0 239 145 0 245 136 0 252 128 0 145 8 0 168 21 0 192 34 0 217 47 0 239 60 0 11 75 0 36 89 0 61 103 0 86 116 0 112 130 0 137 144 0 164 160 0 191 173 0 217 187 0 244 201 0 246 215 0 7 214 0 35 229 0 74 178 0 82 170 0 89 162 0 96 154 0 104 147 0 111 139 0 118 131 0 126 123 0 133 115 0 139 108 0 148 100 0 155 92 0 162 84 0 170 76 0 177 69 0 184 61 0 191 52 0 199 45 0 206 38 0 214 30 0 221 22 0 228 13 0 237 6 0 243 1 0 252 247 0 16 3 0 2 232 0 9 223 0 18 217 1 24 209 0 32 202 0 38 193 0 46 185 0 54 177 0 61 170 0 67 161 0 76 154 0 83 146 0 89 137 0 98 131 0 105 123 0 112 115 0 120 107 0 126 99 0 134 92 0 142 84 0 149 76 0 155 67 0 164 61 0 171 53 0 178 45 0 187 37 0 194 29 0 200 22 0 208 14 0 216 7 1 221 2 0 232 248 0 238 240 0 246 233 0 254 225 0 3 217 0 10 208 0 17 199 0 25 193 0 31 184 0 41 178 1 47 169 0 54 161 0 62 154 0 69 146 0 76 138 0 84 130 0 91 123 0 98 115 0 107 108 1 113 99 0 120 91 0 128 84 0 135 76 0 142 68 0 150 60 0 157 53 0 164 45 0 172 37 0 180 29 0 186 21 0 194 14 0 201 6 0 199 8 0 216 253 0 224 246 0 231 238 0 238 230 0 245 222 0 253 214 0 2 207 0 9 199 0 16 190 0 24 183 0 31 176 0 39 168 0 47 161 1 53 152 0 61 144 0 68 137 0 75 130 1 83 121 0 90 113 0 97 106 0 105 98 0 112 90 0 119 82 0 127 74 0 135 68 1 141 59 0 149 51 0 156 43 0 163 36 0 171 28 0 178 20 0 184 11 0 194 4 0 202 253 0 209 246 0 216 238 0 225 231 1 231 222 0 238 214 0 247 207 1 253 199 0 0 191 0 7 183 0 14 174 0 22 168 0 29 160 0 38 153 0 44 144 0 52 137 1 59 129 0 66 121 0 73 113 0 82 106 1 88 97 0 94 89 0 103 82 0 110 73 0 117 66 0 125 59 0 132 51 0 139 43 0 148 36 1 154 27 0 161 20 0 170 13 1 175 4 0 185 254 0 192 246 0 200 239 0 207 231 0 214 223 0 222 215 0 229 206 0 236 200 0 244 192 0 251 184 0 0 174 0 8 167 0 15 159 0 23 152 0 30 144 0 37 136 0 45 128 0 52 121 0 59 112 0 67 105 0 74 97 0 81 89 0 90 83 1 96 74 0 103 66 0 111 57 0 118 50 0 124 42 0 133 35 0 141 28 1 147 19 0 155 12 0 161 3 0 173 253 0 180 244 0 188 236 0 195 229 0 202 221 0 210 213 0 217 204 0 225 198 0 232 190 0 239 182 0 246 174 0 254 166 0 4 160 0 10 150 0 18 143 0 24 134 0 32 128 0 41 121 1 47 112 0 54 104 0 62 96 0 69 89 0 76 81 0 84 73 0 91 65 0 97 56 0 106 50 0 112 41 0 121 34 0 128 26 0 135 19 0 143 11 0 150 3 0 159 253 0 166 244 0 173 236 0 181 228 0 188 221 0 195 212 0 203 205 0 210 197 0 217 190 0 226 183 0 233 175 1 239 166 0 247 158 0 254 151 0 125 11 0 149 24 0 172 37 0 196 50 0 220 63 0 245 77 1 15 92 0 40 105 0 65 119 0 91 133 0 116 146 0 142 161 0 169 176 0 195 190 0 222 205 0 249 220 0 248 228 0 12 232 0 40 247 0 90 185 0 97 177 0 105 170 0 112 162 0 119 153 0 127 146 0 135 139 1 141 131 0 149 123 0 156 116 1 163 108 0 171 99 0 178 92 0 185 84 0 193 78 1 200 69 0 207 61 0 214 53 0 222 46 0 229 38 0 237 30 0 244 22 0 250 14 0 249 3 0 3 0 0 10 247 0 17 240 0 25 232 0 32 225 0 38 217 0 47 209 0 54 201 0 61 194 0 69 186 0 76 178 0 83 170 0 90 164 0 98 155 0 105 147 0 111 138 0 120 132 0 127 124 0 133 115 0 142 108 0 149 101 0 156 93 0 164 85 0 171 77 0 178 70 0 185 62 0 194 54 0 200 46 0 207 39 0 215 31 0 222 23 0 228 14 0 237 8 0 244 0 0 253 249 0 3 241 1 10 234 0 17 225 0 24 218 0 32 210 0 39 202 0 46 194 0 54 187 0 61 179 0 68 171 0 76 163 0 83 155 0 90 148 0 97 139 0 105 132 0 112 125 0 119 117 0 127 109 0 134 101 0 140 93 0 150 87 1 156 78 0 163 70 0 171 63 0 178 55 0 185 47 0 194 39 0 200 32 0 207 24 0 214 16 0 222 8 0 230 1 0 235 1 0 244 248 0 250 240 0 0 233 0 8 225 0 15 217 0 22 210 0 30 202 0 37 194 0 44 187 0 52 178 0 59 171 0 66 163 0 73 155 0 81 147 0 88 140 0 95 132 0 103 124 0 110 116 0 117 109 0 125 101 0 132 93 0 139 85 0 147 79 1 154 70 0 161 62 0 168 54 0 176 47 0 183 39 0 190 31 0 199 23 0 205 16 0 212 8 0 219 0 0 229 249 1 236 241 0 243 233 0 249 226 0 39 3 0 5 210 0 13 203 1 19 195 0 26 187 0 34 179 0 41 172 0 48 164 0 57 156 1 63 148 0 70 140 0 78 133 0 85 125 0 92 117 0 100 109 0 108 102 1 114 94 0 120 86 0 129 78 0 137 72 1 143 63 0 151 55 0 158 47 0 165 40 0 172 31 0 181 25 1 187 16 0 195 9 0 202 1 0 212 251 1 218 243 0 227 237 1 233 228 0 240 220 0 248 212 0 50 0 0 4 195 0 12 189 0 19 180 0 26 172 0 33 163 0 41 157 0 48 149 0 55 141 0 63 133 0 70 126 0 77 118 0 84 109 0 92 102 0 99 94 0 107 87 0 114 79 0 121 71 0 128 63 0 136 56 0 143 48 0 150 40 0 158 33 0 166 26 1 172 17 0 180 9 0 186 1 0 198 249 0 205 242 0 213 234 0 220 227 0 227 219 0 234 211 0 242 203 0 249 196 0 70 3 0 6 180 0 13 172 0 20 165 0 28 157 0 35 149 0 42 140 0 50 134 0 57 126 0 64 118 0 72 110 0 79 103 0 86 95 0 94 87 0 100 78 0 108 72 0 115 64 0 123 56 0 130 48 0 137 41 0 145 33 0 152 25 0 159 17 0 167 10 0 174 2 0 183 251 0 190 243 0 197 235 0 205 227 0 212 220 0 218 212 0 227 204 0 234 196 0 241 189 0 248 182 0 83 2 0 107 14 0 129 27 0 153 40 0 176 53 0 200 66 0 224 79 0 249 93 0 20 108 0 45 122 0 69 135 0 95 150 0 121 164 0 147 178 0 174 193 0 199 206 0 227 222 0 255 237 0 251 242 0 18 249 0 0 0 255 106 194 0 114 186 1 120 177 1 128 170 0 135 162 0 142 154 0 150 146 0 157 139 0 164 131 0 171 123 0 179 116 0 186 108 0 194 100 0 201 91 0 208 85 0 215 77 0 222 69 0 230 61 0 237 54 0 244 46 0 250 38 0 225 3 0 4 24 0 11 16 0 18 9 0 27 2 1 32 249 0 40 241 0 47 234 0 54 225 0 61 218 0 69 210 0 75 201 0 83 194 0 92 187 1 98 179 0 106 172 0 112 164 0 120 156 0 128 149 1 134 140 0 142 133 0 149 125 0 156 117 0 164 111 0 171 102 0 178 94 0 185 86 0 192 79 0 200 71 0 207 63 0 214 55 0 223 49 1 229 40 0 236 32 0 243 26 1 251 17 0 3 9 0 11 1 0 17 250 0 24 242 0 31 235 0 38 227 0 46 219 0 53 212 0 60 204 0 68 197 1 75 188 0 82 181 0 89 173 0 97 165 0 104 158 0 112 150 0 118 142 0 126 134 0 134 128 1 139 119 0 148 111 0 155 104 0 162 96 0 169 88 0 177 80 0 184 73 0 190 65 0 199 57 0 206 49 0 212 42 0 221 35 1 229 27 1 235 19 0 242 11 0 249 3 0 250 5 0 6 250 0 13 242 0 21 235 0 27 228 0 35 220 0 43 212 0 50 204 0 57 197 0 64 189 0 72 181 0 79 174 0 87 166 1 93 158 0 101 150 0 108 143 0 115 135 0 123 127 0 130 120 0 136 111 0 144 104 0 152 96 0 159 89 0 166 81 0 175 73 1 182 67 1 188 58 0 195 50 0 203 42 0 209 34 0 217 27 0 225 19 0 232 11 0 239 4 0 248 253 0 11 0 0 2 237 0 8 229 0 17 222 0 24 214 0 31 206 0 38 199 0 46 191 0 53 183 0 61 176 1 67 168 0 75 160 0 82 152 0 89 144 0 97 137 0 104 129 0 112 122 0 118 114 0 126 106 0 133 98 0 139 89 0 148 83 0 156 75 0 162 67 0 168 59 0 177 52 0 184 44 0 191 36 0 199 29 0 206 21 0 213 13 0 220 5 0 229 1 0 237 248 0 244 240 0 251 232 0 1 223 0 8 216 0 15 208 0 23 200 0 29 193 0 37 185 0 44 177 0 52 169 0 59 162 0 66 154 0 74 146 0 81 137 0 88 131 0 95 123 0 103 115 0 110 108 0 117 100 0 124 92 0 132 85 0 139 77 0 146 70 0 154 61 0 160 54 0 168 46 0 175 38 0 183 30 0 190 23 0 197 15 0 205 7 0 215 0 0 224 249 1 230 239 0 238 233 1 245 224 0 252 217 0 1 209 0 9 201 0 16 194 0 23 187 0 30 178 0 38 172 0 44 163 0 52 155 0 58 146 0 67 140 0 74 132 0 82 124 0 89 117 0 96 110 0 103 101 0 111 94 1 118 86 0 125 78 0 132 70 0 141 64 1 147 55 0 154 47 0 161 39 0 169 32 0 176 24 0 183 16 0 190 8 0 198 1 0 206 249 0 214 242 0 222 235 1 228 226 0 236 219 0 243 211 0 249 202 0 64 5 0 87 17 0 110 30 0 133 43 0 158 57 1 181 69 0 205 82 0 229 95 0 253 109 0 24 125 0 49 138 0 75 152 0 100 167 0 126 182 0 152 195 0 179 210 0 205 225 0 233 241 1 0 0 255 0 0 255 0 0 255 0 0 255 122 200 0 129 192 0 135 184 0 143 177 0 151 169 0 158 162 0 166 154 0 172 146 0 180 139 0 187 131 0 194 123 0 201 116 0 208 108 0 216 100 0 223 92 0 230 85 0 238 77 0 245 69 0 252 62 0 202 3 0 4 48 0 11 40 0 19 32 0 25 24 0 33 17 0 40 9 0 48 1 0 53 248 0 62 241 0 68 234 0 76 226 0 82 217 0 91 211 0 99 204 1 106 196 0 112 188 0 120 180 0 127 172 0 134 164 0 141 157 0 150 150 1 155 140 0 163 134 0 170 126 0 179 119 1 185 111 0 192 103 0 199 95 1 207 88 0 214 80 0 220 72 0 228 64 0 236 57 0 243 49 0 250 41 0 3 34 0 10 26 0 17 18 0 25 11 0 31 3 0 39 253 1 45 244 0 52 236 0 58 229 0 67 221 0 74 213 0 80 205 0 87 198 0 95 189 0 103 183 0 111 175 1 117 167 0 125 159 0 131 151 0 139 144 0 146 136 0 153 129 0 161 121 0 168 113 0 175 106 0 183 98 0 190 90 0 197 83 0 204 75 0 212 67 0 219 59 0 226 52 0 233 44 0 240 36 0 248 29 0 0 21 0 7 13 0 14 5 0 11 9 1 26 253 0 34 246 0 41 238 0 49 231 1 54 223 0 64 216 1 69 207 0 77 200 0 84 192 0 92 185 0 98 176 0 106 169 0 113 161 0 121 153 0 128 146 0 135 138 0 142 130 0 150 123 0 157 115 0 164 108 0 171 100 0 179 92 0 186 84 0 194 77 0 200 69 0 208 61 0 214 52 0 222 46 0 229 38 0 237 30 0 244 23 0 250 14 0 0 9 0 7 1 0 14 247 0 21 241 0 28 233 0 36 225 0 44 219 1 49 209 0 57 202 0 65 195 0 73 187 1 79 179 0 86 172 0 94 164 0 101 156 0 109 149 1 116 141 1 123 133 0 130 125 0 137 118 0 144 110 0 152 102 0 159 95 0 166 87 0 173 79 0 181 72 0 188 64 0 195 56 0 202 48 0 210 41 0 217 33 0 225 26 1 232 19 1 239 10 0 246 2 0 2 0 0 3 242 0 12 236 0 18 227 0 26 220 0 33 213 0 42 205 1 48 197 0 55 191 0 62 182 0 70 174 0 76 167 0 84 159 0 91 151 0 99 144 0 106 135 0 112 127 0 119 119 0 128 113 0 135 105 0 142 97 1 149 90 0 156 81 0 164 74 0 171 67 0 178 59 0 186 51 0 193 43 0 200 36 0 208 28 1 215 20 0 222 13 0 229 5 0 240 253 0 247 246 0 16 0 0 4 230 0 11 223 0 18 215 0 26 207 0 33 200 0 41 193 1 47 184 0 55 176 0 63 170 1 69 161 0 75 152 0 84 146 0 91 138 0 99 131 1 105 123 0 113 115 0 120 107 0 127 100 0 134 92 0 142 84 0 149 77 0 156 69 0 163 60 0 171 53 0 178 46 0 185 38 0 192 30 0 200 23 0 207 15 0 215 8 1 221 0 0 231 248 0 238 241 1 246 234 0 252 225 0 46 7 0 68 20 0 92 34 1 114 45 0 137 58 0 161 72 0 185 85 0 209 98 0 233 112 0 4 127 0 28 140 0 54 155 0 78 168 0 105 183 0 131 198 0 157 212 0 184 227 0 211 242 0 0 0 255 0 0 255 0 0 255 1 1 255 0 0 254 137 207 0 144 200 0 151 193 1 159 185 0 166 177 0 173 169 0 180 162 0 188 153 0 195 146 0 202 139 0 208 130 0 216 123 0 225 117 0 231 108 0 238 100 0 245 93 0 253 85 0 178 3 0 5 71 0 12 63 0 19 56 0 26 48 0 34 40 0 41 33 0 49 26 1 55 18 1 62 10 0 70 2 0 76 250 0 84 242 0 92 235 1 97 226 0 105 219 0 112 211 0 120 204 0 127 196 1 134 188 0 141 181 0 149 173 0 156 165 0 162 157 0 170 150 0 176 141 0 185 135 0 193 127 0 198 119 0 206 112 0 214 104 0 221 96 0 229 90 1 236 82 1 242 73 0 250 66 0 2 58 0 9 50 0 17 43 0 25 36 1 31 27 0 38 20 0 46 12 0 53 4 0 59 253 0 66 246 0 73 238 0 79 230 0 88 223 0 95 215 0 102 207 0 109 200 0 115 191 0 124 184 0 130 176 0 139 170 1 145 161 0 153 154 0 160 146 0 167 137 0 173 130 0 181 123 0 189 115 0 196 108 0 203 100 0 210 92 0 218 85 0 225 77 0 233 69 0 239 62 0 246 54 0 255 47 1 6 38 0 13 31 0 20 23 0 27 15 0 35 8 0 42 0 0 44 1 0 54 248 0 61 241 0 68 233 0 75 225 0 82 218 0 90 210 0 98 203 1 104 196 0 111 187 0 118 178 0 126 172 0 133 164 0 140 156 0 147 149 0 155 140 0 162 133 0 168 126 0 176 118 0 184 110 0 191 103 0 198 95 0 205 87 0 212 80 0 220 72 0 227 64 0 234 57 0 240 49 0 249 41 0 221 1 0 5 27 0 12 21 0 19 12 0 26 4 0 33 252 0 40 245 0 48 238 1 54 229 0 62 221 0 70 214 1 76 206 0 84 198 0 91 191 0 98 182 0 105 174 0 112 167 0 120 160 0 127 152 0 134 145 0 141 137 0 149 129 0 155 121 0 163 114 0 170 106 0 177 99 0 185 91 0 192 83 0 199 76 0 206 68 0 214 60 0 221 53 0 228 44 0 235 38 0 242 30 0 250 22 0 2 14 0 8 6 0 14 1 0 23 248 0 30 240 0 38 234 1 44 225 0 51 217 0 58 209 0 66 202 0 73 194 0 80 187 0 88 179 0 96 172 1 102 164 0 109 156 0 116 148 0 124 141 0 130 132 0 137 124 0 145 118 0 153 110 0 159 101 0 167 95 0 174 87 0 181 80 0 189 72 0 196 64 0 203 57 0 210 49 0 218 41 0 225 34 0 232 26 0 239 18 0 246 11 0 253 2 0 7 251 0 14 244 0 21 236 0 28 228 0 36 221 0 43 213 0 50 205 0 57 198 0 64 190 0 72 182 0 79 175 0 86 167 0 93 159 0 100 152 0 108 144 0 115 136 0 122 129 0 129 121 0 138 114 1 143 105 0 151 98 0 158 90 0 165 83 0 174 75 1 180 67 0 187 60 0 194 52 0 202 44 0 208 37 0 217 30 1 223 21 0 230 14 0 238 6 0 246 0 0 255 248 1 27 10 0 49 23 0 73 37 1 95 48 0 118 61 0 140 74 0 165 87 0 189 102 1 213 114 0 238 128 0 8 144 0 33 158 0 59 172 0 85 187 0 110 200 0 136 215 0 162 231 0 189 245 0 0 0 255 0 0 255 0 0 255 0 0 255 0 0 255 0 0 254 152 215 0 160 207 0 167 200 0 174 192 0 181 184 0 188 177 0 195 169 0 203 161 0 209 153 0 217 146 0 225 139 0 231 131 0 240 124 1 246 116 0 254 109 0 156 4 0 5 94 0 12 86 0 20 79 0 27 71 0 34 64 0 41 56 0 48 48 0 56 41 0 63 33 0 70 25 0 77 18 0 83 9 0 91 2 0 98 249 0 105 242 0 113 236 0 120 228 1 127 219 0 134 212 0 141 204 0 148 197 0 156 189 0 163 181 0 170 174 0 177 166 0 185 160 1 192 151 0 198 143 0 206 136 0 213 128 0 220 120 0 228 113 0 235 105 0 242 97 0 249 90 1 2 82 0 9 74 0 16 67 0 23 59 0 30 52 0 38 44 0 45 36 0 52 29 0 59 21 0 66 14 0 74 6 0 79 0 0 87 247 0 93 239 0 101 232 0 109 225 0 115 217 0 123 208 0 131 202 0 137 194 0 144 186 0 151 178 0 159 171 0 166 163 0 174 157 1 180 148 0 187 140 0 195 133 0 203 126 1 209 117 0 217 111 1 222 101 0 231 95 0 239 88 1 245 79 0 252 72 0 4 64 0 11 56 0 18 48 0 26 41 0 33 33 0 39 24 0 47 18 0 54 10 0 62 3 0 61 5 0 73 251 0 81 243 0 88 236 0 96 229 1 102 220 0 109 213 0 117 205 0 124 197 0 131 190 0 138 182 0 145 175 0 153 167 0 160 160 0 167 153 0 173 143 0 182 136 0 189 129 0 196 121 0 203 113 0 210 106 0 217 98 0 225 91 0 232 83 0 239 75 0 246 68 0 253 60 0 1 53 0 10 47 1 16 38 0 24 31 0 31 23 0 39 17 1 44 7 0 52 0 0 59 248 0 66 240 0 73 233 0 81 225 0 88 217 0 95 210 0 102 202 0 109 195 0 117 187 0 124 180 1 131 172 0 138 164 0 145 156 0 153 149 0 160 141 0 168 133 0 174 126 0 181 118 0 189 111 0 196 104 1 203 95 0 210 88 0 217 80 0 225 72 0 232 65 0 239 57 0 246 50 0 253 42 0 7 35 1 13 27 0 20 19 0 27 10 0 35 4 0 41 253 0 48 246 0 55 237 0 61 230 0 68 221 0 76 213 0 84 207 0 91 199 0 98 192 0 105 184 0 112 176 0 120 169 0 127 161 0 134 153 0 140 145 0 148 138 0 156 131 0 163 123 0 171 116 0 177 108 0 184 99 0 192 92 0 199 86 1 206 77 0 212 69 0 220 62 0 228 54 0 235 47 0 242 39 0 249 31 0 1 23 0 7 15 0 15 8 0 23 0 0 30 248 0 38 242 0 45 235 0 52 226 0 60 219 0 68 212 1 74 203 0 81 196 0 88 188 0 96 181 0 103 173 0 110 165 0 117 158 0 124 150 1 132 142 0 139 135 0 146 127 0 153 119 0 160 112 0 168 104 0 175 97 0 182 89 0 189 81 0 196 75 1 204 67 0 212 59 1 217 51 0 224 42 0 232 36 0 239 28 0 247 20 0 254 13 0 8 13 0 30 25 0 53 38 0 76 51 0 99 64 0 122 78 1 145 89 0 169 104 0 194 118 1 217 131 0 241 144 0 12 159 0 38 174 0 63 189 0 90 204 1 116 218 1 141 232 0 168 247 0 0 0 254 0 0 255 0 0 255 0 0 255 0 0 255 0 0 255 0 0 255 168 222 0 175 215 0 182 207 0 189 199 0 196 192 0 203 184 0 211 177 0 218 169 0 226 161 1 232 154 0 239 146 0 246 139 0 254 131 0 133 5 0 6 117 0 13 109 0 20 101 0 27 94 0 34 87 0 41 78 0 50 71 0 55 63 0 64 56 0 70 49 0 77 41 0 84 33 0 92 26 0 99 18 0 106 11 0 113 3 0 120 250 0 127 243 0 134 235 0 141 228 0 148 220 0 155 212 0 163 205 0 170 197 0 177 190 0 185 183 1 190 175 0 199 167 0 206 159 0 213 152 0 221 145 1 228 138 1 234 129 0 242 121 0 249 114 0 1 106 0 9 100 1 16 91 0 23 83 0 30 76 0 37 68 0 44 61 0 51 53 0 59 45 0 66 38 0 73 30 0 79 22 0 87 15 0 94 7 0 102 0 0 107 248 0 115 241 0 122 233 0 129 227 0 136 218 0 143 211 0 149 203 0 158 195 0 165 188 0 172 181 1 179 173 0 186 165 0 194 158 0 201 150 0 208 142 0 215 135 0 222 127 0 229 119 0 236 112 0 243 103 0 251 97 0 4 90 1 10 81 0 17 73 0 24 66 0 31 58 0 38 51 0 46 43 0 53 35 0 60 28 0 66 19 0 74 13 0 81 5 0 77 8 0 93 254 0 100 246 0 108 239 1 115 231 0 122 223 0 129 215 0 136 208 0 144 200 0 150 193 0 158 184 0 164 176 0 172 170 0 179 162 0 186 155 0 193 146 0 201 139 0 207 131 0 216 124 1 223 118 1 229 109 0 236 100 0 245 95 1 250 86 0 1 81 1 7 72 0 15 65 1 20 56 0 28 49 0 35 42 0 43 34 0 50 27 0 56 18 0 64 11 0 72 5 1 78 250 0 85 244 0 91 236 0 99 229 0 107 221 0 114 213 0 121 206 0 128 198 0 135 191 0 142 183 0 150 175 0 157 168 0 165 161 1 171 153 0 179 146 1 184 136 0 194 131 1 200 122 0 208 116 1 214 107 0 220 99 0 228 92 0 236 84 0 243 77 0 249 69 0 2 61 0 9 54 0 17 46 0 24 39 0 31 31 0 38 22 0 45 16 0 52 8 0 60 1 0 66 249 0 72 241 0 80 234 0 86 226 0 93 218 0 101 212 0 110 205 0 116 196 0 123 189 0 131 182 0 138 175 1 144 166 0 152 158 0 159 151 0 166 143 0 174 136 1 180 128 0 187 120 0 195 112 0 202 105 0 209 97 0 217 90 0 223 82 0 231 75 0 237 66 0 245 59 0 252 52 0 4 44 0 11 36 0 18 29 0 26 22 1 32 13 0 41 7 1 48 0 0 55 247 0 62 240 0 70 233 1 76 224 0 84 217 0 91 209 0 98 202 0 105 193 0 112 187 0 119 179 0 127 172 1 134 163 0 141 156 0 148 148 0 155 141 0 162 133 0 170 125 0 177 118 0 184 110 0 191 103 0 198 95 0 205 87 0 213 80 1 220 72 0 228 65 1 234 57 0 240 49 0 248 42 0 222 1 0 245 14 0 12 29 0 34 41 0 56 53 0 80 67 0 103 80 0 127 94 1 150 106 0 173 120 0 196 132 0 222 147 0 245 160 0 17 177 0 43 191 0 68 206 0 93 219 0 119 235 0 146 250 0 0 0 255 0 0 255 0 0 255 0 0 255 0 0 255 0 0 255 1 1 255 0 0 255 183 230 0 190 221 0 196 213 0 204 207 0 211 199 0 218 192 0 226 184 0 233 176 0 241 170 1 247 161 0 255 154 0 111 6 1 6 140 0 13 132 0 21 126 1 27 117 0 35 109 0 42 102 0 49 94 0 56 86 0 63 79 0 70 72 0 77 64 0 85 56 0 91 49 0 99 41 0 106 34 0 113 26 0 120 19 0 127 11 0 135 3 0 141 251 0 148 244 0 155 236 0 163 228 0 171 221 0 177 213 0 184 205 0 191 199 0 198 191 0 205 183 0 213 175 1 219 167 0 227 159 0 234 153 0 241 145 0 248 138 0 1 130 0 8 122 0 15 115 0 22 107 0 29 99 0 36 92 0 44 85 0 51 77 0 58 69 0 65 62 0 72 54 0 78 46 0 86 39 0 93 32 0 101 24 0 108 16 0 116 10 1 122 1 0 127 249 0 135 242 0 142 235 0 150 228 1 156 220 0 164 212 0 171 204 0 177 196 0 185 190 0 192 183 0 199 174 0 206 167 0 212 159 0 221 152 0 229 144 0 235 137 0 242 129 0 248 121 0 1 113 0 8 106 0 15 98 0 22 91 0 30 83 0 37 76 0 44 68 0 52 61 1 58 53 0 65 45 0 72 38 0 80 30 0 87 23 0 94 15 0 101 7 0 109 0 0 111 1 0 120 248 0 127 241 0 134 233 0 141 226 0 148 218 0 156 210 0 163 203 0 170 195 0 177 189 1 184 180 0 191 173 0 198 165 0 205 157 0 213 150 0 220 142 0 227 135 0 235 127 0 241 120 0 248 112 0 150 2 1 4 98 0 11 91 0 18 83 0 26 75 0 33 68 0 41 61 1 48 54 1 54 45 0 61 38 0 68 30 0 76 22 0 84 16 1 90 7 0 97 0 0 104 247 0 111 240 0 117 232 0 125 225 0 132 217 0 138 210 0 146 202 0 154 194 0 160 186 0 168 179 0 175 172 0 182 164 0 189 157 0 196 149 0 204 141 0 211 134 0 218 126 0 225 119 0 232 111 0 240 105 1 246 96 0 254 88 0 5 80 0 13 73 0 20 66 0 27 58 0 35 50 0 42 43 0 49 35 0 56 28 0 63 20 0 70 13 0 77 5 0 83 254 0 90 246 0 97 239 0 105 231 0 112 224 0 119 216 0 127 209 0 134 202 1 140 193 0 147 186 0 155 178 0 162 171 0 169 163 0 175 155 0 183 149 0 191 140 1 198 133 0 205 125 0 212 118 0 219 110 0 226 103 0 233 95 0 239 86 0 247 80 0 182 0 0 6 64 0 12 56 0 21 49 0 27 41 0 35 34 0 42 26 0 49 19 0 56 11 0 63 4 0 72 253 0 80 246 1 86 237 0 93 230 0 100 222 0 107 215 0 113 207 0 122 200 0 129 192 0 136 184 0 143 177 0 150 169 0 158 163 1 164 154 0 173 147 1 179 138 0 186 131 0 193 124 0 200 116 0 207 109 0 214 101 0 222 94 0 229 86 0 236 78 0 242 71 0 250 63 0 205 4 0 225 16 0 247 29 0 16 44 0 38 57 0 61 69 0 84 83 0 107 96 0 130 109 0 154 122 0 178 136 0 203 151 1 226 164 0 251 178 0 22 194 0 47 208 0 73 223 0 98 237 0 124 252 0 0 0 255 0 0 255 0 0 255 1 1 255 0 0 255 0 0 255 0 0 255 0 0 255 0 0 255 198 237 0 205 229 0 212 221 0 219 214 0 226 206 0 233 199 0 239 190 0 247 184 0 78 0 0 89 6 1 7 162 0 14 155 0 21 147 0 28 140 0 34 131 0 41 124 0 49 117 0 56 110 0 63 102 0 71 94 0 78 87 0 85 78 0 92 73 0 99 64 0 106 57 0 113 49 0 120 42 0 127 34 0 135 27 0 142 19 0 149 12 0 156 4 0 162 252 0 171 245 0 177 237 0 184 229 0 191 221 0 198 214 0 205 206 0 213 199 0 218 190 0 226 184 0 234 176 0 241 169 0 247 160 0 0 154 0 7 146 0 14 139 0 22 131 0 28 123 0 36 116 0 43 108 0 50 101 0 57 93 0 65 87 1 71 78 0 78 71 0 86 63 0 93 56 0 100 48 0 107 40 0 114 33 0 121 25 0 129 19 1 135 10 0 142 3 0 148 252 0 155 244 0 162 237 0 169 229 0 177 222 0 184 214 0 191 206 0 199 199 1 205 191 0 212 184 0 219 176 0 227 169 0 233 161 0 242 154 1 248 146 0 0 137 0 7 130 0 13 122 0 21 116 0 28 109 1 35 100 0 42 93 0 49 85 0 56 78 0 64 70 0 71 63 0 79 56 1 85 48 0 91 39 0 99 33 0 106 24 0 113 17 0 120 10 0 127 2 0 127 5 0 139 251 0 146 243 0 153 237 0 161 228 0 168 221 0 175 213 1 183 206 0 189 198 0 195 190 0 203 183 0 210 175 0 217 168 0 225 160 0 232 153 0 239 145 0 246 138 0 253 130 0 2 124 0 9 116 0 16 110 0 23 101 0 30 94 0 37 86 0 44 79 0 51 71 0 59 64 0 66 56 0 73 48 0 80 41 0 87 33 0 94 26 0 101 18 0 108 11 0 115 3 0 122 250 0 129 243 0 135 235 0 143 228 0 150 221 0 158 213 0 165 206 0 171 198 0 179 191 0 186 183 0 194 175 0 200 167 0 207 159 0 214 153 0 221 144 0 229 137 0 237 131 1 243 123 0 250 115 0 2 108 0 10 100 0 17 91 0 24 85 0 31 77 0 38 70 0 45 62 0 52 55 0 59 47 0 66 40 0 74 32 0 82 26 1 88 17 0 95 10 0 102 2 0 108 251 0 114 242 0 122 236 0 129 228 0 136 221 0 143 212 0 150 206 0 158 198 0 165 190 0 172 182 0 179 176 0 186 168 0 193 160 0 201 153 0 208 145 0 214 138 0 222 130 0 229 122 0 236 115 0 243 109 0 250 100 1 3 92 1 9 85 0 15 76 0 23 69 0 30 62 0 37 54 0 45 47 0 52 39 0 59 32 0 66 24 0 73 17 0 80 9 0 87 2 0 94 250 0 102 243 0 110 235 0 117 228 0 124 220 0 131 213 0 137 204 0 145 198 0 152 190 0 159 183 0 166 175 0 174 168 0 181 160 0 188 152 0 195 145 0 201 136 0 209 130 0 217 122 0 223 115 0 230 107 0 238 100 0 245 92 0 252 85 0 185 7 0 207 19 0 230 32 0 251 44 0 20 60 0 43 73 1 65 85 0 86 97 0 111 112 0 134 125 0 158 139 0 182 151 0 206 166 0 230 180 0 2 196 0 27 211 0 53 226 1 77 240 0 103 254 0 1 1 255 0 0 255 0 0 255 0 0 255 0 0 255 0 0 255 0 0 255 0 0 255 0 0 255 0 0 255 213 244 0 219 235 0 227 229 0 234 221 0 241 214 0 248 206 0 56 0 0 0 192 0 7 185 0 14 177 0 20 169 0 28 162 0 35 155 0 42 147 0 49 140 0 58 133 1 64 125 0 71 117 0 78 110 0 85 102 0 92 95 0 99 87 0 106 80 0 113 72 0 120 65 0 128 58 1 134 50 0 142 42 0 149 35 0 156 28 1 163 19 0 170 12 0 177 4 0 183 252 0 191 245 0 199 237 0 205 231 0 212 222 0 219 215 0 226 207 0 233 200 0 240 192 0 248 185 1 0 177 0 8 171 0 14 162 0 21 154 0 28 147 0 35 138 0 42 132 0 49 124 0 56 117 0 64 110 1 71 102 0 78 94 0 85 87 0 92 79 0 100 73 1 106 64 0 113 57 0 120 49 0 127 42 0 134 34 0 141 27 0 147 18 0 156 12 0 163 3 0 168 253 0 175 246 0 183 238 0 190 231 0 196 222 0 204 216 0 211 208 0 218 201 0 225 193 0 232 186 0 239 178 0 246 171 0 253 163 0 5 155 0 12 148 0 19 140 0 25 132 0 32 124 0 41 118 0 48 110 0 55 102 0 62 95 0 69 87 0 76 80 0 83 72 0 91 66 1 97 57 0 104 50 0 111 42 0 118 35 0 126 27 0 133 20 0 139 11 0 147 5 0 143 8 0 158 253 0 165 246 0 173 238 0 181 232 0 187 223 0 194 216 0 201 208 0 208 201 0 215 193 0 223 187 1 230 178 0 236 171 0 243 163 0 251 156 0 109 3 0 6 142 0 13 134 0 20 127 0 27 118 0 34 111 0 42 104 0 49 96 0 56 89 0 63 82 0 70 74 1 77 67 0 84 59 0 91 52 0 98 44 0 105 37 0 114 30 1 120 22 0 127 14 0 134 7 0 140 254 0 147 247 0 154 239 0 163 233 1 169 225 1 176 217 0 183 209 0 190 202 0 197 194 0 205 187 0 211 179 0 218 172 0 225 164 0 232 157 0 239 149 0 248 143 1 254 134 0 5 126 0 14 120 1 20 112 0 28 105 1 34 97 0 41 89 0 49 82 0 56 74 0 63 67 0 70 59 0 77 51 0 84 43 0 91 36 0 98 29 0 105 21 0 112 14 0 119 6 0 124 0 0 132 247 0 139 240 0 146 234 0 154 225 0 161 218 0 168 210 0 175 203 0 182 195 0 189 188 0 196 180 0 203 173 0 210 165 0 217 158 0 224 150 0 230 142 0 239 135 0 246 128 0 253 120 0 4 112 0 12 105 0 18 96 0 26 90 0 33 82 0 40 75 0 47 67 0 53 59 0 62 53 1 68 45 0 75 37 0 82 30 0 89 22 0 97 16 1 104 7 0 111 1 0 119 248 0 126 241 0 133 233 0 140 226 0 147 218 0 154 211 0 161 203 0 168 196 0 176 189 1 183 181 0 190 173 0 198 167 1 204 158 0 211 150 0 218 143 0 225 136 0 232 127 0 239 121 0 246 113 0 253 106 0 167 10 0 188 22 0 211 36 1 232 46 0 254 60 0 23 75 0 46 88 0 68 101 0 90 113 0 115 128 0 138 141 0 162 155 0 186 169 0 209 182 0 235 197 0 5 212 0 31 228 0 57 242 0 0 0 255 0 0 255 0 0 255 0 0 255 0 0 255 0 0 255 0 0 255 0 0 255 0 0 254 0 0 255 0 0 255 0 0 255 227 251 0 234 242 0 241 236 0 249 228 0 34 0 0 0 215 0 8 208 1 14 200 0 22 192 0 29 185 0 36 177 0 43 170 0 50 162 0 57 155 0 64 147 0 71 140 0 77 131 0 85 125 0 92 117 0 99 110 0 106 102 0 112 94 0 120 87 0 127 80 0 134 72 0 141 65 0 149 57 0 155 50 0 164 43 1 170 35 0 178 28 1 183 19 0 191 12 0 198 5 0 204 253 0 212 246 1 219 238 0 226 230 0 234 224 1 240 215 0 247 208 0 254 200 0 6 193 0 14 186 1 20 177 0 27 170 0 33 163 0 41 155 0 49 148 0 56 140 0 63 133 0 70 125 0 77 118 0 84 110 0 91 103 0 99 96 1 105 88 0 112 81 0 119 73 0 126 66 0 133 58 0 140 51 0 147 43 0 154 36 0 160 28 0 169 21 0 176 13 0 183 6 0 188 0 0 195 247 0 202 240 0 211 233 1 218 226 1 224 217 0 231 210 0 239 203 1 245 195 0 252 187 0 4 179 0 11 172 0 18 164 0 24 157 0 32 149 0 39 142 0 46 134 0 53 127 0 60 120 1 67 112 0 74 105 0 81 97 0 88 90 0 95 82 0 102 75 0 109 67 0 117 60 0 124 52 0 131 45 0 138 37 0 146 31 1 152 21 0 160 16 1 166 7 0 173 0 0 176 1 0 185 248 0 193 242 1 199 233 0 206 226 0 213 218 0 220 211 0 228 204 1 234 196 0 240 187 0 248 181 0 81 0 0 4 167 0 11 160 0 18 152 0 25 145 0 32 137 0 39 130 0 46 122 0 53 116 0 60 107 0 67 100 0 74 92 0 81 85 0 88 77 0 96 70 0 103 63 0 110 55 0 117 48 0 124 40 0 131 33 0 138 25 0 145 18 0 152 10 0 160 4 1 166 250 0 172 242 0 180 235 0 187 229 0 194 220 0 201 213 0 208 205 1 215 199 0 222 190 0 228 182 0 236 176 0 243 168 0 250 161 0 3 153 0 10 145 0 17 138 0 24 131 0 31 123 0 38 116 0 45 108 0 53 101 1 59 93 0 66 86 0 73 79 1 80 71 0 87 64 0 94 56 0 101 48 0 108 41 0 116 34 1 123 26 0 130 18 0 136 10 0 144 3 0 149 252 0 157 245 0 165 238 1 171 230 0 178 222 0 185 215 0 192 207 0 199 200 0 206 192 0 212 185 0 220 178 0 227 170 0 234 163 0 241 155 0 247 148 0 0 139 0 7 132 0 15 126 1 21 117 0 28 110 0 35 101 0 43 95 1 49 87 0 56 80 0 64 72 0 71 65 0 79 58 1 85 50 0 92 42 0 100 35 0 107 28 1 112 19 0 120 12 0 127 5 0 135 254 0 142 246 0 149 239 0 156 231 0 163 224 0 170 216 0 177 209 0 185 202 0 192 194 0 198 186 0 206 179 0 212 171 0 220 164 0 227 157 0 234 149 0 241 142 0 248 134 0 128 1 0 150 13 0 171 25 0 192 37 0 214 50 0 236 63 0 4 78 0 27 91 0 49 104 0 72 117 0 95 130 0 120 145 1 142 158 0 165 171 0 191 185 0 216 199 1 239 214 0 11 230 0 37 246 0 0 0 255 0 0 255 0 0 255 0 0 255 0 0 255 0 0 255 0 0 255 0 0 255 0 0 255 0 0 255 0 0 255 1 1 255 0 0 255 233 7 0 249 249 0 12 1 0 1 237 0 8 229 0 15 222 0 21 213 0 30 208 1 36 199 0 44 193 1 50 184 0 57 177 0 64 169 0 71 162 0 78 155 0 85 147 0 92 140 0 99 132 0 106 125 0 113 117 0 120 110 0 127 102 0 134 95 0 141 87 0 148 80 0 155 73 0 163 65 0 170 58 0 177 50 0 185 43 0 191 35 0 198 28 0 205 20 0 212 13 0 219 5 0 225 253 0 233 247 0 239 238 0 246 231 0 254 223 0 6 216 0 13 208 0 21 202 1 27 194 0 34 187 0 41 179 0 48 171 0 55 164 0 61 155 0 69 149 0 76 141 0 83 134 0 90 126 0 97 119 0 104 112 0 111 104 0 119 97 0 125 89 0 131 81 0 139 74 0 146 67 0 154 60 1 160 52 0 168 45 1 174 37 0 180 28 0 189 23 1 196 15 0 203 7 0 210 0 0 215 249 0 222 241 0 229 234 0 236 226 0 243 219 0 250 212 1 2 204 0 9 196 0 16 189 0 22 181 0 30 174 0 38 166 0 44 160 0 51 150 0 58 144 0 65 136 0 73 130 0 78 121 0 87 114 0 94 107 0 101 99 0 108 92 0 115 84 0 122 77 0 130 70 1 136 62 0 143 54 0 150 47 0 157 39 0 164 32 0 171 25 0 178 17 0 185 10 0 192 2 0 191 4 0 203 250 0 211 243 1 218 236 0 226 229 1 232 221 0 239 214 0 246 206 0 253 198 0 1 193 0 7 184 0 15 178 0 22 170 0 29 163 0 36 155 0 43 148 0 51 140 0 58 133 0 64 125 0 71 117 0 79 110 0 87 104 1 93 96 0 100 89 1 107 81 0 114 73 0 121 66 0 128 58 0 135 51 0 142 43 0 150 37 1 156 28 0 163 21 0 170 14 0 177 6 0 185 255 1 191 246 0 198 239 0 205 231 0 212 224 0 219 217 0 226 209 0 233 202 0 240 194 0 247 187 0 254 179 0 6 172 0 13 164 0 21 158 1 27 149 0 34 142 0 41 134 0 48 127 0 55 120 0 62 112 0 69 105 0 76 97 0 83 90 0 91 82 0 98 75 0 105 67 0 112 60 0 119 52 0 126 45 0 133 38 0 141 31 1 147 23 0 154 15 0 160 8 0 167 0 0 173 248 0 181 242 0 188 234 0 195 227 0 202 220 0 209 212 0 216 205 0 223 197 0 231 191 0 238 183 1 245 175 0 250 167 0 3 159 0 10 152 0 17 145 0 24 137 0 30 130 0 39 123 1 45 115 0 52 107 0 59 100 0 66 92 0 73 85 0 79 76 0 88 71 1 94 62 0 100 55 0 108 47 0 115 40 0 121 32 0 129 25 0 136 18 0 143 10 0 150 3 0 158 252 0 165 244 0 172 237 0 179 229 0 186 222 0 193 215 0 201 207 0 208 200 0 215 192 0 222 185 0 229 177 0 236 170 0 243 162 0 249 154 0 111 3 0 132 16 0 153 28 0 174 40 0 195 53 0 217 65 0 238 77 0 8 94 0 30 107 0 53 120 0 76 133 0 99 147 0 123 160 0 146 174 0 170 188 0 194 201 0 219 216 0 244 230 0 15 247 0 0 0 255 0 0 255 0 0 255 0 0 254 0 0 255 0 0 255 0 0 255 0 0 254 0 0 255 0 0 255 1 1 255 1 1 255 0 0 255 1 1 255 227 24 0 1 8 1 8 251 0 15 244 0 22 236 0 29 229 0 35 220 0 43 214 0 51 207 1 58 199 0 63 192 0 71 184 0 78 177 0 85 169 0 92 162 0 98 153 0 106 147 0 113 140 0 120 132 1 128 126 1 134 117 0 141 111 0 148 102 0 155 94 0 162 88 0 169 80 0 176 73 0 183 65 1 190 58 0 197 50 0 204 43 0 211 36 0 218 29 1 225 21 0 232 13 0 239 6 0 246 254 0 253 246 0 5 239 0 12 231 0 19 224 0 26 217 0 33 209 0 40 202 0 48 195 1 55 188 1 61 179 0 69 173 1 75 165 0 82 157 0 89 150 0 96 142 0 103 135 0 110 127 0 117 120 0 124 113 0 131 105 0 137 97 0 145 90 0 152 83 0 159 75 0 166 68 0 173 61 0 180 53 0 187 46 0 194 38 0 201 31 0 208 23 0 215 16 0 222 9 0 229 1 0 235 250 0 242 243 0 249 235 0 1 227 0 8 220 0 15 213 0 22 205 0 29 198 0 36 190 0 43 183 0 50 174 0 57 168 0 63 160 0 71 153 0 78 146 0 85 138 0 92 131 0 99 123 0 107 116 0 113 109 0 120 101 0 127 94 0 134 86 0 141 79 0 149 71 0 156 65 1 162 57 0 168 49 0 176 42 0 183 34 0 190 27 0 197 19 0 205 13 1 212 5 0 207 8 0 222 253 0 229 246 0 236 238 0 243 231 0 249 224 0 40 3 0 6 210 0 14 204 1 20 195 0 28 189 0 34 180 0 41 173 0 48 165 0 55 158 0 62 151 0 69 143 0 76 136 0 83 128 0 90 121 0 97 113 0 104 106 0 111 99 0 118 91 0 125 84 0 132 76 0 138 68 0 146 61 0 153 54 0 160 47 0 168 40 1 174 31 0 181 24 0 189 17 0 195 9 0 202 2 0 207 249 0 215 242 0 222 235 0 229 228 0 236 220 0 243 213 0 250 205 0 3 199 0 10 190 0 17 183 0 23 175 0 30 167 0 38 161 0 45 153 0 52 146 0 59 138 0 66 131 0 73 124 0 80 117 1 87 109 0 94 101 0 101 94 0 108 86 0 115 79 0 122 72 0 129 64 0 136 57 0 143 49 0 150 42 0 157 34 0 164 27 0 171 20 0 179 13 1 185 6 1 191 254 0 198 246 0 205 240 1 213 232 0 218 224 0 226 217 0 234 209 1 240 202 0 247 194 0 254 187 0 5 179 0 12 172 0 19 164 0 26 157 0 32 148 0 40 142 0 47 133 0 54 127 0 61 120 0 67 111 0 75 105 0 82 97 0 89 89 0 96 82 0 103 75 0 111 68 0 117 60 0 124 53 0 130 45 0 138 38 0 145 30 0 152 22 0 159 16 0 166 8 0 173 1 0 181 249 0 188 242 0 196 236 0 201 227 0 209 220 0 216 212 0 223 205 0 230 198 0 237 190 0 244 183 0 251 176 0 93 6 0 114 18 0 135 31 0 156 43 0 178 55 0 199 68 1 221 81 0 242 93 0 12 110 0 34 122 0 58 137 1 80 149 0 103 163 0 127 176 0 150 190 0 175 205 0 199 218 0 223 233 0 248 247 0 0 0 255 0 0 255 0 0 255 0 0 255 0 0 255 0 0 255 0 0 255 0 0 255 0 0 255 0 0 254 0 0 255 0 0 255 0 0 255 0 0 255 0 0 255 221 41 0 249 22 0 13 8 0 30 250 0 37 243 0 44 236 0 51 228 0 58 221 0 64 213 0 71 206 0 78 199 0 85 190 0 92 184 0 99 177 0 107 169 1 113 162 0 120 154 0 127 147 0 134 140 0 141 132 0 148 125 0 155 116 0 162 110 0 169 103 0 175 94 0 183 88 0 190 80 0 197 73 0 204 66 0 211 58 0 218 51 0 225 43 0 232 36 0 240 30 1 246 21 0 253 13 0 3 5 0 12 254 0 19 247 0 26 239 0 33 232 0 40 225 0 47 217 0 53 210 0 60 202 0 67 195 0 74 188 0 80 179 0 88 173 0 96 166 1 102 158 0 109 150 0 116 143 0 123 136 0 130 128 0 137 121 0 144 114 0 151 106 0 157 98 0 165 91 0 172 84 0 179 77 0 186 69 0 193 62 0 200 54 0 207 47 0 214 40 0 221 32 0 227 24 0 235 17 0 242 10 0 249 3 0 254 252 0 6 244 0 12 236 0 20 230 0 28 223 1 34 214 0 42 208 1 48 199 0 55 192 0 62 185 0 69 177 0 76 170 0 83 162 0 90 155 0 97 148 0 104 140 0 112 134 1 118 125 0 125 119 0 132 111 0 139 103 0 146 96 0 152 88 0 160 81 0 167 74 0 174 66 0 181 59 0 188 51 0 196 44 0 203 38 1 208 29 0 215 22 0 222 14 0 229 7 0 236 0 0 239 1 0 248 248 0 13 0 0 3 235 0 10 228 0 17 220 0 25 213 1 32 205 1 37 198 0 45 190 0 52 183 0 59 176 0 66 168 0 72 160 0 80 153 0 87 146 0 94 139 0 100 130 0 108 124 0 115 116 0 122 109 0 129 102 0 136 94 0 143 87 0 150 79 0 157 72 0 163 64 0 171 57 0 178 50 0 185 42 0 193 36 1 199 28 0 206 20 0 213 13 0 220 5 0 226 253 0 233 246 0 239 238 0 247 231 0 254 224 0 7 217 1 13 209 0 19 201 0 27 194 0 34 187 0 41 179 0 48 172 0 55 164 0 62 158 1 69 150 0 76 142 0 83 135 1 90 127 0 96 119 0 104 113 0 112 106 1 118 98 0 124 89 0 131 82 0 139 76 0 146 68 1 153 61 0 160 53 0 167 46 0 174 39 0 182 32 1 189 24 0 195 16 0 201 8 0 209 2 0 214 251 0 221 243 0 229 237 0 235 229 0 243 222 1 249 214 0 0 205 0 8 199 0 14 190 0 21 184 0 28 175 0 36 169 0 43 162 0 50 154 0 57 147 0 63 138 0 71 132 0 78 125 0 85 117 0 92 110 0 100 103 1 105 95 0 112 88 0 119 80 0 126 73 0 133 65 0 140 58 0 147 51 0 154 43 0 160 35 0 168 29 1 175 21 0 182 13 0 189 6 0 197 0 0 204 247 0 211 240 0 217 233 0 225 226 0 233 218 0 239 211 0 245 202 0 254 196 1 76 9 0 96 21 0 117 33 0 138 46 0 158 57 0 181 71 0 203 83 0 224 96 0 247 109 0 14 125 0 38 138 0 61 152 0 84 165 0 107 179 0 130 193 0 155 207 0 179 221 0 203 235 0 228 250 0 0 0 255 0 0 255 0 0 255 0 0 255 0 0 255 0 0 255 0 0 255 0 0 255 0 0 255 0 0 255 0 0 255 0 0 255 0 0 255 0 0 255 0 0 255 0 0 255 215 58 0 244 39 0 7 24 0 35 7 0 51 250 0 58 242 0 64 235 0 72 228 0 79 221 0 87 213 1 93 206 0 100 200 1 106 191 0 113 184 0 120 176 0 127 169 0 134 162 0 141 154 0 148 147 0 155 140 0 162 132 0 169 125 0 176 117 0 183 110 0 190 103 0 197 95 0 204 88 0 211 81 0 218 73 0 225 66 0 232 57 0 238 51 0 245 44 0 253 36 0 4 28 0 10 20 0 17 13 0 24 5 0 32 0 0 39 247 0 46 240 0 53 233 0 60 225 0 68 218 1 73 209 0 81 203 0 88 196 0 93 188 0 101 181 0 108 174 0 115 166 0 122 159 0 129 150 0 136 144 0 143 137 0 149 128 0 157 122 0 164 115 0 171 107 0 178 100 0 184 92 0 192 85 0 199 78 0 206 69 0 213 63 0 220 57 1 227 48 0 234 41 0 240 33 0 247 26 0 254 19 0 4 11 0 11 4 0 20 254 1 26 245 0 33 238 0 39 231 0 46 223 0 53 216 0 60 208 0 67 201 0 74 194 0 81 186 0 88 179 0 95 172 0 102 164 0 109 157 0 116 149 0 123 142 0 130 135 0 137 127 0 144 120 0 151 113 0 158 105 0 165 98 0 171 90 0 178 83 0 185 76 0 192 68 0 199 61 0 206 54 0 213 46 0 220 39 0 227 32 0 234 24 0 240 16 0 248 9 0 252 0 0 0 5 0 8 252 0 14 245 0 22 237 0 28 230 0 36 223 0 44 216 0 50 208 0 57 201 0 63 193 0 70 187 0 77 178 0 85 172 1 91 164 0 98 156 0 105 149 0 113 142 1 119 134 0 126 127 0 133 119 0 140 112 0 147 105 0 154 97 1 161 90 0 168 83 0 175 75 0 182 68 0 189 60 0 196 53 0 202 46 0 208 37 0 216 31 0 224 24 0 230 16 0 238 10 1 245 1 0 251 249 1 3 242 0 10 235 0 17 227 0 24 220 0 31 212 0 38 205 0 44 198 0 52 190 0 58 183 0 65 176 0 72 168 0 79 161 0 86 153 0 93 146 0 99 138 0 107 131 0 114 124 0 121 117 0 128 109 0 134 101 0 142 94 0 149 87 0 156 80 0 163 72 0 170 65 0 177 58 0 184 50 0 191 43 0 197 36 0 204 28 0 211 21 0 218 13 0 225 6 0 230 0 0 238 248 0 245 239 0 253 234 0 3 225 0 10 218 0 17 210 0 24 203 0 31 196 0 38 188 0 45 181 0 52 174 0 59 166 0 66 159 0 73 151 0 79 144 0 87 137 0 94 130 0 101 122 0 109 116 0 116 108 0 122 100 0 128 92 0 135 85 0 142 78 0 149 70 0 156 64 1 163 56 0 170 48 0 177 41 0 185 34 0 191 26 0 198 19 0 204 11 0 212 4 0 220 254 0 227 246 0 234 238 0 241 231 0 248 224 0 38 0 0 58 12 0 79 24 0 99 36 0 120 48 0 141 61 0 163 72 0 184 86 0 206 99 0 228 112 0 249 125 0 19 141 0 43 154 1 65 168 0 88 181 0 112 196 1 135 209 0 159 223 0 183 238 0 207 253 0 0 0 254 0 0 255 0 0 254 0 0 255 0 0 255 0 0 255 0 0 255 0 0 255 0 0 255 0 0 255 0 0 255 0 0 254 0 0 255 0 0 255 0 0 255 0 0 255 0 0 255 209 75 0 238 56 0 1 41 0 30 23 0 58 6 0 72 250 0 79 242 0 85 235 0 93 228 0 100 220 0 108 213 0 113 206 0 120 198 0 127 191 0 134 184 0 141 176 0 148 169 0 155 162 0 162 154 0 169 147 0 176 140 0 183 132 0 190 125 0 197 116 0 203 110 0 210 103 0 217 95 0 225 88 0 231 81 0 238 72 0 244 65 0 252 59 0 2 50 0 9 43 0 16 35 0 22 27 0 30 20 0 37 13 0 44 6 0 51 1 0 59 248 0 67 240 1 73 233 0 80 226 0 88 218 1 94 212 0 101 205 0 107 196 0 113 188 0 120 182 0 127 174 0 136 168 1 142 160 0 149 152 0 156 145 0 163 138 0 170 130 0 177 123 0 184 116 0 190 108 0 198 100 0 204 94 0 211 86 0 218 79 0 226 73 1 232 64 0 239 57 0 246 49 0 254 42 0 3 36 1 8 26 0 16 20 0 23 13 0 29 4 0 38 254 0 45 247 0 53 240 1 59 232 0 66 225 0 72 217 0 79 210 0 86 203 0 93 195 0 100 188 0 107 181 0 114 173 0 121 166 0 127 159 0 135 151 0 142 144 0 149 137 0 156 129 0 162 122 0 169 115 0 176 107 0 183 100 0 190 93 0 197 84 0 204 77 0 211 71 0 217 63 0 225 56 0 233 49 1 239 41 0 247 35 1 252 26 0 239 5 0 3 14 0 10 6 0 10 10 0 26 0 0 33 247 0 41 241 1 47 233 0 53 225 0 61 218 0 68 211 0 75 203 0 83 196 1 87 188 0 95 181 0 102 174 0 109 166 0 116 160 0 123 152 0 130 144 0 137 137 0 144 130 0 151 122 0 158 116 0 165 108 0 172 100 0 179 93 0 185 86 0 192 78 0 198 70 0 205 63 0 212 56 0 220 49 0 227 42 0 234 33 0 242 28 1 248 20 0 242 0 0 5 3 0 13 253 0 21 246 1 27 238 0 34 231 0 41 223 0 48 216 0 55 209 0 62 202 0 70 195 1 76 187 0 83 179 0 89 172 0 96 165 0 103 158 0 110 150 0 117 143 0 124 135 0 131 128 0 138 121 0 145 113 0 153 107 0 159 98 0 166 91 0 173 84 0 179 76 0 186 69 0 193 62 0 199 53 0 207 47 0 214 40 0 221 32 0 228 25 0 235 18 0 242 10 0 249 3 0 254 252 0 6 244 0 13 237 0 21 231 1 28 223 1 34 215 0 41 208 0 47 200 0 54 193 0 61 186 0 67 177 0 75 171 0 82 164 0 89 156 0 97 150 1 103 142 0 110 134 0 117 127 0 124 120 0 131 112 0 138 105 0 144 97 0 150 89 0 158 83 0 165 75 0 172 68 0 179 61 0 187 54 1 193 46 0 200 39 0 208 31 0 215 25 1 221 17 0 228 9 0 235 2 0 242 251 0 249 244 0 21 3 0 41 15 0 61 27 0 81 38 0 104 52 0 124 64 0 145 76 0 166 89 0 188 102 0 210 115 0 233 129 1 254 141 0 23 157 0 45 170 0 67 184 0 92 198 0 116 213 1 139 226 0 163 239 0 187 254 0 0 0 255 0 0 255 0 0 255 1 1 255 1 1 255 0 0 255 0 0 255 0 0 255 0 0 255 0 0 255 0 0 255 0 0 255 0 0 255 0 0 255 0 0 255 1 1 255 0 0 255 0 0 255 203 92 0 232 73 0 2 61 0 24 40 0 53 22 1 80 4 0 94 249 1 99 241 0 107 235 0 113 227 0 120 220 0 127 213 0 134 205 0 141 198 0 148 191 0 155 183 0 163 176 1 169 169 0 176 161 0 182 154 0 188 146 0 196 139 0 203 132 0 210 125 0 217 118 0 224 110 0 231 103 0 237 96 0 245 88 0 250 81 0 2 72 0 9 65 0 17 58 1 22 49 0 29 43 0 36 36 0 43 28 0 50 21 0 57 14 0 64 6 0 69 1 0 79 248 0 86 241 0 93 234 0 100 226 0 107 219 0 114 213 0 120 204 0 126 196 0 134 190 0 140 182 0 148 174 0 155 168 0 161 160 0 169 153 0 176 146 0 182 139 0 188 130 0 196 124 0 203 117 0 209 109 0 217 102 0 224 95 0 231 86 0 238 80 0 245 73 0 251 65 1 1 58 0 8 52 0 14 43 0 21 36 0 28 29 0 35 21 0 42 14 0 49 7 0 55 0 0 63 247 0 71 241 0 78 234 0 85 226 0 90 218 0 98 212 0 106 205 0 112 197 0 119 190 0 126 182 0 133 175 0 140 168 0 147 160 0 154 153 0 160 146 0 167 139 0 174 131 0 181 124 0 188 117 0 195 109 0 202 102 0 209 95 0 216 87 0 222 80 0 229 73 0 236 65 0 243 59 1 250 51 0 213 2 0 1 38 0 9 31 0 15 23 0 22 16 0 28 9 0 35 1 0 41 3 0 51 250 0 58 242 1 65 235 0 72 228 0 79 220 0 86 213 0 93 206 0 100 198 0 106 190 0 113 185 1 120 177 0 126 168 0 134 162 0 141 155 0 148 147 0 155 140 0 163 134 1 169 125 0 175 119 1 182 111 0 189 104 1 195 96 0 203 89 0 210 81 0 217 74 0 224 67 0 231 59 0 238 52 0 244 45 0 250 37 0 2 29 0 9 21 0 15 14 0 22 7 0 29 1 0 37 249 0 43 240 0 51 234 0 58 227 0 65 220 0 72 212 0 78 204 0 86 198 0 93 190 0 100 183 0 106 176 0 113 168 0 119 160 0 126 153 0 134 146 0 140 139 0 148 131 0 155 124 0 161 116 0 169 110 0 174 101 0 182 94 0 188 88 0 196 80 0 203 73 0 210 66 0 217 58 0 224 51 0 231 44 0 238 37 0 245 29 0 251 22 0 0 15 0 7 7 0 14 0 0 22 249 0 29 241 0 36 234 0 43 227 0 51 220 1 57 213 0 64 204 0 71 199 0 78 190 0 85 183 1 91 176 0 97 167 0 105 161 0 112 154 0 119 146 0 125 138 0 132 131 0 140 124 0 146 116 0 153 110 0 160 102 0 168 95 1 174 88 0 181 80 0 188 73 0 196 67 0 202 58 0 209 52 1 215 44 0 222 37 0 229 29 0 236 22 0 243 15 0 250 7 0 4 5 0 24 17 0 44 29 0 63 41 0 85 54 0 106 66 0 126 79 0 148 91 0 169 104 0 191 117 0 213 130 0 235 143 0 4 159 0 26 173 0 49 186 0 72 200 0 96 214 0 118 228 0 144 242 1 0 0 254 0 0 255 0 0 254 0 0 254 0 0 255 0 0 255 0 0 255 0 0 255 1 1 255 1 1 255 0 0 255 0 0 255 0 0 255 1 1 255 0 0 255 0 0 254 0 0 255 0 0 255 0 0 255 0 0 255 196 108 0 226 90 0 0 73 0 17 56 0 47 39 0 75 21 0 102 3 0 114 248 0 120 242 0 127 234 0 134 228 1 140 220 0 148 212 0 155 205 0 161 198 0 168 190 0 174 182 0 183 176 1 189 169 0 196 161 0 203 154 0 210 147 0 217 139 0 223 132 0 230 125 0 237 118 0 245 111 1 251 103 0 1 94 0 8 87 0 15 80 0 22 73 0 28 64 0 36 58 0 43 50 0 49 43 0 56 36 0 63 29 0 70 21 0 77 14 0 84 7 0 89 3 0 99 249 0 107 242 0 113 234 0 119 228 0 127 220 0 133 212 0 141 205 1 146 198 0 154 191 0 161 183 0 168 176 0 174 169 0 181 161 0 188 153 0 195 147 0 201 138 0 209 132 0 216 125 0 224 119 0 229 110 0 236 103 0 243 96 0 249 88 0 174 2 0 7 74 0 13 67 0 21 59 1 27 52 0 34 45 0 40 37 0 48 31 1 54 23 0 61 16 0 68 8 0 74 0 0 83 249 0 90 242 0 97 235 0 103 229 0 110 221 0 117 213 0 124 206 0 131 199 0 137 190 0 145 184 0 152 177 0 158 170 0 165 162 0 172 155 0 179 148 0 187 140 0 194 133 0 200 126 0 206 119 0 213 111 0 220 104 0 228 97 0 234 89 0 241 82 0 247 75 0 187 0 0 199 7 0 6 56 1 12 47 0 19 40 0 26 33 0 34 25 0 40 18 0 47 11 0 53 4 0 56 6 0 69 253 0 76 245 0 83 238 0 90 230 0 97 223 0 104 216 0 110 208 0 117 201 0 123 193 0 131 186 0 138 179 0 145 172 0 152 165 0 159 157 0 165 149 0 171 142 0 179 136 0 186 128 0 194 121 0 200 114 0 207 106 0 214 99 0 220 92 0 227 84 0 235 78 1 242 71 1 248 64 0 198 0 0 5 46 0 12 39 0 19 32 0 26 25 0 33 17 0 40 10 0 45 2 0 55 253 0 62 246 1 68 238 0 75 230 0 83 224 0 89 216 0 96 208 0 103 201 0 110 194 0 116 187 0 124 180 1 131 173 1 137 165 0 144 158 0 151 151 1 158 144 0 165 136 0 171 128 0 178 121 0 185 114 0 192 107 0 199 99 0 206 92 0 213 85 0 219 77 0 226 70 0 233 63 0 240 55 0 247 48 0 254 41 0 3 33 0 10 26 0 17 19 0 24 11 0 31 4 0 40 254 1 45 246 0 51 238 0 59 231 0 66 224 0 73 217 0 80 209 0 87 202 0 94 195 0 100 187 0 107 180 0 114 173 0 121 166 0 128 158 0 134 150 0 141 143 0 149 136 0 154 128 0 162 122 0 169 115 0 175 107 0 182 99 0 190 93 0 197 85 0 203 78 0 210 71 0 217 64 0 224 56 0 232 49 0 238 42 0 245 34 0 253 27 0 241 6 0 7 20 0 27 32 0 47 44 0 67 56 0 88 69 0 109 81 0 130 94 0 151 107 0 173 120 0 194 132 0 217 146 0 239 159 0 7 175 0 30 189 0 53 203 0 76 218 0 100 231 0 123 245 0 0 0 254 0 0 255 0 0 255 1 1 255 1 1 255 0 0 255 0 0 254 0 0 255 0 0 254 0 0 255 1 1 255 0 0 255 0 0 255 1 1 255 0 0 255 0 0 255 0 0 255 0 0 255 0 0 255 0 0 255 0 0 255 190 127 0 220 108 0 250 89 0 12 74 0 41 55 0 69 37 0 97 20 0 124 2 0 134 248 0 141 241 0 148 234 0 155 227 0 161 219 0 168 212 0 175 205 0 182 198 0 188 190 0 196 183 0 203 176 0 209 168 0 216 161 0 223 154 0 230 147 0 237 139 0 244 132 0 251 125 0 1 116 0 8 109 0 14 102 0 21 94 0 28 87 0 35 80 0 42 73 0 49 65 0 56 58 0 62 51 0 69 43 0 76 36 0 82 28 0 90 22 0 96 13 0 104 7 0 110 0 0 119 249 0 125 242 0 132 235 0 139 228 0 146 220 0 152 212 0 160 206 0 166 199 0 173 190 0 180 184 0 187 177 0 194 169 0 201 162 0 207 155 0 213 148 0 222 141 1 228 133 0 235 126 0 242 119 0 249 111 0 151 0 0 4 96 0 11 90 0 18 82 0 25 75 0 32 68 0 39 60 0 46 53 0 53 46 0 59 39 0 67 31 0 73 24 0 80 17 0 87 10 0 94 2 0 102 250 0 109 245 1 114 236 0 122 229 0 129 222 0 136 215 0 143 207 0 150 200 0 156 193 0 163 186 0 170 179 0 177 171 0 185 164 0 191 157 0 197 150 0 204 142 0 211 135 0 218 128 0 225 120 0 233 113 0 239 106 0 245 99 0 253 91 0 173 5 0 3 79 0 10 71 0 18 65 1 23 57 0 30 50 0 37 42 0 44 35 0 51 28 0 58 21 0 64 13 0 71 6 0 72 9 0 87 0 0 94 247 0 101 241 1 109 234 0 115 226 0 121 218 0 129 212 1 135 204 0 142 196 0 149 189 0 156 182 0 163 175 1 169 167 0 176 160 0 183 153 0 190 146 0 198 139 1 204 131 0 210 124 0 217 117 0 224 109 0 231 102 0 238 95 0 246 87 0 251 80 0 2 71 0 9 64 0 15 57 0 22 50 0 29 42 0 36 35 0 43 28 0 50 21 0 57 13 0 63 6 0 71 1 0 78 248 0 85 240 0 92 234 0 99 227 0 106 218 0 113 212 0 120 205 0 126 197 0 133 190 0 139 182 0 147 176 0 154 168 0 161 161 1 166 153 0 174 147 0 182 140 1 188 132 0 195 125 0 202 118 0 209 110 0 215 103 0 222 96 0 229 89 0 236 81 0 243 74 0 250 67 0 197 2 0 6 52 0 13 46 1 19 38 0 26 30 0 33 23 0 41 17 1 46 8 0 54 1 0 62 250 0 67 242 0 75 236 0 82 229 0 89 221 0 95 213 0 103 207 0 109 199 0 116 192 0 123 185 0 130 178 0 137 170 0 145 164 1 151 156 0 157 148 0 164 141 0 171 134 0 179 128 1 184 119 0 192 112 0 198 105 0 205 98 0 212 90 0 219 83 0 227 76 0 233 69 0 240 61 0 246 54 0 253 47 0 224 9 0 244 21 0 10 35 0 31 48 1 50 59 0 71 72 0 91 84 0 112 96 0 133 109 0 155 122 0 176 135 0 198 148 0 220 162 0 242 175 0 10 190 0 34 205 0 57 219 0 80 233 0 104 247 0 1 1 255 0 0 255 0 0 255 0 0 255 1 1 255 1 1 255 0 0 254 0 0 255 0 0 255 0 0 255 0 0 255 0 0 255 0 0 255 0 0 255 0 0 255 0 0 255 0 0 255 0 0 254 0 0 255 0 0 254 0 0 255 0 0 255 184 144 0 214 125 0 244 106 0 7 91 0 35 72 0 64 54 0 91 36 0 119 18 0 146 1 0 155 248 0 161 241 0 168 234 0 175 226 0 182 219 0 189 212 0 195 205 0 202 197 0 209 190 0 216 183 0 223 176 0 231 168 0 236 161 0 243 154 0 250 147 1 0 138 0 7 131 0 15 124 1 21 116 0 28 109 0 34 102 0 41 94 0 48 87 0 55 80 0 62 73 0 69 65 0 76 59 1 82 51 0 89 44 0 96 37 0 103 29 0 108 21 0 116 15 0 122 7 0 130 0 0 138 250 0 145 243 0 152 235 0 159 228 0 165 221 0 172 214 0 179 206 0 186 199 0 193 192 0 199 185 0 206 177 0 212 170 0 220 163 0 227 156 0 234 149 0 240 141 0 247 134 0 255 127 0 3 120 0 10 112 0 17 105 0 23 97 0 30 91 0 37 83 0 44 76 0 51 69 0 58 62 0 65 55 1 70 46 0 78 40 0 85 33 0 92 25 0 99 18 0 105 11 0 112 4 0 120 253 0 126 244 0 134 238 0 140 231 0 148 224 0 154 216 0 161 209 0 168 202 0 175 195 0 182 188 0 188 180 0 195 173 0 202 166 0 209 159 0 217 151 1 223 144 0 229 136 0 236 130 0 243 122 0 250 116 1 149 3 1 0 102 0 7 95 0 14 88 0 21 82 0 28 73 0 35 66 0 41 59 0 48 53 0 55 45 0 62 37 0 69 30 0 75 23 0 82 16 0 88 7 0 96 1 0 102 3 0 112 250 0 120 243 1 125 235 0 132 228 0 138 220 0 146 214 0 154 207 1 160 199 1 166 192 0 173 185 0 180 177 0 187 170 0 194 164 0 201 156 0 208 149 0 214 141 0 221 134 0 228 127 0 235 119 0 241 112 0 248 105 0 157 0 0 5 89 0 12 82 0 19 75 0 26 67 0 33 60 0 40 54 1 46 46 0 54 39 1 61 32 1 67 24 0 73 17 0 79 8 0 87 2 0 96 253 1 102 244 0 109 237 0 116 230 0 123 223 0 128 214 0 136 208 0 143 202 0 150 194 0 157 186 0 164 179 0 170 171 0 176 164 0 184 158 0 191 150 0 198 143 0 204 136 0 211 129 0 217 120 0 225 114 0 233 108 1 239 100 0 245 92 0 253 85 0 1 78 0 8 71 0 15 64 0 22 56 0 29 50 1 35 42 0 42 35 0 49 27 0 56 20 0 63 13 0 69 6 0 77 254 0 83 246 0 91 240 0 98 233 0 105 226 0 112 217 0 118 211 0 125 204 0 132 197 0 140 189 1 146 183 0 153 175 1 159 167 0 166 160 0 173 153 0 180 146 0 187 139 0 194 131 0 200 124 0 207 117 0 214 110 0 220 101 0 228 95 0 234 88 0 241 81 0 248 74 0 189 0 0 207 11 0 227 24 0 247 36 0 11 50 0 33 62 0 53 74 0 74 87 0 94 99 0 115 112 0 137 125 0 158 138 0 181 151 1 201 164 0 224 178 0 245 190 0 15 207 0 38 221 0 61 235 0 84 249 0 0 0 255 0 0 255 0 0 255 0 0 255 0 0 255 0 0 255 0 0 255 0 0 255 0 0 255 0 0 255 0 0 255 0 0 255 0 0 255 0 0 255 0 0 255 0 0 255 0 0 255 0 0 255 0 0 255 0 0 255 0 0 255 0 0 255 0 0 255 178 162 0 207 141 0 238 123 0 1 108 0 29 89 0 57 70 0 86 53 0 113 36 1 141 17 0 167 0 0 175 248 0 182 240 0 188 233 0 196 227 0 202 219 0 209 211 0 216 205 0 222 197 0 229 190 0 236 183 0 243 175 0 249 167 0 0 159 0 6 151 0 13 145 0 21 139 1 27 131 0 34 123 0 42 117 1 47 109 0 54 102 0 61 95 0 68 88 1 76 81 1 81 73 0 88 66 0 95 59 0 103 52 1 109 44 0 114 36 0 122 30 0 130 23 1 136 15 0 143 8 0 149 1 0 157 249 0 164 243 0 172 237 0 178 229 0 185 222 0 191 214 0 198 207 0 204 200 0 212 193 0 219 185 0 225 178 0 232 171 0 239 164 0 246 158 0 254 150 1 2 142 0 8 135 0 16 129 1 21 121 0 29 113 0 35 106 0 42 99 0 49 92 0 55 84 0 64 78 1 70 70 0 76 63 0 83 56 0 89 47 0 97 41 0 104 34 0 110 27 0 117 20 0 124 12 0 130 5 0 139 254 0 146 247 0 152 240 0 159 232 0 166 226 0 173 218 0 180 211 0 186 204 0 193 196 0 200 189 0 207 182 0 214 175 0 220 168 0 227 160 0 234 153 0 241 146 0 247 139 0 254 131 0 135 7 0 5 119 0 12 112 0 18 104 0 25 97 0 32 90 0 40 84 1 46 76 0 52 68 0 59 61 0 66 54 0 72 47 0 80 39 1 86 32 0 93 25 0 100 18 0 107 11 0 114 3 0 117 6 0 129 252 0 136 245 0 143 238 0 150 231 0 157 223 0 164 217 1 170 209 0 177 202 0 184 193 0 190 187 0 197 180 0 204 173 0 211 166 0 218 158 0 225 151 0 231 144 0 239 137 1 245 130 0 253 123 1 2 114 0 9 106 0 16 99 0 22 92 0 29 85 0 36 78 0 42 69 0 49 63 0 55 55 0 63 49 0 70 42 0 77 34 0 83 27 0 90 21 1 97 13 0 104 5 0 112 0 0 119 248 0 126 241 0 131 233 0 139 226 0 146 218 0 153 213 0 160 205 0 166 197 0 173 190 0 180 183 0 187 176 0 194 169 0 200 161 0 207 154 0 214 146 0 222 141 1 228 132 0 234 125 0 241 118 0 247 111 0 151 0 0 4 96 0 11 89 0 18 83 1 25 76 1 31 68 0 38 60 0 45 53 0 51 46 0 58 39 0 65 31 0 72 24 0 79 17 0 85 10 0 92 3 0 100 252 0 107 244 0 114 237 0 120 230 0 127 223 0 133 214 0 141 208 0 148 201 0 154 194 0 161 187 1 168 179 0 174 171 0 182 165 0 188 158 0 195 151 0 202 143 0 209 136 0 216 129 0 222 122 0 229 115 0 236 107 0 243 100 0 249 93 0 172 3 0 191 15 0 211 27 1 230 38 0 250 50 0 15 64 0 36 77 0 56 89 0 76 101 0 98 115 0 120 128 1 140 140 0 161 153 0 182 167 0 204 180 0 227 194 0 250 207 0 19 224 0 42 238 0 66 253 1 0 0 255 0 0 255 0 0 255 0 0 255 0 0 255 0 0 255 0 0 254 0 0 255 0 0 255 0 0 255 0 0 255 0 0 255 1 1 255 0 0 255 0 0 255 0 0 255 0 0 255 1 1 255 1 1 255 0 0 255 0 0 255 0 0 255 0 0 255 0 0 255 172 180 0 202 160 0 232 140 0 2 127 0 24 106 0 52 88 0 79 68 0 108 51 0 135 34 0 162 16 0 188 254 0 195 247 0 202 241 1 208 233 0 215 226 0 221 217 0 229 211 0 236 204 0 242 197 0 248 190 0 72 1 0 7 175 1 13 167 0 20 159 0 25 152 0 33 145 0 40 138 0 47 131 0 54 123 0 60 116 0 68 110 1 73 101 0 81 95 0 87 88 0 94 80 0 102 74 1 107 65 0 114 59 0 121 52 0 128 44 0 135 37 0 142 30 0 148 23 0 155 16 0 162 8 0 169 1 0 177 250 0 184 244 0 190 236 0 197 229 0 204 222 0 211 215 0 217 208 0 224 201 0 231 194 0 237 186 0 244 179 0 250 171 0 1 166 1 7 157 0 14 150 0 21 143 0 28 136 1 34 129 0 41 122 0 48 114 0 54 107 0 61 100 0 68 93 0 74 86 0 82 78 0 88 71 0 95 64 0 102 57 0 109 50 0 115 42 0 122 35 0 129 28 0 136 21 0 142 14 0 149 7 0 156 1 0 164 248 0 171 241 0 177 234 0 184 227 0 191 220 1 198 212 0 204 204 0 212 199 0 218 191 0 225 184 0 232 176 0 238 169 0 245 162 0 253 156 1 109 4 0 2 142 0 9 135 0 16 128 0 23 121 0 30 114 0 36 106 0 43 99 0 51 93 1 56 84 0 63 78 0 70 70 0 76 63 0 84 56 0 90 49 0 96 42 0 104 35 0 112 28 1 118 20 0 123 12 0 131 6 0 132 9 0 147 0 0 154 247 0 160 240 0 168 234 1 174 226 0 181 219 0 187 211 0 193 204 0 201 197 0 207 190 0 215 183 0 221 176 0 228 168 0 235 161 0 241 153 0 248 147 0 115 0 0 5 131 0 13 124 1 19 117 0 26 109 0 32 103 1 39 95 0 46 88 0 53 81 0 60 73 0 66 66 0 73 60 1 80 52 0 86 45 0 93 38 0 100 31 1 107 23 0 114 16 0 120 10 0 127 2 0 135 250 0 141 244 0 150 238 1 156 230 0 162 222 0 169 215 0 176 207 0 183 202 0 191 195 1 196 187 0 203 179 0 210 172 0 217 165 0 223 158 0 230 151 0 236 142 0 244 135 0 250 129 0 0 122 0 6 115 0 12 106 0 20 100 0 27 93 0 33 86 0 40 79 0 47 72 0 54 65 1 60 57 0 67 50 0 73 43 0 81 36 0 87 27 0 94 21 0 100 13 0 109 7 0 115 0 0 123 249 0 129 241 0 136 234 0 143 227 0 150 220 0 156 213 0 163 206 0 171 199 0 177 191 0 184 184 0 190 177 0 197 170 0 205 162 0 211 155 0 217 148 0 224 140 0 231 134 0 238 126 0 243 118 0 250 112 0 155 6 0 174 17 0 193 28 0 213 41 0 233 53 0 254 65 0 17 78 0 39 92 0 59 104 0 80 117 0 101 130 0 122 143 0 143 156 0 165 169 0 187 182 0 209 195 0 232 210 0 254 223 0 21 239 0 45 254 0 0 0 255 0 0 255 0 0 255 1 1 255 0 0 255 0 0 255 0 0 255 0 0 255 0 0 255 0 0 255 0 0 255 1 1 255 0 0 255 0 0 255 0 0 255 0 0 255 0 0 255 0 0 255 0 0 255 0 0 255 0 0 254 0 0 255 0 0 255 0 0 255 0 0 255 165 197 0 196 178 0 227 158 0 0 139 0 18 123 0 47 104 0 74 86 0 103 68 0 130 50 0 157 32 0 185 15 0 208 254 0 215 247 0 222 239 0 228 232 0 235 225 0 242 218 0 249 211 0 51 0 0 6 195 0 12 188 0 19 181 0 27 175 1 33 165 0 39 160 0 46 152 0 53 145 0 60 138 0 66 131 0 72 123 0 80 116 0 87 109 0 92 101 0 100 95 0 107 88 0 114 80 0 120 73 0 127 66 0 134 59 0 141 53 0 147 45 0 154 38 0 160 29 0 168 23 0 174 16 0 182 10 1 188 2 0 196 251 0 204 245 1 208 236 0 216 230 0 223 223 0 230 216 0 236 208 0 242 201 0 250 194 1 68 2 0 6 180 0 12 173 0 19 166 0 26 158 0 33 151 0 39 144 0 46 137 0 53 130 0 60 123 0 66 115 0 73 109 1 80 101 0 87 94 0 93 87 0 100 80 0 107 72 0 114 65 0 120 58 0 127 52 1 134 44 0 141 37 0 147 29 0 154 22 0 161 15 0 167 8 0 174 1 0 182 249 0 189 243 0 196 235 0 202 228 0 209 221 0 216 214 0 223 207 0 229 200 0 236 192 0 242 184 0 250 178 0 84 2 0 0 166 0 7 158 0 14 151 0 20 144 0 27 137 0 33 129 0 41 123 0 48 116 1 54 108 0 61 101 0 68 94 0 74 88 1 82 81 1 88 73 0 94 65 0 101 58 0 108 51 0 116 44 1 121 37 0 128 30 0 135 22 0 142 15 0 148 8 0 155 1 0 161 3 0 171 249 0 177 242 0 184 235 0 191 228 0 199 221 0 205 214 0 211 207 0 218 200 0 225 193 0 232 184 0 238 178 0 245 171 0 252 164 0 2 155 0 9 148 0 15 140 0 22 134 0 29 127 0 36 119 0 43 112 0 49 105 0 55 97 0 63 91 0 70 85 0 76 76 0 83 69 0 90 62 0 97 55 0 102 47 0 110 41 0 117 34 0 123 26 0 130 19 0 137 12 1 144 5 0 152 254 0 160 247 0 165 240 0 172 233 0 180 227 0 186 219 0 192 213 0 198 204 0 206 197 0 213 190 0 219 183 0 226 176 0 234 169 0 240 161 0 245 153 0 253 147 0 2 140 0 9 133 0 16 126 0 22 118 0 29 111 0 36 104 0 43 97 0 49 90 0 56 83 0 63 76 0 70 68 1 76 61 0 83 54 0 90 47 0 95 39 0 103 33 0 110 25 0 117 18 0 123 11 0 130 4 0 138 253 0 145 246 0 152 239 0 159 232 1 165 224 0 172 217 0 179 210 0 184 202 0 192 195 0 199 188 0 206 181 0 213 175 0 218 167 0 227 161 1 234 153 0 239 146 0 245 137 0 253 130 0 139 8 0 158 21 1 177 32 0 196 44 1 216 56 0 236 68 0 1 82 0 22 95 1 42 107 0 62 120 0 83 132 0 104 145 0 125 158 0 147 172 0 168 185 0 190 198 0 212 212 0 234 226 0 3 242 0 0 0 255 0 0 254 0 0 255 0 0 255 1 1 255 0 0 255 1 1 255 1 1 255 0 0 255 0 0 255 0 0 254 0 0 255 0 0 254 0 0 255 0 0 255 0 0 255 0 0 255 0 0 255 1 1 255 0 0 255 0 0 255 0 0 255 0 0 255 0 0 255 0 0 255 0 0 255 0 0 255 159 215 0 190 195 0 220 176 0 249 156 0 12 140 0 40 120 0 69 103 0 97 85 0 125 66 0 152 49 0 179 31 0 205 14 0 228 253 0 235 246 0 241 239 0 248 233 0 29 1 1 5 216 0 11 208 0 19 201 0 25 195 0 32 188 0 39 181 0 45 173 0 52 166 0 59 159 0 66 152 0 73 145 0 79 138 0 86 130 0 92 123 0 99 116 0 106 109 0 113 102 0 119 95 0 126 88 0 133 81 0 140 74 0 146 66 0 153 59 0 161 53 1 166 45 0 173 38 0 180 31 0 187 24 0 193 16 0 200 9 0 207 2 0 215 252 0 222 245 0 228 238 0 236 231 0 241 222 0 248 216 0 45 0 0 4 202 0 11 196 0 18 188 0 24 181 0 31 173 0 38 166 0 44 159 0 51 152 0 58 145 0 65 138 0 71 131 0 79 124 1 85 116 0 92 109 0 98 102 0 105 95 0 112 88 0 118 81 0 125 74 0 132 66 0 139 59 0 145 52 0 152 44 0 159 38 0 165 31 0 171 23 0 179 16 0 186 9 0 192 2 0 200 250 0 207 244 0 214 237 0 220 230 0 227 223 0 234 216 0 241 208 0 247 202 0 254 194 0 72 6 0 4 182 0 11 174 0 18 167 0 26 161 1 31 153 0 37 145 0 45 139 0 51 132 0 58 125 0 65 117 0 72 110 0 78 103 0 84 96 0 92 89 0 99 82 0 105 74 0 112 67 0 119 60 0 125 53 0 133 47 1 139 39 0 146 32 0 152 25 0 159 18 0 166 10 0 172 3 0 176 6 0 188 252 0 195 245 0 202 239 0 208 231 0 215 224 0 221 217 0 228 209 0 235 202 0 242 195 0 249 188 0 74 0 0 5 172 0 12 165 0 19 158 0 25 150 0 32 144 0 39 137 0 46 129 0 53 122 0 59 115 0 66 108 0 72 100 0 79 94 0 86 87 0 92 78 0 100 72 0 106 65 0 113 58 0 119 50 0 126 44 0 133 37 0 140 30 0 146 22 0 153 15 0 160 8 0 167 1 0 175 250 0 182 244 0 188 236 0 195 229 0 202 222 0 208 215 0 215 208 0 222 201 0 230 194 0 235 186 0 242 179 0 249 172 0 90 1 0 5 158 0 11 151 0 17 144 0 25 137 0 31 129 0 37 121 0 45 115 0 52 108 0 58 101 0 66 95 1 72 87 0 78 79 0 85 72 0 92 65 0 99 58 0 106 52 0 112 44 0 119 37 0 126 30 0 132 22 0 139 15 0 146 8 0 152 1 0 160 250 0 167 243 0 174 236 0 180 229 0 186 221 0 194 214 0 201 207 0 207 200 0 214 194 1 221 186 0 229 179 0 235 172 0 241 164 0 248 157 0 254 150 0 122 11 0 141 23 0 160 34 0 181 46 0 199 58 0 218 69 0 239 83 0 4 97 0 24 110 0 46 122 1 65 135 0 86 148 0 108 161 0 128 174 0 150 187 0 172 202 0 194 215 1 217 229 0 238 242 0 1 1 255 0 0 255 0 0 255 0 0 255 0 0 255 1 1 255 0 0 255 0 0 255 0 0 254 0 0 255 0 0 255 0 0 255 0 0 255 0 0 255 0 0 254 1 1 255 1 1 255 0 0 255 0 0 255 0 0 255 0 0 255 0 0 255 0 0 255 0 0 255 0 0 255 0 0 255 0 0 255 0 0 255 152 234 0 182 212 0 215 194 1 243 174 0 7 158 0 35 139 0 64 120 0 92 101 0 120 83 0 147 65 0 174 47 0 200 30 0 226 13 0 247 253 0 255 247 0 5 237 0 11 230 0 18 223 0 25 216 0 30 208 0 37 201 0 45 195 0 51 187 0 58 180 0 65 173 0 72 166 0 79 160 1 85 152 0 92 145 0 98 138 0 105 131 0 113 124 1 119 116 0 126 110 1 131 101 0 139 95 0 145 88 0 152 81 0 159 74 0 165 67 0 172 60 0 179 52 0 184 44 0 193 39 0 199 31 0 206 24 0 213 17 0 219 10 0 226 3 0 234 253 0 240 245 0 247 238 0 254 231 0 3 224 0 8 216 0 16 210 0 23 203 0 29 196 0 36 188 0 43 181 0 51 175 1 56 167 0 63 160 0 70 153 0 76 146 0 83 139 0 89 131 0 95 123 0 103 117 0 110 110 0 117 103 0 124 97 1 129 88 0 137 82 0 143 75 0 150 68 0 158 60 0 163 53 0 170 46 0 177 39 0 184 32 0 190 25 0 197 18 0 204 10 0 210 5 0 218 253 0 226 246 0 233 239 0 239 232 0 245 224 0 252 217 0 47 4 0 2 205 0 9 197 0 15 190 0 21 182 0 29 176 0 36 170 1 42 162 0 49 155 0 56 148 0 63 141 1 68 133 0 76 126 0 82 119 0 89 112 0 96 105 0 102 98 0 109 91 0 116 84 0 123 77 0 129 70 0 136 62 0 143 55 0 150 48 1 156 41 0 163 34 0 169 27 0 176 20 0 183 13 0 190 6 0 191 10 1 205 0 0 212 247 0 219 240 0 225 233 0 233 226 0 239 219 0 245 213 0 253 205 1 2 196 0 9 189 0 15 181 0 22 175 0 29 168 0 36 161 0 42 153 0 49 146 0 56 139 0 62 132 0 69 125 0 76 118 0 83 111 0 89 104 0 96 97 0 103 90 0 109 82 0 116 75 0 123 68 0 129 61 0 135 53 0 143 47 0 150 40 0 156 33 0 163 26 0 170 19 0 176 11 0 182 4 0 190 253 0 199 247 1 205 241 1 211 233 0 218 226 0 225 218 0 232 212 0 238 205 0 245 197 0 251 191 1 0 182 0 7 176 0 14 169 0 21 162 0 28 154 1 34 147 0 40 140 0 47 133 0 54 126 0 61 119 0 67 112 0 74 105 0 81 98 0 87 91 0 94 83 0 101 76 0 107 69 0 113 61 0 122 55 0 128 48 0 134 41 0 140 34 0 149 28 1 154 19 0 161 12 0 168 5 0 176 254 0 182 247 0 189 240 0 195 233 0 202 226 0 209 219 0 216 213 0 222 205 0 230 198 1 236 190 0 242 182 0 249 176 0 88 2 0 106 14 0 125 25 0 144 37 0 163 49 0 182 61 0 202 73 0 221 85 0 242 99 1 6 111 0 27 125 0 48 137 0 68 150 0 89 164 0 110 176 0 132 190 0 153 203 0 175 217 0 196 230 0 219 244 0 0 0 255 0 0 255 0 0 255 0 0 255 1 1 255 0 0 255 1 1 255 0 0 255 0 0 255 0 0 255 0 0 255 0 0 255 0 0 255 0 0 255 0 0 255 1 1 255 0 0 254 0 0 255 0 0 255 1 1 255 0 0 255 0 0 255 0 0 254 0 0 255 0 0 255 0 0 255 0 0 255 0 0 255 0 0 255 146 252 0 177 231 0 207 211 0 237 191 0 1 175 0 30 156 0 58 137 0 87 119 0 113 99 0 142 82 0 169 64 0 195 46 0 221 29 0 247 12 0 11 251 0 17 244 0 24 237 0 31 230 0 37 223 0 44 216 0 51 207 0 57 201 0 64 194 0 71 187 0 77 180 0 84 173 0 91 166 0 99 160 1 104 152 0 111 145 0 118 137 0 124 131 1 130 123 0 138 116 0 144 109 0 151 102 0 158 95 0 164 88 0 171 81 0 178 74 0 184 67 0 191 60 0 199 53 0 205 46 0 212 39 0 218 31 0 225 25 1 231 17 0 238 10 0 244 3 0 252 253 0 1 246 0 8 239 0 15 232 0 21 224 0 28 218 1 35 210 0 40 202 0 48 196 0 55 189 0 61 183 0 68 174 0 75 168 0 81 161 0 88 154 0 95 147 0 101 140 0 108 132 0 115 125 0 121 118 0 128 111 0 135 104 0 141 97 1 148 90 0 155 83 0 160 76 0 168 69 0 174 62 0 181 54 0 187 46 0 195 40 0 202 33 0 208 26 0 215 19 0 222 12 0 228 5 0 236 254 0 242 246 0 249 240 0 22 1 0 0 227 0 6 220 0 13 213 0 20 206 0 26 199 0 33 192 0 39 184 0 46 178 0 53 171 0 61 165 1 66 157 0 73 150 0 80 142 0 86 135 0 93 128 0 99 120 0 106 114 0 113 107 0 120 100 0 126 93 0 133 86 0 140 79 0 146 73 0 153 65 0 161 58 1 167 50 0 173 43 0 180 36 0 187 29 0 193 22 0 201 16 1 207 8 0 213 1 0 219 4 1 230 250 0 235 243 0 242 236 0 249 229 0 33 0 0 6 213 0 13 207 1 19 199 0 27 193 1 32 184 0 39 178 0 46 170 0 52 163 0 60 157 1 67 150 0 73 142 0 79 135 0 86 128 0 92 121 0 99 114 0 107 108 1 112 100 0 119 93 0 126 85 0 132 78 0 139 71 0 146 64 0 152 57 0 159 50 0 166 43 0 172 36 0 179 29 0 186 22 0 191 14 0 199 8 0 206 0 0 214 250 0 220 243 0 227 236 0 234 229 0 240 222 0 246 214 0 254 208 0 4 202 1 9 193 0 16 186 0 22 178 0 28 171 0 35 165 0 42 157 0 48 150 0 56 144 0 63 137 0 69 130 0 76 123 0 84 117 1 91 110 1 97 102 1 104 95 1 110 87 0 117 80 0 123 73 0 130 66 0 136 59 0 143 52 0 150 46 1 157 39 1 163 31 0 170 24 0 176 16 0 183 9 0 191 2 0 197 250 0 204 244 0 211 237 0 218 230 0 224 223 0 231 216 0 238 209 0 244 202 0 250 195 0 72 5 0 90 17 1 109 28 0 127 40 0 146 52 0 166 64 0 185 76 0 205 88 0 224 100 0 244 113 0 10 127 0 30 140 0 51 153 0 70 165 0 91 179 0 114 192 0 135 205 1 157 219 0 177 233 0 200 246 0 0 0 255 0 0 255 0 0 255 0 0 255 0 0 255 0 0 255 0 0 255 0 0 255 0 0 254 0 0 254 0 0 255 0 0 255 0 0 255 0 0 254 0 0 255 0 0 254 0 0 255 0 0 255 0 0 255 0 0 255 0 0 255 0 0 254 0 0 255 0 0 255 0 0 255 0 0 255 0 0 255 0 0 255 1 1 255 0 0 255 0 0 255 171 249 0 202 230 1 231 209 0 3 196 1 24 173 0 53 153 0 81 135 0 109 117 0 137 99 1 164 80 0 190 61 0 216 45 0 242 28 0 15 7 0 29 250 0 36 242 0 42 235 0 51 230 1 57 222 0 64 216 1 70 208 0 77 201 0 83 194 0 91 187 1 97 181 1 103 173 0 110 166 0 117 160 0 124 153 1 130 145 0 137 138 0 143 131 0 150 123 0 158 116 0 163 109 0 170 101 0 176 94 0 183 88 0 190 81 0 195 74 0 203 67 0 210 60 0 216 53 0 223 46 0 230 39 0 236 32 0 243 25 0 250 18 0 244 1 0 5 4 0 13 254 0 20 246 0 27 240 1 34 233 1 39 224 0 46 218 0 53 211 0 61 205 1 66 197 0 73 190 0 80 183 0 86 176 0 93 169 0 100 162 0 106 155 0 112 146 0 120 140 0 126 133 0 133 126 0 140 119 0 146 112 0 154 106 1 159 98 0 165 90 0 174 85 1 178 76 0 186 70 0 193 63 0 199 57 1 206 49 0 213 42 0 219 36 0 226 27 0 233 20 0 239 13 0 246 6 0 252 1 0 10 6 0 5 243 1 12 237 1 17 229 0 23 221 0 31 215 0 37 208 0 44 201 0 51 194 0 57 187 0 64 180 0 70 172 0 77 165 0 84 158 0 89 150 0 97 144 0 104 137 0 109 129 0 117 123 0 124 116 0 130 109 0 137 102 0 144 95 0 150 88 0 157 81 0 163 73 0 171 67 0 177 60 0 184 53 0 190 45 0 197 38 0 203 31 0 209 23 0 217 17 0 223 10 0 230 3 0 235 6 0 246 252 0 252 245 0 2 237 0 9 230 0 17 223 1 22 215 0 29 208 1 36 202 0 42 194 0 49 187 0 55 180 0 62 173 0 69 165 0 75 160 0 82 152 0 90 146 1 95 138 0 102 131 0 109 124 0 115 117 0 122 110 0 129 103 0 135 95 0 142 88 0 149 81 0 155 74 0 162 67 0 169 60 0 175 53 0 183 47 1 188 39 0 195 32 0 202 26 1 208 18 0 215 11 0 222 4 0 230 253 0 236 246 0 243 239 0 249 232 0 31 3 0 5 218 0 12 211 0 19 204 0 24 196 0 32 190 0 38 182 0 45 176 0 53 170 1 58 162 0 65 155 0 72 149 0 78 141 0 85 133 0 91 126 0 99 120 1 105 112 0 112 105 0 118 97 0 126 92 1 132 84 0 138 77 0 145 70 0 152 63 0 159 57 1 166 49 0 171 42 0 178 35 0 185 28 0 190 21 0 198 14 0 205 6 0 212 1 0 219 248 0 226 240 0 232 234 0 239 227 0 246 220 0 253 213 0 56 7 0 74 19 0 92 31 0 111 42 0 131 55 1 149 66 0 169 79 1 188 90 0 207 103 0 227 115 0 248 129 1 13 142 0 33 155 0 54 168 0 74 181 0 96 194 0 117 208 0 138 221 0 160 235 0 182 249 0 0 0 254 0 0 255 0 0 255 1 1 255 0 0 255 0 0 255 0 0 255 0 0 255 0 0 255 0 0 255 1 1 255 0 0 255 0 0 255 0 0 255 1 1 255 0 0 255 0 0 255 0 0 255 0 0 255 0 0 255 0 0 255 0 0 254 0 0 255 0 0 255 0 0 255 0 0 255 0 0 254 0 0 255 0 0 255 0 0 255 0 0 255 0 0 255 0 0 255 195 246 0 225 227 0 0 207 0 18 191 0 47 171 0 75 152 0 103 134 0 131 115 0 158 97 0 185 79 0 211 61 0 238 44 0 11 23 0 36 6 0 49 250 0 56 243 0 64 237 1 69 229 0 77 223 1 83 215 0 89 208 0 96 201 0 102 194 0 109 187 0 117 181 1 121 172 0 129 166 0 136 159 0 142 152 0 149 145 0 155 137 0 162 131 0 169 124 0 175 117 0 182 109 0 189 102 0 195 95 0 202 88 0 209 81 0 215 74 0 222 67 0 228 60 0 235 53 0 242 46 0 248 39 0 222 0 0 4 25 0 10 18 0 17 11 0 24 4 0 32 254 0 38 247 0 45 240 0 51 233 0 58 226 0 65 219 0 71 212 0 78 205 0 85 198 0 91 190 0 98 183 0 104 176 0 111 169 0 118 162 0 124 155 0 131 148 0 139 141 1 144 134 0 151 127 0 158 120 0 163 112 0 171 106 0 177 99 0 184 92 0 190 85 0 197 78 0 204 71 0 211 64 0 217 57 0 224 50 0 230 43 0 237 36 0 245 29 0 249 22 0 241 2 0 0 8 0 6 1 0 15 251 0 21 244 0 28 237 0 35 230 0 42 224 1 48 216 0 55 209 0 62 202 1 67 194 0 75 189 1 81 181 0 88 175 0 95 168 1 101 161 1 108 153 0 114 146 0 121 139 0 128 132 0 134 125 0 141 118 0 147 111 0 154 104 0 161 97 0 168 90 0 174 83 0 181 76 0 186 68 0 194 62 0 200 55 0 207 48 0 214 41 0 220 34 0 227 27 0 235 20 0 240 12 0 247 5 0 248 9 0 6 253 0 11 245 0 19 239 0 26 232 0 33 226 1 39 218 0 45 211 0 52 204 0 59 197 0 64 190 0 73 183 1 79 176 0 85 169 0 92 162 0 98 155 0 106 149 1 111 140 0 119 134 0 125 126 0 132 119 0 138 112 0 145 105 0 150 98 0 158 91 0 165 84 0 171 76 0 178 70 0 185 63 0 191 56 0 198 49 0 205 43 1 211 35 0 217 27 0 225 21 0 232 15 1 238 7 0 244 0 0 252 250 0 1 243 0 8 236 0 14 229 0 21 222 0 28 214 0 34 207 0 41 200 0 47 193 0 54 186 0 61 179 0 66 171 0 74 165 0 82 158 0 87 151 0 95 145 1 100 137 0 107 130 0 114 123 0 120 116 0 127 110 0 134 102 0 140 95 0 148 89 1 153 81 0 160 74 0 167 67 0 173 60 0 179 52 0 187 47 1 193 39 0 200 32 0 206 25 0 213 18 0 220 11 0 226 4 0 234 253 0 241 246 0 247 239 0 255 233 0 40 10 0 58 22 0 76 33 0 95 45 0 114 57 0 131 69 0 152 81 0 171 92 0 190 105 0 210 118 0 230 129 0 249 143 0 16 158 0 36 171 0 57 184 0 78 197 0 99 210 0 120 224 0 141 237 0 163 251 0 0 0 255 0 0 255 0 0 255 0 0 255 1 1 255 0 0 255 0 0 255 0 0 255 0 0 254 0 0 255 0 0 255 0 0 255 0 0 255 0 0 255 0 0 255 0 0 255 0 0 255 0 0 255 0 0 255 0 0 255 0 0 255 0 0 255 0 0 255 0 0 255 0 0 255 1 1 255 0 0 255 1 1 255 0 0 255 0 0 255 0 0 255 0 0 255 0 0 254 0 0 255 0 0 255 219 245 0 248 225 0 12 208 0 41 189 0 70 169 0 98 151 0 126 132 0 153 113 0 180 95 0 207 77 0 234 61 1 6 39 0 31 22 0 56 5 0 69 250 0 74 242 0 82 236 0 88 229 0 95 222 0 103 216 1 108 208 0 115 201 0 121 194 0 128 187 0 135 180 0 141 173 0 149 166 0 153 159 0 161 152 0 168 145 0 174 138 0 181 130 0 187 124 0 193 116 0 201 110 0 207 103 0 214 96 0 221 89 0 227 82 0 234 75 0 240 68 1 247 61 1 255 55 1 2 47 0 9 40 0 15 33 0 22 26 0 29 19 0 36 12 1 42 5 0 50 254 0 57 247 0 63 240 0 69 233 0 76 226 0 83 219 0 90 213 0 96 204 0 103 199 0 109 191 0 116 184 0 123 177 0 130 171 1 136 163 0 141 156 0 149 149 0 156 142 1 161 134 0 169 128 0 174 121 0 182 113 0 189 107 0 195 99 0 201 92 0 208 87 1 215 79 0 222 72 0 228 65 0 235 58 0 241 51 0 248 44 0 217 0 0 229 7 0 4 23 0 11 16 0 17 9 0 24 2 0 32 253 0 39 246 0 44 238 0 52 232 0 59 225 0 65 218 0 72 211 0 79 204 0 86 198 1 92 190 0 98 182 0 105 176 0 112 169 0 118 162 0 125 155 0 131 149 0 138 141 0 145 134 0 151 127 0 158 120 0 164 113 0 172 107 0 177 99 0 184 92 0 191 86 1 197 78 0 205 72 1 211 64 0 218 58 0 224 50 0 230 43 0 237 36 0 244 29 0 250 22 0 241 2 0 7 7 1 7 10 0 21 1 0 29 248 0 36 241 1 42 234 0 49 227 0 55 219 0 62 213 0 68 206 0 75 199 0 83 193 0 88 185 0 95 178 0 101 171 0 108 164 0 115 157 0 121 150 0 128 143 0 134 136 0 140 129 0 148 122 0 154 115 0 161 108 0 167 101 0 174 94 0 181 87 0 187 80 0 194 73 0 200 66 0 207 59 0 214 52 0 220 45 0 227 38 0 235 31 0 240 24 0 247 17 0 254 10 0 2 3 0 10 253 0 17 246 0 23 239 0 30 232 0 37 226 0 43 218 0 49 211 0 56 204 0 63 197 0 69 190 0 76 183 0 83 176 0 89 169 0 96 162 0 103 155 0 109 148 0 116 141 0 122 134 0 129 126 0 136 120 0 142 113 0 149 106 0 155 99 0 162 92 0 169 85 0 175 78 0 182 71 0 189 65 1 195 57 0 203 51 1 208 43 0 215 36 0 221 29 0 229 22 0 235 15 0 241 8 0 248 1 0 7 2 1 24 13 0 42 24 0 60 36 0 79 47 0 97 59 0 116 71 0 135 83 0 154 95 0 173 108 0 193 120 0 213 133 0 234 146 1 253 157 0 18 173 0 39 186 0 60 199 0 81 212 0 103 227 1 123 240 0 145 253 0 0 0 255 0 0 255 0 0 255 0 0 255 0 0 255 0 0 255 0 0 255 0 0 255 0 0 255 0 0 255 0 0 254 0 0 255 1 1 255 0 0 255 0 0 255 1 1 255 0 0 255 0 0 255 0 0 255 0 0 255 0 0 255 1 1 255 0 0 255 0 0 255 0 0 255 0 0 255 0 0 255 0 0 255 0 0 255 0 0 255 0 0 255 0 0 255 0 0 255 0 0 255 0 0 255 0 0 255 0 0 255 243 243 0 7 227 1 36 206 0 64 187 0 92 167 0 119 149 0 149 131 1 175 112 0 202 94 0 228 76 0 1 55 0 26 37 0 52 20 0 76 4 0 88 249 0 94 242 0 101 235 0 107 228 0 114 221 0 121 214 0 127 208 0 134 200 0 139 193 0 147 186 0 153 179 0 160 172 0 167 165 0 173 158 0 181 153 1 187 146 1 193 138 0 200 131 0 206 124 0 213 117 0 219 110 0 226 103 0 232 95 0 239 90 0 246 82 0 253 75 0 1 68 0 7 61 0 14 54 0 21 47 0 27 40 0 34 33 0 40 26 0 48 20 1 54 12 0 60 5 0 68 0 0 75 247 0 81 241 0 88 234 0 94 227 0 100 219 0 108 213 0 114 206 0 121 199 0 126 192 0 134 185 0 140 178 0 147 172 0 153 163 0 159 156 0 167 150 0 174 144 1 180 136 0 187 129 0 193 122 0 200 115 0 206 108 0 213 101 0 219 94 0 226 87 0 233 80 0 240 73 1 245 66 0 253 59 0 205 4 0 2 45 0 8 38 0 15 31 0 21 24 0 27 16 0 35 10 0 41 3 0 50 255 0 56 247 0 63 240 0 69 233 0 76 226 0 81 218 0 89 212 0 96 205 0 102 198 0 109 191 0 116 185 0 122 177 0 129 171 0 134 163 0 142 158 1 148 150 0 155 143 0 160 135 0 167 128 0 175 122 0 181 115 0 188 108 0 194 101 0 202 95 1 207 87 0 214 80 0 221 73 0 228 67 1 234 59 0 240 52 0 247 45 0 254 38 0 2 30 0 9 23 0 14 15 0 22 9 0 29 2 0 35 4 0 45 251 0 52 244 0 58 237 0 65 231 0 72 223 0 78 216 0 85 209 0 91 202 0 98 195 0 104 188 0 111 181 0 119 175 0 123 166 0 131 160 0 137 153 0 143 145 0 151 139 0 157 132 0 164 125 0 171 119 1 177 111 0 183 104 0 190 97 0 198 91 1 203 83 0 210 76 0 216 69 0 223 62 0 229 55 0 236 48 0 242 41 0 249 34 0 228 0 0 4 21 0 11 14 0 18 7 0 25 1 1 32 249 0 40 243 1 45 235 0 52 228 0 59 221 0 65 214 0 71 206 0 78 201 0 85 193 0 91 186 0 98 179 0 105 172 0 112 166 1 118 158 0 124 151 1 131 144 0 138 137 0 144 130 0 151 124 0 157 117 0 164 110 0 170 103 0 177 97 0 185 89 0 191 82 0 197 75 0 203 67 0 210 61 0 216 54 0 224 48 1 230 40 0 236 33 0 243 26 0 249 20 1 246 3 1 8 15 0 25 26 0 44 38 0 63 50 0 81 62 0 99 73 0 119 87 1 138 98 0 157 110 0 176 123 0 195 135 0 215 149 0 235 161 0 1 175 0 21 188 0 42 202 0 63 215 0 85 229 1 105 242 0 1 1 255 0 0 255 0 0 255 0 0 255 0 0 255 0 0 255 0 0 255 0 0 255 0 0 255 0 0 255 0 0 254 0 0 255 0 0 255 0 0 255 0 0 254 1 1 255 0 0 255 0 0 255 0 0 254 0 0 255 1 1 255 0 0 255 0 0 255 0 0 255 0 0 255 0 0 255 0 0 255 0 0 255 0 0 255 0 0 255 0 0 255 0 0 255 0 0 255 1 1 255 0 0 255 0 0 255 0 0 255 1 1 255 0 0 255 0 0 255 0 244 0 30 224 0 59 204 0 86 184 0 115 166 0 143 146 0 170 129 0 195 110 0 224 92 1 249 75 0 22 53 0 47 36 0 72 19 0 97 3 0 107 249 0 113 242 0 120 236 0 127 229 1 132 220 0 139 214 0 146 207 0 152 200 0 159 193 0 166 186 0 172 179 0 179 172 0 185 165 0 192 158 0 198 150 0 205 144 0 211 138 0 218 131 0 225 124 0 232 117 0 238 110 0 244 103 0 251 96 0 166 1 0 7 83 1 13 75 0 19 68 0 25 60 0 32 54 0 39 47 0 45 41 0 52 33 0 57 25 0 65 19 0 72 13 0 78 6 0 85 1 0 93 248 0 99 241 0 107 235 0 112 227 0 119 219 0 125 213 0 132 206 0 139 201 1 144 193 0 152 186 0 158 179 0 165 172 0 172 166 1 178 158 0 184 151 0 191 144 0 198 137 0 205 131 0 211 123 0 217 116 0 224 109 0 230 102 0 237 95 0 242 87 0 249 81 0 182 3 1 192 9 0 6 60 0 12 53 0 19 46 0 25 40 0 31 32 0 39 26 0 45 19 0 52 12 0 58 5 0 65 1 0 73 249 0 80 242 0 86 235 0 93 228 0 100 221 0 106 214 0 113 207 0 119 200 0 126 193 0 132 186 0 139 180 0 146 172 0 152 165 0 159 158 0 166 151 1 172 144 0 178 137 0 185 130 0 190 123 0 198 117 0 203 109 0 211 103 0 218 96 0 225 90 0 231 82 0 237 75 0 244 67 0 250 61 0 202 3 0 6 46 0 12 39 0 19 32 0 25 25 0 32 18 0 38 11 0 46 5 1 49 7 0 62 254 1 67 246 0 75 239 0 81 232 0 88 225 0 94 218 0 101 211 0 107 204 0 114 197 0 121 190 0 127 183 0 134 176 0 140 171 1 147 163 0 153 156 0 159 148 0 166 142 0 173 135 0 181 128 0 186 121 0 193 114 0 199 107 0 206 99 0 212 93 0 219 86 0 225 79 0 232 72 0 239 65 0 245 58 0 252 51 0 0 45 0 7 38 0 13 31 0 20 24 0 26 16 0 33 10 0 40 3 0 48 252 0 54 245 0 61 238 0 67 232 0 74 225 0 80 218 0 87 211 0 93 204 0 100 197 0 107 190 0 113 183 0 120 176 0 126 169 0 133 162 0 139 155 0 146 148 0 153 141 0 159 134 0 166 127 0 172 120 0 179 113 0 185 106 0 192 99 0 198 91 0 204 84 0 212 78 0 218 72 0 225 65 0 231 57 0 238 51 0 244 44 0 251 37 0 230 6 0 247 16 0 10 29 0 28 41 0 46 53 0 65 64 0 83 76 0 102 88 0 121 100 0 140 113 0 159 124 0 180 138 0 198 150 0 217 163 0 238 176 0 5 191 1 24 204 0 45 218 0 66 231 0 87 244 0 0 0 255 0 0 255 0 0 255 0 0 255 0 0 255 0 0 255 0 0 255 0 0 255 0 0 255 0 0 255 0 0 255 1 1 255 0 0 255 0 0 255 0 0 255 0 0 255 0 0 255 0 0 255 0 0 255 0 0 255 0 0 254 0 0 255 0 0 255 0 0 255 0 0 255 0 0 255 0 0 255 1 1 255 0 0 255 0 0 255 0 0 255 0 0 255 0 0 255 0 0 255 0 0 255 1 1 255 0 0 255 0 0 254 0 0 255 0 0 255 1 1 255 0 0 255 24 242 0 54 223 1 81 202 0 111 183 1 137 164 1 165 145 0 191 127 0 217 109 0 244 91 0 17 69 0 42 51 0 68 35 0 93 19 1 117 1 0 125 248 0 132 241 0 138 235 0 145 228 0 151 221 0 158 214 0 164 207 0 171 200 0 178 193 0 185 187 1 191 179 0 197 172 0 204 165 0 210 158 0 217 151 0 223 144 0 230 137 0 236 130 0 242 123 0 249 117 0 145 1 0 5 103 0 10 96 0 18 89 0 24 83 0 31 75 0 36 67 0 44 61 0 50 55 0 57 48 0 63 41 0 70 35 1 75 27 0 83 20 0 90 13 0 96 6 0 102 2 0 111 249 0 116 241 0 124 236 0 130 228 0 138 222 1 143 214 0 150 207 0 156 200 0 163 194 0 169 186 0 176 179 0 182 172 0 189 165 0 196 159 0 203 153 1 209 145 0 214 137 0 222 131 0 228 124 0 235 116 0 241 111 0 248 103 0 254 96 0 169 7 0 4 82 0 10 75 0 17 68 0 22 61 0 30 55 0 36 48 0 43 41 0 49 34 0 56 27 0 61 19 0 68 12 0 75 6 0 80 4 0 90 250 0 96 242 0 103 236 0 110 229 0 116 222 0 123 215 0 131 209 1 136 202 0 144 196 0 149 188 0 156 181 0 162 174 0 169 167 0 175 160 0 182 153 0 188 146 0 195 139 0 201 132 0 208 125 0 214 118 0 221 111 0 228 105 0 235 99 1 241 91 0 247 84 0 255 78 1 2 69 0 10 62 0 15 55 0 22 48 0 28 42 0 35 34 0 42 27 0 48 20 0 55 13 0 61 6 0 63 10 0 77 1 0 84 248 0 91 241 0 96 235 0 104 228 0 110 221 0 116 213 0 124 208 0 130 200 0 137 193 0 144 187 1 150 179 0 156 172 0 163 165 0 169 158 0 175 150 0 182 144 0 189 137 0 195 130 0 202 124 0 208 117 0 215 110 0 221 103 0 228 96 0 235 89 0 241 82 0 247 74 0 254 68 0 3 61 0 10 55 1 16 48 0 22 41 0 29 34 0 36 28 0 42 20 0 49 13 0 55 6 0 62 1 0 69 248 0 76 241 0 83 235 0 89 228 0 96 221 0 102 214 0 109 207 0 115 200 0 122 194 0 128 186 0 135 179 0 141 172 0 149 166 0 153 159 0 161 152 0 168 145 0 175 138 0 181 131 0 187 124 1 194 117 0 200 110 0 207 103 0 213 96 0 220 89 0 226 82 0 233 75 0 238 67 0 246 61 0 253 55 0 214 7 0 232 19 0 249 31 0 12 44 0 31 55 0 49 67 0 67 79 0 86 91 0 105 103 0 123 115 0 143 128 0 161 139 0 181 153 0 201 165 0 221 178 0 241 191 0 7 206 0 27 219 0 48 233 0 69 246 0 0 0 255 0 0 255 0 0 255 0 0 255 0 0 255 0 0 255 0 0 255 0 0 255 0 0 255 0 0 255 0 0 255 0 0 255 0 0 255 0 0 255 0 0 255 0 0 254 0 0 254 0 0 255 0 0 255 0 0 255 0 0 255 0 0 255 0 0 254 0 0 255 0 0 255 0 0 254 0 0 255 0 0 255 0 0 255 0 0 255 0 0 255 0 0 255 0 0 255 1 1 255 0 0 255 0 0 255 0 0 255 0 0 255 0 0 255 0 0 255 0 0 255 0 0 255 0 0 255 0 0 255 47 239 0 76 220 0 104 200 0 132 181 0 160 162 0 186 144 0 213 125 0 239 107 0 13 86 0 38 68 0 63 51 0 88 34 0 112 17 0 136 0 0 144 248 0 150 241 0 157 234 0 163 227 0 170 220 0 176 213 0 183 207 0 189 200 0 196 193 0 204 187 1 209 179 0 216 172 0 222 165 0 230 159 1 235 150 0 242 144 0 247 136 0 123 0 0 3 124 0 10 117 0 15 110 0 23 103 0 29 96 0 37 90 1 42 82 0 49 75 0 54 69 0 62 62 0 68 55 0 75 48 0 81 41 0 88 34 0 95 28 1 101 21 1 107 13 0 114 6 0 120 1 1 128 248 0 135 242 0 140 235 0 148 228 0 153 222 0 161 215 0 167 208 0 173 201 0 181 194 0 188 188 1 193 180 0 200 173 0 206 165 0 212 158 0 218 151 0 227 146 1 233 139 0 239 132 0 246 125 0 252 118 0 146 4 0 1 104 0 9 97 1 15 91 1 21 83 0 27 76 0 34 70 0 41 64 0 47 56 0 53 49 0 60 42 0 66 35 0 73 28 0 79 21 0 86 14 0 91 6 0 99 1 0 107 250 0 114 245 0 120 238 0 127 231 0 133 224 0 140 217 0 145 210 0 154 204 1 159 196 0 167 190 1 172 182 0 178 175 0 185 169 0 192 162 0 198 155 0 205 149 0 211 141 0 218 134 0 224 127 0 231 120 0 237 113 0 244 106 0 251 100 1 164 3 0 6 84 0 12 77 0 20 72 1 25 64 0 32 57 0 38 50 0 45 43 0 51 36 0 58 29 0 64 22 0 71 15 0 77 8 0 84 2 0 91 4 0 100 251 0 107 244 0 113 237 0 120 230 0 126 223 0 133 216 0 139 209 0 146 202 0 152 195 0 159 188 0 165 182 0 172 174 0 178 168 0 185 161 0 191 154 0 198 147 0 205 141 1 211 133 0 217 126 0 224 119 0 230 113 0 237 106 0 244 99 0 250 92 0 171 2 0 5 78 0 12 72 1 18 64 0 25 57 0 31 51 0 38 44 0 44 37 0 51 30 0 57 23 0 64 16 0 69 9 0 77 2 0 85 252 0 91 245 0 98 238 0 104 231 0 112 225 1 117 217 0 124 210 0 130 204 0 137 197 0 144 190 0 150 183 0 156 176 0 163 168 0 169 162 0 176 155 0 182 148 0 188 140 0 195 134 0 202 128 0 208 121 0 215 114 0 221 107 0 229 100 0 234 93 0 240 85 0 247 79 0 255 72 0 198 9 0 216 21 0 233 33 0 250 44 0 15 58 0 33 69 0 51 81 0 70 93 0 88 105 0 107 118 0 126 130 0 145 142 0 165 155 0 185 168 0 204 180 0 223 193 0 245 208 0 10 222 0 30 235 0 51 249 0 0 0 255 1 1 255 0 0 255 0 0 255 0 0 255 0 0 255 0 0 255 0 0 255 0 0 255 0 0 255 1 1 255 1 1 255 0 0 255 0 0 255 0 0 255 0 0 255 0 0 255 0 0 255 1 1 255 0 0 255 0 0 255 0 0 255 0 0 255 0 0 255 0 0 255 0 0 255 0 0 255 1 1 255 0 0 255 0 0 254 0 0 255 1 1 255 1 1 255 0 0 255 0 0 255 0 0 254 0 0 255 1 1 255 0 0 255 0 0 254 0 0 255 0 0 255 0 0 255 1 1 255 0 0 255 0 0 255 70 237 0 99 218 0 127 198 0 154 180 0 181 160 0 207 141 0 235 124 0 8 102 0 33 84 0 60 68 1 83 50 0 108 33 0 133 17 1 156 254 0 162 248 0 169 241 1 175 234 0 182 227 0 188 220 0 195 213 0 201 206 0 207 198 0 214 192 0 221 186 0 227 179 0 234 172 0 240 165 0 248 159 1 253 151 0 2 144 0 8 138 0 14 130 0 21 124 0 28 117 0 34 110 0 41 103 0 46 96 0 54 89 0 60 83 0 67 76 0 72 69 0 80 62 0 87 56 1 93 48 0 99 41 0 106 34 0 112 27 0 119 21 0 125 14 0 132 7 0 138 0 0 146 250 0 152 243 0 160 237 1 165 230 0 172 222 0 178 215 0 185 208 0 191 201 0 198 195 0 204 188 0 211 181 0 217 173 0 225 167 0 229 159 0 238 153 0 242 145 0 250 140 0 123 1 0 134 9 0 5 119 0 11 111 0 18 106 0 25 98 1 31 91 0 38 84 0 45 79 1 51 71 0 56 63 0 64 57 0 70 50 0 77 43 0 83 36 0 90 29 0 96 23 0 103 16 0 109 9 0 116 2 0 124 254 0 131 246 0 137 239 0 144 232 0 150 225 0 157 218 0 163 212 0 170 205 1 176 198 0 183 191 1 189 184 0 196 177 0 202 170 0 207 163 0 214 155 0 221 150 0 228 143 0 235 136 0 241 129 0 248 123 1 254 115 0 2 108 0 8 99 0 15 93 0 22 86 0 28 79 0 36 73 1 41 66 0 48 59 0 54 52 0 61 45 0 68 39 1 73 30 0 80 24 0 87 18 0 92 10 0 99 4 0 105 8 1 116 253 0 123 246 0 129 239 0 136 232 0 142 225 0 148 218 0 155 212 0 162 205 0 167 198 0 175 191 0 182 185 0 188 176 0 194 170 0 201 163 0 207 157 0 213 149 0 219 143 0 228 136 0 233 129 0 239 122 0 246 115 0 253 108 0 1 102 0 9 96 1 14 88 0 21 81 0 27 74 0 34 67 0 40 60 0 46 54 0 53 47 0 59 40 0 66 33 0 72 26 0 79 19 0 84 11 0 92 5 0 99 0 0 106 248 0 113 241 0 119 234 0 127 229 0 132 221 0 139 214 0 145 207 0 153 201 1 158 193 0 166 187 0 171 179 0 178 172 0 184 166 0 190 159 0 197 152 0 204 145 0 210 138 0 218 131 0 223 124 0 230 117 0 236 111 0 243 104 0 249 97 1 166 1 0 183 12 0 201 25 0 218 35 0 235 47 0 253 58 0 17 72 0 35 84 0 53 97 0 72 108 0 91 120 0 110 132 1 129 145 0 148 157 0 167 170 0 187 183 0 207 195 0 227 208 0 247 223 1 13 237 0 33 250 0 0 0 255 0 0 255 0 0 254 0 0 255 0 0 255 0 0 255 0 0 255 0 0 255 0 0 255 0 0 255 0 0 255 0 0 255 0 0 255 0 0 255 0 0 255 0 0 255 0 0 255 0 0 255 0 0 255 0 0 255 1 1 255 0 0 255 0 0 255 0 0 255 0 0 255 0 0 255 0 0 255 0 0 255 0 0 255 0 0 255 0 0 255 0 0 255 0 0 255 0 0 255 0 0 255 0 0 255 0 0 255 0 0 254 0 0 255 0 0 255 0 0 255 1 1 255 0 0 255 0 0 255 0 0 255 0 0 255 0 0 255 1 1 255 93 235 0 122 216 1 149 196 0 176 177 0 203 159 0 229 140 0 4 119 1 29 100 0 54 83 0 79 65 0 104 48 0 128 31 0 152 15 0 174 254 0 181 247 0 187 240 0 194 233 0 201 228 1 207 220 0 213 213 0 220 206 0 226 199 0 232 192 0 239 185 0 245 179 0 253 172 0 1 166 1 7 158 0 13 151 0 20 144 0 25 137 0 33 131 0 39 124 0 46 117 0 53 111 1 59 103 0 66 97 1 72 90 0 77 82 0 84 75 0 91 69 0 97 62 0 104 55 0 111 49 1 118 43 1 123 35 0 130 28 0 136 21 0 143 14 0 150 8 0 156 0 0 164 250 0 170 242 0 176 237 1 183 230 0 189 223 0 196 216 0 202 209 0 208 201 0 215 195 0 221 188 0 228 182 0 235 175 0 241 168 0 248 161 0 254 153 0 111 6 0 3 140 0 10 134 0 16 127 0 22 119 0 29 113 0 35 106 0 42 99 0 48 92 0 55 86 0 60 78 0 67 72 0 74 65 0 81 58 0 88 52 1 93 43 0 100 37 0 107 31 0 113 24 0 119 17 0 127 11 1 132 3 0 141 254 0 147 247 0 154 241 0 160 234 0 167 227 0 174 221 1 180 212 0 186 206 0 192 199 0 199 192 0 205 186 0 212 179 0 218 172 0 225 165 0 231 158 0 238 151 0 244 144 0 250 138 0 125 3 0 6 123 0 12 116 0 19 109 0 24 101 0 32 95 0 38 88 0 45 81 0 52 76 1 57 68 0 64 61 0 70 54 0 77 47 0 83 40 0 90 33 0 96 27 0 103 20 0 109 13 0 116 6 0 118 10 0 131 1 0 139 248 0 145 242 0 151 235 0 159 229 1 165 222 1 171 214 0 178 208 1 184 200 0 190 194 0 197 186 0 203 180 0 210 173 0 216 166 0 223 159 0 229 152 0 235 146 0 242 139 0 247 131 0 129 0 0 3 118 0 11 112 0 16 105 0 24 99 1 29 91 0 36 84 0 42 77 0 49 70 0 54 63 0 61 57 0 68 50 0 76 44 1 81 36 0 89 29 0 94 22 0 100 15 0 107 9 0 113 2 0 121 251 0 128 245 0 134 238 0 141 231 0 147 225 0 153 217 0 160 210 0 166 203 0 173 197 0 179 190 0 186 183 0 192 176 0 199 169 0 205 162 0 212 155 0 218 150 1 225 142 0 231 135 0 239 128 0 244 121 0 251 114 0 151 4 0 167 14 0 184 25 0 202 38 0 220 49 0 237 61 0 1 74 0 19 86 0 37 98 0 56 110 0 74 122 0 93 135 0 112 147 0 131 160 0 150 172 0 170 185 0 190 198 0 209 211 0 230 224 0 250 239 1 16 253 0 0 0 255 0 0 255 0 0 255 0 0 255 0 0 255 0 0 255 0 0 255 0 0 255 0 0 255 0 0 255 0 0 255 0 0 254 0 0 255 0 0 255 0 0 255 0 0 255 0 0 255 1 1 255 0 0 255 0 0 255 0 0 255 1 1 255 0 0 255 0 0 255 0 0 255 0 0 255 0 0 255 0 0 255 0 0 255 0 0 255 0 0 255 0 0 255 0 0 255 0 0 255 0 0 255 0 0 255 0 0 255 0 0 255 0 0 255 0 0 255 0 0 255 0 0 255 0 0 255 0 0 255 0 0 255 0 0 255 0 0 255 0 0 254 0 0 255 88 254 1 116 233 0 144 213 1 171 194 0 198 175 0 224 157 0 250 139 0 24 116 0 49 99 0 74 81 0 99 64 0 124 47 0 149 30 0 172 15 0 193 254 0 199 247 0 205 240 0 212 233 0 218 226 0 225 219 0 232 214 1 239 207 1 244 198 0 251 192 0 70 2 0 6 179 0 12 172 0 18 165 0 25 158 0 31 151 0 38 144 0 43 137 0 52 131 1 57 124 0 64 117 0 71 111 1 76 103 0 82 96 0 89 90 0 96 83 0 102 76 0 109 69 0 115 61 0 122 56 0 128 49 0 134 42 0 140 34 0 147 28 0 154 22 1 160 15 0 167 8 0 173 1 0 181 251 0 187 244 0 194 237 0 201 231 0 207 222 0 213 216 0 220 210 0 226 203 0 232 196 0 239 189 0 245 182 0 253 175 0 88 4 0 1 162 0 7 155 0 14 148 0 20 141 0 27 134 0 33 128 0 39 121 0 46 114 0 52 107 0 60 100 1 65 93 0 72 87 0 77 79 0 85 73 0 91 66 0 97 59 0 105 53 1 110 46 0 118 40 1 123 32 0 130 25 0 135 17 0 143 11 0 149 5 0 156 1 0 164 249 0 170 241 0 178 236 1 183 228 0 189 220 0 196 215 0 201 207 0 209 202 0 214 193 0 222 187 0 228 180 0 235 174 0 241 167 0 248 160 0 254 153 0 3 145 0 9 138 0 15 131 0 22 123 0 28 118 0 35 111 0 42 105 1 48 97 0 54 90 0 61 83 0 67 77 0 73 70 0 79 63 0 86 56 0 93 49 0 99 42 0 106 36 0 112 29 0 119 23 1 125 15 0 131 8 0 138 1 0 145 4 0 153 250 0 162 245 1 167 237 0 174 230 0 180 223 0 186 217 0 193 210 0 199 203 0 206 196 0 212 188 0 220 183 1 226 176 1 231 168 0 238 162 0 244 155 0 250 148 0 116 4 0 6 135 0 12 128 0 19 121 0 25 114 0 32 107 0 37 100 0 44 94 0 51 87 0 57 80 0 64 73 0 69 66 0 77 60 0 83 53 0 90 46 0 96 39 0 102 32 0 109 24 0 115 19 0 122 12 0 128 5 0 136 0 0 143 248 0 148 240 0 155 234 0 162 228 0 168 220 0 174 213 0 181 207 0 188 200 0 194 193 0 201 186 0 207 178 0 212 173 0 220 166 0 227 160 1 233 152 0 239 145 0 246 138 0 252 131 0 135 6 0 152 18 0 170 29 0 187 40 0 205 53 1 223 64 1 241 76 1 3 89 0 21 101 0 40 113 0 58 125 0 77 137 0 95 150 0 113 162 0 134 175 0 153 187 0 173 200 0 192 213 0 212 225 0 232 240 0 253 253 0 0 0 255 0 0 255 0 0 254 0 0 255 0 0 255 0 0 255 0 0 255 1 1 255 0 0 255 0 0 255 0 0 255 0 0 255 0 0 255 0 0 255 0 0 255 0 0 255 0 0 255 0 0 255 0 0 255 0 0 255 0 0 254 0 0 255 0 0 255 0 0 255 0 0 255 0 0 255 0 0 255 0 0 255 0 0 255 0 0 255 0 0 255 0 0 255 0 0 255 0 0 255 0 0 255 0 0 254 0 0 255 0 0 255 0 0 255 0 0 255 0 0 255 0 0 255 0 0 255 0 0 255 0 0 255 0 0 255 0 0 255 0 0 255 0 0 255 0 0 255 0 0 255 111 250 1 138 231 0 167 212 1 194 193 0 219 174 0 246 155 0 19 133 0 45 115 0 69 96 0 95 80 0 119 64 0 144 47 1 168 30 1 191 13 0 211 253 0 218 247 1 224 240 0 230 233 0 236 226 0 243 219 0 249 212 0 49 1 0 4 199 0 11 192 0 17 185 0 23 178 0 30 172 0 36 166 0 43 158 0 48 150 0 56 145 0 63 139 1 68 131 0 76 124 1 81 117 0 88 110 0 94 103 0 100 97 0 107 90 0 114 84 1 120 76 0 126 69 0 133 63 0 139 56 0 145 49 0 152 42 0 158 35 0 165 28 0 172 22 0 177 15 0 184 8 0 190 1 0 198 251 0 205 244 0 211 237 0 216 230 0 225 225 1 231 218 0 237 210 0 242 202 0 249 197 0 65 1 0 77 9 1 6 177 1 11 169 0 18 163 0 24 156 0 31 149 0 38 142 1 44 135 0 50 128 0 56 122 0 63 115 0 69 108 0 76 101 0 82 94 0 88 88 0 95 81 0 101 74 0 108 67 0 113 60 0 121 54 0 127 47 0 133 40 0 140 33 0 146 26 0 153 19 0 159 13 0 165 6 0 171 3 0 180 249 0 187 243 0 193 236 0 198 230 0 205 222 0 212 216 0 219 209 1 225 202 0 232 196 0 237 188 0 244 182 0 251 175 1 89 4 0 6 160 0 12 153 0 19 147 0 24 139 0 31 133 0 38 126 0 45 120 1 51 113 0 57 107 0 64 99 0 70 92 0 76 85 0 83 79 0 89 72 0 96 65 0 102 58 0 109 51 0 115 44 0 122 38 0 128 31 0 134 24 0 141 17 0 147 10 0 153 4 0 158 7 0 170 253 0 176 246 0 183 239 0 188 233 0 195 226 0 202 219 0 208 213 0 215 205 0 221 199 0 228 192 0 235 185 0 240 178 0 247 172 0 254 164 0 2 158 0 8 151 0 15 144 0 20 136 0 27 131 0 34 124 0 40 117 0 47 110 0 53 103 0 60 96 0 66 90 0 72 83 0 79 76 0 84 68 0 92 62 0 98 56 0 104 49 0 111 42 0 117 35 0 124 28 1 130 22 0 137 15 0 143 8 0 149 1 0 158 251 0 164 244 0 170 237 0 177 230 0 183 224 0 189 217 0 196 210 0 202 203 0 209 196 0 215 190 0 221 183 0 228 176 0 234 169 0 241 162 0 247 156 0 254 149 0 121 9 0 137 20 0 153 31 0 171 43 0 188 53 0 206 66 0 224 77 0 242 89 0 5 103 0 24 115 0 42 127 0 59 139 0 79 152 0 98 164 0 117 177 0 136 190 0 156 203 0 175 216 0 195 229 0 215 242 0 0 0 255 0 0 255 0 0 255 0 0 255 0 0 255 0 0 255 0 0 255 0 0 255 0 0 255 0 0 255 0 0 255 0 0 254 0 0 255 0 0 255 0 0 255 0 0 255 0 0 255 0 0 254 0 0 255 0 0 255 0 0 255 0 0 255 0 0 255 0 0 255 0 0 255 0 0 255 1 1 255 0 0 255 0 0 255 0 0 255 0 0 255 0 0 255 0 0 255 0 0 255 0 0 255 0 0 255 0 0 255 0 0 255 0 0 255 0 0 255 0 0 255 0 0 255 0 0 254 0 0 255 0 0 255 0 0 255 0 0 255 0 0 255 0 0 255 0 0 255 0 0 255 0 0 255 0 0 255 0 0 255 133 248 0 160 229 0 188 209 0 214 190 0 241 172 0 14 150 0 40 131 0 65 114 0 91 97 1 115 79 0 139 61 0 163 45 0 187 28 0 210 11 0 229 253 0 235 246 0 241 239 0 248 232 0 254 226 0 3 219 0 10 213 0 16 205 0 22 199 0 28 192 0 35 184 0 41 178 0 48 171 0 54 165 0 61 159 1 67 151 0 73 144 0 81 138 1 86 131 0 92 124 1 99 117 0 105 110 0 112 104 0 118 97 0 124 90 0 131 83 0 137 76 0 144 70 0 150 63 0 155 56 0 163 49 0 169 42 0 176 36 0 183 30 1 188 22 0 195 14 0 201 9 0 208 2 0 215 253 0 222 245 0 228 238 0 235 231 0 241 224 0 247 218 0 254 211 0 53 6 0 3 197 0 10 191 1 17 185 1 22 177 0 28 170 0 35 163 0 41 155 0 47 149 0 54 143 0 60 136 0 67 129 0 72 123 0 80 117 1 86 109 0 92 102 0 99 95 0 105 89 0 111 82 0 118 75 0 123 67 0 131 62 1 137 55 0 143 48 0 150 41 0 156 34 0 164 28 0 169 21 0 174 13 0 182 7 0 188 0 0 198 251 1 203 245 0 209 238 0 217 232 0 222 224 0 229 218 1 235 211 0 241 204 0 248 197 0 254 190 0 4 183 1 9 175 0 15 169 0 22 162 0 28 155 0 34 148 0 41 142 0 47 135 0 54 128 0 60 121 0 67 114 0 73 108 0 78 100 0 86 94 0 92 87 0 99 80 0 105 74 0 112 68 1 118 60 0 124 53 0 131 47 0 137 40 0 143 33 0 149 25 0 156 19 0 163 13 0 169 6 0 172 10 0 185 1 1 192 248 0 199 242 0 204 235 0 212 229 1 217 221 0 224 214 0 231 208 1 236 201 0 243 194 0 248 187 0 75 2 0 4 174 0 11 167 0 16 159 0 23 154 0 30 147 0 35 139 0 42 132 0 48 125 0 55 120 0 61 112 0 67 106 0 75 99 0 80 92 0 87 86 0 94 79 0 100 72 0 108 66 1 113 59 0 119 52 0 126 45 0 132 38 0 138 31 0 145 25 0 150 18 0 158 11 0 164 4 0 172 254 0 178 247 0 185 240 0 190 234 0 197 227 0 205 220 0 210 213 0 217 207 0 223 200 0 229 193 0 236 186 0 242 179 0 249 173 0 89 0 0 106 11 0 122 23 0 139 34 0 156 45 0 173 57 0 191 68 0 208 80 0 227 92 1 244 103 0 8 118 0 25 130 0 44 142 0 63 153 0 81 167 0 99 178 0 120 192 0 139 205 1 158 218 0 178 232 0 198 244 0 0 0 255 1 1 255 0 0 255 0 0 255 0 0 255 0 0 255 1 1 255 0 0 254 0 0 255 0 0 255 0 0 255 0 0 255 0 0 255 0 0 255 0 0 255 0 0 255 0 0 255 0 0 255 0 0 255 0 0 255 0 0 255 0 0 255 0 0 255 0 0 255 0 0 255 0 0 255 0 0 255 1 1 255 0 0 255 0 0 255 0 0 255 0 0 255 0 0 255 0 0 255 1 1 255 0 0 255 0 0 255 0 0 255 0 0 255 0 0 255 0 0 255 0 0 255 0 0 255 1 1 255 0 0 255 0 0 254 0 0 255 0 0 255 0 0 255 1 1 255 0 0 255 0 0 255 0 0 254 0 0 255 0 0 255 0 0 255 155 246 0 182 227 0 209 207 0 236 189 0 10 166 0 35 148 0 61 130 0 86 112 0 111 94 0 135 77 0 160 60 0 183 43 0 206 27 0 229 10 0 247 252 0 253 246 0 1 239 0 8 232 0 14 225 0 21 219 0 27 212 0 33 205 0 39 198 0 46 192 0 52 184 0 59 178 0 64 171 0 73 166 1 77 157 0 84 151 0 91 144 0 97 137 0 104 131 1 110 124 0 116 117 0 123 110 0 129 104 0 135 97 0 141 89 0 148 83 0 154 77 0 161 70 0 167 63 0 174 56 0 180 50 0 187 43 0 194 37 0 199 29 0 205 22 0 212 16 0 218 9 0 225 2 0 232 252 0 239 245 0 246 239 1 252 232 0 31 3 0 0 218 0 7 211 0 13 205 0 20 198 0 26 191 0 32 184 0 39 178 0 45 171 0 51 164 0 57 156 0 64 150 0 71 144 0 77 137 0 83 130 0 90 123 0 96 117 0 102 110 0 109 103 0 115 96 0 122 90 0 128 83 0 134 76 0 141 69 0 146 63 0 153 56 0 160 49 0 166 42 0 172 36 0 179 29 0 185 22 0 193 16 1 198 8 0 204 2 0 212 253 0 219 246 0 225 239 0 231 232 0 238 226 0 245 219 0 251 213 0 51 3 0 6 197 0 12 191 0 19 184 0 25 177 0 31 170 0 38 164 0 43 156 0 49 149 0 57 143 0 63 135 0 70 130 0 76 123 0 82 116 0 89 109 0 95 103 0 101 96 0 108 89 0 114 82 0 121 76 0 127 69 0 133 62 0 141 56 1 145 48 0 152 42 0 159 35 0 165 28 0 171 21 0 178 15 0 185 9 1 191 1 0 198 3 0 207 250 0 213 245 0 220 237 0 226 230 0 232 224 0 239 217 0 245 210 0 253 203 0 0 197 0 6 190 0 13 183 0 19 175 0 25 169 0 33 164 1 38 156 0 45 149 0 51 143 0 57 136 0 64 129 0 70 122 0 76 115 0 83 109 0 89 102 0 96 95 0 102 89 0 108 82 0 115 75 0 121 68 0 128 61 0 134 55 0 140 48 0 147 41 0 152 33 0 160 28 0 166 21 0 171 14 0 179 7 0 185 1 0 193 250 0 199 244 0 206 237 0 212 230 0 218 223 0 224 217 0 231 210 0 238 204 1 244 196 0 249 190 0 74 3 0 91 14 0 107 25 0 124 36 0 140 47 0 158 59 0 175 71 0 193 82 0 210 94 0 228 106 0 245 118 0 10 132 0 28 144 0 48 158 1 65 169 0 84 182 0 103 194 0 122 208 1 141 220 0 161 234 1 181 246 0 0 0 255 0 0 255 0 0 255 0 0 255 0 0 255 0 0 254 0 0 255 0 0 255 0 0 255 0 0 255 0 0 255 0 0 255 0 0 255 0 0 255 0 0 255 0 0 255 0 0 255 0 0 255 1 1 255 0 0 255 0 0 255 0 0 255 0 0 255 0 0 255 0 0 255 0 0 255 0 0 255 0 0 254 1 1 255 0 0 255 0 0 254 0 0 255 0 0 255 0 0 255 0 0 255 0 0 255 0 0 255 0 0 255 0 0 255 0 0 255 0 0 255 0 0 255 0 0 255 0 0 254 0 0 255 0 0 255 0 0 255 0 0 255 0 0 254 0 0 255 0 0 255 0 0 255 0 0 255 0 0 255 0 0 255 0 0 255 0 0 255 0 0 255 177 244 0 204 225 0 231 205 0 5 183 0 31 164 0 56 146 0 81 128 0 106 110 0 131 93 0 155 76 0 179 59 0 202 42 0 225 26 0 247 9 0 7 253 1 13 245 0 19 239 0 26 232 0 32 225 0 39 218 1 45 212 0 51 205 0 57 198 0 64 190 0 70 185 0 75 177 0 83 171 0 89 164 0 96 159 1 102 151 0 109 144 0 114 137 0 121 131 0 127 124 0 133 116 0 140 110 0 146 105 0 153 97 0 159 90 0 165 84 0 172 77 0 178 70 0 184 63 0 190 56 0 198 51 1 203 43 0 210 36 0 216 30 0 222 23 0 229 16 0 236 10 0 242 3 0 249 253 0 10 2 1 20 8 0 5 232 0 11 225 0 17 219 0 24 212 0 30 205 0 36 198 0 43 192 0 49 185 0 54 178 0 62 172 0 68 165 0 74 158 0 81 151 0 87 145 0 94 138 0 100 131 0 106 123 0 112 118 0 119 111 0 125 104 0 132 97 0 138 91 0 145 85 1 151 77 0 157 70 0 163 64 0 170 57 0 176 50 0 182 43 0 189 37 0 195 30 0 202 23 0 207 16 0 214 10 0 221 3 0 229 254 0 235 247 0 242 241 0 248 234 0 255 228 1 3 218 0 9 212 0 15 206 0 22 199 0 28 192 0 34 185 0 41 179 0 47 172 0 54 165 0 59 157 0 66 152 0 73 145 0 79 138 0 85 131 0 92 125 0 98 118 0 105 112 1 111 105 0 117 98 0 123 91 0 131 85 1 136 78 0 141 71 0 149 64 0 155 57 0 162 51 0 168 45 1 174 37 0 181 30 0 187 24 0 193 17 0 200 10 0 206 3 0 211 6 0 222 253 0 229 246 0 235 239 0 241 234 1 248 226 0 254 219 0 2 213 0 9 206 0 15 199 1 22 192 0 28 186 0 34 179 0 40 171 0 47 165 0 53 159 0 60 152 0 66 145 0 72 139 0 80 133 1 85 125 0 91 118 0 98 112 0 104 105 0 111 98 0 117 91 0 124 85 0 130 78 0 136 71 0 142 64 0 149 57 0 155 51 0 161 44 0 167 37 0 174 31 0 180 24 0 187 17 0 194 11 1 199 4 0 207 254 0 214 247 0 220 240 0 226 233 0 233 227 0 238 219 0 245 212 0 252 206 0 60 6 0 76 17 0 92 27 0 109 38 0 127 51 0 143 62 0 160 73 0 177 85 0 195 95 0 213 109 1 230 120 0 249 133 1 12 147 0 30 160 0 49 171 0 66 183 0 87 197 0 106 209 0 125 222 0 144 235 0 164 248 0 0 0 254 0 0 255 0 0 255 0 0 255 0 0 255 1 1 255 0 0 255 0 0 255 0 0 254 0 0 255 0 0 255 0 0 255 0 0 255 0 0 255 0 0 255 0 0 255 0 0 254 1 1 255 0 0 255 0 0 255 0 0 255 0 0 255 0 0 255 0 0 255 0 0 255 1 1 255 0 0 255 1 1 255 0 0 255 0 0 255 0 0 255 0 0 255 1 1 255 0 0 255 0 0 255 0 0 255 0 0 255 0 0 255 0 0 255 0 0 255 0 0 255 0 0 254 0 0 255 0 0 255 0 0 255 0 0 255 0 0 255 0 0 255 0 0 255 1 1 255 0 0 255 0 0 255 0 0 255 0 0 255 0 0 255 0 0 255 0 0 255 0 0 255 0 0 255 0 0 255 199 242 0 226 222 0 0 200 0 26 181 0 52 163 0 78 145 1 102 127 0 126 109 0 150 91 0 174 74 0 198 58 0 221 41 0 244 24 0 9 9 0 25 253 1 30 246 0 37 238 0 43 231 0 48 224 0 56 218 0 61 211 0 68 205 0 75 198 0 81 190 0 87 184 0 94 178 0 100 171 0 106 163 0 113 158 0 120 151 1 125 144 0 131 136 0 138 131 0 144 124 0 151 117 0 157 111 0 163 104 0 170 97 0 175 89 0 182 84 0 189 77 0 195 70 0 201 64 0 207 57 0 214 50 0 220 43 0 227 37 0 234 30 0 239 23 0 246 16 0 252 10 0 253 4 0 2 253 0 9 246 0 15 239 0 21 233 0 28 227 0 34 219 0 40 213 0 48 207 1 53 199 0 60 193 1 66 187 0 72 179 0 79 172 1 86 166 1 91 159 0 97 152 0 104 145 0 110 139 0 116 132 0 123 125 0 129 119 0 135 112 0 142 105 0 148 98 0 154 92 0 161 85 0 166 77 0 173 71 0 180 65 0 186 58 0 191 50 0 199 45 0 205 38 0 211 31 0 218 24 0 224 18 0 230 11 0 237 4 0 244 1 0 251 249 1 0 241 0 6 234 0 12 227 0 19 221 0 26 214 1 31 207 0 39 201 1 44 194 0 50 187 0 57 180 0 62 173 0 69 167 0 76 160 0 82 153 0 88 147 0 95 139 0 100 133 0 107 127 0 113 119 0 120 113 0 126 106 0 133 100 0 139 93 0 145 86 0 151 79 0 158 73 0 164 66 0 171 59 0 176 52 0 183 46 0 190 39 0 195 32 0 202 26 0 209 20 0 215 12 0 221 6 0 224 9 0 237 0 0 245 248 0 250 242 0 21 2 0 5 229 0 12 222 0 17 215 0 24 208 0 30 202 0 36 195 0 43 188 0 49 181 0 55 175 0 61 167 0 68 161 0 75 156 1 82 149 1 88 142 1 93 134 0 99 127 0 107 122 1 111 113 0 120 109 1 125 101 0 130 93 0 139 88 1 144 81 0 150 74 0 157 67 0 163 61 0 169 54 0 176 47 0 182 40 0 188 34 0 196 27 0 201 20 0 207 14 0 214 7 0 220 0 0 228 250 0 234 243 0 240 236 0 247 230 0 253 223 0 44 7 0 61 20 1 78 30 0 94 41 0 111 53 0 128 64 0 145 76 0 162 87 0 179 99 0 197 112 0 214 123 0 232 135 0 250 147 0 14 161 0 33 174 0 51 186 0 70 199 0 89 212 0 108 224 0 127 237 0 147 251 0 0 0 255 0 0 255 0 0 255 0 0 255 0 0 254 0 0 255 0 0 255 0 0 255 0 0 255 0 0 255 0 0 255 0 0 255 0 0 255 0 0 255 0 0 255 0 0 255 0 0 255 0 0 255 1 1 255 0 0 255 0 0 255 0 0 254 0 0 255 0 0 255 0 0 255 0 0 255 0 0 254 0 0 255 0 0 255 0 0 255 0 0 255 0 0 255 0 0 254 0 0 254 0 0 255 0 0 255 0 0 255 0 0 255 0 0 255 0 0 255 0 0 255 1 1 255 0 0 255 0 0 255 0 0 254 0 0 254 0 0 255 0 0 255 0 0 255 0 0 255 0 0 255 0 0 255 0 0 255 0 0 255 1 1 255 0 0 254 0 0 255 0 0 255 0 0 255 0 0 254 0 0 255 0 0 255 221 240 0 247 219 0 21 198 0 47 179 0 72 160 0 97 144 1 121 124 0 146 107 0 170 90 0 194 73 0 218 56 0 240 40 0 4 23 0 27 8 0 43 251 1 48 245 0 54 238 0 61 231 0 68 225 1 73 218 0 79 212 0 86 204 0 92 198 0 98 191 0 105 184 0 111 178 0 117 171 0 124 164 0 130 157 0 136 151 0 144 144 0 149 137 0 155 131 0 161 124 0 168 118 1 175 112 1 180 104 0 187 97 0 194 91 0 198 84 0 206 77 0 212 69 0 218 64 0 225 57 0 231 50 0 237 44 0 244 37 0 250 30 0 231 1 0 1 18 0 7 11 0 14 6 1 19 253 0 24 246 0 32 240 0 38 233 0 44 227 0 50 219 0 57 213 0 63 206 0 69 200 0 75 193 0 82 186 0 88 180 0 95 173 0 101 166 0 107 160 0 114 153 0 119 145 0 126 140 0 133 133 0 139 126 0 145 119 0 152 113 0 158 106 0 164 99 0 170 93 0 177 86 0 183 79 0 189 73 0 196 66 0 201 59 0 208 52 0 214 45 0 221 39 0 227 32 0 234 26 0 240 19 0 246 12 0 253 6 0 2 1 0 9 249 0 15 242 0 22 235 0 28 229 0 35 223 1 41 215 0 47 209 0 53 202 0 60 195 0 66 189 0 72 182 0 79 175 0 85 168 0 91 162 0 96 154 0 103 147 0 110 141 0 116 135 0 123 128 0 130 122 1 135 115 0 142 109 1 148 101 0 154 95 0 161 88 0 167 81 0 172 74 0 179 68 0 186 61 0 192 55 0 198 48 0 205 42 1 211 35 0 217 28 0 225 22 1 230 14 0 236 8 0 243 2 1 249 3 0 1 250 0 7 245 0 13 238 0 20 231 0 26 224 0 32 217 0 39 211 0 44 204 0 51 197 0 58 191 0 64 184 0 70 177 0 77 171 0 83 164 0 89 157 0 95 150 0 102 144 0 108 137 0 114 130 0 121 124 0 127 117 0 134 111 1 140 104 0 146 97 0 152 90 0 159 84 0 166 78 1 172 70 0 178 63 0 185 58 0 190 50 0 196 43 0 203 37 0 209 30 0 215 23 0 222 17 0 228 10 0 234 3 0 242 253 0 248 246 0 15 0 0 31 11 0 47 21 0 63 33 0 79 44 0 96 55 0 112 66 0 130 77 0 147 90 0 164 101 0 181 113 0 199 125 0 217 137 0 234 149 0 254 161 1 17 176 0 35 188 0 54 202 0 72 214 0 91 227 0 110 240 0 131 254 0 0 0 254 0 0 255 0 0 255 0 0 255 0 0 255 0 0 255 0 0 255 0 0 255 0 0 255 0 0 255 0 0 255 0 0 255 1 1 255 0 0 255 0 0 254 0 0 255 1 1 255 0 0 255 0 0 254 0 0 255 1 1 255 1 1 255 0 0 255 0 0 254 0 0 255 0 0 255 0 0 255 0 0 255 0 0 255 0 0 255 0 0 255 0 0 255 0 0 255 0 0 254 0 0 254 1 1 255 0 0 255 0 0 255 0 0 255 0 0 255 0 0 255 0 0 255 0 0 255 0 0 255 0 0 255 0 0 255 0 0 255 0 0 255 0 0 255 0 0 255 0 0 255 0 0 255 0 0 255 0 0 255 0 0 255 0 0 255 0 0 255 0 0 255 0 0 255 0 0 254 0 0 255 0 0 255 0 0 255 0 0 255 242 237 0 16 215 0 42 196 0 69 178 1 93 160 0 118 141 0 142 123 0 166 106 0 190 89 0 213 72 0 236 55 0 1 39 0 24 23 0 46 7 0 59 250 0 64 244 0 72 237 0 78 232 0 84 224 0 89 216 0 97 211 0 103 204 0 109 197 0 117 191 1 122 184 0 128 177 0 134 171 0 141 164 0 147 158 1 153 151 0 161 145 1 165 136 0 171 130 0 178 124 0 185 117 0 191 111 0 198 105 1 204 97 0 210 91 0 216 84 0 222 77 0 229 70 0 235 64 0 241 57 0 248 51 0 254 44 0 220 6 0 4 31 0 12 26 1 16 18 0 24 12 0 30 5 0 36 254 0 42 247 0 48 240 0 54 234 0 61 227 0 67 220 0 73 214 1 80 207 0 86 200 0 92 194 0 98 187 0 105 180 0 112 175 1 117 167 0 124 160 0 130 153 0 136 147 0 142 140 0 149 134 0 155 127 0 161 120 1 168 114 0 174 107 0 180 100 0 187 94 0 193 87 0 199 80 1 206 75 1 212 67 0 218 60 0 224 54 0 231 47 0 237 39 0 243 34 0 249 27 0 1 20 0 7 14 0 14 7 0 20 0 0 25 250 0 31 242 0 37 237 0 44 230 0 50 223 0 56 217 0 64 211 1 69 203 0 75 197 0 81 190 0 88 183 0 94 177 0 100 170 0 108 164 1 113 157 0 119 150 0 125 143 0 132 137 0 138 130 0 143 122 0 151 117 0 158 111 0 163 103 0 169 97 0 176 90 0 182 82 0 188 77 0 195 70 0 202 63 0 207 57 0 213 50 0 220 44 1 227 37 0 233 30 0 239 23 0 245 17 0 250 10 0 2 3 0 5 7 0 16 253 0 22 246 0 29 241 1 35 234 0 41 227 0 47 220 0 53 213 0 60 206 0 67 201 1 72 193 0 79 187 0 85 180 0 91 173 0 96 165 0 103 159 0 110 153 0 116 145 0 123 140 0 129 133 0 135 126 0 141 120 0 149 114 1 154 106 0 160 100 0 167 93 0 173 86 0 179 80 0 186 73 0 193 67 1 198 60 0 204 53 0 211 46 0 217 40 0 223 33 0 230 26 0 236 20 0 241 13 0 247 6 0 0 2 0 16 13 0 32 24 0 48 35 0 65 47 1 81 58 0 98 69 0 115 80 0 132 92 0 149 104 0 166 115 0 183 127 0 201 139 0 219 151 0 237 164 0 0 178 0 19 191 0 37 203 0 56 216 0 74 229 0 94 242 0 0 0 255 0 0 255 0 0 255 0 0 255 0 0 255 0 0 255 0 0 255 0 0 255 0 0 255 0 0 255 0 0 255 0 0 255 1 1 255 0 0 255 0 0 255 0 0 255 0 0 254 0 0 255 0 0 254 0 0 255 0 0 254 1 1 255 0 0 255 0 0 255 0 0 255 0 0 255 0 0 255 0 0 255 0 0 255 0 0 255 0 0 255 0 0 255 0 0 255 1 1 255 0 0 255 0 0 255 0 0 255 0 0 255 1 1 255 0 0 255 0 0 255 0 0 255 0 0 254 0 0 255 0 0 254 0 0 255 0 0 255 0 0 255 0 0 255 0 0 255 0 0 255 1 1 255 0 0 254 1 1 255 0 0 255 0 0 255 1 1 255 0 0 255 0 0 255 0 0 254 0 0 255 0 0 255 0 0 255 0 0 255 1 1 255 1 1 255 0 0 255 11 232 0 37 213 0 63 194 0 88 175 0 112 157 0 138 139 0 162 122 0 186 105 0 209 87 0 233 69 0 1 56 1 20 38 0 42 22 0 63 4 0 76 250 0 83 245 0 90 238 1 95 230 0 100 224 0 109 218 1 114 211 1 120 204 0 126 197 0 133 191 0 139 184 0 145 177 0 150 171 0 158 164 0 164 157 0 170 151 0 177 144 0 182 137 0 189 131 0 195 124 0 203 118 1 208 111 0 214 104 0 220 97 1 227 90 0 233 84 0 238 76 0 245 71 0 252 64 0 199 4 1 2 52 0 9 46 0 15 39 0 21 32 0 28 26 0 34 19 0 40 12 0 46 6 0 53 255 1 58 248 0 65 241 0 70 234 0 77 228 0 83 221 0 90 214 0 96 207 0 102 202 0 108 194 0 115 188 0 121 181 0 126 174 0 134 168 0 140 161 0 146 154 1 153 149 1 159 141 0 165 135 0 171 127 0 177 121 0 184 115 0 190 108 0 195 100 0 202 95 0 210 89 1 215 81 0 221 75 0 228 67 0 234 60 0 240 55 0 246 48 0 253 41 0 4 35 0 10 28 0 16 21 0 23 15 0 29 8 0 36 2 0 40 250 0 48 246 1 53 238 0 59 232 0 66 225 0 71 217 0 79 213 1 84 205 0 92 199 1 97 192 0 103 185 0 110 178 0 116 172 0 123 166 1 128 158 0 134 152 0 141 145 0 147 138 0 153 132 0 160 125 0 166 119 1 172 112 0 178 105 0 184 98 0 191 92 0 197 85 0 203 79 0 210 72 0 216 65 0 222 59 0 228 52 0 235 45 0 240 38 0 247 32 0 254 25 0 5 18 0 12 12 1 17 5 0 16 9 0 30 1 0 37 249 0 43 242 0 49 235 0 57 230 1 62 222 0 68 215 0 74 209 0 82 203 1 87 195 0 94 189 1 99 182 0 106 176 0 112 169 0 118 162 0 125 156 0 131 149 0 137 142 0 143 136 0 150 129 0 156 122 0 162 116 0 168 109 0 175 103 1 181 96 0 187 89 0 193 82 0 200 76 0 206 69 0 212 62 0 219 56 0 225 49 0 232 44 1 237 36 0 244 29 0 250 23 0 240 2 0 3 17 1 18 27 0 34 38 0 51 50 1 66 60 0 83 71 0 100 83 0 116 94 0 132 106 0 151 119 1 168 131 0 185 142 0 203 154 0 221 166 0 239 178 0 3 193 0 20 204 0 40 218 0 57 231 0 77 244 0 0 0 255 0 0 255 0 0 255 0 0 255 0 0 255 0 0 255 0 0 255 0 0 255 0 0 255 0 0 255 0 0 255 0 0 255 0 0 255 0 0 255 0 0 255 0 0 255 1 1 255 0 0 255 0 0 255 1 1 255 0 0 255 0 0 255 0 0 255 0 0 255 0 0 255 0 0 255 0 0 255 0 0 255 0 0 255 0 0 255 0 0 255 1 1 255 0 0 255 0 0 255 0 0 255 0 0 254 0 0 255 0 0 254 0 0 255 0 0 255 0 0 255 0 0 255 0 0 255 0 0 255 0 0 255 0 0 255 0 0 255 0 0 255 0 0 255 0 0 255 0 0 255 0 0 255 1 1 255 0 0 255 0 0 255 0 0 255 0 0 255 0 0 255 0 0 255 0 0 255 0 0 255 0 0 255 0 0 255 0 0 255 1 1 255 0 0 255 0 0 255 0 0 255 7 248 0 33 229 0 57 211 0 84 192 0 108 173 0 133 156 0 158 138 0 182 120 0 205 103 0 229 86 0 252 69 0 16 53 0 38 37 0 61 20 0 82 4 0 93 250 0 100 243 0 107 238 1 112 230 0 119 224 1 125 218 0 131 210 0 138 205 1 143 197 0 150 190 0 157 185 1 162 177 0 168 170 0 175 164 0 181 157 0 186 150 0 194 144 0 200 137 0 206 131 0 212 124 0 218 117 0 225 111 0 231 104 0 237 98 0 242 91 0 249 84 0 177 2 1 0 72 0 7 67 0 13 59 0 19 52 0 25 46 0 31 39 0 38 33 0 44 26 0 50 19 0 56 13 0 63 6 0 67 0 0 75 248 0 81 241 0 87 235 0 93 228 0 100 223 1 106 215 0 112 208 0 118 202 0 125 195 0 131 189 0 137 183 0 143 175 0 150 169 0 156 162 0 162 155 0 168 149 0 175 142 0 181 135 0 187 129 0 194 122 0 200 116 0 206 109 0 212 102 0 218 96 0 226 90 1 231 82 0 237 76 0 243 69 0 250 63 1 0 55 0 7 49 0 14 43 0 21 37 1 26 29 0 32 23 0 39 16 0 44 8 0 51 3 0 56 253 0 62 246 0 68 240 0 75 234 0 82 227 0 87 220 0 93 213 0 99 206 0 106 200 0 112 194 0 118 187 0 126 181 1 131 173 0 137 167 0 143 160 0 150 153 0 156 147 0 162 140 0 167 133 0 175 127 0 181 119 0 187 114 0 193 107 0 200 100 0 206 94 0 212 87 0 218 80 0 225 74 0 231 66 0 237 61 0 243 54 0 250 47 0 2 41 1 7 34 0 13 27 0 19 20 0 27 15 1 32 7 0 38 1 0 42 3 0 51 251 0 58 245 0 64 238 0 70 231 0 76 224 0 83 218 0 88 210 0 95 205 0 101 198 0 108 190 0 114 185 0 120 178 0 126 171 0 133 165 0 139 158 0 145 151 0 151 145 0 159 138 1 164 132 0 170 124 0 176 118 0 183 113 0 189 105 0 196 99 1 201 92 0 208 85 0 213 79 0 220 72 0 227 65 0 233 59 0 240 53 1 245 45 0 250 39 0 226 5 0 241 16 0 3 29 0 19 40 0 35 51 0 52 62 0 68 74 0 85 85 0 101 97 0 118 108 0 134 119 0 153 133 1 170 144 0 187 156 0 205 168 0 223 181 0 242 194 1 5 207 0 23 220 0 43 234 0 61 246 0 0 0 255 0 0 255 0 0 255 0 0 255 0 0 255 0 0 255 0 0 255 1 1 255 0 0 255 0 0 254 0 0 255 0 0 255 0 0 254 1 1 255 0 0 255 0 0 255 0 0 255 0 0 254 0 0 255 1 1 255 0 0 255 0 0 255 0 0 254 0 0 255 0 0 255 0 0 255 0 0 255 0 0 255 0 0 255 0 0 255 0 0 255 0 0 255 0 0 255 1 1 255 0 0 255 0 0 254 0 0 255 0 0 255 0 0 255 0 0 255 0 0 255 0 0 255 0 0 255 0 0 254 0 0 255 0 0 255 0 0 254 0 0 255 0 0 255 0 0 255 0 0 255 1 1 255 0 0 255 0 0 255 0 0 255 0 0 255 0 0 255 0 0 255 1 1 255 0 0 255 0 0 255 0 0 255 0 0 255 0 0 255 0 0 255 0 0 255 0 0 255 0 0 255 0 0 254 0 0 255 29 247 1 54 227 0 79 209 0 104 190 0 129 172 0 152 153 0 178 136 0 201 119 0 226 102 0 248 85 0 12 68 0 35 52 0 57 35 0 79 19 0 100 3 0 110 249 0 117 243 0 123 236 0 129 230 0 135 223 0 142 218 0 149 210 0 153 202 0 160 197 0 166 190 0 173 183 0 180 177 0 185 170 0 191 164 0 199 158 1 204 150 0 209 144 0 216 137 0 222 130 0 229 124 0 235 116 0 241 111 0 247 104 0 254 98 0 166 5 0 4 86 0 10 79 0 17 73 0 23 66 0 29 59 0 35 53 0 42 46 0 48 40 0 55 34 1 60 26 0 67 20 0 72 12 0 78 5 0 85 0 0 91 249 0 97 242 0 104 236 1 110 229 0 116 222 0 122 215 0 128 209 0 134 202 0 141 196 0 147 189 0 153 182 0 160 176 0 166 169 0 172 163 0 178 156 0 184 149 0 190 143 0 197 136 0 203 130 0 209 124 1 215 116 0 222 110 0 229 104 1 234 97 0 240 90 0 246 83 0 253 77 0 4 70 0 11 64 0 17 57 0 23 50 0 29 44 0 35 37 0 42 31 0 48 24 0 53 16 0 60 11 0 68 5 1 72 255 1 78 247 0 84 241 0 90 234 0 96 228 0 103 221 0 109 214 0 115 207 0 122 202 1 127 195 0 134 189 0 139 181 0 146 175 0 152 168 0 159 162 0 165 155 0 171 148 0 178 142 1 182 134 0 190 129 0 196 122 0 202 115 0 208 110 1 215 102 0 221 96 0 227 89 0 233 82 0 240 76 0 246 69 0 252 63 0 2 55 0 9 49 0 15 42 0 22 36 0 28 29 0 34 22 0 40 16 0 46 9 0 53 3 0 55 6 0 66 253 0 72 246 0 79 240 0 85 234 0 91 227 0 97 220 0 103 213 0 109 206 0 116 200 0 122 194 0 128 187 0 135 180 0 141 174 0 146 167 0 153 161 0 159 154 0 166 147 0 172 141 0 178 134 0 184 128 0 191 121 0 197 114 0 203 108 0 208 100 0 215 95 0 222 88 0 228 81 0 235 75 0 239 67 0 247 62 0 253 55 0 212 6 0 228 18 0 243 29 0 5 42 0 20 53 0 37 65 0 53 76 0 70 88 0 86 99 0 103 111 0 120 122 0 137 134 0 153 146 0 172 158 0 189 170 0 207 183 0 225 195 0 243 208 1 7 222 0 26 235 0 44 248 0 0 0 255 0 0 255 0 0 255 0 0 255 0 0 255 0 0 255 0 0 255 0 0 255 0 0 255 0 0 255 0 0 255 0 0 255 1 1 255 0 0 255 0 0 254 0 0 255 0 0 255 0 0 255 0 0 255 0 0 255 0 0 255 0 0 255 0 0 255 0 0 255 0 0 255 1 1 255 0 0 255 0 0 255 0 0 255 0 0 255 0 0 255 0 0 255 0 0 255 0 0 254 0 0 255 0 0 255 0 0 255 0 0 255 1 1 255 0 0 255 0 0 255 0 0 255 0 0 255 0 0 255 0 0 254 0 0 255 1 1 255 0 0 255 0 0 255 0 0 255 0 0 254 0 0 255 0 0 255 0 0 255 0 0 255 0 0 254 0 0 255 0 0 255 0 0 255 0 0 255 0 0 255 0 0 255 0 0 255 0 0 255 0 0 255 0 0 255 0 0 255 0 0 255 0 0 255 0 0 255 0 0 255 0 0 255 49 244 0 75 225 0 99 207 0 125 188 0 149 170 0 173 152 0 198 135 0 221 117 0 244 99 0 8 84 0 32 68 1 54 52 1 74 33 0 97 18 0 118 2 0 127 249 0 134 243 0 140 236 0 146 229 0 153 224 1 158 216 0 165 210 0 171 203 0 177 196 1 183 190 0 189 183 0 196 177 0 202 170 0 208 164 1 213 157 0 220 150 0 227 144 0 233 137 0 239 131 0 245 124 0 251 117 0 145 3 0 2 106 0 8 99 0 14 92 0 21 86 0 27 79 0 33 72 0 39 66 0 46 61 1 51 52 0 58 46 0 64 40 0 71 34 1 77 27 0 84 21 1 89 13 0 94 6 0 101 0 0 107 249 0 113 242 0 119 236 0 127 230 0 132 223 0 138 217 1 144 209 0 150 203 0 158 196 0 164 191 0 169 183 0 175 177 0 181 170 0 189 164 1 195 158 1 200 150 0 206 144 0 212 137 0 219 131 1 225 124 0 231 117 0 237 111 0 243 104 0 250 98 0 1 91 0 6 84 0 14 78 0 21 72 1 26 65 0 32 58 0 38 52 0 45 45 0 51 38 0 57 32 0 63 25 0 69 19 0 76 12 0 82 4 0 86 1 0 92 248 0 98 241 0 105 236 0 113 230 1 118 222 0 123 216 0 130 209 0 136 203 0 143 195 0 149 190 0 155 183 0 160 175 0 167 170 0 174 163 0 180 157 0 186 150 0 192 143 0 198 137 0 205 130 0 211 124 0 217 117 0 222 111 0 229 104 0 237 97 1 242 91 0 248 84 0 254 78 0 5 71 0 11 64 0 17 56 0 24 51 0 30 44 0 36 38 0 41 30 0 49 25 0 55 18 0 61 11 0 67 5 0 68 10 1 80 1 0 87 249 0 93 242 0 99 236 0 105 229 0 112 222 0 119 217 1 124 209 0 130 203 0 136 196 0 143 189 0 149 183 0 155 176 0 160 170 0 167 163 0 174 157 0 181 150 1 187 144 0 192 137 0 198 130 0 204 123 0 211 117 0 217 110 0 223 104 0 229 97 0 236 91 0 241 84 0 247 78 0 254 71 0 198 10 0 214 21 0 229 31 0 246 43 1 6 56 0 22 67 0 39 78 0 54 89 0 71 101 0 88 113 0 105 125 0 122 137 0 139 148 0 155 160 0 174 173 0 191 185 0 209 197 0 227 210 0 245 222 0 8 236 0 28 250 0 1 1 255 0 0 255 0 0 255 0 0 255 0 0 255 0 0 255 0 0 255 0 0 255 0 0 255 0 0 255 0 0 254 0 0 255 0 0 254 0 0 255 0 0 255 0 0 255 0 0 255 0 0 255 0 0 255 1 1 255 0 0 255 0 0 255 0 0 255 0 0 255 0 0 255 0 0 255 0 0 255 0 0 254 0 0 255 0 0 255 0 0 255 1 1 255 0 0 255 0 0 255 0 0 255 0 0 254 0 0 255 0 0 255 0 0 254 1 1 255 1 1 255 0 0 255 1 1 255 0 0 255 1 1 255 0 0 255 0 0 255 1 1 255 0 0 255 0 0 255 0 0 255 0 0 255 0 0 255 0 0 255 0 0 255 0 0 254 0 0 255 0 0 254 0 0 255 0 0 255 0 0 255 0 0 255 0 0 255 0 0 255 0 0 255 0 0 255 0 0 255 0 0 255 0 0 255 0 0 255 0 0 255 0 0 255 1 1 255 0 0 255 70 242 0 95 223 0 120 204 0 145 186 0 169 168 0 193 151 0 217 133 0 240 116 0 6 100 1 27 82 0 50 66 0 72 49 0 94 33 0 115 17 0 136 1 0 144 248 0 150 242 0 157 236 0 164 230 0 169 222 0 174 216 0 181 208 0 189 204 1 194 196 1 200 190 0 206 183 0 213 177 0 218 170 0 225 163 0 231 157 0 237 150 0 243 144 0 248 136 0 124 2 0 0 124 0 6 119 0 12 112 0 18 106 0 25 99 0 31 93 0 37 86 0 43 79 0 49 73 0 56 66 0 62 60 0 67 52 0 74 47 0 81 41 1 86 34 0 94 28 1 100 21 0 104 13 0 112 8 1 117 2 1 123 249 0 130 243 1 135 236 0 142 230 0 148 223 0 154 217 0 160 210 0 166 203 0 172 197 0 179 190 0 185 184 0 191 177 0 197 171 0 203 164 0 209 157 0 216 150 0 222 144 0 228 138 0 235 131 0 240 125 0 247 118 0 253 112 0 3 105 0 11 99 0 17 92 0 23 85 0 29 79 0 35 72 0 41 66 0 48 59 0 54 53 0 59 45 0 66 39 0 72 33 0 79 26 0 85 20 0 91 13 0 97 7 0 103 0 0 108 250 0 114 244 0 120 236 0 127 230 0 133 224 0 139 218 0 146 212 1 151 205 1 158 199 0 164 190 0 170 185 0 176 178 0 182 171 0 189 165 0 195 158 0 201 152 0 207 145 0 213 139 0 219 132 0 226 125 0 233 119 0 239 113 1 245 107 1 249 98 0 1 92 0 6 85 0 14 79 0 20 73 0 26 66 0 31 58 0 39 54 1 45 46 0 51 39 0 58 34 1 62 26 0 69 20 0 75 14 0 82 7 0 87 0 0 92 3 0 100 250 0 107 244 0 113 238 0 119 231 0 126 225 0 132 218 0 138 212 0 144 205 0 151 198 0 157 192 0 164 186 1 168 178 0 175 172 0 182 166 0 188 159 0 194 152 0 200 146 0 206 139 0 212 133 0 219 126 0 225 119 0 231 113 0 237 107 0 243 100 0 249 92 0 168 2 0 184 12 0 199 23 0 216 35 1 231 45 0 246 56 0 8 70 0 24 81 0 40 91 0 57 104 0 73 116 0 90 127 0 107 138 0 124 151 0 141 163 0 158 175 0 176 187 0 193 200 0 211 213 0 229 225 0 247 237 0 12 252 0 0 0 255 0 0 255 0 0 255 0 0 255 0 0 255 0 0 255 0 0 254 0 0 255 0 0 255 0 0 255 0 0 255 0 0 255 0 0 255 0 0 255 0 0 255 0 0 255 0 0 255 0 0 255 0 0 255 0 0 255 0 0 255 0 0 255 0 0 255 0 0 255 0 0 255 0 0 255 0 0 255 0 0 254 0 0 255 0 0 255 0 0 255 0 0 255 0 0 255 0 0 255 0 0 255 1 1 255 0 0 255 0 0 255 0 0 255 0 0 255 0 0 255 0 0 254 0 0 255 0 0 255 0 0 255 0 0 255 0 0 255 0 0 255 0 0 255 0 0 255 0 0 255 0 0 255 1 1 255 0 0 254 0 0 255 0 0 255 0 0 255 0 0 255 0 0 255 0 0 255 0 0 255 1 1 255 0 0 255 1 1 255 0 0 254 0 0 255 0 0 255 0 0 255 0 0 254 0 0 255 0 0 255 0 0 254 0 0 255 0 0 255 0 0 255 0 0 255 91 240 0 116 221 0 141 203 0 165 185 0 189 167 0 213 149 0 236 131 0 1 116 0 24 98 0 46 81 0 67 64 0 90 49 1 112 32 0 132 15 0 154 0 0 161 248 0 167 242 0 173 235 0 179 229 0 187 222 0 192 216 0 198 209 0 204 203 0 210 195 0 216 188 0 223 183 0 229 176 0 235 170 0 241 163 0 247 157 0 254 150 0 114 6 1 4 138 0 11 133 1 17 126 1 22 119 0 29 112 0 35 106 0 41 99 0 47 93 0 53 86 0 59 80 0 65 72 0 72 67 0 78 60 0 84 53 0 90 47 0 96 40 0 102 34 0 110 28 1 115 21 0 122 15 1 127 8 0 133 1 0 139 250 0 145 243 0 150 237 0 157 230 0 164 224 0 170 217 0 176 211 0 182 204 0 188 198 0 194 191 1 202 185 0 207 178 0 213 171 0 218 164 0 225 158 0 232 153 0 237 144 0 244 139 0 249 131 0 1 126 0 6 118 0 14 113 0 21 107 1 26 99 0 31 93 0 38 86 0 44 79 0 51 73 0 57 67 0 63 60 0 70 55 1 76 48 1 81 41 0 88 34 0 94 28 0 100 21 0 106 14 0 112 8 0 118 1 0 123 251 0 129 245 0 136 238 0 142 232 0 148 225 0 153 218 0 160 212 0 166 206 0 173 199 0 179 193 0 184 186 0 190 179 0 197 173 0 203 166 0 210 160 0 216 153 0 222 147 0 228 140 0 234 133 0 240 127 0 247 121 0 253 114 0 4 107 0 10 101 0 16 94 0 22 88 0 28 81 0 34 74 0 41 67 0 47 61 0 53 55 0 60 49 1 65 42 0 71 35 0 78 29 0 84 22 0 90 16 0 96 9 0 102 3 0 105 6 0 115 254 0 122 247 0 128 240 0 134 233 0 140 227 0 146 220 0 152 213 0 159 207 0 165 202 0 172 195 1 177 188 0 183 182 0 188 174 0 196 168 0 202 162 0 207 155 0 214 148 0 219 141 0 226 135 0 232 129 0 239 122 0 245 116 0 251 109 0 155 4 0 171 16 1 185 25 0 201 36 0 216 47 0 232 58 0 248 69 0 9 83 0 26 95 0 42 106 0 58 118 0 75 129 0 92 140 0 109 153 0 126 165 0 143 177 0 160 189 0 178 202 0 196 214 1 213 228 1 231 239 0 249 252 0 0 0 255 0 0 255 0 0 255 0 0 255 0 0 255 0 0 255 0 0 255 1 1 255 0 0 255 0 0 255 0 0 255 0 0 255 0 0 255 0 0 255 0 0 255 0 0 255 0 0 255 0 0 255 0 0 254 0 0 255 0 0 255 0 0 254 0 0 255 0 0 255 0 0 255 0 0 255 0 0 255 0 0 255 0 0 255 0 0 255 0 0 255 0 0 254 1 1 255 1 1 255 0 0 255 0 0 255 0 0 255 0 0 255 0 0 255 0 0 255 0 0 254 0 0 255 1 1 255 0 0 255 0 0 255 0 0 255 0 0 255 0 0 255 0 0 255 0 0 255 0 0 254 0 0 254 0 0 255 0 0 255 0 0 255 0 0 255 0 0 254 0 0 255 0 0 255 0 0 255 0 0 255 0 0 255 0 0 255 0 0 255 0 0 255 0 0 255 0 0 255 0 0 255 0 0 255 0 0 255 0 0 255 0 0 255 0 0 255 0 0 255 0 0 255 0 0 255 0 0 255 0 0 255 111 238 0 137 219 1 160 201 0 184 182 0 209 165 0 232 146 0 0 131 0 20 113 0 42 96 0 65 80 0 87 63 0 108 47 0 131 32 1 150 14 0 171 254 0 178 248 0 184 241 0 189 235 0 195 228 0 202 222 0 208 215 0 214 209 0 221 202 0 227 196 0 234 189 1 239 183 0 245 176 0 251 170 0 91 2 0 2 158 0 9 151 0 14 145 0 20 138 0 26 132 0 33 126 1 39 119 0 44 111 0 51 106 0 57 99 0 63 93 0 69 86 0 75 80 0 82 73 0 88 67 0 93 60 0 100 54 0 106 47 0 112 41 0 118 34 0 125 28 0 131 21 0 137 15 0 143 8 0 150 3 1 155 249 0 161 245 1 167 237 0 173 231 0 179 224 0 184 217 0 192 211 0 198 204 0 204 198 0 210 192 0 216 185 0 222 179 0 228 172 0 235 166 0 242 160 1 247 153 0 254 147 1 3 139 0 12 133 1 16 126 0 23 120 0 29 113 0 35 107 0 41 100 0 47 94 0 54 87 0 60 82 0 67 74 1 72 68 0 78 61 0 84 55 0 90 48 0 97 42 0 103 35 0 109 28 0 115 22 0 121 16 0 126 9 0 134 4 1 138 253 0 144 246 0 150 239 0 157 233 0 163 227 0 169 220 0 175 214 0 181 207 0 187 201 0 194 194 0 200 188 0 206 181 0 213 175 0 218 168 0 225 161 0 230 155 0 237 148 0 242 141 0 249 135 0 0 128 0 6 122 0 12 115 0 18 110 0 24 102 0 30 96 0 36 88 0 43 83 0 49 76 0 55 70 0 61 63 0 67 57 0 73 50 0 80 44 0 86 37 0 92 31 0 98 24 0 104 18 0 110 11 0 116 5 0 117 9 0 129 0 0 136 248 0 142 242 0 149 236 0 154 229 0 160 223 0 166 216 0 173 210 0 179 203 0 185 197 0 191 190 0 197 184 0 203 177 0 208 171 0 216 164 0 222 157 0 228 151 0 235 144 0 240 138 0 246 131 0 252 125 0 141 8 1 156 17 0 171 28 0 187 39 0 202 50 0 218 61 0 235 73 1 249 83 0 11 97 0 27 108 0 44 120 0 60 132 0 76 143 0 93 155 0 110 167 0 128 179 0 145 192 0 162 205 0 180 216 0 199 229 0 216 242 0 234 254 0 0 0 255 0 0 255 0 0 255 0 0 255 0 0 255 0 0 255 0 0 255 0 0 255 0 0 255 0 0 255 0 0 255 1 1 255 0 0 255 1 1 255 0 0 255 0 0 255 0 0 255 0 0 255 0 0 255 0 0 255 0 0 255 0 0 255 0 0 254 0 0 255 0 0 255 0 0 255 0 0 255 0 0 255 0 0 255 0 0 255 0 0 255 0 0 255 0 0 255 0 0 255 0 0 255 0 0 255 0 0 255 0 0 255 0 0 255 0 0 255 0 0 254 1 1 255 0 0 255 0 0 255 0 0 255 0 0 255 0 0 254 0 0 255 0 0 255 1 1 255 0 0 255 1 1 255 0 0 255 0 0 255 0 0 255 0 0 255 0 0 255 0 0 255 0 0 255 0 0 255 0 0 254 0 0 255 0 0 255 0 0 255 0 0 255 0 0 255 1 1 255 1 1 255 0 0 255 0 0 255 0 0 255 0 0 255 0 0 255 0 0 255 0 0 255 0 0 255 0 0 255 0 0 255 0 0 255 0 0 255 132 236 0 156 217 0 181 199 0 205 181 0 228 163 0 251 146 0 16 129 0 39 112 0 61 95 0 83 78 0 105 62 0 126 46 0 147 30 0 168 14 0 188 254 0 194 248 0 200 241 0 206 235 0 212 228 0 217 222 0 225 215 0 231 209 0 237 202 0 242 195 0 249 189 0 72 0 0 0 177 0 6 171 0 12 164 0 18 158 0 23 150 0 30 145 0 36 138 0 41 131 0 48 125 0 55 119 0 61 113 0 67 106 0 73 99 0 79 93 0 85 86 0 92 81 1 97 73 0 105 68 1 110 59 0 116 54 0 122 47 0 128 41 0 134 35 0 139 27 0 145 22 0 153 15 0 159 9 0 165 2 0 170 251 0 176 244 0 183 238 0 189 231 0 195 225 0 201 217 0 207 212 0 213 205 0 219 199 0 224 191 0 232 186 0 238 179 0 244 173 0 250 166 0 1 160 0 9 153 0 15 147 1 21 140 1 26 133 0 32 127 0 37 120 0 44 114 0 50 108 0 56 101 0 63 95 0 69 88 0 75 82 0 81 75 0 87 69 0 93 62 1 100 57 1 106 50 0 112 43 0 118 36 0 124 30 0 130 23 0 135 16 0 142 10 0 148 4 0 153 254 0 159 248 0 165 240 0 172 235 0 178 228 0 184 222 0 190 215 0 196 209 0 202 202 0 207 195 0 214 189 0 220 183 0 228 176 1 233 170 0 239 163 0 246 158 1 250 149 0 1 143 0 7 136 0 13 130 0 20 124 0 26 117 0 34 112 1 40 105 1 45 98 0 51 91 0 57 85 0 63 78 0 69 72 0 74 64 0 82 58 0 88 52 0 93 45 0 100 39 0 106 33 0 112 26 0 118 20 0 124 13 0 131 7 0 136 0 0 141 3 0 150 251 1 156 244 0 162 238 0 168 231 0 174 225 0 179 217 0 187 212 0 193 205 0 199 199 0 205 192 0 211 186 0 217 179 0 223 173 0 229 166 0 235 160 0 242 154 1 248 147 0 254 140 0 127 9 0 142 20 0 158 30 0 173 41 0 188 52 0 204 63 0 218 74 0 235 85 0 250 96 0 13 111 0 29 122 0 45 134 0 62 146 0 77 157 0 95 169 0 113 183 0 129 194 0 147 206 0 165 218 1 182 231 0 200 244 0 0 0 255 0 0 255 0 0 255 0 0 255 0 0 255 0 0 255 0 0 255 0 0 255 0 0 255 0 0 255 0 0 255 0 0 255 0 0 255 0 0 254 0 0 255 0 0 254 1 1 255 0 0 255 0 0 254 0 0 255 1 1 255 0 0 255 0 0 255 0 0 255 0 0 255 0 0 255 0 0 255 0 0 254 0 0 255 0 0 255 0 0 255 0 0 255 1 1 255 0 0 255 0 0 255 0 0 255 0 0 255 0 0 255 0 0 255 0 0 255 0 0 255 0 0 254 0 0 255 0 0 255 0 0 255 0 0 255 0 0 254 0 0 255 1 1 255 0 0 255 0 0 255 0 0 255 1 1 255 0 0 255 0 0 255 1 1 255 0 0 255 0 0 255 0 0 255 0 0 254 1 1 255 1 1 255 1 1 255 0 0 255 0 0 255 0 0 255 0 0 255 0 0 255 0 0 255 0 0 254 0 0 255 0 0 255 0 0 255 0 0 255 0 0 255 0 0 255 0 0 255 0 0 255 1 1 255 0 0 255 0 0 255 0 0 255 127 253 0 152 234 0 176 215 0 201 197 0 224 179 0 247 161 0 12 144 0 36 127 1 57 110 0 79 94 0 101 77 0 123 61 0 144 45 0 166 30 1 186 13 0 204 254 0 210 247 0 216 241 0 223 234 0 229 228 0 236 221 0 241 215 0 247 208 0 253 202 0 61 5 0 3 190 0 10 184 0 16 177 0 22 171 0 28 164 0 34 158 0 40 151 0 46 145 0 51 137 0 59 133 1 64 125 0 71 120 1 77 113 0 83 107 0 89 100 0 95 93 0 101 87 0 107 80 0 112 73 0 119 67 0 126 61 0 132 54 0 138 48 0 144 41 0 150 35 0 156 28 0 162 22 0 168 15 0 174 9 0 179 1 0 186 250 0 192 245 0 198 238 0 204 232 0 210 225 0 216 218 0 223 212 0 229 206 0 235 198 0 241 193 0 247 186 0 253 180 0 4 174 0 11 167 0 17 161 0 23 154 0 29 148 0 36 141 1 41 135 0 47 128 0 52 121 0 60 116 1 66 109 0 72 102 0 78 96 0 84 89 0 91 84 1 96 76 0 102 70 0 108 63 0 113 57 0 120 51 0 127 44 0 133 38 0 138 30 0 145 25 0 151 18 0 156 11 0 163 5 0 167 1 0 174 249 0 180 242 0 187 236 0 193 230 0 198 223 0 205 216 0 211 210 0 218 204 1 223 197 0 229 191 0 236 185 0 241 178 0 247 172 0 253 165 0 4 158 0 10 151 0 16 145 0 23 138 0 29 132 0 35 125 0 41 119 0 47 112 0 54 107 1 59 99 0 65 93 0 71 87 0 77 80 0 84 74 0 89 67 0 96 61 0 102 54 0 108 48 0 114 41 0 119 35 0 127 28 0 131 21 0 138 15 0 145 9 0 151 2 0 153 6 0 164 253 0 170 247 0 175 239 0 182 234 0 188 227 0 193 220 0 200 214 0 206 208 0 213 201 0 219 195 0 226 189 1 231 182 0 237 175 0 242 168 0 249 162 0 99 1 0 114 11 0 129 22 0 144 33 0 159 44 0 174 54 0 190 65 0 204 76 0 221 88 0 237 99 0 253 110 0 14 125 0 30 136 0 48 149 1 63 160 0 81 173 1 97 184 0 114 196 0 130 207 0 149 221 0 166 233 0 184 246 0 0 0 255 0 0 254 0 0 255 0 0 255 0 0 255 1 1 255 0 0 255 0 0 255 0 0 255 0 0 255 0 0 255 0 0 254 0 0 255 0 0 255 0 0 255 1 1 255 0 0 255 0 0 254 0 0 255 0 0 254 1 1 255 0 0 255 0 0 255 0 0 255 0 0 255 0 0 255 0 0 254 0 0 254 0 0 255 0 0 255 0 0 255 0 0 255 1 1 255 0 0 255 0 0 255 0 0 255 0 0 255 0 0 254 0 0 255 0 0 255 0 0 255 0 0 255 0 0 255 0 0 254 0 0 255 0 0 254 1 1 255 0 0 255 0 0 255 0 0 255 1 1 255 0 0 255 0 0 254 0 0 255 0 0 255 0 0 255 0 0 255 0 0 255 1 1 255 0 0 255 